;GCode generated by Numa's program v0.0
G0 X0.0 Y0.0 F6000
M106 S255
G1 X0.0 Y0.0 F200
M106 S0
M106 S255
G1 X0.0 Y140.0 F200
M106 S0
M106 S255
G1 X140.0 Y140.0 F200
M106 S0
M106 S255
G1 X140.0 Y0.0 F200
M106 S0
M106 S255
G1 X-0.0 Y0.0 F200
M106 S0
G0 X4.667 Y4.667 F6000
M106 S255
G1 X4.667 Y4.667 F200
M106 S0
M106 S255
G1 X4.667 Y135.333 F200
M106 S0
M106 S255
G1 X135.333 Y135.333 F200
M106 S0
M106 S255
G1 X135.333 Y4.667 F200
M106 S0
M106 S255
G1 X4.667 Y4.667 F200
M106 S0
G0 X4.667 Y21.0 F6000
M106 S255
G1 X4.667 Y21.0 F200
M106 S0
M106 S255
G1 X135.333 Y21.0 F200
M106 S0
G0 X4.667 Y37.333 F6000
M106 S255
G1 X4.667 Y37.333 F200
M106 S0
M106 S255
G1 X135.333 Y37.333 F200
M106 S0
G0 X4.667 Y53.667 F6000
M106 S255
G1 X4.667 Y53.667 F200
M106 S0
M106 S255
G1 X135.333 Y53.667 F200
M106 S0
G0 X4.667 Y86.333 F6000
M106 S255
G1 X4.667 Y86.333 F200
M106 S0
M106 S255
G1 X135.333 Y86.333 F200
M106 S0
G0 X4.667 Y70.0 F6000
M106 S255
G1 X4.667 Y70.0 F200
M106 S0
M106 S255
G1 X135.333 Y70.0 F200
M106 S0
G0 X4.667 Y119.0 F6000
M106 S255
G1 X4.667 Y119.0 F200
M106 S0
M106 S255
G1 X135.333 Y119.0 F200
M106 S0
G0 X4.667 Y102.667 F6000
M106 S255
G1 X4.667 Y102.667 F200
M106 S0
M106 S255
G1 X135.333 Y102.667 F200
M106 S0
G0 X21.0 Y135.333 F6000
M106 S255
G1 X21.0 Y135.333 F200
M106 S0
M106 S255
G1 X21.0 Y4.667 F200
M106 S0
G0 X53.667 Y135.333 F6000
M106 S255
G1 X53.667 Y135.333 F200
M106 S0
M106 S255
G1 X53.667 Y4.667 F200
M106 S0
G0 X86.333 Y135.333 F6000
M106 S255
G1 X86.333 Y135.333 F200
M106 S0
M106 S255
G1 X86.333 Y4.667 F200
M106 S0
G0 X70.0 Y135.333 F6000
M106 S255
G1 X70.0 Y135.333 F200
M106 S0
M106 S255
G1 X70.0 Y4.667 F200
M106 S0
G0 X119.0 Y135.333 F6000
M106 S255
G1 X119.0 Y135.333 F200
M106 S0
M106 S255
G1 X119.0 Y4.667 F200
M106 S0
G0 X102.667 Y135.333 F6000
M106 S255
G1 X102.667 Y135.333 F200
M106 S0
M106 S255
G1 X102.667 Y4.667 F200
M106 S0
G0 X10.828 Y0.474 F6000
M106 S255
G1 X10.828 Y0.474 F200
M106 S0
M106 S255
G1 X12.261 Y4.22 F200
M106 S0
M106 S255
G1 X13.673 Y0.474 F200
M106 S0
G0 X11.36 Y1.723 F6000
M106 S255
G1 X11.36 Y1.723 F200
M106 S0
M106 S255
G1 X13.141 Y1.723 F200
M106 S0
G0 X27.16 Y0.474 F6000
M106 S255
G1 X27.16 Y0.474 F200
M106 S0
M106 S255
G1 X27.16 Y4.22 F200
M106 S0
M106 S255
G1 X28.756 Y4.22 F200
M106 S0
M106 S255
G1 X29.289 Y4.035 F200
M106 S0
M106 S255
G1 X29.473 Y3.851 F200
M106 S0
M106 S255
G1 X29.636 Y3.503 F200
M106 S0
M106 S255
G1 X29.636 Y3.155 F200
M106 S0
M106 S255
G1 X29.473 Y2.787 F200
M106 S0
M106 S255
G1 X29.289 Y2.623 F200
M106 S0
M106 S255
G1 X28.756 Y2.439 F200
M106 S0
M106 S255
G1 X27.16 Y2.439 F200
M106 S0
G0 X28.756 Y2.439 F6000
M106 S255
G1 X28.756 Y2.439 F200
M106 S0
M106 S255
G1 X29.289 Y2.255 F200
M106 S0
M106 S255
G1 X29.473 Y2.091 F200
M106 S0
M106 S255
G1 X29.636 Y1.723 F200
M106 S0
M106 S255
G1 X29.636 Y1.191 F200
M106 S0
M106 S255
G1 X29.473 Y0.843 F200
M106 S0
M106 S255
G1 X29.289 Y0.658 F200
M106 S0
M106 S255
G1 X28.756 Y0.474 F200
M106 S0
M106 S255
G1 X27.16 Y0.474 F200
M106 S0
G0 X46.153 Y3.319 F6000
M106 S255
G1 X46.153 Y3.319 F200
M106 S0
M106 S255
G1 X45.969 Y3.687 F200
M106 S0
M106 S255
G1 X45.621 Y4.035 F200
M106 S0
M106 S255
G1 X45.252 Y4.22 F200
M106 S0
M106 S255
G1 X44.556 Y4.22 F200
M106 S0
M106 S255
G1 X44.188 Y4.035 F200
M106 S0
M106 S255
G1 X43.84 Y3.687 F200
M106 S0
M106 S255
G1 X43.656 Y3.319 F200
M106 S0
M106 S255
G1 X43.472 Y2.787 F200
M106 S0
M106 S255
G1 X43.472 Y1.907 F200
M106 S0
M106 S255
G1 X43.656 Y1.375 F200
M106 S0
M106 S255
G1 X43.84 Y1.027 F200
M106 S0
M106 S255
G1 X44.188 Y0.658 F200
M106 S0
M106 S255
G1 X44.556 Y0.474 F200
M106 S0
M106 S255
G1 X45.252 Y0.474 F200
M106 S0
M106 S255
G1 X45.621 Y0.658 F200
M106 S0
M106 S255
G1 X45.969 Y1.027 F200
M106 S0
M106 S255
G1 X46.153 Y1.375 F200
M106 S0
G0 X59.804 Y0.474 F6000
M106 S255
G1 X59.804 Y0.474 F200
M106 S0
M106 S255
G1 X59.804 Y4.22 F200
M106 S0
M106 S255
G1 X61.052 Y4.22 F200
M106 S0
M106 S255
G1 X61.584 Y4.035 F200
M106 S0
M106 S255
G1 X61.932 Y3.687 F200
M106 S0
M106 S255
G1 X62.116 Y3.319 F200
M106 S0
M106 S255
G1 X62.28 Y2.787 F200
M106 S0
M106 S255
G1 X62.28 Y1.907 F200
M106 S0
M106 S255
G1 X62.116 Y1.375 F200
M106 S0
M106 S255
G1 X61.932 Y1.027 F200
M106 S0
M106 S255
G1 X61.584 Y0.658 F200
M106 S0
M106 S255
G1 X61.052 Y0.474 F200
M106 S0
M106 S255
G1 X59.804 Y0.474 F200
M106 S0
M106 S255
G1 X59.804 Y0.474 F200
M106 S0
G0 X76.115 Y0.474 F6000
M106 S255
G1 X76.115 Y0.474 F200
M106 S0
M106 S255
G1 X76.115 Y4.22 F200
M106 S0
M106 S255
G1 X78.428 Y4.22 F200
M106 S0
G0 X76.115 Y2.439 F6000
M106 S255
G1 X76.115 Y2.439 F200
M106 S0
M106 S255
G1 X77.548 Y2.439 F200
M106 S0
G0 X92.447 Y0.474 F6000
M106 S255
G1 X92.447 Y0.474 F200
M106 S0
M106 S255
G1 X92.447 Y4.22 F200
M106 S0
M106 S255
G1 X94.76 Y4.22 F200
M106 S0
G0 X92.447 Y2.439 F6000
M106 S255
G1 X92.447 Y2.439 F200
M106 S0
M106 S255
G1 X93.86 Y2.439 F200
M106 S0
G0 X111.44 Y3.319 F6000
M106 S255
G1 X111.44 Y3.319 F200
M106 S0
M106 S255
G1 X111.256 Y3.687 F200
M106 S0
M106 S255
G1 X110.908 Y4.035 F200
M106 S0
M106 S255
G1 X110.54 Y4.22 F200
M106 S0
M106 S255
G1 X109.844 Y4.22 F200
M106 S0
M106 S255
G1 X109.475 Y4.035 F200
M106 S0
M106 S255
G1 X109.127 Y3.687 F200
M106 S0
M106 S255
G1 X108.943 Y3.319 F200
M106 S0
M106 S255
G1 X108.759 Y2.787 F200
M106 S0
M106 S255
G1 X108.759 Y1.907 F200
M106 S0
M106 S255
G1 X108.943 Y1.375 F200
M106 S0
M106 S255
G1 X109.127 Y1.027 F200
M106 S0
M106 S255
G1 X109.475 Y0.658 F200
M106 S0
M106 S255
G1 X109.844 Y0.474 F200
M106 S0
M106 S255
G1 X110.54 Y0.474 F200
M106 S0
M106 S255
G1 X110.908 Y0.658 F200
M106 S0
M106 S255
G1 X111.256 Y1.027 F200
M106 S0
M106 S255
G1 X111.44 Y1.375 F200
M106 S0
M106 S255
G1 X111.44 Y1.907 F200
M106 S0
M106 S255
G1 X110.54 Y1.907 F200
M106 S0
G0 X125.091 Y0.474 F6000
M106 S255
G1 X125.091 Y0.474 F200
M106 S0
M106 S255
G1 X125.091 Y4.22 F200
M106 S0
G0 X127.567 Y4.22 F6000
M106 S255
G1 X127.567 Y4.22 F200
M106 S0
M106 S255
G1 X127.567 Y0.474 F200
M106 S0
G0 X125.091 Y2.439 F6000
M106 S255
G1 X125.091 Y2.439 F200
M106 S0
M106 S255
G1 X127.567 Y2.439 F200
M106 S0
G0 X14.307 Y139.542 F6000
M106 S255
G1 X14.307 Y139.542 F200
M106 S0
M106 S255
G1 X12.895 Y135.797 F200
M106 S0
M106 S255
G1 X11.462 Y139.542 F200
M106 S0
G0 X13.775 Y138.294 F6000
M106 S255
G1 X13.775 Y138.294 F200
M106 S0
M106 S255
G1 X11.995 Y138.294 F200
M106 S0
G0 X30.742 Y139.542 F6000
M106 S255
G1 X30.742 Y139.542 F200
M106 S0
M106 S255
G1 X30.742 Y135.797 F200
M106 S0
M106 S255
G1 X29.145 Y135.797 F200
M106 S0
M106 S255
G1 X28.613 Y135.981 F200
M106 S0
M106 S255
G1 X28.429 Y136.165 F200
M106 S0
M106 S255
G1 X28.245 Y136.513 F200
M106 S0
M106 S255
G1 X28.245 Y136.882 F200
M106 S0
M106 S255
G1 X28.429 Y137.23 F200
M106 S0
M106 S255
G1 X28.613 Y137.414 F200
M106 S0
M106 S255
G1 X29.145 Y137.578 F200
M106 S0
M106 S255
G1 X30.742 Y137.578 F200
M106 S0
G0 X29.145 Y137.578 F6000
M106 S255
G1 X29.145 Y137.578 F200
M106 S0
M106 S255
G1 X28.613 Y137.762 F200
M106 S0
M106 S255
G1 X28.429 Y137.946 F200
M106 S0
M106 S255
G1 X28.245 Y138.294 F200
M106 S0
M106 S255
G1 X28.245 Y138.826 F200
M106 S0
M106 S255
G1 X28.429 Y139.194 F200
M106 S0
M106 S255
G1 X28.613 Y139.358 F200
M106 S0
M106 S255
G1 X29.145 Y139.542 F200
M106 S0
M106 S255
G1 X30.742 Y139.542 F200
M106 S0
G0 X44.638 Y136.698 F6000
M106 S255
G1 X44.638 Y136.698 F200
M106 S0
M106 S255
G1 X44.802 Y136.35 F200
M106 S0
M106 S255
G1 X45.17 Y135.981 F200
M106 S0
M106 S255
G1 X45.518 Y135.797 F200
M106 S0
M106 S255
G1 X46.235 Y135.797 F200
M106 S0
M106 S255
G1 X46.583 Y135.981 F200
M106 S0
M106 S255
G1 X46.951 Y136.35 F200
M106 S0
M106 S255
G1 X47.115 Y136.698 F200
M106 S0
M106 S255
G1 X47.299 Y137.23 F200
M106 S0
M106 S255
G1 X47.299 Y138.11 F200
M106 S0
M106 S255
G1 X47.115 Y138.642 F200
M106 S0
M106 S255
G1 X46.951 Y139.01 F200
M106 S0
M106 S255
G1 X46.583 Y139.358 F200
M106 S0
M106 S255
G1 X46.235 Y139.542 F200
M106 S0
M106 S255
G1 X45.518 Y139.542 F200
M106 S0
M106 S255
G1 X45.17 Y139.358 F200
M106 S0
M106 S255
G1 X44.802 Y139.01 F200
M106 S0
M106 S255
G1 X44.638 Y138.642 F200
M106 S0
G0 X63.692 Y139.542 F6000
M106 S255
G1 X63.692 Y139.542 F200
M106 S0
M106 S255
G1 X63.692 Y135.797 F200
M106 S0
M106 S255
G1 X62.444 Y135.797 F200
M106 S0
M106 S255
G1 X61.912 Y135.981 F200
M106 S0
M106 S255
G1 X61.564 Y136.35 F200
M106 S0
M106 S255
G1 X61.38 Y136.698 F200
M106 S0
M106 S255
G1 X61.195 Y137.23 F200
M106 S0
M106 S255
G1 X61.195 Y138.11 F200
M106 S0
M106 S255
G1 X61.38 Y138.642 F200
M106 S0
M106 S255
G1 X61.564 Y139.01 F200
M106 S0
M106 S255
G1 X61.912 Y139.358 F200
M106 S0
M106 S255
G1 X62.444 Y139.542 F200
M106 S0
M106 S255
G1 X63.692 Y139.542 F200
M106 S0
M106 S255
G1 X63.692 Y139.542 F200
M106 S0
G0 X79.738 Y139.542 F6000
M106 S255
G1 X79.738 Y139.542 F200
M106 S0
M106 S255
G1 X79.738 Y135.797 F200
M106 S0
M106 S255
G1 X77.425 Y135.797 F200
M106 S0
G0 X79.738 Y137.578 F6000
M106 S255
G1 X79.738 Y137.578 F200
M106 S0
M106 S255
G1 X78.305 Y137.578 F200
M106 S0
G0 X79.738 Y139.542 F6000
M106 S255
G1 X79.738 Y139.542 F200
M106 S0
M106 S255
G1 X77.425 Y139.542 F200
M106 S0
G0 X95.824 Y139.542 F6000
M106 S255
G1 X95.824 Y139.542 F200
M106 S0
M106 S255
G1 X95.824 Y135.797 F200
M106 S0
M106 S255
G1 X93.512 Y135.797 F200
M106 S0
G0 X95.824 Y137.578 F6000
M106 S255
G1 X95.824 Y137.578 F200
M106 S0
M106 S255
G1 X94.392 Y137.578 F200
M106 S0
G0 X110.11 Y136.698 F6000
M106 S255
G1 X110.11 Y136.698 F200
M106 S0
M106 S255
G1 X110.294 Y136.35 F200
M106 S0
M106 S255
G1 X110.642 Y135.981 F200
M106 S0
M106 S255
G1 X110.99 Y135.797 F200
M106 S0
M106 S255
G1 X111.706 Y135.797 F200
M106 S0
M106 S255
G1 X112.054 Y135.981 F200
M106 S0
M106 S255
G1 X112.422 Y136.35 F200
M106 S0
M106 S255
G1 X112.586 Y136.698 F200
M106 S0
M106 S255
G1 X112.77 Y137.23 F200
M106 S0
M106 S255
G1 X112.77 Y138.11 F200
M106 S0
M106 S255
G1 X112.586 Y138.642 F200
M106 S0
M106 S255
G1 X112.422 Y139.01 F200
M106 S0
M106 S255
G1 X112.054 Y139.358 F200
M106 S0
M106 S255
G1 X111.706 Y139.542 F200
M106 S0
M106 S255
G1 X110.99 Y139.542 F200
M106 S0
M106 S255
G1 X110.642 Y139.358 F200
M106 S0
M106 S255
G1 X110.294 Y139.01 F200
M106 S0
M106 S255
G1 X110.11 Y138.642 F200
M106 S0
M106 S255
G1 X110.11 Y138.11 F200
M106 S0
M106 S255
G1 X110.99 Y138.11 F200
M106 S0
G0 X128.857 Y139.542 F6000
M106 S255
G1 X128.857 Y139.542 F200
M106 S0
M106 S255
G1 X128.857 Y135.797 F200
M106 S0
G0 X126.36 Y135.797 F6000
M106 S255
G1 X126.36 Y135.797 F200
M106 S0
M106 S255
G1 X126.36 Y139.542 F200
M106 S0
G0 X128.857 Y137.578 F6000
M106 S255
G1 X128.857 Y137.578 F200
M106 S0
M106 S255
G1 X126.36 Y137.578 F200
M106 S0
G0 X1.045 Y14.248 F6000
M106 S255
G1 X1.045 Y14.248 F200
M106 S0
M106 S255
G1 X1.393 Y14.412 F200
M106 S0
M106 S255
G1 X1.925 Y14.944 F200
M106 S0
M106 S255
G1 X1.925 Y11.219 F200
M106 S0
G0 X1.229 Y30.396 F6000
M106 S255
G1 X1.229 Y30.396 F200
M106 S0
M106 S255
G1 X1.229 Y30.58 F200
M106 S0
M106 S255
G1 X1.393 Y30.928 F200
M106 S0
M106 S255
G1 X1.577 Y31.112 F200
M106 S0
M106 S255
G1 X1.925 Y31.276 F200
M106 S0
M106 S255
G1 X2.641 Y31.276 F200
M106 S0
M106 S255
G1 X2.989 Y31.112 F200
M106 S0
M106 S255
G1 X3.174 Y30.928 F200
M106 S0
M106 S255
G1 X3.358 Y30.58 F200
M106 S0
M106 S255
G1 X3.358 Y30.212 F200
M106 S0
M106 S255
G1 X3.174 Y29.864 F200
M106 S0
M106 S255
G1 X2.826 Y29.332 F200
M106 S0
M106 S255
G1 X1.045 Y27.551 F200
M106 S0
M106 S255
G1 X3.522 Y27.551 F200
M106 S0
G0 X1.393 Y47.608 F6000
M106 S255
G1 X1.393 Y47.608 F200
M106 S0
M106 S255
G1 X3.358 Y47.608 F200
M106 S0
M106 S255
G1 X2.294 Y46.196 F200
M106 S0
M106 S255
G1 X2.826 Y46.196 F200
M106 S0
M106 S255
G1 X3.174 Y46.012 F200
M106 S0
M106 S255
G1 X3.358 Y45.827 F200
M106 S0
M106 S255
G1 X3.522 Y45.295 F200
M106 S0
M106 S255
G1 X3.522 Y44.947 F200
M106 S0
M106 S255
G1 X3.358 Y44.415 F200
M106 S0
M106 S255
G1 X2.989 Y44.067 F200
M106 S0
M106 S255
G1 X2.457 Y43.883 F200
M106 S0
M106 S255
G1 X1.925 Y43.883 F200
M106 S0
M106 S255
G1 X1.393 Y44.067 F200
M106 S0
M106 S255
G1 X1.229 Y44.231 F200
M106 S0
M106 S255
G1 X1.045 Y44.599 F200
M106 S0
G0 X2.826 Y63.94 F6000
M106 S255
G1 X2.826 Y63.94 F200
M106 S0
M106 S255
G1 X1.045 Y61.464 F200
M106 S0
M106 S255
G1 X3.706 Y61.464 F200
M106 S0
G0 X2.826 Y63.94 F6000
M106 S255
G1 X2.826 Y63.94 F200
M106 S0
M106 S255
G1 X2.826 Y60.215 F200
M106 S0
G0 X3.174 Y80.272 F6000
M106 S255
G1 X3.174 Y80.272 F200
M106 S0
M106 S255
G1 X1.393 Y80.272 F200
M106 S0
M106 S255
G1 X1.229 Y78.676 F200
M106 S0
M106 S255
G1 X1.393 Y78.86 F200
M106 S0
M106 S255
G1 X1.925 Y79.024 F200
M106 S0
M106 S255
G1 X2.457 Y79.024 F200
M106 S0
M106 S255
G1 X2.989 Y78.86 F200
M106 S0
M106 S255
G1 X3.358 Y78.492 F200
M106 S0
M106 S255
G1 X3.522 Y77.959 F200
M106 S0
M106 S255
G1 X3.522 Y77.612 F200
M106 S0
M106 S255
G1 X3.358 Y77.079 F200
M106 S0
M106 S255
G1 X2.989 Y76.731 F200
M106 S0
M106 S255
G1 X2.457 Y76.547 F200
M106 S0
M106 S255
G1 X1.925 Y76.547 F200
M106 S0
M106 S255
G1 X1.393 Y76.731 F200
M106 S0
M106 S255
G1 X1.229 Y76.895 F200
M106 S0
M106 S255
G1 X1.045 Y77.264 F200
M106 S0
G0 X3.174 Y96.072 F6000
M106 S255
G1 X3.174 Y96.072 F200
M106 S0
M106 S255
G1 X2.989 Y96.44 F200
M106 S0
M106 S255
G1 X2.457 Y96.604 F200
M106 S0
M106 S255
G1 X2.109 Y96.604 F200
M106 S0
M106 S255
G1 X1.577 Y96.44 F200
M106 S0
M106 S255
G1 X1.229 Y95.908 F200
M106 S0
M106 S255
G1 X1.045 Y95.008 F200
M106 S0
M106 S255
G1 X1.045 Y94.128 F200
M106 S0
M106 S255
G1 X1.229 Y93.411 F200
M106 S0
M106 S255
G1 X1.577 Y93.064 F200
M106 S0
M106 S255
G1 X2.109 Y92.879 F200
M106 S0
M106 S255
G1 X2.294 Y92.879 F200
M106 S0
M106 S255
G1 X2.826 Y93.064 F200
M106 S0
M106 S255
G1 X3.174 Y93.411 F200
M106 S0
M106 S255
G1 X3.358 Y93.944 F200
M106 S0
M106 S255
G1 X3.358 Y94.128 F200
M106 S0
M106 S255
G1 X3.174 Y94.66 F200
M106 S0
M106 S255
G1 X2.826 Y95.008 F200
M106 S0
M106 S255
G1 X2.294 Y95.192 F200
M106 S0
M106 S255
G1 X2.109 Y95.192 F200
M106 S0
M106 S255
G1 X1.577 Y95.008 F200
M106 S0
M106 S255
G1 X1.229 Y94.66 F200
M106 S0
M106 S255
G1 X1.045 Y94.128 F200
M106 S0
G0 X1.045 Y112.936 F6000
M106 S255
G1 X1.045 Y112.936 F200
M106 S0
M106 S255
G1 X3.522 Y112.936 F200
M106 S0
M106 S255
G1 X1.761 Y109.211 F200
M106 S0
G0 X1.925 Y129.268 F6000
M106 S255
G1 X1.925 Y129.268 F200
M106 S0
M106 S255
G1 X1.393 Y129.105 F200
M106 S0
M106 S255
G1 X1.229 Y128.736 F200
M106 S0
M106 S255
G1 X1.229 Y128.388 F200
M106 S0
M106 S255
G1 X1.393 Y128.02 F200
M106 S0
M106 S255
G1 X1.761 Y127.856 F200
M106 S0
M106 S255
G1 X2.457 Y127.672 F200
M106 S0
M106 S255
G1 X2.989 Y127.488 F200
M106 S0
M106 S255
G1 X3.358 Y127.14 F200
M106 S0
M106 S255
G1 X3.522 Y126.792 F200
M106 S0
M106 S255
G1 X3.522 Y126.26 F200
M106 S0
M106 S255
G1 X3.358 Y125.891 F200
M106 S0
M106 S255
G1 X3.174 Y125.728 F200
M106 S0
M106 S255
G1 X2.641 Y125.543 F200
M106 S0
M106 S255
G1 X1.925 Y125.543 F200
M106 S0
M106 S255
G1 X1.393 Y125.728 F200
M106 S0
M106 S255
G1 X1.229 Y125.891 F200
M106 S0
M106 S255
G1 X1.045 Y126.26 F200
M106 S0
M106 S255
G1 X1.045 Y126.792 F200
M106 S0
M106 S255
G1 X1.229 Y127.14 F200
M106 S0
M106 S255
G1 X1.577 Y127.488 F200
M106 S0
M106 S255
G1 X2.109 Y127.672 F200
M106 S0
M106 S255
G1 X2.826 Y127.856 F200
M106 S0
M106 S255
G1 X3.174 Y128.02 F200
M106 S0
M106 S255
G1 X3.358 Y128.388 F200
M106 S0
M106 S255
G1 X3.358 Y128.736 F200
M106 S0
M106 S255
G1 X3.174 Y129.105 F200
M106 S0
M106 S255
G1 X2.641 Y129.268 F200
M106 S0
M106 S255
G1 X1.925 Y129.268 F200
M106 S0
M106 S255
G1 X1.925 Y129.268 F200
M106 S0
G0 X138.857 Y11.935 F6000
M106 S255
G1 X138.857 Y11.935 F200
M106 S0
M106 S255
G1 X138.488 Y11.751 F200
M106 S0
M106 S255
G1 X137.956 Y11.219 F200
M106 S0
M106 S255
G1 X137.956 Y14.944 F200
M106 S0
G0 X138.672 Y28.431 F6000
M106 S255
G1 X138.672 Y28.431 F200
M106 S0
M106 S255
G1 X138.672 Y28.267 F200
M106 S0
M106 S255
G1 X138.488 Y27.899 F200
M106 S0
M106 S255
G1 X138.304 Y27.735 F200
M106 S0
M106 S255
G1 X137.956 Y27.551 F200
M106 S0
M106 S255
G1 X137.24 Y27.551 F200
M106 S0
M106 S255
G1 X136.892 Y27.735 F200
M106 S0
M106 S255
G1 X136.708 Y27.899 F200
M106 S0
M106 S255
G1 X136.544 Y28.267 F200
M106 S0
M106 S255
G1 X136.544 Y28.615 F200
M106 S0
M106 S255
G1 X136.708 Y28.963 F200
M106 S0
M106 S255
G1 X137.076 Y29.495 F200
M106 S0
M106 S255
G1 X138.857 Y31.276 F200
M106 S0
M106 S255
G1 X136.36 Y31.276 F200
M106 S0
G0 X138.488 Y43.883 F6000
M106 S255
G1 X138.488 Y43.883 F200
M106 S0
M106 S255
G1 X136.544 Y43.883 F200
M106 S0
M106 S255
G1 X137.608 Y45.295 F200
M106 S0
M106 S255
G1 X137.076 Y45.295 F200
M106 S0
M106 S255
G1 X136.708 Y45.479 F200
M106 S0
M106 S255
G1 X136.544 Y45.664 F200
M106 S0
M106 S255
G1 X136.36 Y46.196 F200
M106 S0
M106 S255
G1 X136.36 Y46.544 F200
M106 S0
M106 S255
G1 X136.544 Y47.076 F200
M106 S0
M106 S255
G1 X136.892 Y47.444 F200
M106 S0
M106 S255
G1 X137.424 Y47.608 F200
M106 S0
M106 S255
G1 X137.956 Y47.608 F200
M106 S0
M106 S255
G1 X138.488 Y47.444 F200
M106 S0
M106 S255
G1 X138.672 Y47.26 F200
M106 S0
M106 S255
G1 X138.857 Y46.912 F200
M106 S0
G0 X137.076 Y60.215 F6000
M106 S255
G1 X137.076 Y60.215 F200
M106 S0
M106 S255
G1 X138.857 Y62.692 F200
M106 S0
M106 S255
G1 X136.176 Y62.692 F200
M106 S0
G0 X137.076 Y60.215 F6000
M106 S255
G1 X137.076 Y60.215 F200
M106 S0
M106 S255
G1 X137.076 Y63.94 F200
M106 S0
G0 X136.708 Y76.547 F6000
M106 S255
G1 X136.708 Y76.547 F200
M106 S0
M106 S255
G1 X138.488 Y76.547 F200
M106 S0
M106 S255
G1 X138.672 Y78.144 F200
M106 S0
M106 S255
G1 X138.488 Y77.959 F200
M106 S0
M106 S255
G1 X137.956 Y77.796 F200
M106 S0
M106 S255
G1 X137.424 Y77.796 F200
M106 S0
M106 S255
G1 X136.892 Y77.959 F200
M106 S0
M106 S255
G1 X136.544 Y78.328 F200
M106 S0
M106 S255
G1 X136.36 Y78.86 F200
M106 S0
M106 S255
G1 X136.36 Y79.208 F200
M106 S0
M106 S255
G1 X136.544 Y79.74 F200
M106 S0
M106 S255
G1 X136.892 Y80.108 F200
M106 S0
M106 S255
G1 X137.424 Y80.272 F200
M106 S0
M106 S255
G1 X137.956 Y80.272 F200
M106 S0
M106 S255
G1 X138.488 Y80.108 F200
M106 S0
M106 S255
G1 X138.672 Y79.924 F200
M106 S0
M106 S255
G1 X138.857 Y79.576 F200
M106 S0
G0 X136.708 Y93.411 F6000
M106 S255
G1 X136.708 Y93.411 F200
M106 S0
M106 S255
G1 X136.892 Y93.064 F200
M106 S0
M106 S255
G1 X137.424 Y92.879 F200
M106 S0
M106 S255
G1 X137.772 Y92.879 F200
M106 S0
M106 S255
G1 X138.304 Y93.064 F200
M106 S0
M106 S255
G1 X138.672 Y93.596 F200
M106 S0
M106 S255
G1 X138.857 Y94.476 F200
M106 S0
M106 S255
G1 X138.857 Y95.356 F200
M106 S0
M106 S255
G1 X138.672 Y96.072 F200
M106 S0
M106 S255
G1 X138.304 Y96.44 F200
M106 S0
M106 S255
G1 X137.772 Y96.604 F200
M106 S0
M106 S255
G1 X137.608 Y96.604 F200
M106 S0
M106 S255
G1 X137.076 Y96.44 F200
M106 S0
M106 S255
G1 X136.708 Y96.072 F200
M106 S0
M106 S255
G1 X136.544 Y95.54 F200
M106 S0
M106 S255
G1 X136.544 Y95.356 F200
M106 S0
M106 S255
G1 X136.708 Y94.824 F200
M106 S0
M106 S255
G1 X137.076 Y94.476 F200
M106 S0
M106 S255
G1 X137.608 Y94.292 F200
M106 S0
M106 S255
G1 X137.772 Y94.292 F200
M106 S0
M106 S255
G1 X138.304 Y94.476 F200
M106 S0
M106 S255
G1 X138.672 Y94.824 F200
M106 S0
M106 S255
G1 X138.857 Y95.356 F200
M106 S0
G0 X138.857 Y109.211 F6000
M106 S255
G1 X138.857 Y109.211 F200
M106 S0
M106 S255
G1 X136.36 Y109.211 F200
M106 S0
M106 S255
G1 X138.14 Y112.936 F200
M106 S0
G0 X137.956 Y125.543 F6000
M106 S255
G1 X137.956 Y125.543 F200
M106 S0
M106 S255
G1 X138.488 Y125.728 F200
M106 S0
M106 S255
G1 X138.672 Y126.076 F200
M106 S0
M106 S255
G1 X138.672 Y126.424 F200
M106 S0
M106 S255
G1 X138.488 Y126.792 F200
M106 S0
M106 S255
G1 X138.14 Y126.956 F200
M106 S0
M106 S255
G1 X137.424 Y127.14 F200
M106 S0
M106 S255
G1 X136.892 Y127.324 F200
M106 S0
M106 S255
G1 X136.544 Y127.672 F200
M106 S0
M106 S255
G1 X136.36 Y128.02 F200
M106 S0
M106 S255
G1 X136.36 Y128.572 F200
M106 S0
M106 S255
G1 X136.544 Y128.92 F200
M106 S0
M106 S255
G1 X136.708 Y129.105 F200
M106 S0
M106 S255
G1 X137.24 Y129.268 F200
M106 S0
M106 S255
G1 X137.956 Y129.268 F200
M106 S0
M106 S255
G1 X138.488 Y129.105 F200
M106 S0
M106 S255
G1 X138.672 Y128.92 F200
M106 S0
M106 S255
G1 X138.857 Y128.572 F200
M106 S0
M106 S255
G1 X138.857 Y128.02 F200
M106 S0
M106 S255
G1 X138.672 Y127.672 F200
M106 S0
M106 S255
G1 X138.304 Y127.324 F200
M106 S0
M106 S255
G1 X137.772 Y127.14 F200
M106 S0
M106 S255
G1 X137.076 Y126.956 F200
M106 S0
M106 S255
G1 X136.708 Y126.792 F200
M106 S0
M106 S255
G1 X136.544 Y126.424 F200
M106 S0
M106 S255
G1 X136.544 Y126.076 F200
M106 S0
M106 S255
G1 X136.708 Y125.728 F200
M106 S0
M106 S255
G1 X137.24 Y125.543 F200
M106 S0
M106 S255
G1 X137.956 Y125.543 F200
M106 S0
M106 S255
G1 X137.956 Y125.543 F200
M106 S0
G0 X135.333 Y132.877 F6000
M106 S255
G1 X135.333 Y132.877 F200
M106 S0
M106 S255
G1 X132.877 Y135.333 F200
M106 S0
G0 X135.333 Y128.686 F6000
M106 S255
G1 X135.333 Y128.686 F200
M106 S0
M106 S255
G1 X128.686 Y135.333 F200
M106 S0
G0 X135.333 Y124.495 F6000
M106 S255
G1 X135.333 Y124.495 F200
M106 S0
M106 S255
G1 X124.495 Y135.333 F200
M106 S0
G0 X135.333 Y120.305 F6000
M106 S255
G1 X135.333 Y120.305 F200
M106 S0
M106 S255
G1 X120.305 Y135.333 F200
M106 S0
G0 X132.447 Y119.0 F6000
M106 S255
G1 X132.447 Y119.0 F200
M106 S0
M106 S255
G1 X119.0 Y132.447 F200
M106 S0
G0 X128.256 Y119.0 F6000
M106 S255
G1 X128.256 Y119.0 F200
M106 S0
M106 S255
G1 X119.0 Y128.256 F200
M106 S0
G0 X124.066 Y119.0 F6000
M106 S255
G1 X124.066 Y119.0 F200
M106 S0
M106 S255
G1 X119.0 Y124.066 F200
M106 S0
G0 X119.875 Y119.0 F6000
M106 S255
G1 X119.875 Y119.0 F200
M106 S0
M106 S255
G1 X119.0 Y119.875 F200
M106 S0
G0 X119.0 Y115.684 F6000
M106 S255
G1 X119.0 Y115.684 F200
M106 S0
M106 S255
G1 X115.684 Y119.0 F200
M106 S0
G0 X102.667 Y132.017 F6000
M106 S255
G1 X102.667 Y132.017 F200
M106 S0
M106 S255
G1 X99.351 Y135.333 F200
M106 S0
G0 X135.333 Y99.351 F6000
M106 S255
G1 X135.333 Y99.351 F200
M106 S0
M106 S255
G1 X132.017 Y102.667 F200
M106 S0
G0 X119.0 Y111.493 F6000
M106 S255
G1 X119.0 Y111.493 F200
M106 S0
M106 S255
G1 X111.493 Y119.0 F200
M106 S0
G0 X102.667 Y127.827 F6000
M106 S255
G1 X102.667 Y127.827 F200
M106 S0
M106 S255
G1 X95.16 Y135.333 F200
M106 S0
G0 X135.333 Y95.16 F6000
M106 S255
G1 X135.333 Y95.16 F200
M106 S0
M106 S255
G1 X127.827 Y102.667 F200
M106 S0
G0 X119.0 Y107.302 F6000
M106 S255
G1 X119.0 Y107.302 F200
M106 S0
M106 S255
G1 X107.302 Y119.0 F200
M106 S0
G0 X102.667 Y123.636 F6000
M106 S255
G1 X102.667 Y123.636 F200
M106 S0
M106 S255
G1 X90.969 Y135.333 F200
M106 S0
G0 X135.333 Y90.969 F6000
M106 S255
G1 X135.333 Y90.969 F200
M106 S0
M106 S255
G1 X123.636 Y102.667 F200
M106 S0
G0 X119.0 Y103.112 F6000
M106 S255
G1 X119.0 Y103.112 F200
M106 S0
M106 S255
G1 X103.112 Y119.0 F200
M106 S0
G0 X102.667 Y119.445 F6000
M106 S255
G1 X102.667 Y119.445 F200
M106 S0
M106 S255
G1 X86.778 Y135.333 F200
M106 S0
G0 X135.333 Y86.778 F6000
M106 S255
G1 X135.333 Y86.778 F200
M106 S0
M106 S255
G1 X119.445 Y102.667 F200
M106 S0
G0 X115.254 Y102.667 F6000
M106 S255
G1 X115.254 Y102.667 F200
M106 S0
M106 S255
G1 X102.667 Y115.254 F200
M106 S0
G0 X98.921 Y119.0 F6000
M106 S255
G1 X98.921 Y119.0 F200
M106 S0
M106 S255
G1 X86.333 Y131.588 F200
M106 S0
G0 X131.588 Y86.333 F6000
M106 S255
G1 X131.588 Y86.333 F200
M106 S0
M106 S255
G1 X119.0 Y98.921 F200
M106 S0
G0 X111.063 Y102.667 F6000
M106 S255
G1 X111.063 Y102.667 F200
M106 S0
M106 S255
G1 X102.667 Y111.063 F200
M106 S0
G0 X94.73 Y119.0 F6000
M106 S255
G1 X94.73 Y119.0 F200
M106 S0
M106 S255
G1 X86.333 Y127.397 F200
M106 S0
G0 X127.397 Y86.333 F6000
M106 S255
G1 X127.397 Y86.333 F200
M106 S0
M106 S255
G1 X119.0 Y94.73 F200
M106 S0
G0 X106.873 Y102.667 F6000
M106 S255
G1 X106.873 Y102.667 F200
M106 S0
M106 S255
G1 X102.667 Y106.873 F200
M106 S0
G0 X90.539 Y119.0 F6000
M106 S255
G1 X90.539 Y119.0 F200
M106 S0
M106 S255
G1 X86.333 Y123.206 F200
M106 S0
G0 X123.206 Y86.333 F6000
M106 S255
G1 X123.206 Y86.333 F200
M106 S0
M106 S255
G1 X119.0 Y90.539 F200
M106 S0
G0 X102.682 Y102.667 F6000
M106 S255
G1 X102.682 Y102.667 F200
M106 S0
M106 S255
G1 X102.667 Y102.682 F200
M106 S0
G0 X86.349 Y119.0 F6000
M106 S255
G1 X86.349 Y119.0 F200
M106 S0
M106 S255
G1 X86.333 Y119.015 F200
M106 S0
G0 X119.015 Y86.333 F6000
M106 S255
G1 X119.015 Y86.333 F200
M106 S0
M106 S255
G1 X119.0 Y86.349 F200
M106 S0
G0 X102.667 Y98.491 F6000
M106 S255
G1 X102.667 Y98.491 F200
M106 S0
M106 S255
G1 X98.491 Y102.667 F200
M106 S0
G0 X86.333 Y114.824 F6000
M106 S255
G1 X86.333 Y114.824 F200
M106 S0
M106 S255
G1 X82.158 Y119.0 F200
M106 S0
G0 X119.0 Y82.158 F6000
M106 S255
G1 X119.0 Y82.158 F200
M106 S0
M106 S255
G1 X114.824 Y86.333 F200
M106 S0
G0 X70.0 Y131.158 F6000
M106 S255
G1 X70.0 Y131.158 F200
M106 S0
M106 S255
G1 X65.824 Y135.333 F200
M106 S0
G0 X135.333 Y65.824 F6000
M106 S255
G1 X135.333 Y65.824 F200
M106 S0
M106 S255
G1 X131.158 Y70.0 F200
M106 S0
G0 X102.667 Y94.3 F6000
M106 S255
G1 X102.667 Y94.3 F200
M106 S0
M106 S255
G1 X94.3 Y102.667 F200
M106 S0
G0 X86.333 Y110.634 F6000
M106 S255
G1 X86.333 Y110.634 F200
M106 S0
M106 S255
G1 X77.967 Y119.0 F200
M106 S0
G0 X119.0 Y77.967 F6000
M106 S255
G1 X119.0 Y77.967 F200
M106 S0
M106 S255
G1 X110.634 Y86.333 F200
M106 S0
G0 X70.0 Y126.967 F6000
M106 S255
G1 X70.0 Y126.967 F200
M106 S0
M106 S255
G1 X61.634 Y135.333 F200
M106 S0
G0 X135.333 Y61.634 F6000
M106 S255
G1 X135.333 Y61.634 F200
M106 S0
M106 S255
G1 X126.967 Y70.0 F200
M106 S0
G0 X102.667 Y90.109 F6000
M106 S255
G1 X102.667 Y90.109 F200
M106 S0
M106 S255
G1 X90.109 Y102.667 F200
M106 S0
G0 X86.333 Y106.443 F6000
M106 S255
G1 X86.333 Y106.443 F200
M106 S0
M106 S255
G1 X73.776 Y119.0 F200
M106 S0
G0 X119.0 Y73.776 F6000
M106 S255
G1 X119.0 Y73.776 F200
M106 S0
M106 S255
G1 X106.443 Y86.333 F200
M106 S0
G0 X70.0 Y122.776 F6000
M106 S255
G1 X70.0 Y122.776 F200
M106 S0
M106 S255
G1 X57.443 Y135.333 F200
M106 S0
G0 X135.333 Y57.443 F6000
M106 S255
G1 X135.333 Y57.443 F200
M106 S0
M106 S255
G1 X122.776 Y70.0 F200
M106 S0
G0 X102.252 Y86.333 F6000
M106 S255
G1 X102.252 Y86.333 F200
M106 S0
M106 S255
G1 X86.333 Y102.252 F200
M106 S0
G0 X85.919 Y102.667 F6000
M106 S255
G1 X85.919 Y102.667 F200
M106 S0
M106 S255
G1 X70.0 Y118.585 F200
M106 S0
G0 X118.585 Y70.0 F6000
M106 S255
G1 X118.585 Y70.0 F200
M106 S0
M106 S255
G1 X102.667 Y85.919 F200
M106 S0
G0 X69.585 Y119.0 F6000
M106 S255
G1 X69.585 Y119.0 F200
M106 S0
M106 S255
G1 X53.667 Y134.919 F200
M106 S0
G0 X134.919 Y53.667 F6000
M106 S255
G1 X134.919 Y53.667 F200
M106 S0
M106 S255
G1 X119.0 Y69.585 F200
M106 S0
G0 X98.061 Y86.333 F6000
M106 S255
G1 X98.061 Y86.333 F200
M106 S0
M106 S255
G1 X86.333 Y98.061 F200
M106 S0
G0 X81.728 Y102.667 F6000
M106 S255
G1 X81.728 Y102.667 F200
M106 S0
M106 S255
G1 X70.0 Y114.395 F200
M106 S0
G0 X114.395 Y70.0 F6000
M106 S255
G1 X114.395 Y70.0 F200
M106 S0
M106 S255
G1 X102.667 Y81.728 F200
M106 S0
G0 X65.395 Y119.0 F6000
M106 S255
G1 X65.395 Y119.0 F200
M106 S0
M106 S255
G1 X53.667 Y130.728 F200
M106 S0
G0 X130.728 Y53.667 F6000
M106 S255
G1 X130.728 Y53.667 F200
M106 S0
M106 S255
G1 X119.0 Y65.395 F200
M106 S0
G0 X93.87 Y86.333 F6000
M106 S255
G1 X93.87 Y86.333 F200
M106 S0
M106 S255
G1 X86.333 Y93.87 F200
M106 S0
G0 X77.537 Y102.667 F6000
M106 S255
G1 X77.537 Y102.667 F200
M106 S0
M106 S255
G1 X70.0 Y110.204 F200
M106 S0
G0 X110.204 Y70.0 F6000
M106 S255
G1 X110.204 Y70.0 F200
M106 S0
M106 S255
G1 X102.667 Y77.537 F200
M106 S0
G0 X61.204 Y119.0 F6000
M106 S255
G1 X61.204 Y119.0 F200
M106 S0
M106 S255
G1 X53.667 Y126.537 F200
M106 S0
G0 X126.537 Y53.667 F6000
M106 S255
G1 X126.537 Y53.667 F200
M106 S0
M106 S255
G1 X119.0 Y61.204 F200
M106 S0
G0 X89.68 Y86.333 F6000
M106 S255
G1 X89.68 Y86.333 F200
M106 S0
M106 S255
G1 X86.333 Y89.68 F200
M106 S0
G0 X73.346 Y102.667 F6000
M106 S255
G1 X73.346 Y102.667 F200
M106 S0
M106 S255
G1 X70.0 Y106.013 F200
M106 S0
G0 X106.013 Y70.0 F6000
M106 S255
G1 X106.013 Y70.0 F200
M106 S0
M106 S255
G1 X102.667 Y73.346 F200
M106 S0
G0 X57.013 Y119.0 F6000
M106 S255
G1 X57.013 Y119.0 F200
M106 S0
M106 S255
G1 X53.667 Y122.346 F200
M106 S0
G0 X122.346 Y53.667 F6000
M106 S255
G1 X122.346 Y53.667 F200
M106 S0
M106 S255
G1 X119.0 Y57.013 F200
M106 S0
G0 X86.333 Y85.489 F6000
M106 S255
G1 X86.333 Y85.489 F200
M106 S0
M106 S255
G1 X85.489 Y86.333 F200
M106 S0
G0 X70.0 Y101.822 F6000
M106 S255
G1 X70.0 Y101.822 F200
M106 S0
M106 S255
G1 X69.156 Y102.667 F200
M106 S0
G0 X102.667 Y69.156 F6000
M106 S255
G1 X102.667 Y69.156 F200
M106 S0
M106 S255
G1 X101.822 Y70.0 F200
M106 S0
G0 X53.667 Y118.156 F6000
M106 S255
G1 X53.667 Y118.156 F200
M106 S0
M106 S255
G1 X52.822 Y119.0 F200
M106 S0
G0 X119.0 Y52.822 F6000
M106 S255
G1 X119.0 Y52.822 F200
M106 S0
M106 S255
G1 X118.156 Y53.667 F200
M106 S0
G0 X37.333 Y134.489 F6000
M106 S255
G1 X37.333 Y134.489 F200
M106 S0
M106 S255
G1 X36.489 Y135.333 F200
M106 S0
G0 X135.333 Y36.489 F6000
M106 S255
G1 X135.333 Y36.489 F200
M106 S0
M106 S255
G1 X134.489 Y37.333 F200
M106 S0
G0 X86.333 Y81.298 F6000
M106 S255
G1 X86.333 Y81.298 F200
M106 S0
M106 S255
G1 X81.298 Y86.333 F200
M106 S0
G0 X70.0 Y97.631 F6000
M106 S255
G1 X70.0 Y97.631 F200
M106 S0
M106 S255
G1 X64.965 Y102.667 F200
M106 S0
G0 X102.667 Y64.965 F6000
M106 S255
G1 X102.667 Y64.965 F200
M106 S0
M106 S255
G1 X97.631 Y70.0 F200
M106 S0
G0 X53.667 Y113.965 F6000
M106 S255
G1 X53.667 Y113.965 F200
M106 S0
M106 S255
G1 X48.631 Y119.0 F200
M106 S0
G0 X119.0 Y48.631 F6000
M106 S255
G1 X119.0 Y48.631 F200
M106 S0
M106 S255
G1 X113.965 Y53.667 F200
M106 S0
G0 X37.333 Y130.298 F6000
M106 S255
G1 X37.333 Y130.298 F200
M106 S0
M106 S255
G1 X32.298 Y135.333 F200
M106 S0
G0 X135.333 Y32.298 F6000
M106 S255
G1 X135.333 Y32.298 F200
M106 S0
M106 S255
G1 X130.298 Y37.333 F200
M106 S0
G0 X86.333 Y77.107 F6000
M106 S255
G1 X86.333 Y77.107 F200
M106 S0
M106 S255
G1 X77.107 Y86.333 F200
M106 S0
G0 X70.0 Y93.441 F6000
M106 S255
G1 X70.0 Y93.441 F200
M106 S0
M106 S255
G1 X60.774 Y102.667 F200
M106 S0
G0 X102.667 Y60.774 F6000
M106 S255
G1 X102.667 Y60.774 F200
M106 S0
M106 S255
G1 X93.441 Y70.0 F200
M106 S0
G0 X53.667 Y109.774 F6000
M106 S255
G1 X53.667 Y109.774 F200
M106 S0
M106 S255
G1 X44.441 Y119.0 F200
M106 S0
G0 X119.0 Y44.441 F6000
M106 S255
G1 X119.0 Y44.441 F200
M106 S0
M106 S255
G1 X109.774 Y53.667 F200
M106 S0
G0 X37.333 Y126.107 F6000
M106 S255
G1 X37.333 Y126.107 F200
M106 S0
M106 S255
G1 X28.107 Y135.333 F200
M106 S0
G0 X135.333 Y28.107 F6000
M106 S255
G1 X135.333 Y28.107 F200
M106 S0
M106 S255
G1 X126.107 Y37.333 F200
M106 S0
G0 X86.333 Y72.917 F6000
M106 S255
G1 X86.333 Y72.917 F200
M106 S0
M106 S255
G1 X72.917 Y86.333 F200
M106 S0
G0 X70.0 Y89.25 F6000
M106 S255
G1 X70.0 Y89.25 F200
M106 S0
M106 S255
G1 X56.583 Y102.667 F200
M106 S0
G0 X102.667 Y56.583 F6000
M106 S255
G1 X102.667 Y56.583 F200
M106 S0
M106 S255
G1 X89.25 Y70.0 F200
M106 S0
G0 X53.667 Y105.583 F6000
M106 S255
G1 X53.667 Y105.583 F200
M106 S0
M106 S255
G1 X40.25 Y119.0 F200
M106 S0
G0 X119.0 Y40.25 F6000
M106 S255
G1 X119.0 Y40.25 F200
M106 S0
M106 S255
G1 X105.583 Y53.667 F200
M106 S0
G0 X37.333 Y121.917 F6000
M106 S255
G1 X37.333 Y121.917 F200
M106 S0
M106 S255
G1 X23.917 Y135.333 F200
M106 S0
G0 X135.333 Y23.917 F6000
M106 S255
G1 X135.333 Y23.917 F200
M106 S0
M106 S255
G1 X121.917 Y37.333 F200
M106 S0
G0 X85.059 Y70.0 F6000
M106 S255
G1 X85.059 Y70.0 F200
M106 S0
M106 S255
G1 X70.0 Y85.059 F200
M106 S0
G0 X68.726 Y86.333 F6000
M106 S255
G1 X68.726 Y86.333 F200
M106 S0
M106 S255
G1 X53.667 Y101.392 F200
M106 S0
G0 X101.392 Y53.667 F6000
M106 S255
G1 X101.392 Y53.667 F200
M106 S0
M106 S255
G1 X86.333 Y68.726 F200
M106 S0
G0 X52.392 Y102.667 F6000
M106 S255
G1 X52.392 Y102.667 F200
M106 S0
M106 S255
G1 X37.333 Y117.726 F200
M106 S0
G0 X117.726 Y37.333 F6000
M106 S255
G1 X117.726 Y37.333 F200
M106 S0
M106 S255
G1 X102.667 Y52.392 F200
M106 S0
G0 X36.059 Y119.0 F6000
M106 S255
G1 X36.059 Y119.0 F200
M106 S0
M106 S255
G1 X21.0 Y134.059 F200
M106 S0
G0 X134.059 Y21.0 F6000
M106 S255
G1 X134.059 Y21.0 F200
M106 S0
M106 S255
G1 X119.0 Y36.059 F200
M106 S0
G0 X80.868 Y70.0 F6000
M106 S255
G1 X80.868 Y70.0 F200
M106 S0
M106 S255
G1 X70.0 Y80.868 F200
M106 S0
G0 X64.535 Y86.333 F6000
M106 S255
G1 X64.535 Y86.333 F200
M106 S0
M106 S255
G1 X53.667 Y97.202 F200
M106 S0
G0 X97.202 Y53.667 F6000
M106 S255
G1 X97.202 Y53.667 F200
M106 S0
M106 S255
G1 X86.333 Y64.535 F200
M106 S0
G0 X48.202 Y102.667 F6000
M106 S255
G1 X48.202 Y102.667 F200
M106 S0
M106 S255
G1 X37.333 Y113.535 F200
M106 S0
G0 X113.535 Y37.333 F6000
M106 S255
G1 X113.535 Y37.333 F200
M106 S0
M106 S255
G1 X102.667 Y48.202 F200
M106 S0
G0 X31.868 Y119.0 F6000
M106 S255
G1 X31.868 Y119.0 F200
M106 S0
M106 S255
G1 X21.0 Y129.868 F200
M106 S0
G0 X129.868 Y21.0 F6000
M106 S255
G1 X129.868 Y21.0 F200
M106 S0
M106 S255
G1 X119.0 Y31.868 F200
M106 S0
G0 X76.678 Y70.0 F6000
M106 S255
G1 X76.678 Y70.0 F200
M106 S0
M106 S255
G1 X70.0 Y76.678 F200
M106 S0
G0 X60.344 Y86.333 F6000
M106 S255
G1 X60.344 Y86.333 F200
M106 S0
M106 S255
G1 X53.667 Y93.011 F200
M106 S0
G0 X93.011 Y53.667 F6000
M106 S255
G1 X93.011 Y53.667 F200
M106 S0
M106 S255
G1 X86.333 Y60.344 F200
M106 S0
G0 X44.011 Y102.667 F6000
M106 S255
G1 X44.011 Y102.667 F200
M106 S0
M106 S255
G1 X37.333 Y109.344 F200
M106 S0
G0 X109.344 Y37.333 F6000
M106 S255
G1 X109.344 Y37.333 F200
M106 S0
M106 S255
G1 X102.667 Y44.011 F200
M106 S0
G0 X27.678 Y119.0 F6000
M106 S255
G1 X27.678 Y119.0 F200
M106 S0
M106 S255
G1 X21.0 Y125.678 F200
M106 S0
G0 X125.678 Y21.0 F6000
M106 S255
G1 X125.678 Y21.0 F200
M106 S0
M106 S255
G1 X119.0 Y27.678 F200
M106 S0
G0 X72.487 Y70.0 F6000
M106 S255
G1 X72.487 Y70.0 F200
M106 S0
M106 S255
G1 X70.0 Y72.487 F200
M106 S0
G0 X56.153 Y86.333 F6000
M106 S255
G1 X56.153 Y86.333 F200
M106 S0
M106 S255
G1 X53.667 Y88.82 F200
M106 S0
G0 X88.82 Y53.667 F6000
M106 S255
G1 X88.82 Y53.667 F200
M106 S0
M106 S255
G1 X86.333 Y56.153 F200
M106 S0
G0 X39.82 Y102.667 F6000
M106 S255
G1 X39.82 Y102.667 F200
M106 S0
M106 S255
G1 X37.333 Y105.153 F200
M106 S0
G0 X105.153 Y37.333 F6000
M106 S255
G1 X105.153 Y37.333 F200
M106 S0
M106 S255
G1 X102.667 Y39.82 F200
M106 S0
G0 X23.487 Y119.0 F6000
M106 S255
G1 X23.487 Y119.0 F200
M106 S0
M106 S255
G1 X21.0 Y121.487 F200
M106 S0
G0 X121.487 Y21.0 F6000
M106 S255
G1 X121.487 Y21.0 F200
M106 S0
M106 S255
G1 X119.0 Y23.487 F200
M106 S0
G0 X70.0 Y68.296 F6000
M106 S255
G1 X70.0 Y68.296 F200
M106 S0
M106 S255
G1 X68.296 Y70.0 F200
M106 S0
G0 X53.667 Y84.629 F6000
M106 S255
G1 X53.667 Y84.629 F200
M106 S0
M106 S255
G1 X51.963 Y86.333 F200
M106 S0
G0 X86.333 Y51.963 F6000
M106 S255
G1 X86.333 Y51.963 F200
M106 S0
M106 S255
G1 X84.629 Y53.667 F200
M106 S0
G0 X37.333 Y100.963 F6000
M106 S255
G1 X37.333 Y100.963 F200
M106 S0
M106 S255
G1 X35.629 Y102.667 F200
M106 S0
G0 X102.667 Y35.629 F6000
M106 S255
G1 X102.667 Y35.629 F200
M106 S0
M106 S255
G1 X100.963 Y37.333 F200
M106 S0
G0 X21.0 Y117.296 F6000
M106 S255
G1 X21.0 Y117.296 F200
M106 S0
M106 S255
G1 X19.296 Y119.0 F200
M106 S0
G0 X119.0 Y19.296 F6000
M106 S255
G1 X119.0 Y19.296 F200
M106 S0
M106 S255
G1 X117.296 Y21.0 F200
M106 S0
G0 X70.0 Y64.105 F6000
M106 S255
G1 X70.0 Y64.105 F200
M106 S0
M106 S255
G1 X64.105 Y70.0 F200
M106 S0
G0 X53.667 Y80.438 F6000
M106 S255
G1 X53.667 Y80.438 F200
M106 S0
M106 S255
G1 X47.772 Y86.333 F200
M106 S0
G0 X86.333 Y47.772 F6000
M106 S255
G1 X86.333 Y47.772 F200
M106 S0
M106 S255
G1 X80.438 Y53.667 F200
M106 S0
G0 X37.333 Y96.772 F6000
M106 S255
G1 X37.333 Y96.772 F200
M106 S0
M106 S255
G1 X31.438 Y102.667 F200
M106 S0
G0 X102.667 Y31.438 F6000
M106 S255
G1 X102.667 Y31.438 F200
M106 S0
M106 S255
G1 X96.772 Y37.333 F200
M106 S0
G0 X21.0 Y113.105 F6000
M106 S255
G1 X21.0 Y113.105 F200
M106 S0
M106 S255
G1 X15.105 Y119.0 F200
M106 S0
G0 X119.0 Y15.105 F6000
M106 S255
G1 X119.0 Y15.105 F200
M106 S0
M106 S255
G1 X113.105 Y21.0 F200
M106 S0
G0 X70.0 Y59.914 F6000
M106 S255
G1 X70.0 Y59.914 F200
M106 S0
M106 S255
G1 X59.914 Y70.0 F200
M106 S0
G0 X53.667 Y76.248 F6000
M106 S255
G1 X53.667 Y76.248 F200
M106 S0
M106 S255
G1 X43.581 Y86.333 F200
M106 S0
G0 X86.333 Y43.581 F6000
M106 S255
G1 X86.333 Y43.581 F200
M106 S0
M106 S255
G1 X76.248 Y53.667 F200
M106 S0
G0 X37.333 Y92.581 F6000
M106 S255
G1 X37.333 Y92.581 F200
M106 S0
M106 S255
G1 X27.248 Y102.667 F200
M106 S0
G0 X102.667 Y27.248 F6000
M106 S255
G1 X102.667 Y27.248 F200
M106 S0
M106 S255
G1 X92.581 Y37.333 F200
M106 S0
G0 X21.0 Y108.914 F6000
M106 S255
G1 X21.0 Y108.914 F200
M106 S0
M106 S255
G1 X10.914 Y119.0 F200
M106 S0
G0 X119.0 Y10.914 F6000
M106 S255
G1 X119.0 Y10.914 F200
M106 S0
M106 S255
G1 X108.914 Y21.0 F200
M106 S0
G0 X70.0 Y55.724 F6000
M106 S255
G1 X70.0 Y55.724 F200
M106 S0
M106 S255
G1 X55.724 Y70.0 F200
M106 S0
G0 X53.667 Y72.057 F6000
M106 S255
G1 X53.667 Y72.057 F200
M106 S0
M106 S255
G1 X39.39 Y86.333 F200
M106 S0
G0 X86.333 Y39.39 F6000
M106 S255
G1 X86.333 Y39.39 F200
M106 S0
M106 S255
G1 X72.057 Y53.667 F200
M106 S0
G0 X37.333 Y88.39 F6000
M106 S255
G1 X37.333 Y88.39 F200
M106 S0
M106 S255
G1 X23.057 Y102.667 F200
M106 S0
G0 X102.667 Y23.057 F6000
M106 S255
G1 X102.667 Y23.057 F200
M106 S0
M106 S255
G1 X88.39 Y37.333 F200
M106 S0
G0 X21.0 Y104.724 F6000
M106 S255
G1 X21.0 Y104.724 F200
M106 S0
M106 S255
G1 X6.724 Y119.0 F200
M106 S0
G0 X119.0 Y6.724 F6000
M106 S255
G1 X119.0 Y6.724 F200
M106 S0
M106 S255
G1 X104.724 Y21.0 F200
M106 S0
G0 X67.866 Y53.667 F6000
M106 S255
G1 X67.866 Y53.667 F200
M106 S0
M106 S255
G1 X53.667 Y67.866 F200
M106 S0
G0 X51.533 Y70.0 F6000
M106 S255
G1 X51.533 Y70.0 F200
M106 S0
M106 S255
G1 X37.333 Y84.199 F200
M106 S0
G0 X84.199 Y37.333 F6000
M106 S255
G1 X84.199 Y37.333 F200
M106 S0
M106 S255
G1 X70.0 Y51.533 F200
M106 S0
G0 X35.199 Y86.333 F6000
M106 S255
G1 X35.199 Y86.333 F200
M106 S0
M106 S255
G1 X21.0 Y100.533 F200
M106 S0
G0 X100.533 Y21.0 F6000
M106 S255
G1 X100.533 Y21.0 F200
M106 S0
M106 S255
G1 X86.333 Y35.199 F200
M106 S0
G0 X18.866 Y102.667 F6000
M106 S255
G1 X18.866 Y102.667 F200
M106 S0
M106 S255
G1 X4.667 Y116.866 F200
M106 S0
G0 X116.866 Y4.667 F6000
M106 S255
G1 X116.866 Y4.667 F200
M106 S0
M106 S255
G1 X102.667 Y18.866 F200
M106 S0
G0 X63.675 Y53.667 F6000
M106 S255
G1 X63.675 Y53.667 F200
M106 S0
M106 S255
G1 X53.667 Y63.675 F200
M106 S0
G0 X47.342 Y70.0 F6000
M106 S255
G1 X47.342 Y70.0 F200
M106 S0
M106 S255
G1 X37.333 Y80.009 F200
M106 S0
G0 X80.009 Y37.333 F6000
M106 S255
G1 X80.009 Y37.333 F200
M106 S0
M106 S255
G1 X70.0 Y47.342 F200
M106 S0
G0 X31.009 Y86.333 F6000
M106 S255
G1 X31.009 Y86.333 F200
M106 S0
M106 S255
G1 X21.0 Y96.342 F200
M106 S0
G0 X96.342 Y21.0 F6000
M106 S255
G1 X96.342 Y21.0 F200
M106 S0
M106 S255
G1 X86.333 Y31.009 F200
M106 S0
G0 X14.675 Y102.667 F6000
M106 S255
G1 X14.675 Y102.667 F200
M106 S0
M106 S255
G1 X4.667 Y112.675 F200
M106 S0
G0 X112.675 Y4.667 F6000
M106 S255
G1 X112.675 Y4.667 F200
M106 S0
M106 S255
G1 X102.667 Y14.675 F200
M106 S0
G0 X59.485 Y53.667 F6000
M106 S255
G1 X59.485 Y53.667 F200
M106 S0
M106 S255
G1 X53.667 Y59.485 F200
M106 S0
G0 X43.151 Y70.0 F6000
M106 S255
G1 X43.151 Y70.0 F200
M106 S0
M106 S255
G1 X37.333 Y75.818 F200
M106 S0
G0 X75.818 Y37.333 F6000
M106 S255
G1 X75.818 Y37.333 F200
M106 S0
M106 S255
G1 X70.0 Y43.151 F200
M106 S0
G0 X26.818 Y86.333 F6000
M106 S255
G1 X26.818 Y86.333 F200
M106 S0
M106 S255
G1 X21.0 Y92.151 F200
M106 S0
G0 X92.151 Y21.0 F6000
M106 S255
G1 X92.151 Y21.0 F200
M106 S0
M106 S255
G1 X86.333 Y26.818 F200
M106 S0
G0 X10.485 Y102.667 F6000
M106 S255
G1 X10.485 Y102.667 F200
M106 S0
M106 S255
G1 X4.667 Y108.485 F200
M106 S0
G0 X108.485 Y4.667 F6000
M106 S255
G1 X108.485 Y4.667 F200
M106 S0
M106 S255
G1 X102.667 Y10.485 F200
M106 S0
G0 X55.294 Y53.667 F6000
M106 S255
G1 X55.294 Y53.667 F200
M106 S0
M106 S255
G1 X53.667 Y55.294 F200
M106 S0
G0 X38.96 Y70.0 F6000
M106 S255
G1 X38.96 Y70.0 F200
M106 S0
M106 S255
G1 X37.333 Y71.627 F200
M106 S0
G0 X71.627 Y37.333 F6000
M106 S255
G1 X71.627 Y37.333 F200
M106 S0
M106 S255
G1 X70.0 Y38.96 F200
M106 S0
G0 X22.627 Y86.333 F6000
M106 S255
G1 X22.627 Y86.333 F200
M106 S0
M106 S255
G1 X21.0 Y87.96 F200
M106 S0
G0 X87.96 Y21.0 F6000
M106 S255
G1 X87.96 Y21.0 F200
M106 S0
M106 S255
G1 X86.333 Y22.627 F200
M106 S0
G0 X6.294 Y102.667 F6000
M106 S255
G1 X6.294 Y102.667 F200
M106 S0
M106 S255
G1 X4.667 Y104.294 F200
M106 S0
G0 X104.294 Y4.667 F6000
M106 S255
G1 X104.294 Y4.667 F200
M106 S0
M106 S255
G1 X102.667 Y6.294 F200
M106 S0
G0 X53.667 Y51.103 F6000
M106 S255
G1 X53.667 Y51.103 F200
M106 S0
M106 S255
G1 X51.103 Y53.667 F200
M106 S0
G0 X37.333 Y67.436 F6000
M106 S255
G1 X37.333 Y67.436 F200
M106 S0
M106 S255
G1 X34.77 Y70.0 F200
M106 S0
G0 X70.0 Y34.77 F6000
M106 S255
G1 X70.0 Y34.77 F200
M106 S0
M106 S255
G1 X67.436 Y37.333 F200
M106 S0
G0 X21.0 Y83.77 F6000
M106 S255
G1 X21.0 Y83.77 F200
M106 S0
M106 S255
G1 X18.436 Y86.333 F200
M106 S0
G0 X86.333 Y18.436 F6000
M106 S255
G1 X86.333 Y18.436 F200
M106 S0
M106 S255
G1 X83.77 Y21.0 F200
M106 S0
G0 X53.667 Y46.912 F6000
M106 S255
G1 X53.667 Y46.912 F200
M106 S0
M106 S255
G1 X46.912 Y53.667 F200
M106 S0
G0 X37.333 Y63.246 F6000
M106 S255
G1 X37.333 Y63.246 F200
M106 S0
M106 S255
G1 X30.579 Y70.0 F200
M106 S0
G0 X70.0 Y30.579 F6000
M106 S255
G1 X70.0 Y30.579 F200
M106 S0
M106 S255
G1 X63.246 Y37.333 F200
M106 S0
G0 X21.0 Y79.579 F6000
M106 S255
G1 X21.0 Y79.579 F200
M106 S0
M106 S255
G1 X14.246 Y86.333 F200
M106 S0
G0 X86.333 Y14.246 F6000
M106 S255
G1 X86.333 Y14.246 F200
M106 S0
M106 S255
G1 X79.579 Y21.0 F200
M106 S0
G0 X53.667 Y42.721 F6000
M106 S255
G1 X53.667 Y42.721 F200
M106 S0
M106 S255
G1 X42.721 Y53.667 F200
M106 S0
G0 X37.333 Y59.055 F6000
M106 S255
G1 X37.333 Y59.055 F200
M106 S0
M106 S255
G1 X26.388 Y70.0 F200
M106 S0
G0 X70.0 Y26.388 F6000
M106 S255
G1 X70.0 Y26.388 F200
M106 S0
M106 S255
G1 X59.055 Y37.333 F200
M106 S0
G0 X21.0 Y75.388 F6000
M106 S255
G1 X21.0 Y75.388 F200
M106 S0
M106 S255
G1 X10.055 Y86.333 F200
M106 S0
G0 X86.333 Y10.055 F6000
M106 S255
G1 X86.333 Y10.055 F200
M106 S0
M106 S255
G1 X75.388 Y21.0 F200
M106 S0
G0 X53.667 Y38.531 F6000
M106 S255
G1 X53.667 Y38.531 F200
M106 S0
M106 S255
G1 X38.531 Y53.667 F200
M106 S0
G0 X37.333 Y54.864 F6000
M106 S255
G1 X37.333 Y54.864 F200
M106 S0
M106 S255
G1 X22.197 Y70.0 F200
M106 S0
G0 X70.0 Y22.197 F6000
M106 S255
G1 X70.0 Y22.197 F200
M106 S0
M106 S255
G1 X54.864 Y37.333 F200
M106 S0
G0 X21.0 Y71.197 F6000
M106 S255
G1 X21.0 Y71.197 F200
M106 S0
M106 S255
G1 X5.864 Y86.333 F200
M106 S0
G0 X86.333 Y5.864 F6000
M106 S255
G1 X86.333 Y5.864 F200
M106 S0
M106 S255
G1 X71.197 Y21.0 F200
M106 S0
G0 X50.673 Y37.333 F6000
M106 S255
G1 X50.673 Y37.333 F200
M106 S0
M106 S255
G1 X37.333 Y50.673 F200
M106 S0
G0 X34.34 Y53.667 F6000
M106 S255
G1 X34.34 Y53.667 F200
M106 S0
M106 S255
G1 X21.0 Y67.007 F200
M106 S0
G0 X67.007 Y21.0 F6000
M106 S255
G1 X67.007 Y21.0 F200
M106 S0
M106 S255
G1 X53.667 Y34.34 F200
M106 S0
G0 X18.007 Y70.0 F6000
M106 S255
G1 X18.007 Y70.0 F200
M106 S0
M106 S255
G1 X4.667 Y83.34 F200
M106 S0
G0 X83.34 Y4.667 F6000
M106 S255
G1 X83.34 Y4.667 F200
M106 S0
M106 S255
G1 X70.0 Y18.007 F200
M106 S0
G0 X46.482 Y37.333 F6000
M106 S255
G1 X46.482 Y37.333 F200
M106 S0
M106 S255
G1 X37.333 Y46.482 F200
M106 S0
G0 X30.149 Y53.667 F6000
M106 S255
G1 X30.149 Y53.667 F200
M106 S0
M106 S255
G1 X21.0 Y62.816 F200
M106 S0
G0 X62.816 Y21.0 F6000
M106 S255
G1 X62.816 Y21.0 F200
M106 S0
M106 S255
G1 X53.667 Y30.149 F200
M106 S0
G0 X13.816 Y70.0 F6000
M106 S255
G1 X13.816 Y70.0 F200
M106 S0
M106 S255
G1 X4.667 Y79.149 F200
M106 S0
G0 X79.149 Y4.667 F6000
M106 S255
G1 X79.149 Y4.667 F200
M106 S0
M106 S255
G1 X70.0 Y13.816 F200
M106 S0
G0 X42.292 Y37.333 F6000
M106 S255
G1 X42.292 Y37.333 F200
M106 S0
M106 S255
G1 X37.333 Y42.292 F200
M106 S0
G0 X25.958 Y53.667 F6000
M106 S255
G1 X25.958 Y53.667 F200
M106 S0
M106 S255
G1 X21.0 Y58.625 F200
M106 S0
G0 X58.625 Y21.0 F6000
M106 S255
G1 X58.625 Y21.0 F200
M106 S0
M106 S255
G1 X53.667 Y25.958 F200
M106 S0
G0 X9.625 Y70.0 F6000
M106 S255
G1 X9.625 Y70.0 F200
M106 S0
M106 S255
G1 X4.667 Y74.958 F200
M106 S0
G0 X74.958 Y4.667 F6000
M106 S255
G1 X74.958 Y4.667 F200
M106 S0
M106 S255
G1 X70.0 Y9.625 F200
M106 S0
G0 X38.101 Y37.333 F6000
M106 S255
G1 X38.101 Y37.333 F200
M106 S0
M106 S255
G1 X37.333 Y38.101 F200
M106 S0
G0 X21.767 Y53.667 F6000
M106 S255
G1 X21.767 Y53.667 F200
M106 S0
M106 S255
G1 X21.0 Y54.434 F200
M106 S0
G0 X54.434 Y21.0 F6000
M106 S255
G1 X54.434 Y21.0 F200
M106 S0
M106 S255
G1 X53.667 Y21.767 F200
M106 S0
G0 X5.434 Y70.0 F6000
M106 S255
G1 X5.434 Y70.0 F200
M106 S0
M106 S255
G1 X4.667 Y70.767 F200
M106 S0
G0 X70.767 Y4.667 F6000
M106 S255
G1 X70.767 Y4.667 F200
M106 S0
M106 S255
G1 X70.0 Y5.434 F200
M106 S0
G0 X37.333 Y33.91 F6000
M106 S255
G1 X37.333 Y33.91 F200
M106 S0
M106 S255
G1 X33.91 Y37.333 F200
M106 S0
G0 X21.0 Y50.243 F6000
M106 S255
G1 X21.0 Y50.243 F200
M106 S0
M106 S255
G1 X17.577 Y53.667 F200
M106 S0
G0 X53.667 Y17.577 F6000
M106 S255
G1 X53.667 Y17.577 F200
M106 S0
M106 S255
G1 X50.243 Y21.0 F200
M106 S0
G0 X37.333 Y29.719 F6000
M106 S255
G1 X37.333 Y29.719 F200
M106 S0
M106 S255
G1 X29.719 Y37.333 F200
M106 S0
G0 X21.0 Y46.053 F6000
M106 S255
G1 X21.0 Y46.053 F200
M106 S0
M106 S255
G1 X13.386 Y53.667 F200
M106 S0
G0 X53.667 Y13.386 F6000
M106 S255
G1 X53.667 Y13.386 F200
M106 S0
M106 S255
G1 X46.053 Y21.0 F200
M106 S0
G0 X37.333 Y25.528 F6000
M106 S255
G1 X37.333 Y25.528 F200
M106 S0
M106 S255
G1 X25.528 Y37.333 F200
M106 S0
G0 X21.0 Y41.862 F6000
M106 S255
G1 X21.0 Y41.862 F200
M106 S0
M106 S255
G1 X9.195 Y53.667 F200
M106 S0
G0 X53.667 Y9.195 F6000
M106 S255
G1 X53.667 Y9.195 F200
M106 S0
M106 S255
G1 X41.862 Y21.0 F200
M106 S0
G0 X37.333 Y21.338 F6000
M106 S255
G1 X37.333 Y21.338 F200
M106 S0
M106 S255
G1 X21.338 Y37.333 F200
M106 S0
G0 X21.0 Y37.671 F6000
M106 S255
G1 X21.0 Y37.671 F200
M106 S0
M106 S255
G1 X5.004 Y53.667 F200
M106 S0
G0 X53.667 Y5.004 F6000
M106 S255
G1 X53.667 Y5.004 F200
M106 S0
M106 S255
G1 X37.671 Y21.0 F200
M106 S0
G0 X33.48 Y21.0 F6000
M106 S255
G1 X33.48 Y21.0 F200
M106 S0
M106 S255
G1 X21.0 Y33.48 F200
M106 S0
G0 X17.147 Y37.333 F6000
M106 S255
G1 X17.147 Y37.333 F200
M106 S0
M106 S255
G1 X4.667 Y49.814 F200
M106 S0
G0 X49.814 Y4.667 F6000
M106 S255
G1 X49.814 Y4.667 F200
M106 S0
M106 S255
G1 X37.333 Y17.147 F200
M106 S0
G0 X29.289 Y21.0 F6000
M106 S255
G1 X29.289 Y21.0 F200
M106 S0
M106 S255
G1 X21.0 Y29.289 F200
M106 S0
G0 X12.956 Y37.333 F6000
M106 S255
G1 X12.956 Y37.333 F200
M106 S0
M106 S255
G1 X4.667 Y45.623 F200
M106 S0
G0 X45.623 Y4.667 F6000
M106 S255
G1 X45.623 Y4.667 F200
M106 S0
M106 S255
G1 X37.333 Y12.956 F200
M106 S0
G0 X25.099 Y21.0 F6000
M106 S255
G1 X25.099 Y21.0 F200
M106 S0
M106 S255
G1 X21.0 Y25.099 F200
M106 S0
G0 X8.765 Y37.333 F6000
M106 S255
G1 X8.765 Y37.333 F200
M106 S0
M106 S255
G1 X4.667 Y41.432 F200
M106 S0
G0 X41.432 Y4.667 F6000
M106 S255
G1 X41.432 Y4.667 F200
M106 S0
M106 S255
G1 X37.333 Y8.765 F200
M106 S0
G0 X21.0 Y20.908 F6000
M106 S255
G1 X21.0 Y20.908 F200
M106 S0
M106 S255
G1 X20.908 Y21.0 F200
M106 S0
G0 X21.0 Y16.717 F6000
M106 S255
G1 X21.0 Y16.717 F200
M106 S0
M106 S255
G1 X16.717 Y21.0 F200
M106 S0
G0 X21.0 Y12.526 F6000
M106 S255
G1 X21.0 Y12.526 F200
M106 S0
M106 S255
G1 X12.526 Y21.0 F200
M106 S0
G0 X21.0 Y8.336 F6000
M106 S255
G1 X21.0 Y8.336 F200
M106 S0
M106 S255
G1 X8.336 Y21.0 F200
M106 S0
G0 X20.478 Y4.667 F6000
M106 S255
G1 X20.478 Y4.667 F200
M106 S0
M106 S255
G1 X4.667 Y20.478 F200
M106 S0
G0 X16.287 Y4.667 F6000
M106 S255
G1 X16.287 Y4.667 F200
M106 S0
M106 S255
G1 X4.667 Y16.287 F200
M106 S0
G0 X12.096 Y4.667 F6000
M106 S255
G1 X12.096 Y4.667 F200
M106 S0
M106 S255
G1 X4.667 Y12.096 F200
M106 S0
G0 X7.906 Y4.667 F6000
M106 S255
G1 X7.906 Y4.667 F200
M106 S0
M106 S255
G1 X4.667 Y7.906 F200
M106 S0
G0 X134.151 Y21.0 F6000
M106 S255
G1 X134.151 Y21.0 F200
M106 S0
M106 S255
G1 X135.333 Y22.182 F200
M106 S0
G0 X117.818 Y4.667 F6000
M106 S255
G1 X117.818 Y4.667 F200
M106 S0
M106 S255
G1 X119.0 Y5.849 F200
M106 S0
G0 X129.96 Y21.0 F6000
M106 S255
G1 X129.96 Y21.0 F200
M106 S0
M106 S255
G1 X135.333 Y26.373 F200
M106 S0
G0 X113.627 Y4.667 F6000
M106 S255
G1 X113.627 Y4.667 F200
M106 S0
M106 S255
G1 X119.0 Y10.04 F200
M106 S0
G0 X125.77 Y21.0 F6000
M106 S255
G1 X125.77 Y21.0 F200
M106 S0
M106 S255
G1 X135.333 Y30.564 F200
M106 S0
G0 X109.436 Y4.667 F6000
M106 S255
G1 X109.436 Y4.667 F200
M106 S0
M106 S255
G1 X119.0 Y14.23 F200
M106 S0
G0 X121.579 Y21.0 F6000
M106 S255
G1 X121.579 Y21.0 F200
M106 S0
M106 S255
G1 X135.333 Y34.754 F200
M106 S0
G0 X105.246 Y4.667 F6000
M106 S255
G1 X105.246 Y4.667 F200
M106 S0
M106 S255
G1 X119.0 Y18.421 F200
M106 S0
G0 X119.0 Y22.612 F6000
M106 S255
G1 X119.0 Y22.612 F200
M106 S0
M106 S255
G1 X133.721 Y37.333 F200
M106 S0
G0 X102.667 Y6.279 F6000
M106 S255
G1 X102.667 Y6.279 F200
M106 S0
M106 S255
G1 X117.388 Y21.0 F200
M106 S0
G0 X119.0 Y26.803 F6000
M106 S255
G1 X119.0 Y26.803 F200
M106 S0
M106 S255
G1 X129.531 Y37.333 F200
M106 S0
G0 X102.667 Y10.469 F6000
M106 S255
G1 X102.667 Y10.469 F200
M106 S0
M106 S255
G1 X113.197 Y21.0 F200
M106 S0
G0 X119.0 Y30.993 F6000
M106 S255
G1 X119.0 Y30.993 F200
M106 S0
M106 S255
G1 X125.34 Y37.333 F200
M106 S0
G0 X102.667 Y14.66 F6000
M106 S255
G1 X102.667 Y14.66 F200
M106 S0
M106 S255
G1 X109.007 Y21.0 F200
M106 S0
G0 X119.0 Y35.184 F6000
M106 S255
G1 X119.0 Y35.184 F200
M106 S0
M106 S255
G1 X121.149 Y37.333 F200
M106 S0
G0 X102.667 Y18.851 F6000
M106 S255
G1 X102.667 Y18.851 F200
M106 S0
M106 S255
G1 X104.816 Y21.0 F200
M106 S0
G0 X116.958 Y37.333 F6000
M106 S255
G1 X116.958 Y37.333 F200
M106 S0
M106 S255
G1 X119.0 Y39.375 F200
M106 S0
G0 X100.625 Y21.0 F6000
M106 S255
G1 X100.625 Y21.0 F200
M106 S0
M106 S255
G1 X102.667 Y23.042 F200
M106 S0
G0 X133.292 Y53.667 F6000
M106 S255
G1 X133.292 Y53.667 F200
M106 S0
M106 S255
G1 X135.333 Y55.708 F200
M106 S0
G0 X84.292 Y4.667 F6000
M106 S255
G1 X84.292 Y4.667 F200
M106 S0
M106 S255
G1 X86.333 Y6.708 F200
M106 S0
G0 X112.767 Y37.333 F6000
M106 S255
G1 X112.767 Y37.333 F200
M106 S0
M106 S255
G1 X119.0 Y43.566 F200
M106 S0
G0 X96.434 Y21.0 F6000
M106 S255
G1 X96.434 Y21.0 F200
M106 S0
M106 S255
G1 X102.667 Y27.233 F200
M106 S0
G0 X129.101 Y53.667 F6000
M106 S255
G1 X129.101 Y53.667 F200
M106 S0
M106 S255
G1 X135.333 Y59.899 F200
M106 S0
G0 X80.101 Y4.667 F6000
M106 S255
G1 X80.101 Y4.667 F200
M106 S0
M106 S255
G1 X86.333 Y10.899 F200
M106 S0
G0 X108.577 Y37.333 F6000
M106 S255
G1 X108.577 Y37.333 F200
M106 S0
M106 S255
G1 X119.0 Y47.757 F200
M106 S0
G0 X92.243 Y21.0 F6000
M106 S255
G1 X92.243 Y21.0 F200
M106 S0
M106 S255
G1 X102.667 Y31.423 F200
M106 S0
G0 X124.91 Y53.667 F6000
M106 S255
G1 X124.91 Y53.667 F200
M106 S0
M106 S255
G1 X135.333 Y64.09 F200
M106 S0
G0 X75.91 Y4.667 F6000
M106 S255
G1 X75.91 Y4.667 F200
M106 S0
M106 S255
G1 X86.333 Y15.09 F200
M106 S0
G0 X104.386 Y37.333 F6000
M106 S255
G1 X104.386 Y37.333 F200
M106 S0
M106 S255
G1 X119.0 Y51.947 F200
M106 S0
G0 X88.053 Y21.0 F6000
M106 S255
G1 X88.053 Y21.0 F200
M106 S0
M106 S255
G1 X102.667 Y35.614 F200
M106 S0
G0 X120.719 Y53.667 F6000
M106 S255
G1 X120.719 Y53.667 F200
M106 S0
M106 S255
G1 X135.333 Y68.281 F200
M106 S0
G0 X71.719 Y4.667 F6000
M106 S255
G1 X71.719 Y4.667 F200
M106 S0
M106 S255
G1 X86.333 Y19.281 F200
M106 S0
G0 X102.667 Y39.805 F6000
M106 S255
G1 X102.667 Y39.805 F200
M106 S0
M106 S255
G1 X116.528 Y53.667 F200
M106 S0
G0 X86.333 Y23.472 F6000
M106 S255
G1 X86.333 Y23.472 F200
M106 S0
M106 S255
G1 X100.195 Y37.333 F200
M106 S0
G0 X119.0 Y56.138 F6000
M106 S255
G1 X119.0 Y56.138 F200
M106 S0
M106 S255
G1 X132.862 Y70.0 F200
M106 S0
G0 X70.0 Y7.138 F6000
M106 S255
G1 X70.0 Y7.138 F200
M106 S0
M106 S255
G1 X83.862 Y21.0 F200
M106 S0
G0 X102.667 Y43.996 F6000
M106 S255
G1 X102.667 Y43.996 F200
M106 S0
M106 S255
G1 X112.338 Y53.667 F200
M106 S0
G0 X86.333 Y27.662 F6000
M106 S255
G1 X86.333 Y27.662 F200
M106 S0
M106 S255
G1 X96.004 Y37.333 F200
M106 S0
G0 X119.0 Y60.329 F6000
M106 S255
G1 X119.0 Y60.329 F200
M106 S0
M106 S255
G1 X128.671 Y70.0 F200
M106 S0
G0 X70.0 Y11.329 F6000
M106 S255
G1 X70.0 Y11.329 F200
M106 S0
M106 S255
G1 X79.671 Y21.0 F200
M106 S0
G0 X102.667 Y48.186 F6000
M106 S255
G1 X102.667 Y48.186 F200
M106 S0
M106 S255
G1 X108.147 Y53.667 F200
M106 S0
G0 X86.333 Y31.853 F6000
M106 S255
G1 X86.333 Y31.853 F200
M106 S0
M106 S255
G1 X91.814 Y37.333 F200
M106 S0
G0 X119.0 Y64.52 F6000
M106 S255
G1 X119.0 Y64.52 F200
M106 S0
M106 S255
G1 X124.48 Y70.0 F200
M106 S0
G0 X70.0 Y15.52 F6000
M106 S255
G1 X70.0 Y15.52 F200
M106 S0
M106 S255
G1 X75.48 Y21.0 F200
M106 S0
G0 X102.667 Y52.377 F6000
M106 S255
G1 X102.667 Y52.377 F200
M106 S0
M106 S255
G1 X103.956 Y53.667 F200
M106 S0
G0 X86.333 Y36.044 F6000
M106 S255
G1 X86.333 Y36.044 F200
M106 S0
M106 S255
G1 X87.623 Y37.333 F200
M106 S0
G0 X119.0 Y68.711 F6000
M106 S255
G1 X119.0 Y68.711 F200
M106 S0
M106 S255
G1 X120.289 Y70.0 F200
M106 S0
G0 X70.0 Y19.711 F6000
M106 S255
G1 X70.0 Y19.711 F200
M106 S0
M106 S255
G1 X71.289 Y21.0 F200
M106 S0
G0 X99.765 Y53.667 F6000
M106 S255
G1 X99.765 Y53.667 F200
M106 S0
M106 S255
G1 X102.667 Y56.568 F200
M106 S0
G0 X83.432 Y37.333 F6000
M106 S255
G1 X83.432 Y37.333 F200
M106 S0
M106 S255
G1 X86.333 Y40.235 F200
M106 S0
G0 X116.099 Y70.0 F6000
M106 S255
G1 X116.099 Y70.0 F200
M106 S0
M106 S255
G1 X119.0 Y72.901 F200
M106 S0
G0 X67.099 Y21.0 F6000
M106 S255
G1 X67.099 Y21.0 F200
M106 S0
M106 S255
G1 X70.0 Y23.901 F200
M106 S0
G0 X132.432 Y86.333 F6000
M106 S255
G1 X132.432 Y86.333 F200
M106 S0
M106 S255
G1 X135.333 Y89.235 F200
M106 S0
G0 X50.765 Y4.667 F6000
M106 S255
G1 X50.765 Y4.667 F200
M106 S0
M106 S255
G1 X53.667 Y7.568 F200
M106 S0
G0 X95.575 Y53.667 F6000
M106 S255
G1 X95.575 Y53.667 F200
M106 S0
M106 S255
G1 X102.667 Y60.759 F200
M106 S0
G0 X79.241 Y37.333 F6000
M106 S255
G1 X79.241 Y37.333 F200
M106 S0
M106 S255
G1 X86.333 Y44.425 F200
M106 S0
G0 X111.908 Y70.0 F6000
M106 S255
G1 X111.908 Y70.0 F200
M106 S0
M106 S255
G1 X119.0 Y77.092 F200
M106 S0
G0 X62.908 Y21.0 F6000
M106 S255
G1 X62.908 Y21.0 F200
M106 S0
M106 S255
G1 X70.0 Y28.092 F200
M106 S0
G0 X128.241 Y86.333 F6000
M106 S255
G1 X128.241 Y86.333 F200
M106 S0
M106 S255
G1 X135.333 Y93.425 F200
M106 S0
G0 X46.575 Y4.667 F6000
M106 S255
G1 X46.575 Y4.667 F200
M106 S0
M106 S255
G1 X53.667 Y11.759 F200
M106 S0
G0 X91.384 Y53.667 F6000
M106 S255
G1 X91.384 Y53.667 F200
M106 S0
M106 S255
G1 X102.667 Y64.95 F200
M106 S0
G0 X75.05 Y37.333 F6000
M106 S255
G1 X75.05 Y37.333 F200
M106 S0
M106 S255
G1 X86.333 Y48.616 F200
M106 S0
G0 X107.717 Y70.0 F6000
M106 S255
G1 X107.717 Y70.0 F200
M106 S0
M106 S255
G1 X119.0 Y81.283 F200
M106 S0
G0 X58.717 Y21.0 F6000
M106 S255
G1 X58.717 Y21.0 F200
M106 S0
M106 S255
G1 X70.0 Y32.283 F200
M106 S0
G0 X124.05 Y86.333 F6000
M106 S255
G1 X124.05 Y86.333 F200
M106 S0
M106 S255
G1 X135.333 Y97.616 F200
M106 S0
G0 X42.384 Y4.667 F6000
M106 S255
G1 X42.384 Y4.667 F200
M106 S0
M106 S255
G1 X53.667 Y15.95 F200
M106 S0
G0 X87.193 Y53.667 F6000
M106 S255
G1 X87.193 Y53.667 F200
M106 S0
M106 S255
G1 X102.667 Y69.14 F200
M106 S0
G0 X70.86 Y37.333 F6000
M106 S255
G1 X70.86 Y37.333 F200
M106 S0
M106 S255
G1 X86.333 Y52.807 F200
M106 S0
G0 X103.526 Y70.0 F6000
M106 S255
G1 X103.526 Y70.0 F200
M106 S0
M106 S255
G1 X119.0 Y85.474 F200
M106 S0
G0 X54.526 Y21.0 F6000
M106 S255
G1 X54.526 Y21.0 F200
M106 S0
M106 S255
G1 X70.0 Y36.474 F200
M106 S0
G0 X119.86 Y86.333 F6000
M106 S255
G1 X119.86 Y86.333 F200
M106 S0
M106 S255
G1 X135.333 Y101.807 F200
M106 S0
G0 X38.193 Y4.667 F6000
M106 S255
G1 X38.193 Y4.667 F200
M106 S0
M106 S255
G1 X53.667 Y20.14 F200
M106 S0
G0 X86.333 Y56.998 F6000
M106 S255
G1 X86.333 Y56.998 F200
M106 S0
M106 S255
G1 X99.336 Y70.0 F200
M106 S0
G0 X70.0 Y40.664 F6000
M106 S255
G1 X70.0 Y40.664 F200
M106 S0
M106 S255
G1 X83.002 Y53.667 F200
M106 S0
G0 X102.667 Y73.331 F6000
M106 S255
G1 X102.667 Y73.331 F200
M106 S0
M106 S255
G1 X115.669 Y86.333 F200
M106 S0
G0 X53.667 Y24.331 F6000
M106 S255
G1 X53.667 Y24.331 F200
M106 S0
M106 S255
G1 X66.669 Y37.333 F200
M106 S0
G0 X119.0 Y89.664 F6000
M106 S255
G1 X119.0 Y89.664 F200
M106 S0
M106 S255
G1 X132.002 Y102.667 F200
M106 S0
G0 X37.333 Y7.998 F6000
M106 S255
G1 X37.333 Y7.998 F200
M106 S0
M106 S255
G1 X50.336 Y21.0 F200
M106 S0
G0 X86.333 Y61.189 F6000
M106 S255
G1 X86.333 Y61.189 F200
M106 S0
M106 S255
G1 X95.145 Y70.0 F200
M106 S0
G0 X70.0 Y44.855 F6000
M106 S255
G1 X70.0 Y44.855 F200
M106 S0
M106 S255
G1 X78.811 Y53.667 F200
M106 S0
G0 X102.667 Y77.522 F6000
M106 S255
G1 X102.667 Y77.522 F200
M106 S0
M106 S255
G1 X111.478 Y86.333 F200
M106 S0
G0 X53.667 Y28.522 F6000
M106 S255
G1 X53.667 Y28.522 F200
M106 S0
M106 S255
G1 X62.478 Y37.333 F200
M106 S0
G0 X119.0 Y93.855 F6000
M106 S255
G1 X119.0 Y93.855 F200
M106 S0
M106 S255
G1 X127.811 Y102.667 F200
M106 S0
G0 X37.333 Y12.189 F6000
M106 S255
G1 X37.333 Y12.189 F200
M106 S0
M106 S255
G1 X46.145 Y21.0 F200
M106 S0
G0 X86.333 Y65.379 F6000
M106 S255
G1 X86.333 Y65.379 F200
M106 S0
M106 S255
G1 X90.954 Y70.0 F200
M106 S0
G0 X70.0 Y49.046 F6000
M106 S255
G1 X70.0 Y49.046 F200
M106 S0
M106 S255
G1 X74.621 Y53.667 F200
M106 S0
G0 X102.667 Y81.713 F6000
M106 S255
G1 X102.667 Y81.713 F200
M106 S0
M106 S255
G1 X107.287 Y86.333 F200
M106 S0
G0 X53.667 Y32.713 F6000
M106 S255
G1 X53.667 Y32.713 F200
M106 S0
M106 S255
G1 X58.287 Y37.333 F200
M106 S0
G0 X119.0 Y98.046 F6000
M106 S255
G1 X119.0 Y98.046 F200
M106 S0
M106 S255
G1 X123.621 Y102.667 F200
M106 S0
G0 X37.333 Y16.379 F6000
M106 S255
G1 X37.333 Y16.379 F200
M106 S0
M106 S255
G1 X41.954 Y21.0 F200
M106 S0
G0 X86.333 Y69.57 F6000
M106 S255
G1 X86.333 Y69.57 F200
M106 S0
M106 S255
G1 X86.763 Y70.0 F200
M106 S0
G0 X70.0 Y53.237 F6000
M106 S255
G1 X70.0 Y53.237 F200
M106 S0
M106 S255
G1 X70.43 Y53.667 F200
M106 S0
G0 X102.667 Y85.904 F6000
M106 S255
G1 X102.667 Y85.904 F200
M106 S0
M106 S255
G1 X103.096 Y86.333 F200
M106 S0
G0 X53.667 Y36.904 F6000
M106 S255
G1 X53.667 Y36.904 F200
M106 S0
M106 S255
G1 X54.096 Y37.333 F200
M106 S0
G0 X119.0 Y102.237 F6000
M106 S255
G1 X119.0 Y102.237 F200
M106 S0
M106 S255
G1 X119.43 Y102.667 F200
M106 S0
G0 X37.333 Y20.57 F6000
M106 S255
G1 X37.333 Y20.57 F200
M106 S0
M106 S255
G1 X37.763 Y21.0 F200
M106 S0
G0 X82.572 Y70.0 F6000
M106 S255
G1 X82.572 Y70.0 F200
M106 S0
M106 S255
G1 X86.333 Y73.761 F200
M106 S0
G0 X66.239 Y53.667 F6000
M106 S255
G1 X66.239 Y53.667 F200
M106 S0
M106 S255
G1 X70.0 Y57.428 F200
M106 S0
G0 X98.906 Y86.333 F6000
M106 S255
G1 X98.906 Y86.333 F200
M106 S0
M106 S255
G1 X102.667 Y90.094 F200
M106 S0
G0 X49.906 Y37.333 F6000
M106 S255
G1 X49.906 Y37.333 F200
M106 S0
M106 S255
G1 X53.667 Y41.094 F200
M106 S0
G0 X115.239 Y102.667 F6000
M106 S255
G1 X115.239 Y102.667 F200
M106 S0
M106 S255
G1 X119.0 Y106.428 F200
M106 S0
G0 X33.572 Y21.0 F6000
M106 S255
G1 X33.572 Y21.0 F200
M106 S0
M106 S255
G1 X37.333 Y24.761 F200
M106 S0
G0 X131.572 Y119.0 F6000
M106 S255
G1 X131.572 Y119.0 F200
M106 S0
M106 S255
G1 X135.333 Y122.761 F200
M106 S0
G0 X17.239 Y4.667 F6000
M106 S255
G1 X17.239 Y4.667 F200
M106 S0
M106 S255
G1 X21.0 Y8.428 F200
M106 S0
G0 X78.382 Y70.0 F6000
M106 S255
G1 X78.382 Y70.0 F200
M106 S0
M106 S255
G1 X86.333 Y77.952 F200
M106 S0
G0 X62.048 Y53.667 F6000
M106 S255
G1 X62.048 Y53.667 F200
M106 S0
M106 S255
G1 X70.0 Y61.618 F200
M106 S0
G0 X94.715 Y86.333 F6000
M106 S255
G1 X94.715 Y86.333 F200
M106 S0
M106 S255
G1 X102.667 Y94.285 F200
M106 S0
G0 X45.715 Y37.333 F6000
M106 S255
G1 X45.715 Y37.333 F200
M106 S0
M106 S255
G1 X53.667 Y45.285 F200
M106 S0
G0 X111.048 Y102.667 F6000
M106 S255
G1 X111.048 Y102.667 F200
M106 S0
M106 S255
G1 X119.0 Y110.618 F200
M106 S0
G0 X29.382 Y21.0 F6000
M106 S255
G1 X29.382 Y21.0 F200
M106 S0
M106 S255
G1 X37.333 Y28.952 F200
M106 S0
G0 X127.382 Y119.0 F6000
M106 S255
G1 X127.382 Y119.0 F200
M106 S0
M106 S255
G1 X135.333 Y126.952 F200
M106 S0
G0 X13.048 Y4.667 F6000
M106 S255
G1 X13.048 Y4.667 F200
M106 S0
M106 S255
G1 X21.0 Y12.618 F200
M106 S0
G0 X74.191 Y70.0 F6000
M106 S255
G1 X74.191 Y70.0 F200
M106 S0
M106 S255
G1 X86.333 Y82.143 F200
M106 S0
G0 X57.857 Y53.667 F6000
M106 S255
G1 X57.857 Y53.667 F200
M106 S0
M106 S255
G1 X70.0 Y65.809 F200
M106 S0
G0 X90.524 Y86.333 F6000
M106 S255
G1 X90.524 Y86.333 F200
M106 S0
M106 S255
G1 X102.667 Y98.476 F200
M106 S0
G0 X41.524 Y37.333 F6000
M106 S255
G1 X41.524 Y37.333 F200
M106 S0
M106 S255
G1 X53.667 Y49.476 F200
M106 S0
G0 X106.857 Y102.667 F6000
M106 S255
G1 X106.857 Y102.667 F200
M106 S0
M106 S255
G1 X119.0 Y114.809 F200
M106 S0
G0 X25.191 Y21.0 F6000
M106 S255
G1 X25.191 Y21.0 F200
M106 S0
M106 S255
G1 X37.333 Y33.143 F200
M106 S0
G0 X123.191 Y119.0 F6000
M106 S255
G1 X123.191 Y119.0 F200
M106 S0
M106 S255
G1 X135.333 Y131.143 F200
M106 S0
G0 X8.857 Y4.667 F6000
M106 S255
G1 X8.857 Y4.667 F200
M106 S0
M106 S255
G1 X21.0 Y16.809 F200
M106 S0
G0 X70.0 Y70.0 F6000
M106 S255
G1 X70.0 Y70.0 F200
M106 S0
M106 S255
G1 X86.333 Y86.333 F200
M106 S0
G0 X53.667 Y53.667 F6000
M106 S255
G1 X53.667 Y53.667 F200
M106 S0
M106 S255
G1 X70.0 Y70.0 F200
M106 S0
G0 X86.333 Y86.333 F6000
M106 S255
G1 X86.333 Y86.333 F200
M106 S0
M106 S255
G1 X102.667 Y102.667 F200
M106 S0
G0 X37.333 Y37.333 F6000
M106 S255
G1 X37.333 Y37.333 F200
M106 S0
M106 S255
G1 X53.667 Y53.667 F200
M106 S0
G0 X102.667 Y102.667 F6000
M106 S255
G1 X102.667 Y102.667 F200
M106 S0
M106 S255
G1 X119.0 Y119.0 F200
M106 S0
G0 X21.0 Y21.0 F6000
M106 S255
G1 X21.0 Y21.0 F200
M106 S0
M106 S255
G1 X37.333 Y37.333 F200
M106 S0
G0 X119.0 Y119.0 F6000
M106 S255
G1 X119.0 Y119.0 F200
M106 S0
M106 S255
G1 X135.333 Y135.333 F200
M106 S0
G0 X4.667 Y4.667 F6000
M106 S255
G1 X4.667 Y4.667 F200
M106 S0
M106 S255
G1 X21.0 Y21.0 F200
M106 S0
G0 X70.0 Y74.191 F6000
M106 S255
G1 X70.0 Y74.191 F200
M106 S0
M106 S255
G1 X82.143 Y86.333 F200
M106 S0
G0 X53.667 Y57.857 F6000
M106 S255
G1 X53.667 Y57.857 F200
M106 S0
M106 S255
G1 X65.809 Y70.0 F200
M106 S0
G0 X86.333 Y90.524 F6000
M106 S255
G1 X86.333 Y90.524 F200
M106 S0
M106 S255
G1 X98.476 Y102.667 F200
M106 S0
G0 X37.333 Y41.524 F6000
M106 S255
G1 X37.333 Y41.524 F200
M106 S0
M106 S255
G1 X49.476 Y53.667 F200
M106 S0
G0 X102.667 Y106.857 F6000
M106 S255
G1 X102.667 Y106.857 F200
M106 S0
M106 S255
G1 X114.809 Y119.0 F200
M106 S0
G0 X21.0 Y25.191 F6000
M106 S255
G1 X21.0 Y25.191 F200
M106 S0
M106 S255
G1 X33.143 Y37.333 F200
M106 S0
G0 X119.0 Y123.191 F6000
M106 S255
G1 X119.0 Y123.191 F200
M106 S0
M106 S255
G1 X131.143 Y135.333 F200
M106 S0
G0 X4.667 Y8.857 F6000
M106 S255
G1 X4.667 Y8.857 F200
M106 S0
M106 S255
G1 X16.809 Y21.0 F200
M106 S0
G0 X70.0 Y78.382 F6000
M106 S255
G1 X70.0 Y78.382 F200
M106 S0
M106 S255
G1 X77.952 Y86.333 F200
M106 S0
G0 X53.667 Y62.048 F6000
M106 S255
G1 X53.667 Y62.048 F200
M106 S0
M106 S255
G1 X61.618 Y70.0 F200
M106 S0
G0 X86.333 Y94.715 F6000
M106 S255
G1 X86.333 Y94.715 F200
M106 S0
M106 S255
G1 X94.285 Y102.667 F200
M106 S0
G0 X37.333 Y45.715 F6000
M106 S255
G1 X37.333 Y45.715 F200
M106 S0
M106 S255
G1 X45.285 Y53.667 F200
M106 S0
G0 X102.667 Y111.048 F6000
M106 S255
G1 X102.667 Y111.048 F200
M106 S0
M106 S255
G1 X110.618 Y119.0 F200
M106 S0
G0 X21.0 Y29.382 F6000
M106 S255
G1 X21.0 Y29.382 F200
M106 S0
M106 S255
G1 X28.952 Y37.333 F200
M106 S0
G0 X119.0 Y127.382 F6000
M106 S255
G1 X119.0 Y127.382 F200
M106 S0
M106 S255
G1 X126.952 Y135.333 F200
M106 S0
G0 X4.667 Y13.048 F6000
M106 S255
G1 X4.667 Y13.048 F200
M106 S0
M106 S255
G1 X12.618 Y21.0 F200
M106 S0
G0 X70.0 Y82.572 F6000
M106 S255
G1 X70.0 Y82.572 F200
M106 S0
M106 S255
G1 X73.761 Y86.333 F200
M106 S0
G0 X53.667 Y66.239 F6000
M106 S255
G1 X53.667 Y66.239 F200
M106 S0
M106 S255
G1 X57.428 Y70.0 F200
M106 S0
G0 X86.333 Y98.906 F6000
M106 S255
G1 X86.333 Y98.906 F200
M106 S0
M106 S255
G1 X90.094 Y102.667 F200
M106 S0
G0 X37.333 Y49.906 F6000
M106 S255
G1 X37.333 Y49.906 F200
M106 S0
M106 S255
G1 X41.094 Y53.667 F200
M106 S0
G0 X102.667 Y115.239 F6000
M106 S255
G1 X102.667 Y115.239 F200
M106 S0
M106 S255
G1 X106.428 Y119.0 F200
M106 S0
G0 X21.0 Y33.572 F6000
M106 S255
G1 X21.0 Y33.572 F200
M106 S0
M106 S255
G1 X24.761 Y37.333 F200
M106 S0
G0 X119.0 Y131.572 F6000
M106 S255
G1 X119.0 Y131.572 F200
M106 S0
M106 S255
G1 X122.761 Y135.333 F200
M106 S0
G0 X4.667 Y17.239 F6000
M106 S255
G1 X4.667 Y17.239 F200
M106 S0
M106 S255
G1 X8.428 Y21.0 F200
M106 S0
G0 X69.57 Y86.333 F6000
M106 S255
G1 X69.57 Y86.333 F200
M106 S0
M106 S255
G1 X70.0 Y86.763 F200
M106 S0
G0 X53.237 Y70.0 F6000
M106 S255
G1 X53.237 Y70.0 F200
M106 S0
M106 S255
G1 X53.667 Y70.43 F200
M106 S0
G0 X85.904 Y102.667 F6000
M106 S255
G1 X85.904 Y102.667 F200
M106 S0
M106 S255
G1 X86.333 Y103.096 F200
M106 S0
G0 X36.904 Y53.667 F6000
M106 S255
G1 X36.904 Y53.667 F200
M106 S0
M106 S255
G1 X37.333 Y54.096 F200
M106 S0
G0 X102.237 Y119.0 F6000
M106 S255
G1 X102.237 Y119.0 F200
M106 S0
M106 S255
G1 X102.667 Y119.43 F200
M106 S0
G0 X20.57 Y37.333 F6000
M106 S255
G1 X20.57 Y37.333 F200
M106 S0
M106 S255
G1 X21.0 Y37.763 F200
M106 S0
G0 X65.379 Y86.333 F6000
M106 S255
G1 X65.379 Y86.333 F200
M106 S0
M106 S255
G1 X70.0 Y90.954 F200
M106 S0
G0 X49.046 Y70.0 F6000
M106 S255
G1 X49.046 Y70.0 F200
M106 S0
M106 S255
G1 X53.667 Y74.621 F200
M106 S0
G0 X81.713 Y102.667 F6000
M106 S255
G1 X81.713 Y102.667 F200
M106 S0
M106 S255
G1 X86.333 Y107.287 F200
M106 S0
G0 X32.713 Y53.667 F6000
M106 S255
G1 X32.713 Y53.667 F200
M106 S0
M106 S255
G1 X37.333 Y58.287 F200
M106 S0
G0 X98.046 Y119.0 F6000
M106 S255
G1 X98.046 Y119.0 F200
M106 S0
M106 S255
G1 X102.667 Y123.621 F200
M106 S0
G0 X16.379 Y37.333 F6000
M106 S255
G1 X16.379 Y37.333 F200
M106 S0
M106 S255
G1 X21.0 Y41.954 F200
M106 S0
G0 X61.189 Y86.333 F6000
M106 S255
G1 X61.189 Y86.333 F200
M106 S0
M106 S255
G1 X70.0 Y95.145 F200
M106 S0
G0 X44.855 Y70.0 F6000
M106 S255
G1 X44.855 Y70.0 F200
M106 S0
M106 S255
G1 X53.667 Y78.811 F200
M106 S0
G0 X77.522 Y102.667 F6000
M106 S255
G1 X77.522 Y102.667 F200
M106 S0
M106 S255
G1 X86.333 Y111.478 F200
M106 S0
G0 X28.522 Y53.667 F6000
M106 S255
G1 X28.522 Y53.667 F200
M106 S0
M106 S255
G1 X37.333 Y62.478 F200
M106 S0
G0 X93.855 Y119.0 F6000
M106 S255
G1 X93.855 Y119.0 F200
M106 S0
M106 S255
G1 X102.667 Y127.811 F200
M106 S0
G0 X12.189 Y37.333 F6000
M106 S255
G1 X12.189 Y37.333 F200
M106 S0
M106 S255
G1 X21.0 Y46.145 F200
M106 S0
G0 X56.998 Y86.333 F6000
M106 S255
G1 X56.998 Y86.333 F200
M106 S0
M106 S255
G1 X70.0 Y99.336 F200
M106 S0
G0 X40.664 Y70.0 F6000
M106 S255
G1 X40.664 Y70.0 F200
M106 S0
M106 S255
G1 X53.667 Y83.002 F200
M106 S0
G0 X73.331 Y102.667 F6000
M106 S255
G1 X73.331 Y102.667 F200
M106 S0
M106 S255
G1 X86.333 Y115.669 F200
M106 S0
G0 X24.331 Y53.667 F6000
M106 S255
G1 X24.331 Y53.667 F200
M106 S0
M106 S255
G1 X37.333 Y66.669 F200
M106 S0
G0 X89.664 Y119.0 F6000
M106 S255
G1 X89.664 Y119.0 F200
M106 S0
M106 S255
G1 X102.667 Y132.002 F200
M106 S0
G0 X7.998 Y37.333 F6000
M106 S255
G1 X7.998 Y37.333 F200
M106 S0
M106 S255
G1 X21.0 Y50.336 F200
M106 S0
G0 X53.667 Y87.193 F6000
M106 S255
G1 X53.667 Y87.193 F200
M106 S0
M106 S255
G1 X69.14 Y102.667 F200
M106 S0
G0 X37.333 Y70.86 F6000
M106 S255
G1 X37.333 Y70.86 F200
M106 S0
M106 S255
G1 X52.807 Y86.333 F200
M106 S0
G0 X70.0 Y103.526 F6000
M106 S255
G1 X70.0 Y103.526 F200
M106 S0
M106 S255
G1 X85.474 Y119.0 F200
M106 S0
G0 X21.0 Y54.526 F6000
M106 S255
G1 X21.0 Y54.526 F200
M106 S0
M106 S255
G1 X36.474 Y70.0 F200
M106 S0
G0 X86.333 Y119.86 F6000
M106 S255
G1 X86.333 Y119.86 F200
M106 S0
M106 S255
G1 X101.807 Y135.333 F200
M106 S0
G0 X4.667 Y38.193 F6000
M106 S255
G1 X4.667 Y38.193 F200
M106 S0
M106 S255
G1 X20.14 Y53.667 F200
M106 S0
G0 X53.667 Y91.384 F6000
M106 S255
G1 X53.667 Y91.384 F200
M106 S0
M106 S255
G1 X64.95 Y102.667 F200
M106 S0
G0 X37.333 Y75.05 F6000
M106 S255
G1 X37.333 Y75.05 F200
M106 S0
M106 S255
G1 X48.616 Y86.333 F200
M106 S0
G0 X70.0 Y107.717 F6000
M106 S255
G1 X70.0 Y107.717 F200
M106 S0
M106 S255
G1 X81.283 Y119.0 F200
M106 S0
G0 X21.0 Y58.717 F6000
M106 S255
G1 X21.0 Y58.717 F200
M106 S0
M106 S255
G1 X32.283 Y70.0 F200
M106 S0
G0 X86.333 Y124.05 F6000
M106 S255
G1 X86.333 Y124.05 F200
M106 S0
M106 S255
G1 X97.616 Y135.333 F200
M106 S0
G0 X4.667 Y42.384 F6000
M106 S255
G1 X4.667 Y42.384 F200
M106 S0
M106 S255
G1 X15.95 Y53.667 F200
M106 S0
G0 X53.667 Y95.575 F6000
M106 S255
G1 X53.667 Y95.575 F200
M106 S0
M106 S255
G1 X60.759 Y102.667 F200
M106 S0
G0 X37.333 Y79.241 F6000
M106 S255
G1 X37.333 Y79.241 F200
M106 S0
M106 S255
G1 X44.425 Y86.333 F200
M106 S0
G0 X70.0 Y111.908 F6000
M106 S255
G1 X70.0 Y111.908 F200
M106 S0
M106 S255
G1 X77.092 Y119.0 F200
M106 S0
G0 X21.0 Y62.908 F6000
M106 S255
G1 X21.0 Y62.908 F200
M106 S0
M106 S255
G1 X28.092 Y70.0 F200
M106 S0
G0 X86.333 Y128.241 F6000
M106 S255
G1 X86.333 Y128.241 F200
M106 S0
M106 S255
G1 X93.425 Y135.333 F200
M106 S0
G0 X4.667 Y46.575 F6000
M106 S255
G1 X4.667 Y46.575 F200
M106 S0
M106 S255
G1 X11.759 Y53.667 F200
M106 S0
G0 X53.667 Y99.765 F6000
M106 S255
G1 X53.667 Y99.765 F200
M106 S0
M106 S255
G1 X56.568 Y102.667 F200
M106 S0
G0 X37.333 Y83.432 F6000
M106 S255
G1 X37.333 Y83.432 F200
M106 S0
M106 S255
G1 X40.235 Y86.333 F200
M106 S0
G0 X70.0 Y116.099 F6000
M106 S255
G1 X70.0 Y116.099 F200
M106 S0
M106 S255
G1 X72.901 Y119.0 F200
M106 S0
G0 X21.0 Y67.099 F6000
M106 S255
G1 X21.0 Y67.099 F200
M106 S0
M106 S255
G1 X23.901 Y70.0 F200
M106 S0
G0 X86.333 Y132.432 F6000
M106 S255
G1 X86.333 Y132.432 F200
M106 S0
M106 S255
G1 X89.235 Y135.333 F200
M106 S0
G0 X4.667 Y50.765 F6000
M106 S255
G1 X4.667 Y50.765 F200
M106 S0
M106 S255
G1 X7.568 Y53.667 F200
M106 S0
G0 X52.377 Y102.667 F6000
M106 S255
G1 X52.377 Y102.667 F200
M106 S0
M106 S255
G1 X53.667 Y103.956 F200
M106 S0
G0 X36.044 Y86.333 F6000
M106 S255
G1 X36.044 Y86.333 F200
M106 S0
M106 S255
G1 X37.333 Y87.623 F200
M106 S0
G0 X68.711 Y119.0 F6000
M106 S255
G1 X68.711 Y119.0 F200
M106 S0
M106 S255
G1 X70.0 Y120.289 F200
M106 S0
G0 X19.711 Y70.0 F6000
M106 S255
G1 X19.711 Y70.0 F200
M106 S0
M106 S255
G1 X21.0 Y71.289 F200
M106 S0
G0 X48.186 Y102.667 F6000
M106 S255
G1 X48.186 Y102.667 F200
M106 S0
M106 S255
G1 X53.667 Y108.147 F200
M106 S0
G0 X31.853 Y86.333 F6000
M106 S255
G1 X31.853 Y86.333 F200
M106 S0
M106 S255
G1 X37.333 Y91.814 F200
M106 S0
G0 X64.52 Y119.0 F6000
M106 S255
G1 X64.52 Y119.0 F200
M106 S0
M106 S255
G1 X70.0 Y124.48 F200
M106 S0
G0 X15.52 Y70.0 F6000
M106 S255
G1 X15.52 Y70.0 F200
M106 S0
M106 S255
G1 X21.0 Y75.48 F200
M106 S0
G0 X43.996 Y102.667 F6000
M106 S255
G1 X43.996 Y102.667 F200
M106 S0
M106 S255
G1 X53.667 Y112.338 F200
M106 S0
G0 X27.662 Y86.333 F6000
M106 S255
G1 X27.662 Y86.333 F200
M106 S0
M106 S255
G1 X37.333 Y96.004 F200
M106 S0
G0 X60.329 Y119.0 F6000
M106 S255
G1 X60.329 Y119.0 F200
M106 S0
M106 S255
G1 X70.0 Y128.671 F200
M106 S0
G0 X11.329 Y70.0 F6000
M106 S255
G1 X11.329 Y70.0 F200
M106 S0
M106 S255
G1 X21.0 Y79.671 F200
M106 S0
G0 X39.805 Y102.667 F6000
M106 S255
G1 X39.805 Y102.667 F200
M106 S0
M106 S255
G1 X53.667 Y116.528 F200
M106 S0
G0 X23.472 Y86.333 F6000
M106 S255
G1 X23.472 Y86.333 F200
M106 S0
M106 S255
G1 X37.333 Y100.195 F200
M106 S0
G0 X56.138 Y119.0 F6000
M106 S255
G1 X56.138 Y119.0 F200
M106 S0
M106 S255
G1 X70.0 Y132.862 F200
M106 S0
G0 X7.138 Y70.0 F6000
M106 S255
G1 X7.138 Y70.0 F200
M106 S0
M106 S255
G1 X21.0 Y83.862 F200
M106 S0
G0 X37.333 Y104.386 F6000
M106 S255
G1 X37.333 Y104.386 F200
M106 S0
M106 S255
G1 X51.947 Y119.0 F200
M106 S0
G0 X21.0 Y88.053 F6000
M106 S255
G1 X21.0 Y88.053 F200
M106 S0
M106 S255
G1 X35.614 Y102.667 F200
M106 S0
G0 X53.667 Y120.719 F6000
M106 S255
G1 X53.667 Y120.719 F200
M106 S0
M106 S255
G1 X68.281 Y135.333 F200
M106 S0
G0 X4.667 Y71.719 F6000
M106 S255
G1 X4.667 Y71.719 F200
M106 S0
M106 S255
G1 X19.281 Y86.333 F200
M106 S0
G0 X37.333 Y108.577 F6000
M106 S255
G1 X37.333 Y108.577 F200
M106 S0
M106 S255
G1 X47.757 Y119.0 F200
M106 S0
G0 X21.0 Y92.243 F6000
M106 S255
G1 X21.0 Y92.243 F200
M106 S0
M106 S255
G1 X31.423 Y102.667 F200
M106 S0
G0 X53.667 Y124.91 F6000
M106 S255
G1 X53.667 Y124.91 F200
M106 S0
M106 S255
G1 X64.09 Y135.333 F200
M106 S0
G0 X4.667 Y75.91 F6000
M106 S255
G1 X4.667 Y75.91 F200
M106 S0
M106 S255
G1 X15.09 Y86.333 F200
M106 S0
G0 X37.333 Y112.767 F6000
M106 S255
G1 X37.333 Y112.767 F200
M106 S0
M106 S255
G1 X43.566 Y119.0 F200
M106 S0
G0 X21.0 Y96.434 F6000
M106 S255
G1 X21.0 Y96.434 F200
M106 S0
M106 S255
G1 X27.233 Y102.667 F200
M106 S0
G0 X53.667 Y129.101 F6000
M106 S255
G1 X53.667 Y129.101 F200
M106 S0
M106 S255
G1 X59.899 Y135.333 F200
M106 S0
G0 X4.667 Y80.101 F6000
M106 S255
G1 X4.667 Y80.101 F200
M106 S0
M106 S255
G1 X10.899 Y86.333 F200
M106 S0
G0 X37.333 Y116.958 F6000
M106 S255
G1 X37.333 Y116.958 F200
M106 S0
M106 S255
G1 X39.375 Y119.0 F200
M106 S0
G0 X21.0 Y100.625 F6000
M106 S255
G1 X21.0 Y100.625 F200
M106 S0
M106 S255
G1 X23.042 Y102.667 F200
M106 S0
G0 X53.667 Y133.292 F6000
M106 S255
G1 X53.667 Y133.292 F200
M106 S0
M106 S255
G1 X55.708 Y135.333 F200
M106 S0
G0 X4.667 Y84.292 F6000
M106 S255
G1 X4.667 Y84.292 F200
M106 S0
M106 S255
G1 X6.708 Y86.333 F200
M106 S0
G0 X35.184 Y119.0 F6000
M106 S255
G1 X35.184 Y119.0 F200
M106 S0
M106 S255
G1 X37.333 Y121.149 F200
M106 S0
G0 X18.851 Y102.667 F6000
M106 S255
G1 X18.851 Y102.667 F200
M106 S0
M106 S255
G1 X21.0 Y104.816 F200
M106 S0
G0 X30.993 Y119.0 F6000
M106 S255
G1 X30.993 Y119.0 F200
M106 S0
M106 S255
G1 X37.333 Y125.34 F200
M106 S0
G0 X14.66 Y102.667 F6000
M106 S255
G1 X14.66 Y102.667 F200
M106 S0
M106 S255
G1 X21.0 Y109.007 F200
M106 S0
G0 X26.803 Y119.0 F6000
M106 S255
G1 X26.803 Y119.0 F200
M106 S0
M106 S255
G1 X37.333 Y129.531 F200
M106 S0
G0 X10.469 Y102.667 F6000
M106 S255
G1 X10.469 Y102.667 F200
M106 S0
M106 S255
G1 X21.0 Y113.197 F200
M106 S0
G0 X22.612 Y119.0 F6000
M106 S255
G1 X22.612 Y119.0 F200
M106 S0
M106 S255
G1 X37.333 Y133.721 F200
M106 S0
G0 X6.279 Y102.667 F6000
M106 S255
G1 X6.279 Y102.667 F200
M106 S0
M106 S255
G1 X21.0 Y117.388 F200
M106 S0
G0 X21.0 Y121.579 F6000
M106 S255
G1 X21.0 Y121.579 F200
M106 S0
M106 S255
G1 X34.754 Y135.333 F200
M106 S0
G0 X4.667 Y105.246 F6000
M106 S255
G1 X4.667 Y105.246 F200
M106 S0
M106 S255
G1 X18.421 Y119.0 F200
M106 S0
G0 X21.0 Y125.77 F6000
M106 S255
G1 X21.0 Y125.77 F200
M106 S0
M106 S255
G1 X30.564 Y135.333 F200
M106 S0
G0 X4.667 Y109.436 F6000
M106 S255
G1 X4.667 Y109.436 F200
M106 S0
M106 S255
G1 X14.23 Y119.0 F200
M106 S0
G0 X21.0 Y129.96 F6000
M106 S255
G1 X21.0 Y129.96 F200
M106 S0
M106 S255
G1 X26.373 Y135.333 F200
M106 S0
G0 X4.667 Y113.627 F6000
M106 S255
G1 X4.667 Y113.627 F200
M106 S0
M106 S255
G1 X10.04 Y119.0 F200
M106 S0
G0 X21.0 Y134.151 F6000
M106 S255
G1 X21.0 Y134.151 F200
M106 S0
M106 S255
G1 X22.182 Y135.333 F200
M106 S0
G0 X4.667 Y117.818 F6000
M106 S255
G1 X4.667 Y117.818 F200
M106 S0
M106 S255
G1 X5.849 Y119.0 F200
M106 S0
G0 X37.333 Y135.333 F6000
M106 S255
G1 X37.333 Y135.333 F200
M106 S0
M106 S255
G1 X37.333 Y4.667 F200
M106 S0
G0 X0.0 Y0.0 F6000
M106 S255
G1 X0.0 Y0.0 F200
M106 S0
M106 S255
G1 X140.0 Y0.0 F200
M106 S0
G0 X15.908 Y147.715 F6000
M106 S255
G1 X15.908 Y147.715 F200
M106 S0
M106 S255
G1 X12.85 Y147.715 F200
M106 S0
M106 S255
G1 X12.85 Y149.028 F200
M106 S0
M106 S255
G1 X12.995 Y149.463 F200
M106 S0
M106 S255
G1 X13.14 Y149.608 F200
M106 S0
M106 S255
G1 X13.43 Y149.757 F200
M106 S0
M106 S255
G1 X13.87 Y149.757 F200
M106 S0
M106 S255
G1 X14.16 Y149.608 F200
M106 S0
M106 S255
G1 X14.304 Y149.463 F200
M106 S0
M106 S255
G1 X14.454 Y149.028 F200
M106 S0
M106 S255
G1 X14.454 Y147.715 F200
M106 S0
G0 X13.87 Y151.506 F6000
M106 S255
G1 X13.87 Y151.506 F200
M106 S0
M106 S255
G1 X14.015 Y151.211 F200
M106 S0
M106 S255
G1 X14.304 Y150.921 F200
M106 S0
M106 S255
G1 X14.744 Y150.776 F200
M106 S0
M106 S255
G1 X15.034 Y150.776 F200
M106 S0
M106 S255
G1 X15.473 Y150.921 F200
M106 S0
M106 S255
G1 X15.763 Y151.211 F200
M106 S0
M106 S255
G1 X15.908 Y151.506 F200
M106 S0
M106 S255
G1 X15.908 Y151.941 F200
M106 S0
M106 S255
G1 X15.763 Y152.23 F200
M106 S0
M106 S255
G1 X15.473 Y152.525 F200
M106 S0
M106 S255
G1 X15.034 Y152.67 F200
M106 S0
M106 S255
G1 X14.744 Y152.67 F200
M106 S0
M106 S255
G1 X14.304 Y152.525 F200
M106 S0
M106 S255
G1 X14.015 Y152.23 F200
M106 S0
M106 S255
G1 X13.87 Y151.941 F200
M106 S0
M106 S255
G1 X13.87 Y151.506 F200
M106 S0
M106 S255
G1 X13.87 Y151.506 F200
M106 S0
G0 X14.304 Y155.147 F6000
M106 S255
G1 X14.304 Y155.147 F200
M106 S0
M106 S255
G1 X14.015 Y155.002 F200
M106 S0
M106 S255
G1 X13.87 Y154.563 F200
M106 S0
M106 S255
G1 X13.87 Y154.128 F200
M106 S0
M106 S255
G1 X14.015 Y153.689 F200
M106 S0
M106 S255
G1 X14.304 Y153.544 F200
M106 S0
M106 S255
G1 X14.599 Y153.689 F200
M106 S0
M106 S255
G1 X14.744 Y153.979 F200
M106 S0
M106 S255
G1 X14.889 Y154.708 F200
M106 S0
M106 S255
G1 X15.034 Y155.002 F200
M106 S0
M106 S255
G1 X15.328 Y155.147 F200
M106 S0
M106 S255
G1 X15.473 Y155.147 F200
M106 S0
M106 S255
G1 X15.763 Y155.002 F200
M106 S0
M106 S255
G1 X15.908 Y154.563 F200
M106 S0
M106 S255
G1 X15.908 Y154.128 F200
M106 S0
M106 S255
G1 X15.763 Y153.689 F200
M106 S0
M106 S255
G1 X15.473 Y153.544 F200
M106 S0
G0 X12.995 Y156.021 F6000
M106 S255
G1 X12.995 Y156.021 F200
M106 S0
M106 S255
G1 X13.14 Y156.166 F200
M106 S0
M106 S255
G1 X12.995 Y156.311 F200
M106 S0
M106 S255
G1 X12.85 Y156.166 F200
M106 S0
M106 S255
G1 X12.995 Y156.021 F200
M106 S0
M106 S255
G1 X12.995 Y156.021 F200
M106 S0
G0 X13.87 Y156.166 F6000
M106 S255
G1 X13.87 Y156.166 F200
M106 S0
M106 S255
G1 X15.908 Y156.166 F200
M106 S0
G0 X12.85 Y157.625 F6000
M106 S255
G1 X12.85 Y157.625 F200
M106 S0
M106 S255
G1 X15.328 Y157.625 F200
M106 S0
M106 S255
G1 X15.763 Y157.77 F200
M106 S0
M106 S255
G1 X15.908 Y158.06 F200
M106 S0
M106 S255
G1 X15.908 Y158.35 F200
M106 S0
G0 X13.87 Y157.186 F6000
M106 S255
G1 X13.87 Y157.186 F200
M106 S0
M106 S255
G1 X13.87 Y158.205 F200
M106 S0
G0 X12.995 Y159.224 F6000
M106 S255
G1 X12.995 Y159.224 F200
M106 S0
M106 S255
G1 X13.14 Y159.373 F200
M106 S0
M106 S255
G1 X12.995 Y159.518 F200
M106 S0
M106 S255
G1 X12.85 Y159.373 F200
M106 S0
M106 S255
G1 X12.995 Y159.224 F200
M106 S0
M106 S255
G1 X12.995 Y159.224 F200
M106 S0
G0 X13.87 Y159.373 F6000
M106 S255
G1 X13.87 Y159.373 F200
M106 S0
M106 S255
G1 X15.908 Y159.373 F200
M106 S0
G0 X13.87 Y161.122 F6000
M106 S255
G1 X13.87 Y161.122 F200
M106 S0
M106 S255
G1 X14.015 Y160.827 F200
M106 S0
M106 S255
G1 X14.304 Y160.537 F200
M106 S0
M106 S255
G1 X14.744 Y160.392 F200
M106 S0
M106 S255
G1 X15.034 Y160.392 F200
M106 S0
M106 S255
G1 X15.473 Y160.537 F200
M106 S0
M106 S255
G1 X15.763 Y160.827 F200
M106 S0
M106 S255
G1 X15.908 Y161.122 F200
M106 S0
M106 S255
G1 X15.908 Y161.556 F200
M106 S0
M106 S255
G1 X15.763 Y161.846 F200
M106 S0
M106 S255
G1 X15.473 Y162.141 F200
M106 S0
M106 S255
G1 X15.034 Y162.286 F200
M106 S0
M106 S255
G1 X14.744 Y162.286 F200
M106 S0
M106 S255
G1 X14.304 Y162.141 F200
M106 S0
M106 S255
G1 X14.015 Y161.846 F200
M106 S0
M106 S255
G1 X13.87 Y161.556 F200
M106 S0
M106 S255
G1 X13.87 Y161.122 F200
M106 S0
M106 S255
G1 X13.87 Y161.122 F200
M106 S0
G0 X15.908 Y163.16 F6000
M106 S255
G1 X15.908 Y163.16 F200
M106 S0
M106 S255
G1 X13.87 Y163.16 F200
M106 S0
G0 X14.454 Y163.16 F6000
M106 S255
G1 X14.454 Y163.16 F200
M106 S0
M106 S255
G1 X14.015 Y163.595 F200
M106 S0
M106 S255
G1 X13.87 Y163.889 F200
M106 S0
M106 S255
G1 X13.87 Y164.324 F200
M106 S0
M106 S255
G1 X14.015 Y164.618 F200
M106 S0
M106 S255
G1 X14.454 Y164.763 F200
M106 S0
M106 S255
G1 X15.908 Y164.763 F200
M106 S0
G0 X12.85 Y170.443 F6000
M106 S255
G1 X12.85 Y170.443 F200
M106 S0
M106 S255
G1 X15.908 Y170.443 F200
M106 S0
G0 X14.304 Y170.443 F6000
M106 S255
G1 X14.304 Y170.443 F200
M106 S0
M106 S255
G1 X14.015 Y170.153 F200
M106 S0
M106 S255
G1 X13.87 Y169.863 F200
M106 S0
M106 S255
G1 X13.87 Y169.424 F200
M106 S0
M106 S255
G1 X14.015 Y169.134 F200
M106 S0
M106 S255
G1 X14.304 Y168.84 F200
M106 S0
M106 S255
G1 X14.744 Y168.695 F200
M106 S0
M106 S255
G1 X15.034 Y168.695 F200
M106 S0
M106 S255
G1 X15.473 Y168.84 F200
M106 S0
M106 S255
G1 X15.763 Y169.134 F200
M106 S0
M106 S255
G1 X15.908 Y169.424 F200
M106 S0
M106 S255
G1 X15.908 Y169.863 F200
M106 S0
M106 S255
G1 X15.763 Y170.153 F200
M106 S0
M106 S255
G1 X15.473 Y170.443 F200
M106 S0
G0 X14.744 Y171.462 F6000
M106 S255
G1 X14.744 Y171.462 F200
M106 S0
M106 S255
G1 X14.744 Y173.211 F200
M106 S0
M106 S255
G1 X14.454 Y173.211 F200
M106 S0
M106 S255
G1 X14.16 Y173.066 F200
M106 S0
M106 S255
G1 X14.015 Y172.921 F200
M106 S0
M106 S255
G1 X13.87 Y172.631 F200
M106 S0
M106 S255
G1 X13.87 Y172.191 F200
M106 S0
M106 S255
G1 X14.015 Y171.902 F200
M106 S0
M106 S255
G1 X14.304 Y171.612 F200
M106 S0
M106 S255
G1 X14.744 Y171.462 F200
M106 S0
M106 S255
G1 X15.034 Y171.462 F200
M106 S0
M106 S255
G1 X15.473 Y171.612 F200
M106 S0
M106 S255
G1 X15.763 Y171.902 F200
M106 S0
M106 S255
G1 X15.908 Y172.191 F200
M106 S0
M106 S255
G1 X15.908 Y172.631 F200
M106 S0
M106 S255
G1 X15.763 Y172.921 F200
M106 S0
M106 S255
G1 X15.473 Y173.211 F200
M106 S0
G0 X14.304 Y175.688 F6000
M106 S255
G1 X14.304 Y175.688 F200
M106 S0
M106 S255
G1 X14.015 Y175.543 F200
M106 S0
M106 S255
G1 X13.87 Y175.108 F200
M106 S0
M106 S255
G1 X13.87 Y174.669 F200
M106 S0
M106 S255
G1 X14.015 Y174.234 F200
M106 S0
M106 S255
G1 X14.304 Y174.085 F200
M106 S0
M106 S255
G1 X14.599 Y174.234 F200
M106 S0
M106 S255
G1 X14.744 Y174.524 F200
M106 S0
M106 S255
G1 X14.889 Y175.253 F200
M106 S0
M106 S255
G1 X15.034 Y175.543 F200
M106 S0
M106 S255
G1 X15.328 Y175.688 F200
M106 S0
M106 S255
G1 X15.473 Y175.688 F200
M106 S0
M106 S255
G1 X15.763 Y175.543 F200
M106 S0
M106 S255
G1 X15.908 Y175.108 F200
M106 S0
M106 S255
G1 X15.908 Y174.669 F200
M106 S0
M106 S255
G1 X15.763 Y174.234 F200
M106 S0
M106 S255
G1 X15.473 Y174.085 F200
M106 S0
G0 X13.87 Y179.33 F6000
M106 S255
G1 X13.87 Y179.33 F200
M106 S0
M106 S255
G1 X16.931 Y179.33 F200
M106 S0
G0 X14.304 Y179.33 F6000
M106 S255
G1 X14.304 Y179.33 F200
M106 S0
M106 S255
G1 X14.015 Y179.624 F200
M106 S0
M106 S255
G1 X13.87 Y179.914 F200
M106 S0
M106 S255
G1 X13.87 Y180.353 F200
M106 S0
M106 S255
G1 X14.015 Y180.643 F200
M106 S0
M106 S255
G1 X14.304 Y180.933 F200
M106 S0
M106 S255
G1 X14.744 Y181.078 F200
M106 S0
M106 S255
G1 X15.034 Y181.078 F200
M106 S0
M106 S255
G1 X15.473 Y180.933 F200
M106 S0
M106 S255
G1 X15.763 Y180.643 F200
M106 S0
M106 S255
G1 X15.908 Y180.353 F200
M106 S0
M106 S255
G1 X15.908 Y179.914 F200
M106 S0
M106 S255
G1 X15.763 Y179.624 F200
M106 S0
M106 S255
G1 X15.473 Y179.33 F200
M106 S0
G0 X12.995 Y182.102 F6000
M106 S255
G1 X12.995 Y182.102 F200
M106 S0
M106 S255
G1 X13.14 Y182.247 F200
M106 S0
M106 S255
G1 X12.995 Y182.392 F200
M106 S0
M106 S255
G1 X12.85 Y182.247 F200
M106 S0
M106 S255
G1 X12.995 Y182.102 F200
M106 S0
M106 S255
G1 X12.995 Y182.102 F200
M106 S0
G0 X13.87 Y182.247 F6000
M106 S255
G1 X13.87 Y182.247 F200
M106 S0
M106 S255
G1 X15.908 Y182.247 F200
M106 S0
G0 X12.85 Y183.556 F6000
M106 S255
G1 X12.85 Y183.556 F200
M106 S0
M106 S255
G1 X13.43 Y184.724 F200
M106 S0
G0 X14.744 Y183.266 F6000
M106 S255
G1 X14.744 Y183.266 F200
M106 S0
M106 S255
G1 X14.744 Y185.014 F200
M106 S0
M106 S255
G1 X14.454 Y185.014 F200
M106 S0
M106 S255
G1 X14.16 Y184.869 F200
M106 S0
M106 S255
G1 X14.015 Y184.724 F200
M106 S0
M106 S255
G1 X13.87 Y184.43 F200
M106 S0
M106 S255
G1 X13.87 Y183.995 F200
M106 S0
M106 S255
G1 X14.015 Y183.701 F200
M106 S0
M106 S255
G1 X14.304 Y183.411 F200
M106 S0
M106 S255
G1 X14.744 Y183.266 F200
M106 S0
M106 S255
G1 X15.034 Y183.266 F200
M106 S0
M106 S255
G1 X15.473 Y183.411 F200
M106 S0
M106 S255
G1 X15.763 Y183.701 F200
M106 S0
M106 S255
G1 X15.908 Y183.995 F200
M106 S0
M106 S255
G1 X15.908 Y184.43 F200
M106 S0
M106 S255
G1 X15.763 Y184.724 F200
M106 S0
M106 S255
G1 X15.473 Y185.014 F200
M106 S0
G0 X14.304 Y187.637 F6000
M106 S255
G1 X14.304 Y187.637 F200
M106 S0
M106 S255
G1 X14.015 Y187.347 F200
M106 S0
M106 S255
G1 X13.87 Y187.052 F200
M106 S0
M106 S255
G1 X13.87 Y186.618 F200
M106 S0
M106 S255
G1 X14.015 Y186.323 F200
M106 S0
M106 S255
G1 X14.304 Y186.033 F200
M106 S0
M106 S255
G1 X14.744 Y185.888 F200
M106 S0
M106 S255
G1 X15.034 Y185.888 F200
M106 S0
M106 S255
G1 X15.473 Y186.033 F200
M106 S0
M106 S255
G1 X15.763 Y186.323 F200
M106 S0
M106 S255
G1 X15.908 Y186.618 F200
M106 S0
M106 S255
G1 X15.908 Y187.052 F200
M106 S0
M106 S255
G1 X15.763 Y187.347 F200
M106 S0
M106 S255
G1 X15.473 Y187.637 F200
M106 S0
G0 X14.744 Y188.511 F6000
M106 S255
G1 X14.744 Y188.511 F200
M106 S0
M106 S255
G1 X14.744 Y190.259 F200
M106 S0
M106 S255
G1 X14.454 Y190.259 F200
M106 S0
M106 S255
G1 X14.16 Y190.114 F200
M106 S0
M106 S255
G1 X14.015 Y189.969 F200
M106 S0
M106 S255
G1 X13.87 Y189.675 F200
M106 S0
M106 S255
G1 X13.87 Y189.24 F200
M106 S0
M106 S255
G1 X14.015 Y188.946 F200
M106 S0
M106 S255
G1 X14.304 Y188.656 F200
M106 S0
M106 S255
G1 X14.744 Y188.511 F200
M106 S0
M106 S255
G1 X15.034 Y188.511 F200
M106 S0
M106 S255
G1 X15.473 Y188.656 F200
M106 S0
M106 S255
G1 X15.763 Y188.946 F200
M106 S0
M106 S255
G1 X15.908 Y189.24 F200
M106 S0
M106 S255
G1 X15.908 Y189.675 F200
M106 S0
M106 S255
G1 X15.763 Y189.969 F200
M106 S0
M106 S255
G1 X15.473 Y190.259 F200
M106 S0
G0 X14.304 Y192.737 F6000
M106 S255
G1 X14.304 Y192.737 F200
M106 S0
M106 S255
G1 X14.015 Y192.592 F200
M106 S0
M106 S255
G1 X13.87 Y192.153 F200
M106 S0
M106 S255
G1 X13.87 Y191.718 F200
M106 S0
M106 S255
G1 X14.015 Y191.278 F200
M106 S0
M106 S255
G1 X14.304 Y191.133 F200
M106 S0
M106 S255
G1 X14.599 Y191.278 F200
M106 S0
M106 S255
G1 X14.744 Y191.568 F200
M106 S0
M106 S255
G1 X14.889 Y192.298 F200
M106 S0
M106 S255
G1 X15.034 Y192.592 F200
M106 S0
M106 S255
G1 X15.328 Y192.737 F200
M106 S0
M106 S255
G1 X15.473 Y192.737 F200
M106 S0
M106 S255
G1 X15.763 Y192.592 F200
M106 S0
M106 S255
G1 X15.908 Y192.153 F200
M106 S0
M106 S255
G1 X15.908 Y191.718 F200
M106 S0
M106 S255
G1 X15.763 Y191.278 F200
M106 S0
M106 S255
G1 X15.473 Y191.133 F200
M106 S0
G0 X21.708 Y152.908 F6000
M106 S255
G1 X21.708 Y152.908 F200
M106 S0
M106 S255
G1 X18.883 Y152.908 F200
M106 S0
M106 S255
G1 X18.883 Y154.119 F200
M106 S0
M106 S255
G1 X19.017 Y154.521 F200
M106 S0
M106 S255
G1 X19.151 Y154.654 F200
M106 S0
M106 S255
G1 X19.418 Y154.792 F200
M106 S0
M106 S255
G1 X19.69 Y154.792 F200
M106 S0
M106 S255
G1 X19.957 Y154.654 F200
M106 S0
M106 S255
G1 X20.091 Y154.521 F200
M106 S0
M106 S255
G1 X20.225 Y154.119 F200
M106 S0
M106 S255
G1 X20.225 Y152.908 F200
M106 S0
G0 X20.225 Y154.119 F6000
M106 S255
G1 X20.225 Y154.119 F200
M106 S0
M106 S255
G1 X20.362 Y154.521 F200
M106 S0
M106 S255
G1 X20.496 Y154.654 F200
M106 S0
M106 S255
G1 X20.764 Y154.792 F200
M106 S0
M106 S255
G1 X21.169 Y154.792 F200
M106 S0
M106 S255
G1 X21.436 Y154.654 F200
M106 S0
M106 S255
G1 X21.57 Y154.521 F200
M106 S0
M106 S255
G1 X21.708 Y154.119 F200
M106 S0
M106 S255
G1 X21.708 Y152.908 F200
M106 S0
G0 X21.708 Y155.733 F6000
M106 S255
G1 X21.708 Y155.733 F200
M106 S0
M106 S255
G1 X18.883 Y155.733 F200
M106 S0
G0 X19.823 Y158.42 F6000
M106 S255
G1 X19.823 Y158.42 F200
M106 S0
M106 S255
G1 X21.708 Y158.42 F200
M106 S0
G0 X20.225 Y158.42 F6000
M106 S255
G1 X20.225 Y158.42 F200
M106 S0
M106 S255
G1 X19.957 Y158.152 F200
M106 S0
M106 S255
G1 X19.823 Y157.881 F200
M106 S0
M106 S255
G1 X19.823 Y157.479 F200
M106 S0
M106 S255
G1 X19.957 Y157.212 F200
M106 S0
M106 S255
G1 X20.225 Y156.94 F200
M106 S0
M106 S255
G1 X20.63 Y156.807 F200
M106 S0
M106 S255
G1 X20.897 Y156.807 F200
M106 S0
M106 S255
G1 X21.303 Y156.94 F200
M106 S0
M106 S255
G1 X21.57 Y157.212 F200
M106 S0
M106 S255
G1 X21.708 Y157.479 F200
M106 S0
M106 S255
G1 X21.708 Y157.881 F200
M106 S0
M106 S255
G1 X21.57 Y158.152 F200
M106 S0
M106 S255
G1 X21.303 Y158.42 F200
M106 S0
G0 X21.708 Y159.36 F6000
M106 S255
G1 X21.708 Y159.36 F200
M106 S0
M106 S255
G1 X19.823 Y159.36 F200
M106 S0
G0 X20.362 Y159.36 F6000
M106 S255
G1 X20.362 Y159.36 F200
M106 S0
M106 S255
G1 X19.957 Y159.765 F200
M106 S0
M106 S255
G1 X19.823 Y160.033 F200
M106 S0
M106 S255
G1 X19.823 Y160.438 F200
M106 S0
M106 S255
G1 X19.957 Y160.706 F200
M106 S0
M106 S255
G1 X20.362 Y160.839 F200
M106 S0
M106 S255
G1 X21.708 Y160.839 F200
M106 S0
G0 X20.225 Y163.527 F6000
M106 S255
G1 X20.225 Y163.527 F200
M106 S0
M106 S255
G1 X19.957 Y163.259 F200
M106 S0
M106 S255
G1 X19.823 Y162.992 F200
M106 S0
M106 S255
G1 X19.823 Y162.586 F200
M106 S0
M106 S255
G1 X19.957 Y162.319 F200
M106 S0
M106 S255
G1 X20.225 Y162.051 F200
M106 S0
M106 S255
G1 X20.63 Y161.913 F200
M106 S0
M106 S255
G1 X20.897 Y161.913 F200
M106 S0
M106 S255
G1 X21.303 Y162.051 F200
M106 S0
M106 S255
G1 X21.57 Y162.319 F200
M106 S0
M106 S255
G1 X21.708 Y162.586 F200
M106 S0
M106 S255
G1 X21.708 Y162.992 F200
M106 S0
M106 S255
G1 X21.57 Y163.259 F200
M106 S0
M106 S255
G1 X21.303 Y163.527 F200
M106 S0
G0 X20.225 Y165.812 F6000
M106 S255
G1 X20.225 Y165.812 F200
M106 S0
M106 S255
G1 X19.957 Y165.679 F200
M106 S0
M106 S255
G1 X19.823 Y165.277 F200
M106 S0
M106 S255
G1 X19.823 Y164.872 F200
M106 S0
M106 S255
G1 X19.957 Y164.471 F200
M106 S0
M106 S255
G1 X20.225 Y164.333 F200
M106 S0
M106 S255
G1 X20.496 Y164.471 F200
M106 S0
M106 S255
G1 X20.63 Y164.738 F200
M106 S0
M106 S255
G1 X20.764 Y165.411 F200
M106 S0
M106 S255
G1 X20.897 Y165.679 F200
M106 S0
M106 S255
G1 X21.169 Y165.812 F200
M106 S0
M106 S255
G1 X21.303 Y165.812 F200
M106 S0
M106 S255
G1 X21.57 Y165.679 F200
M106 S0
M106 S255
G1 X21.708 Y165.277 F200
M106 S0
M106 S255
G1 X21.708 Y164.872 F200
M106 S0
M106 S255
G1 X21.57 Y164.471 F200
M106 S0
M106 S255
G1 X21.303 Y164.333 F200
M106 S0
G0 X21.915 Y178.099 F6000
M106 S255
G1 X21.915 Y178.099 F200
M106 S0
M106 S255
G1 X19.09 Y178.099 F200
M106 S0
M106 S255
G1 X21.915 Y179.979 F200
M106 S0
M106 S255
G1 X19.09 Y179.979 F200
M106 S0
G0 X20.03 Y181.726 F6000
M106 S255
G1 X20.03 Y181.726 F200
M106 S0
M106 S255
G1 X20.164 Y181.459 F200
M106 S0
M106 S255
G1 X20.431 Y181.191 F200
M106 S0
M106 S255
G1 X20.837 Y181.058 F200
M106 S0
M106 S255
G1 X21.104 Y181.058 F200
M106 S0
M106 S255
G1 X21.509 Y181.191 F200
M106 S0
M106 S255
G1 X21.777 Y181.459 F200
M106 S0
M106 S255
G1 X21.915 Y181.726 F200
M106 S0
M106 S255
G1 X21.915 Y182.132 F200
M106 S0
M106 S255
G1 X21.777 Y182.399 F200
M106 S0
M106 S255
G1 X21.509 Y182.671 F200
M106 S0
M106 S255
G1 X21.104 Y182.804 F200
M106 S0
M106 S255
G1 X20.837 Y182.804 F200
M106 S0
M106 S255
G1 X20.431 Y182.671 F200
M106 S0
M106 S255
G1 X20.164 Y182.399 F200
M106 S0
M106 S255
G1 X20.03 Y182.132 F200
M106 S0
M106 S255
G1 X20.03 Y181.726 F200
M106 S0
M106 S255
G1 X20.03 Y181.726 F200
M106 S0
G0 X19.223 Y183.611 F6000
M106 S255
G1 X19.223 Y183.611 F200
M106 S0
M106 S255
G1 X19.357 Y183.745 F200
M106 S0
M106 S255
G1 X19.223 Y183.878 F200
M106 S0
M106 S255
G1 X19.09 Y183.745 F200
M106 S0
M106 S255
G1 X19.223 Y183.611 F200
M106 S0
M106 S255
G1 X19.223 Y183.611 F200
M106 S0
G0 X20.03 Y183.745 F6000
M106 S255
G1 X20.03 Y183.745 F200
M106 S0
M106 S255
G1 X21.915 Y183.745 F200
M106 S0
G0 X21.915 Y184.685 F6000
M106 S255
G1 X21.915 Y184.685 F200
M106 S0
M106 S255
G1 X20.03 Y184.685 F200
M106 S0
G0 X20.837 Y184.685 F6000
M106 S255
G1 X20.837 Y184.685 F200
M106 S0
M106 S255
G1 X20.431 Y184.819 F200
M106 S0
M106 S255
G1 X20.164 Y185.09 F200
M106 S0
M106 S255
G1 X20.03 Y185.358 F200
M106 S0
M106 S255
G1 X20.03 Y185.763 F200
M106 S0
G0 X20.431 Y187.911 F6000
M106 S255
G1 X20.431 Y187.911 F200
M106 S0
M106 S255
G1 X20.164 Y187.777 F200
M106 S0
M106 S255
G1 X20.03 Y187.376 F200
M106 S0
M106 S255
G1 X20.03 Y186.971 F200
M106 S0
M106 S255
G1 X20.164 Y186.57 F200
M106 S0
M106 S255
G1 X20.431 Y186.432 F200
M106 S0
M106 S255
G1 X20.703 Y186.57 F200
M106 S0
M106 S255
G1 X20.837 Y186.837 F200
M106 S0
M106 S255
G1 X20.97 Y187.51 F200
M106 S0
M106 S255
G1 X21.104 Y187.777 F200
M106 S0
M106 S255
G1 X21.376 Y187.911 F200
M106 S0
M106 S255
G1 X21.509 Y187.911 F200
M106 S0
M106 S255
G1 X21.777 Y187.777 F200
M106 S0
M106 S255
G1 X21.915 Y187.376 F200
M106 S0
M106 S255
G1 X21.915 Y186.971 F200
M106 S0
M106 S255
G1 X21.777 Y186.57 F200
M106 S0
M106 S255
G1 X21.509 Y186.432 F200
M106 S0
G0 X26.182 Y156.074 F6000
M106 S255
G1 X26.182 Y156.074 F200
M106 S0
M106 S255
G1 X23.62 Y156.074 F200
M106 S0
M106 S255
G1 X23.62 Y157.173 F200
M106 S0
M106 S255
G1 X23.745 Y157.537 F200
M106 S0
M106 S255
G1 X23.866 Y157.658 F200
M106 S0
M106 S255
G1 X24.109 Y157.779 F200
M106 S0
M106 S255
G1 X24.355 Y157.779 F200
M106 S0
M106 S255
G1 X24.598 Y157.658 F200
M106 S0
M106 S255
G1 X24.719 Y157.537 F200
M106 S0
M106 S255
G1 X24.84 Y157.173 F200
M106 S0
M106 S255
G1 X24.84 Y156.074 F200
M106 S0
G0 X24.84 Y156.926 F6000
M106 S255
G1 X24.84 Y156.926 F200
M106 S0
M106 S255
G1 X26.182 Y157.779 F200
M106 S0
G0 X24.476 Y159.242 F6000
M106 S255
G1 X24.476 Y159.242 F200
M106 S0
M106 S255
G1 X24.598 Y158.999 F200
M106 S0
M106 S255
G1 X24.84 Y158.757 F200
M106 S0
M106 S255
G1 X25.208 Y158.635 F200
M106 S0
M106 S255
G1 X25.45 Y158.635 F200
M106 S0
M106 S255
G1 X25.818 Y158.757 F200
M106 S0
M106 S255
G1 X26.06 Y158.999 F200
M106 S0
M106 S255
G1 X26.182 Y159.242 F200
M106 S0
M106 S255
G1 X26.182 Y159.609 F200
M106 S0
M106 S255
G1 X26.06 Y159.852 F200
M106 S0
M106 S255
G1 X25.818 Y160.098 F200
M106 S0
M106 S255
G1 X25.45 Y160.22 F200
M106 S0
M106 S255
G1 X25.208 Y160.22 F200
M106 S0
M106 S255
G1 X24.84 Y160.098 F200
M106 S0
M106 S255
G1 X24.598 Y159.852 F200
M106 S0
M106 S255
G1 X24.476 Y159.609 F200
M106 S0
M106 S255
G1 X24.476 Y159.242 F200
M106 S0
M106 S255
G1 X24.476 Y159.242 F200
M106 S0
G0 X23.745 Y160.951 F6000
M106 S255
G1 X23.745 Y160.951 F200
M106 S0
M106 S255
G1 X23.866 Y161.072 F200
M106 S0
M106 S255
G1 X23.745 Y161.194 F200
M106 S0
M106 S255
G1 X23.62 Y161.072 F200
M106 S0
M106 S255
G1 X23.745 Y160.951 F200
M106 S0
M106 S255
G1 X23.745 Y160.951 F200
M106 S0
G0 X24.476 Y161.072 F6000
M106 S255
G1 X24.476 Y161.072 F200
M106 S0
M106 S255
G1 X26.182 Y161.072 F200
M106 S0
G0 X28.128 Y148.638 F6000
M106 S255
G1 X28.128 Y148.638 F200
M106 S0
M106 S255
G1 X27.886 Y148.517 F200
M106 S0
M106 S255
G1 X27.643 Y148.271 F200
M106 S0
M106 S255
G1 X27.518 Y148.028 F200
M106 S0
M106 S255
G1 X27.518 Y147.54 F200
M106 S0
M106 S255
G1 X27.643 Y147.297 F200
M106 S0
M106 S255
G1 X27.886 Y147.054 F200
M106 S0
M106 S255
G1 X28.128 Y146.929 F200
M106 S0
M106 S255
G1 X28.496 Y146.808 F200
M106 S0
M106 S255
G1 X29.106 Y146.808 F200
M106 S0
M106 S255
G1 X29.47 Y146.929 F200
M106 S0
M106 S255
G1 X29.716 Y147.054 F200
M106 S0
M106 S255
G1 X29.959 Y147.297 F200
M106 S0
M106 S255
G1 X30.08 Y147.54 F200
M106 S0
M106 S255
G1 X30.08 Y148.028 F200
M106 S0
M106 S255
G1 X29.959 Y148.271 F200
M106 S0
M106 S255
G1 X29.716 Y148.517 F200
M106 S0
M106 S255
G1 X29.47 Y148.638 F200
M106 S0
G0 X28.374 Y150.833 F6000
M106 S255
G1 X28.374 Y150.833 F200
M106 S0
M106 S255
G1 X30.08 Y150.833 F200
M106 S0
G0 X28.738 Y150.833 F6000
M106 S255
G1 X28.738 Y150.833 F200
M106 S0
M106 S255
G1 X28.496 Y150.586 F200
M106 S0
M106 S255
G1 X28.374 Y150.344 F200
M106 S0
M106 S255
G1 X28.374 Y149.98 F200
M106 S0
M106 S255
G1 X28.496 Y149.734 F200
M106 S0
M106 S255
G1 X28.738 Y149.491 F200
M106 S0
M106 S255
G1 X29.106 Y149.37 F200
M106 S0
M106 S255
G1 X29.348 Y149.37 F200
M106 S0
M106 S255
G1 X29.716 Y149.491 F200
M106 S0
M106 S255
G1 X29.959 Y149.734 F200
M106 S0
M106 S255
G1 X30.08 Y149.98 F200
M106 S0
M106 S255
G1 X30.08 Y150.344 F200
M106 S0
M106 S255
G1 X29.959 Y150.586 F200
M106 S0
M106 S255
G1 X29.716 Y150.833 F200
M106 S0
G0 X28.374 Y151.685 F6000
M106 S255
G1 X28.374 Y151.685 F200
M106 S0
M106 S255
G1 X30.08 Y152.417 F200
M106 S0
M106 S255
G1 X28.374 Y153.148 F200
M106 S0
G0 X28.374 Y155.1 F6000
M106 S255
G1 X28.374 Y155.1 F200
M106 S0
M106 S255
G1 X30.08 Y155.1 F200
M106 S0
G0 X28.738 Y155.1 F6000
M106 S255
G1 X28.738 Y155.1 F200
M106 S0
M106 S255
G1 X28.496 Y154.854 F200
M106 S0
M106 S255
G1 X28.374 Y154.611 F200
M106 S0
M106 S255
G1 X28.374 Y154.243 F200
M106 S0
M106 S255
G1 X28.496 Y154.001 F200
M106 S0
M106 S255
G1 X28.738 Y153.758 F200
M106 S0
M106 S255
G1 X29.106 Y153.637 F200
M106 S0
M106 S255
G1 X29.348 Y153.637 F200
M106 S0
M106 S255
G1 X29.716 Y153.758 F200
M106 S0
M106 S255
G1 X29.959 Y154.001 F200
M106 S0
M106 S255
G1 X30.08 Y154.243 F200
M106 S0
M106 S255
G1 X30.08 Y154.611 F200
M106 S0
M106 S255
G1 X29.959 Y154.854 F200
M106 S0
M106 S255
G1 X29.716 Y155.1 F200
M106 S0
G0 X30.08 Y155.952 F6000
M106 S255
G1 X30.08 Y155.952 F200
M106 S0
M106 S255
G1 X27.518 Y155.952 F200
M106 S0
G0 X27.643 Y156.926 F6000
M106 S255
G1 X27.643 Y156.926 F200
M106 S0
M106 S255
G1 X27.764 Y157.048 F200
M106 S0
M106 S255
G1 X27.643 Y157.169 F200
M106 S0
M106 S255
G1 X27.518 Y157.048 F200
M106 S0
M106 S255
G1 X27.643 Y156.926 F200
M106 S0
M106 S255
G1 X27.643 Y156.926 F200
M106 S0
G0 X28.374 Y157.048 F6000
M106 S255
G1 X28.374 Y157.048 F200
M106 S0
M106 S255
G1 X30.08 Y157.048 F200
M106 S0
G0 X29.106 Y157.9 F6000
M106 S255
G1 X29.106 Y157.9 F200
M106 S0
M106 S255
G1 X29.106 Y159.363 F200
M106 S0
M106 S255
G1 X28.86 Y159.363 F200
M106 S0
M106 S255
G1 X28.617 Y159.242 F200
M106 S0
M106 S255
G1 X28.496 Y159.121 F200
M106 S0
M106 S255
G1 X28.374 Y158.878 F200
M106 S0
M106 S255
G1 X28.374 Y158.511 F200
M106 S0
M106 S255
G1 X28.496 Y158.268 F200
M106 S0
M106 S255
G1 X28.738 Y158.025 F200
M106 S0
M106 S255
G1 X29.106 Y157.9 F200
M106 S0
M106 S255
G1 X29.348 Y157.9 F200
M106 S0
M106 S255
G1 X29.716 Y158.025 F200
M106 S0
M106 S255
G1 X29.959 Y158.268 F200
M106 S0
M106 S255
G1 X30.08 Y158.511 F200
M106 S0
M106 S255
G1 X30.08 Y158.878 F200
M106 S0
M106 S255
G1 X29.959 Y159.121 F200
M106 S0
M106 S255
G1 X29.716 Y159.363 F200
M106 S0
G0 X30.08 Y160.095 F6000
M106 S255
G1 X30.08 Y160.095 F200
M106 S0
M106 S255
G1 X28.374 Y160.095 F200
M106 S0
G0 X29.106 Y160.095 F6000
M106 S255
G1 X29.106 Y160.095 F200
M106 S0
M106 S255
G1 X28.738 Y160.22 F200
M106 S0
M106 S255
G1 X28.496 Y160.462 F200
M106 S0
M106 S255
G1 X28.374 Y160.705 F200
M106 S0
M106 S255
G1 X28.374 Y161.072 F200
M106 S0
G0 X34.129 Y155.221 F6000
M106 S255
G1 X34.129 Y155.221 F200
M106 S0
M106 S255
G1 X31.568 Y155.221 F200
M106 S0
M106 S255
G1 X31.568 Y156.805 F200
M106 S0
G0 X32.788 Y155.221 F6000
M106 S255
G1 X32.788 Y155.221 F200
M106 S0
M106 S255
G1 X32.788 Y156.195 F200
M106 S0
G0 X32.424 Y158.025 F6000
M106 S255
G1 X32.424 Y158.025 F200
M106 S0
M106 S255
G1 X32.545 Y157.783 F200
M106 S0
M106 S255
G1 X32.788 Y157.537 F200
M106 S0
M106 S255
G1 X33.155 Y157.415 F200
M106 S0
M106 S255
G1 X33.398 Y157.415 F200
M106 S0
M106 S255
G1 X33.765 Y157.537 F200
M106 S0
M106 S255
G1 X34.008 Y157.783 F200
M106 S0
M106 S255
G1 X34.129 Y158.025 F200
M106 S0
M106 S255
G1 X34.129 Y158.389 F200
M106 S0
M106 S255
G1 X34.008 Y158.635 F200
M106 S0
M106 S255
G1 X33.765 Y158.878 F200
M106 S0
M106 S255
G1 X33.398 Y158.999 F200
M106 S0
M106 S255
G1 X33.155 Y158.999 F200
M106 S0
M106 S255
G1 X32.788 Y158.878 F200
M106 S0
M106 S255
G1 X32.545 Y158.635 F200
M106 S0
M106 S255
G1 X32.424 Y158.389 F200
M106 S0
M106 S255
G1 X32.424 Y158.025 F200
M106 S0
M106 S255
G1 X32.424 Y158.025 F200
M106 S0
G0 X32.424 Y159.731 F6000
M106 S255
G1 X32.424 Y159.731 F200
M106 S0
M106 S255
G1 X33.644 Y159.731 F200
M106 S0
M106 S255
G1 X34.008 Y159.852 F200
M106 S0
M106 S255
G1 X34.129 Y160.098 F200
M106 S0
M106 S255
G1 X34.129 Y160.462 F200
M106 S0
M106 S255
G1 X34.008 Y160.708 F200
M106 S0
M106 S255
G1 X33.644 Y161.072 F200
M106 S0
G0 X32.424 Y161.072 F6000
M106 S255
G1 X32.424 Y161.072 F200
M106 S0
M106 S255
G1 X34.129 Y161.072 F200
M106 S0
G0 X26.342 Y180.452 F6000
M106 S255
G1 X26.342 Y180.452 F200
M106 S0
M106 S255
G1 X23.781 Y180.452 F200
M106 S0
M106 S255
G1 X23.781 Y181.547 F200
M106 S0
M106 S255
G1 X23.905 Y181.914 F200
M106 S0
M106 S255
G1 X24.027 Y182.036 F200
M106 S0
M106 S255
G1 X24.269 Y182.157 F200
M106 S0
M106 S255
G1 X24.516 Y182.157 F200
M106 S0
M106 S255
G1 X24.758 Y182.036 F200
M106 S0
M106 S255
G1 X24.879 Y181.914 F200
M106 S0
M106 S255
G1 X25.001 Y181.547 F200
M106 S0
M106 S255
G1 X25.001 Y180.452 F200
M106 S0
G0 X25.001 Y181.304 F6000
M106 S255
G1 X25.001 Y181.304 F200
M106 S0
M106 S255
G1 X26.342 Y182.157 F200
M106 S0
G0 X24.637 Y183.62 F6000
M106 S255
G1 X24.637 Y183.62 F200
M106 S0
M106 S255
G1 X24.758 Y183.377 F200
M106 S0
M106 S255
G1 X25.001 Y183.135 F200
M106 S0
M106 S255
G1 X25.368 Y183.01 F200
M106 S0
M106 S255
G1 X25.611 Y183.01 F200
M106 S0
M106 S255
G1 X25.978 Y183.135 F200
M106 S0
M106 S255
G1 X26.221 Y183.377 F200
M106 S0
M106 S255
G1 X26.342 Y183.62 F200
M106 S0
M106 S255
G1 X26.342 Y183.987 F200
M106 S0
M106 S255
G1 X26.221 Y184.23 F200
M106 S0
M106 S255
G1 X25.978 Y184.472 F200
M106 S0
M106 S255
G1 X25.611 Y184.597 F200
M106 S0
M106 S255
G1 X25.368 Y184.597 F200
M106 S0
M106 S255
G1 X25.001 Y184.472 F200
M106 S0
M106 S255
G1 X24.758 Y184.23 F200
M106 S0
M106 S255
G1 X24.637 Y183.987 F200
M106 S0
M106 S255
G1 X24.637 Y183.62 F200
M106 S0
M106 S255
G1 X24.637 Y183.62 F200
M106 S0
G0 X23.905 Y185.329 F6000
M106 S255
G1 X23.905 Y185.329 F200
M106 S0
M106 S255
G1 X24.027 Y185.45 F200
M106 S0
M106 S255
G1 X23.905 Y185.571 F200
M106 S0
M106 S255
G1 X23.781 Y185.45 F200
M106 S0
M106 S255
G1 X23.905 Y185.329 F200
M106 S0
M106 S255
G1 X23.905 Y185.329 F200
M106 S0
G0 X24.637 Y185.45 F6000
M106 S255
G1 X24.637 Y185.45 F200
M106 S0
M106 S255
G1 X26.342 Y185.45 F200
M106 S0
G0 X30.138 Y178.257 F6000
M106 S255
G1 X30.138 Y178.257 F200
M106 S0
M106 S255
G1 X27.576 Y178.257 F200
M106 S0
M106 S255
