;GCode generated by Numa's program v0.0
G0 X36.872 Y25.281 F6000
M106 S255
G1 X36.872 Y25.281 F50
M106 S0
M106 S255
G1 X45.41 Y25.281 F50
M106 S0
G0 X37.527 Y26.573 F6000
M106 S255
G1 X37.527 Y26.573 F50
M106 S0
M106 S255
G1 X44.755 Y26.573 F50
M106 S0
G0 X38.448 Y27.829 F6000
M106 S255
G1 X38.448 Y27.829 F50
M106 S0
M106 S255
G1 X43.834 Y27.829 F50
M106 S0
G0 X38.448 Y31.436 F6000
M106 S255
G1 X38.448 Y31.436 F50
M106 S0
M106 S255
G1 X43.834 Y31.436 F50
M106 S0
G0 X37.53 Y32.708 F6000
M106 S255
G1 X37.53 Y32.708 F50
M106 S0
M106 S255
G1 X44.752 Y32.708 F50
M106 S0
G0 X43.021 Y13.256 F6000
M106 S255
G1 X43.021 Y13.256 F50
M106 S0
M106 S255
G1 X41.206 Y13.256 F50
M106 S0
M106 S255
G1 X39.39 Y13.256 F50
M106 S0
G0 X43.038 Y11.115 F6000
M106 S255
G1 X43.038 Y11.115 F50
M106 S0
M106 S255
G1 X41.206 Y11.115 F50
M106 S0
M106 S255
G1 X39.373 Y11.115 F50
M106 S0
G0 X42.395 Y10.069 F6000
M106 S255
G1 X42.395 Y10.069 F50
M106 S0
M106 S255
G1 X41.206 Y10.069 F50
M106 S0
M106 S255
G1 X40.016 Y10.069 F50
M106 S0
G0 X43.028 Y6.602 F6000
M106 S255
G1 X43.028 Y6.602 F50
M106 S0
M106 S255
G1 X41.206 Y6.602 F50
M106 S0
M106 S255
G1 X39.383 Y6.602 F50
M106 S0
G0 X44.059 Y5.577 F6000
M106 S255
G1 X44.059 Y5.577 F50
M106 S0
M106 S255
G1 X41.206 Y5.577 F50
M106 S0
M106 S255
G1 X38.352 Y5.577 F50
M106 S0
G0 X51.505 Y25.281 F6000
M106 S255
G1 X51.505 Y25.281 F50
M106 S0
M106 S255
G1 X60.043 Y25.281 F50
M106 S0
G0 X52.16 Y26.573 F6000
M106 S255
G1 X52.16 Y26.573 F50
M106 S0
M106 S255
G1 X59.388 Y26.573 F50
M106 S0
G0 X53.081 Y27.829 F6000
M106 S255
G1 X53.081 Y27.829 F50
M106 S0
M106 S255
G1 X58.467 Y27.829 F50
M106 S0
G0 X53.081 Y31.436 F6000
M106 S255
G1 X53.081 Y31.436 F50
M106 S0
M106 S255
G1 X58.467 Y31.436 F50
M106 S0
G0 X52.163 Y32.708 F6000
M106 S255
G1 X52.163 Y32.708 F50
M106 S0
M106 S255
G1 X59.385 Y32.708 F50
M106 S0
G0 X56.196 Y13.256 F6000
M106 S255
G1 X56.196 Y13.256 F50
M106 S0
M106 S255
G1 X54.381 Y13.256 F50
M106 S0
M106 S255
G1 X52.566 Y13.256 F50
M106 S0
G0 X56.213 Y11.115 F6000
M106 S255
G1 X56.213 Y11.115 F50
M106 S0
M106 S255
G1 X54.381 Y11.115 F50
M106 S0
M106 S255
G1 X52.549 Y11.115 F50
M106 S0
G0 X55.57 Y10.069 F6000
M106 S255
G1 X55.57 Y10.069 F50
M106 S0
M106 S255
G1 X54.381 Y10.069 F50
M106 S0
M106 S255
G1 X53.191 Y10.069 F50
M106 S0
G0 X56.204 Y6.602 F6000
M106 S255
G1 X56.204 Y6.602 F50
M106 S0
M106 S255
G1 X54.381 Y6.602 F50
M106 S0
M106 S255
G1 X52.558 Y6.602 F50
M106 S0
G0 X57.234 Y5.577 F6000
M106 S255
G1 X57.234 Y5.577 F50
M106 S0
M106 S255
G1 X54.381 Y5.577 F50
M106 S0
M106 S255
G1 X51.528 Y5.577 F50
M106 S0
M106 S0
