;GCode generated by Numa's program v0.0
G0 X62.543 Y51.147 F6000
M106 S255
G1 X62.543 Y51.147 F250
M106 S0
M106 S255
G1 X62.105 Y50.908 F250
M106 S0
G0 X18.167 Y93.771 F6000
M106 S255
G1 X18.167 Y93.771 F250
M106 S0
M106 S255
G1 X18.167 Y93.293 F250
M106 S0
G0 X57.803 Y47.523 F6000
M106 S255
G1 X57.803 Y47.523 F250
M106 S0
M106 S255
G1 X57.285 Y47.642 F250
M106 S0
G0 X39.28 Y88.592 F6000
M106 S255
G1 X39.28 Y88.592 F250
M106 S0
M106 S255
G1 X38.563 Y88.552 F250
M106 S0
G0 X58.161 Y88.273 F6000
M106 S255
G1 X58.161 Y88.273 F250
M106 S0
M106 S255
G1 X58.679 Y87.278 F250
M106 S0
G0 X61.308 Y94.607 F6000
M106 S255
G1 X61.308 Y94.607 F250
M106 S0
M106 S255
G1 X61.363 Y94.54 F250
M106 S0
M106 S255
G1 X61.413 Y94.472 F250
M106 S0
M106 S255
G1 X61.658 Y94.121 F250
M106 S0
M106 S255
G1 X62.142 Y93.843 F250
M106 S0
M106 S255
G1 X62.627 Y93.718 F250
M106 S0
M106 S255
G1 X62.917 Y93.568 F250
M106 S0
M106 S255
G1 X63.141 Y93.332 F250
M106 S0
G0 X58.201 Y88.074 F6000
M106 S255
G1 X58.201 Y88.074 F250
M106 S0
M106 S255
G1 X58.051 Y87.688 F250
M106 S0
M106 S255
G1 X58.007 Y87.277 F250
M106 S0
M106 S255
G1 X57.994 Y87.06 F250
M106 S0
M106 S255
G1 X58.002 Y86.839 F250
M106 S0
G0 X86.643 Y71.304 F6000
M106 S255
G1 X86.643 Y71.304 F250
M106 S0
M106 S255
G1 X86.724 Y70.588 F250
M106 S0
M106 S255
G1 X86.818 Y69.87 F250
M106 S0
M106 S255
G1 X86.823 Y69.432 F250
M106 S0
M106 S255
G1 X86.842 Y68.993 F250
M106 S0
G0 X59.795 Y90.703 F6000
M106 S255
G1 X59.795 Y90.703 F250
M106 S0
M106 S255
G1 X61.826 Y89.15 F250
M106 S0
G0 X59.596 Y93.611 F6000
M106 S255
G1 X59.596 Y93.611 F250
M106 S0
M106 S255
G1 X59.74 Y93.214 F250
M106 S0
M106 S255
G1 X59.934 Y92.84 F250
M106 S0
M106 S255
G1 X60.153 Y92.445 F250
M106 S0
M106 S255
G1 X60.348 Y92.011 F250
M106 S0
M106 S255
G1 X60.498 Y91.547 F250
M106 S0
M106 S255
G1 X60.727 Y90.99 F250
M106 S0
M106 S255
G1 X61.037 Y90.454 F250
M106 S0
M106 S255
G1 X61.232 Y90.102 F250
M106 S0
M106 S255
G1 X61.286 Y89.931 F250
M106 S0
M106 S255
G1 X61.269 Y89.747 F250
M106 S0
G0 X59.436 Y91.381 F6000
M106 S255
G1 X59.436 Y91.381 F250
M106 S0
M106 S255
G1 X59.651 Y90.927 F250
M106 S0
M106 S255
G1 X59.724 Y90.437 F250
M106 S0
M106 S255
G1 X59.792 Y89.913 F250
M106 S0
M106 S255
G1 X59.875 Y89.331 F250
M106 S0
M106 S255
G1 X59.938 Y88.748 F250
M106 S0
M106 S255
G1 X59.964 Y88.445 F250
M106 S0
M106 S255
G1 X59.967 Y88.283 F250
M106 S0
M106 S255
G1 X59.871 Y88.162 F250
M106 S0
M106 S255
G1 X59.701 Y88.143 F250
M106 S0
M106 S255
G1 X59.538 Y88.212 F250
M106 S0
M106 S255
G1 X59.412 Y88.304 F250
M106 S0
M106 S255
G1 X59.337 Y88.396 F250
M106 S0
M106 S255
G1 X59.245 Y88.493 F250
M106 S0
M106 S255
G1 X59.086 Y88.138 F250
M106 S0
M106 S255
G1 X58.933 Y87.582 F250
M106 S0
M106 S255
G1 X58.679 Y87.078 F250
M106 S0
G0 X58.918 Y99.985 F6000
M106 S255
G1 X58.918 Y99.985 F250
M106 S0
M106 S255
G1 X59.14 Y99.887 F250
M106 S0
M106 S255
G1 X59.265 Y99.683 F250
M106 S0
M106 S255
G1 X59.714 Y99.207 F250
M106 S0
M106 S255
G1 X60.278 Y98.553 F250
M106 S0
M106 S255
G1 X60.717 Y97.819 F250
M106 S0
M106 S255
G1 X61.251 Y97.207 F250
M106 S0
M106 S255
G1 X61.866 Y96.679 F250
M106 S0
G0 X41.989 Y98.949 F6000
M106 S255
G1 X41.989 Y98.949 F250
M106 S0
M106 S255
G1 X41.623 Y99.115 F250
M106 S0
M106 S255
G1 X41.351 Y99.142 F250
M106 S0
M106 S255
G1 X41.129 Y99.023 F250
M106 S0
M106 S255
G1 X40.913 Y98.75 F250
M106 S0
M106 S255
G1 X41.167 Y98.491 F250
M106 S0
M106 S255
G1 X41.431 Y98.43 F250
M106 S0
M106 S255
G1 X41.715 Y98.569 F250
M106 S0
M106 S255
G1 X42.028 Y98.909 F250
M106 S0
G0 X56.09 Y102.773 F6000
M106 S255
G1 X56.09 Y102.773 F250
M106 S0
M106 S255
G1 X56.502 Y102.546 F250
M106 S0
M106 S255
G1 X56.917 Y102.324 F250
M106 S0
M106 S255
G1 X57.263 Y102.129 F250
M106 S0
M106 S255
G1 X57.456 Y101.881 F250
M106 S0
M106 S255
G1 X57.675 Y101.645 F250
M106 S0
M106 S255
G1 X58.343 Y101.186 F250
M106 S0
M106 S255
G1 X58.991 Y100.701 F250
M106 S0
M106 S255
G1 X59.67 Y100.177 F250
M106 S0
M106 S255
G1 X60.465 Y99.788 F250
M106 S0
M106 S255
G1 X61.269 Y99.427 F250
M106 S0
G0 X93.774 Y57.441 F6000
M106 S255
G1 X93.774 Y57.441 F250
M106 S0
M106 S255
G1 X94.202 Y56.518 F250
M106 S0
M106 S255
G1 X94.504 Y55.551 F250
M106 S0
M106 S255
G1 X94.623 Y54.979 F250
M106 S0
M106 S255
G1 X94.648 Y54.831 F250
M106 S0
M106 S255
G1 X94.57 Y54.694 F250
M106 S0
M106 S255
G1 X94.555 Y54.689 F250
M106 S0
M106 S255
G1 X94.538 Y54.691 F250
M106 S0
M106 S255
G1 X94.522 Y54.7 F250
M106 S0
M106 S255
G1 X94.506 Y54.716 F250
M106 S0
M106 S255
G1 X94.491 Y54.733 F250
M106 S0
G0 X31.432 Y96.081 F6000
M106 S255
G1 X31.432 Y96.081 F250
M106 S0
M106 S255
G1 X31.373 Y96.443 F250
M106 S0
M106 S255
G1 X31.219 Y96.769 F250
M106 S0
M106 S255
G1 X31.01 Y97.064 F250
M106 S0
M106 S255
G1 X30.641 Y97.246 F250
M106 S0
M106 S255
G1 X30.231 Y97.255 F250
M106 S0
M106 S255
G1 X29.532 Y96.948 F250
M106 S0
M106 S255
G1 X28.816 Y96.489 F250
M106 S0
M106 S255
G1 X28.311 Y95.968 F250
M106 S0
M106 S255
G1 X28.191 Y95.826 F250
M106 S0
M106 S255
G1 X28.118 Y95.65 F250
M106 S0
M106 S255
G1 X28.117 Y95.486 F250
M106 S0
M106 S255
G1 X28.039 Y95.401 F250
M106 S0
M106 S255
G1 X27.927 Y95.344 F250
M106 S0
G0 X61.866 Y93.89 F6000
M106 S255
G1 X61.866 Y93.89 F250
M106 S0
M106 S255
G1 X61.873 Y93.704 F250
M106 S0
M106 S255
G1 X61.943 Y93.534 F250
M106 S0
M106 S255
G1 X62.215 Y92.989 F250
M106 S0
M106 S255
G1 X62.636 Y92.045 F250
M106 S0
M106 S255
G1 X62.952 Y91.052 F250
M106 S0
M106 S255
G1 X62.235 Y90.979 F250
M106 S0
M106 S255
G1 X61.582 Y91.204 F250
M106 S0
M106 S255
G1 X61.118 Y91.492 F250
M106 S0
M106 S255
G1 X60.839 Y91.749 F250
M106 S0
M106 S255
G1 X60.512 Y91.938 F250
M106 S0
G0 X31.552 Y96.001 F6000
M106 S255
G1 X31.552 Y96.001 F250
M106 S0
M106 S255
G1 X30.079 Y95.877 F250
M106 S0
M106 S255
G1 X28.645 Y95.519 F250
M106 S0
M106 S255
G1 X28.386 Y95.464 F250
M106 S0
M106 S255
G1 X28.126 Y95.483 F250
M106 S0
G0 X59.277 Y98.391 F6000
M106 S255
G1 X59.277 Y98.391 F250
M106 S0
M106 S255
G1 X60.022 Y97.789 F250
M106 S0
M106 S255
G1 X60.177 Y97.612 F250
M106 S0
M106 S255
G1 X60.297 Y97.446 F250
M106 S0
M106 S255
G1 X60.528 Y97.146 F250
M106 S0
M106 S255
G1 X61.529 Y96.009 F250
M106 S0
M106 S255
G1 X62.457 Y94.815 F250
M106 S0
M106 S255
G1 X62.647 Y94.484 F250
M106 S0
M106 S255
G1 X62.71 Y94.36 F250
M106 S0
M106 S255
G1 X62.724 Y94.331 F250
M106 S0
M106 S255
G1 X62.773 Y94.215 F250
M106 S0
M106 S255
G1 X62.822 Y93.731 F250
M106 S0
G0 X94.61 Y54.653 F6000
M106 S255
G1 X94.61 Y54.653 F250
M106 S0
M106 S255
G1 X94.935 Y53.284 F250
M106 S0
M106 S255
G1 X95.207 Y51.904 F250
M106 S0
M106 S255
G1 X95.383 Y51.399 F250
M106 S0
M106 S255
G1 X95.447 Y50.869 F250
M106 S0
G0 X43.622 Y93.611 F6000
M106 S255
G1 X43.622 Y93.611 F250
M106 S0
M106 S255
G1 X43.818 Y91.804 F250
M106 S0
M106 S255
G1 X43.782 Y89.986 F250
M106 S0
M106 S255
G1 X43.78 Y89.887 F250
M106 S0
M106 S255
G1 X43.781 Y89.787 F250
M106 S0
G0 X39.12 Y97.117 F6000
M106 S255
G1 X39.12 Y97.117 F250
M106 S0
M106 S255
G1 X40.393 Y96.119 F250
M106 S0
M106 S255
G1 X41.108 Y95.671 F250
M106 S0
M106 S255
G1 X41.863 Y95.49 F250
M106 S0
M106 S255
G1 X42.651 Y95.584 F250
M106 S0
M106 S255
G1 X43.462 Y95.962 F250
M106 S0
G0 X39.559 Y98.113 F6000
M106 S255
G1 X39.559 Y98.113 F250
M106 S0
M106 S255
G1 X39.909 Y98.945 F250
M106 S0
M106 S255
G1 X40.576 Y99.518 F250
M106 S0
M106 S255
G1 X41.454 Y99.773 F250
M106 S0
M106 S255
G1 X41.861 Y99.741 F250
M106 S0
M106 S255
G1 X42.247 Y99.601 F250
M106 S0
M106 S255
G1 X42.613 Y99.351 F250
M106 S0
M106 S255
G1 X42.802 Y99.174 F250
M106 S0
M106 S255
G1 X43.121 Y98.863 F250
M106 S0
M106 S255
G1 X43.45 Y98.621 F250
M106 S0
M106 S255
G1 X43.538 Y98.504 F250
M106 S0
M106 S255
G1 X43.542 Y98.372 F250
M106 S0
M106 S255
G1 X43.54 Y98.354 F250
M106 S0
M106 S255
G1 X43.522 Y98.222 F250
M106 S0
M106 S255
G1 X43.463 Y97.952 F250
M106 S0
M106 S255
G1 X43.27 Y97.542 F250
M106 S0
M106 S255
G1 X42.979 Y97.283 F250
M106 S0
M106 S255
G1 X42.593 Y97.151 F250
M106 S0
M106 S255
G1 X41.591 Y97.174 F250
M106 S0
M106 S255
G1 X40.617 Y97.497 F250
M106 S0
M106 S255
G1 X40.156 Y97.733 F250
M106 S0
M106 S255
G1 X39.954 Y97.849 F250
M106 S0
M106 S255
G1 X39.892 Y97.881 F250
M106 S0
M106 S255
G1 X39.634 Y98.012 F250
M106 S0
M106 S255
G1 X39.439 Y98.232 F250
M106 S0
G0 X51.708 Y99.586 F6000
M106 S255
G1 X51.708 Y99.586 F250
M106 S0
M106 S255
G1 X52.448 Y99.246 F250
M106 S0
M106 S255
G1 X53.085 Y98.749 F250
M106 S0
M106 S255
G1 X53.874 Y98.082 F250
M106 S0
M106 S255
G1 X54.676 Y97.261 F250
M106 S0
M106 S255
G1 X55.26 Y96.449 F250
M106 S0
M106 S255
G1 X55.568 Y95.849 F250
M106 S0
M106 S255
G1 X55.771 Y95.205 F250
M106 S0
G0 X39.599 Y95.045 F6000
M106 S255
G1 X39.599 Y95.045 F250
M106 S0
M106 S255
G1 X40.089 Y94.664 F250
M106 S0
M106 S255
G1 X40.28 Y94.059 F250
M106 S0
M106 S255
G1 X40.267 Y93.697 F250
M106 S0
M106 S255
G1 X40.158 Y93.139 F250
M106 S0
M106 S255
G1 X39.813 Y91.875 F250
M106 S0
M106 S255
G1 X39.39 Y90.636 F250
M106 S0
M106 S255
G1 X39.279 Y90.328 F250
M106 S0
M106 S255
G1 X39.237 Y90.213 F250
M106 S0
M106 S255
G1 X39.227 Y90.177 F250
M106 S0
M106 S255
G1 X39.2 Y90.026 F250
M106 S0
G0 X38.045 Y88.712 F6000
M106 S255
G1 X38.045 Y88.712 F250
M106 S0
M106 S255
G1 X37.91 Y88.648 F250
M106 S0
M106 S255
G1 X37.768 Y88.595 F250
M106 S0
M106 S255
G1 X37.095 Y88.584 F250
M106 S0
M106 S255
G1 X35.914 Y88.529 F250
M106 S0
M106 S255
G1 X34.739 Y88.392 F250
M106 S0
M106 S255
G1 X33.484 Y88.129 F250
M106 S0
M106 S255
G1 X32.301 Y87.665 F250
M106 S0
M106 S255
G1 X31.458 Y87.088 F250
M106 S0
M106 S255
G1 X30.975 Y86.554 F250
M106 S0
M106 S255
G1 X30.676 Y85.883 F250
M106 S0
G0 X30.556 Y100.383 F6000
M106 S255
G1 X30.556 Y100.383 F250
M106 S0
M106 S255
G1 X31.154 Y100.0 F250
M106 S0
M106 S255
G1 X31.818 Y99.772 F250
M106 S0
M106 S255
G1 X32.66 Y99.572 F250
M106 S0
M106 S255
G1 X33.747 Y99.398 F250
M106 S0
M106 S255
G1 X34.84 Y99.263 F250
M106 S0
M106 S255
G1 X35.378 Y99.227 F250
M106 S0
M106 S255
G1 X35.78 Y99.247 F250
M106 S0
M106 S255
G1 X36.22 Y99.182 F250
M106 S0
M106 S255
G1 X36.848 Y99.157 F250
M106 S0
M106 S255
G1 X37.449 Y99.298 F250
M106 S0
M106 S255
G1 X37.74 Y99.401 F250
M106 S0
M106 S255
G1 X37.832 Y99.415 F250
M106 S0
M106 S255
G1 X37.925 Y99.427 F250
M106 S0
G0 X52.505 Y95.762 F6000
M106 S255
G1 X52.505 Y95.762 F250
M106 S0
M106 S255
G1 X50.821 Y97.438 F250
M106 S0
M106 S255
G1 X48.721 Y98.553 F250
M106 S0
M106 S255
G1 X47.392 Y98.835 F250
M106 S0
M106 S255
G1 X46.052 Y98.63 F250
M106 S0
G0 X35.575 Y88.393 F6000
M106 S255
G1 X35.575 Y88.393 F250
M106 S0
M106 S255
G1 X35.483 Y87.997 F250
M106 S0
M106 S255
G1 X35.324 Y87.621 F250
M106 S0
M106 S255
G1 X35.266 Y87.425 F250
M106 S0
M106 S255
G1 X35.256 Y87.375 F250
M106 S0
M106 S255
G1 X35.248 Y87.319 F250
M106 S0
M106 S255
G1 X35.233 Y87.203 F250
M106 S0
M106 S255
G1 X35.188 Y86.744 F250
M106 S0
M106 S255
G1 X35.184 Y85.853 F250
M106 S0
M106 S255
G1 X35.319 Y85.005 F250
M106 S0
M106 S255
G1 X35.621 Y84.208 F250
M106 S0
M106 S255
G1 X36.119 Y83.471 F250
M106 S0
M106 S255
G1 X36.449 Y83.127 F250
M106 S0
M106 S255
G1 X36.596 Y82.997 F250
M106 S0
M106 S255
G1 X36.668 Y82.939 F250
M106 S0
M106 S255
G1 X36.967 Y82.748 F250
M106 S0
M106 S255
G1 X37.618 Y82.531 F250
M106 S0
M106 S255
G1 X38.324 Y82.497 F250
M106 S0
G0 X66.367 Y54.972 F6000
M106 S255
G1 X66.367 Y54.972 F250
M106 S0
M106 S255
G1 X66.633 Y54.764 F250
M106 S0
M106 S255
G1 X66.8 Y54.497 F250
M106 S0
M106 S255
G1 X66.996 Y53.893 F250
M106 S0
M106 S255
G1 X67.084 Y53.473 F250
M106 S0
M106 S255
G1 X67.083 Y53.088 F250
M106 S0
M106 S255
G1 X67.001 Y52.739 F250
M106 S0
M106 S255
G1 X66.845 Y52.422 F250
M106 S0
M106 S255
G1 X66.346 Y51.887 F250
M106 S0
M106 S255
G1 X65.647 Y51.474 F250
M106 S0
M106 S255
G1 X64.9 Y51.19 F250
M106 S0
M106 S255
G1 X64.13 Y50.998 F250
M106 S0
M106 S255
G1 X62.543 Y50.831 F250
M106 S0
M106 S255
G1 X61.269 Y50.829 F250
M106 S0
G0 X36.651 Y99.029 F6000
M106 S255
G1 X36.651 Y99.029 F250
M106 S0
M106 S255
G1 X36.463 Y98.791 F250
M106 S0
M106 S255
G1 X36.217 Y98.622 F250
M106 S0
M106 S255
G1 X36.091 Y98.543 F250
M106 S0
M106 S255
G1 X35.997 Y98.476 F250
M106 S0
M106 S255
G1 X35.837 Y98.36 F250
M106 S0
M106 S255
G1 X35.23 Y97.859 F250
M106 S0
M106 S255
G1 X34.7 Y97.285 F250
M106 S0
M106 S255
G1 X34.438 Y96.905 F250
M106 S0
M106 S255
G1 X34.176 Y96.422 F250
M106 S0
M106 S255
G1 X34.018 Y95.938 F250
M106 S0
M106 S255
G1 X33.974 Y95.419 F250
M106 S0
M106 S255
G1 X34.055 Y94.83 F250
M106 S0
M106 S255
G1 X34.272 Y94.139 F250
M106 S0
M106 S255
G1 X33.507 Y93.924 F250
M106 S0
M106 S255
G1 X33.321 Y93.849 F250
M106 S0
M106 S255
G1 X33.075 Y93.681 F250
M106 S0
M106 S255
G1 X32.852 Y93.417 F250
M106 S0
M106 S255
G1 X32.712 Y93.098 F250
M106 S0
M106 S255
G1 X32.672 Y92.746 F250
M106 S0
M106 S255
G1 X32.748 Y92.381 F250
M106 S0
M106 S255
G1 X32.835 Y92.2 F250
M106 S0
M106 S255
G1 X32.889 Y92.114 F250
M106 S0
M106 S255
G1 X32.943 Y92.038 F250
M106 S0
M106 S255
G1 X33.066 Y91.699 F250
M106 S0
G0 X65.929 Y68.914 F6000
M106 S255
G1 X65.929 Y68.914 F250
M106 S0
M106 S255
G1 X67.416 Y67.472 F250
M106 S0
M106 S255
G1 X67.606 Y67.296 F250
M106 S0
M106 S255
G1 X67.884 Y67.037 F250
M106 S0
M106 S255
G1 X68.457 Y66.48 F250
M106 S0
M106 S255
G1 X69.501 Y65.273 F250
M106 S0
M106 S255
G1 X69.941 Y64.597 F250
M106 S0
M106 S255
G1 X70.133 Y64.212 F250
M106 S0
M106 S255
G1 X70.248 Y63.834 F250
M106 S0
M106 S255
G1 X70.279 Y63.479 F250
M106 S0
M106 S255
G1 X70.233 Y63.149 F250
M106 S0
M106 S255
G1 X70.111 Y62.843 F250
M106 S0
M106 S255
G1 X69.92 Y62.563 F250
M106 S0
M106 S255
G1 X69.664 Y62.311 F250
M106 S0
M106 S255
G1 X69.347 Y62.088 F250
M106 S0
M106 S255
G1 X68.974 Y61.895 F250
M106 S0
M106 S255
G1 X68.79 Y61.819 F250
M106 S0
M106 S255
G1 X68.737 Y61.799 F250
M106 S0
M106 S255
G1 X68.3 Y61.666 F250
M106 S0
M106 S255
G1 X67.879 Y61.476 F250
M106 S0
M106 S255
G1 X67.83 Y61.442 F250
M106 S0
M106 S255
G1 X67.903 Y61.281 F250
M106 S0
M106 S255
G1 X68.077 Y60.916 F250
M106 S0
M106 S255
G1 X68.379 Y60.175 F250
M106 S0
M106 S255
G1 X68.61 Y59.416 F250
M106 S0
M106 S255
G1 X68.763 Y58.64 F250
M106 S0
M106 S255
G1 X68.832 Y57.855 F250
M106 S0
M106 S255
G1 X68.799 Y57.155 F250
M106 S0
M106 S255
G1 X68.64 Y56.505 F250
M106 S0
M106 S255
G1 X68.327 Y55.926 F250
M106 S0
M106 S255
G1 X67.833 Y55.436 F250
M106 S0
M106 S255
G1 X67.545 Y55.25 F250
M106 S0
M106 S255
G1 X67.447 Y55.199 F250
M106 S0
M106 S255
G1 X66.606 Y54.892 F250
M106 S0
G0 X75.888 Y70.467 F6000
M106 S255
G1 X75.888 Y70.467 F250
M106 S0
M106 S255
G1 X76.944 Y69.922 F250
M106 S0
M106 S255
G1 X77.905 Y69.267 F250
M106 S0
M106 S255
G1 X78.777 Y68.513 F250
M106 S0
M106 S255
G1 X79.569 Y67.666 F250
M106 S0
M106 S255
G1 X80.288 Y66.734 F250
M106 S0
M106 S255
G1 X80.573 Y66.315 F250
M106 S0
M106 S255
G1 X80.747 Y66.038 F250
M106 S0
M106 S255
G1 X81.341 Y64.886 F250
M106 S0
M106 S255
G1 X81.774 Y63.671 F250
M106 S0
M106 S255
G1 X81.857 Y63.358 F250
M106 S0
M106 S255
G1 X81.902 Y63.167 F250
M106 S0
M106 S255
G1 X81.961 Y62.907 F250
M106 S0
M106 S255
G1 X82.036 Y62.37 F250
M106 S0
M106 S255
G1 X81.983 Y61.823 F250
M106 S0
G0 X86.763 Y69.949 F6000
M106 S255
G1 X86.763 Y69.949 F250
M106 S0
M106 S255
G1 X84.801 Y71.224 F250
M106 S0
M106 S255
G1 X82.698 Y72.235 F250
M106 S0
M106 S255
G1 X80.785 Y73.06 F250
M106 S0
M106 S255
G1 X79.086 Y73.73 F250
M106 S0
M106 S255
G1 X77.36 Y74.326 F250
M106 S0
M106 S255
G1 X76.345 Y74.626 F250
M106 S0
M106 S255
G1 X75.323 Y74.907 F250
M106 S0
M106 S255
G1 X74.723 Y75.074 F250
M106 S0
M106 S255
G1 X74.548 Y75.091 F250
M106 S0
M106 S255
G1 X74.374 Y75.048 F250
M106 S0
G0 X82.341 Y61.385 F6000
M106 S255
G1 X82.341 Y61.385 F250
M106 S0
M106 S255
G1 X81.14 Y62.288 F250
M106 S0
M106 S255
G1 X79.747 Y62.774 F250
M106 S0
M106 S255
G1 X78.084 Y62.991 F250
M106 S0
M106 S255
G1 X76.266 Y62.972 F250
M106 S0
M106 S255
G1 X74.455 Y62.805 F250
M106 S0
M106 S255
G1 X72.721 Y62.602 F250
M106 S0
M106 S255
G1 X70.984 Y62.431 F250
M106 S0
M106 S255
G1 X70.096 Y62.385 F250
M106 S0
M106 S255
G1 X70.064 Y62.401 F250
M106 S0
M106 S255
G1 X70.032 Y62.421 F250
M106 S0
G0 X76.286 Y74.53 F6000
M106 S255
G1 X76.286 Y74.53 F250
M106 S0
M106 S255
G1 X76.396 Y74.327 F250
M106 S0
M106 S255
G1 X76.592 Y74.23 F250
M106 S0
M106 S255
G1 X77.328 Y73.876 F250
M106 S0
M106 S255
G1 X79.112 Y72.937 F250
M106 S0
M106 S255
G1 X80.831 Y71.886 F250
M106 S0
M106 S255
G1 X81.852 Y71.146 F250
M106 S0
M106 S255
G1 X82.542 Y70.596 F250
M106 S0
M106 S255
G1 X83.213 Y70.024 F250
M106 S0
M106 S255
G1 X84.523 Y68.938 F250
M106 S0
M106 S255
G1 X85.87 Y67.899 F250
M106 S0
M106 S255
G1 X87.136 Y66.925 F250
M106 S0
M106 S255
G1 X88.219 Y66.054 F250
M106 S0
M106 S255
G1 X89.259 Y65.134 F250
M106 S0
M106 S255
G1 X89.698 Y64.7 F250
M106 S0
M106 S255
G1 X89.873 Y64.559 F250
M106 S0
M106 S255
G1 X90.109 Y64.532 F250
M106 S0
G0 X88.516 Y41.985 F6000
M106 S255
G1 X88.516 Y41.985 F250
M106 S0
M106 S255
G1 X87.147 Y40.827 F250
M106 S0
M106 S255
G1 X85.718 Y39.747 F250
M106 S0
M106 S255
G1 X84.152 Y38.739 F250
M106 S0
M106 S255
G1 X82.362 Y37.781 F250
M106 S0
M106 S255
G1 X80.498 Y36.976 F250
M106 S0
M106 S255
G1 X78.661 Y36.36 F250
M106 S0
M106 S255
G1 X76.866 Y35.91 F250
M106 S0
M106 S255
G1 X75.038 Y35.596 F250
M106 S0
M106 S255
G1 X73.642 Y35.456 F250
M106 S0
M106 S255
G1 X72.321 Y35.398 F250
M106 S0
M106 S255
G1 X70.998 Y35.381 F250
M106 S0
M106 S255
G1 X69.674 Y35.415 F250
M106 S0
M106 S255
G1 X68.354 Y35.522 F250
M106 S0
M106 S255
G1 X67.027 Y35.709 F250
M106 S0
M106 S255
G1 X65.685 Y35.939 F250
M106 S0
M106 S255
G1 X64.354 Y36.229 F250
M106 S0
M106 S255
G1 X63.937 Y36.333 F250
M106 S0
M106 S255
G1 X63.878 Y36.332 F250
M106 S0
M106 S255
G1 X63.818 Y36.329 F250
M106 S0
G0 X102.059 Y54.733 F6000
M106 S255
G1 X102.059 Y54.733 F250
M106 S0
M106 S255
G1 X102.59 Y53.657 F250
M106 S0
M106 S255
G1 X102.927 Y52.525 F250
M106 S0
M106 S255
G1 X103.074 Y51.348 F250
M106 S0
M106 S255
G1 X103.046 Y50.159 F250
M106 S0
M106 S255
G1 X102.865 Y48.994 F250
M106 S0
M106 S255
G1 X102.544 Y47.852 F250
M106 S0
M106 S255
G1 X102.444 Y47.57 F250
M106 S0
M106 S255
G1 X102.391 Y47.43 F250
M106 S0
M106 S255
G1 X102.287 Y47.17 F250
M106 S0
M106 S255
G1 X101.769 Y46.049 F250
M106 S0
M106 S255
G1 X101.163 Y44.995 F250
M106 S0
M106 S255
G1 X100.47 Y44.01 F250
M106 S0
M106 S255
G1 X99.69 Y43.093 F250
M106 S0
M106 S255
G1 X98.823 Y42.245 F250
M106 S0
M106 S255
G1 X97.87 Y41.467 F250
M106 S0
M106 S255
G1 X97.487 Y41.19 F250
M106 S0
M106 S255
G1 X97.18 Y40.984 F250
M106 S0
M106 S255
G1 X95.896 Y40.269 F250
M106 S0
M106 S255
G1 X94.517 Y39.764 F250
M106 S0
M106 S255
G1 X93.788 Y39.604 F250
M106 S0
M106 S255
G1 X93.413 Y39.55 F250
M106 S0
M106 S255
G1 X93.244 Y39.531 F250
M106 S0
M106 S255
G1 X92.781 Y39.502 F250
M106 S0
M106 S255
G1 X91.862 Y39.516 F250
M106 S0
G0 X12.511 Y76.403 F6000
M106 S255
G1 X12.511 Y76.403 F250
M106 S0
M106 S255
G1 X12.429 Y75.389 F250
M106 S0
M106 S255
G1 X12.345 Y74.376 F250
M106 S0
M106 S255
G1 X12.265 Y73.368 F250
M106 S0
M106 S255
G1 X12.184 Y72.37 F250
M106 S0
M106 S255
G1 X12.102 Y71.373 F250
M106 S0
M106 S255
G1 X11.986 Y69.773 F250
M106 S0
M106 S255
G1 X11.911 Y67.718 F250
M106 S0
M106 S255
G1 X11.916 Y65.662 F250
M106 S0
M106 S255
G1 X11.972 Y64.422 F250
M106 S0
M106 S255
G1 X12.085 Y63.321 F250
M106 S0
M106 S255
G1 X12.247 Y62.187 F250
M106 S0
M106 S255
G1 X12.499 Y60.854 F250
M106 S0
M106 S255
G1 X12.82 Y59.541 F250
M106 S0
M106 S255
G1 X13.21 Y58.246 F250
M106 S0
M106 S255
G1 X13.692 Y56.985 F250
M106 S0
M106 S255
G1 X14.251 Y55.756 F250
M106 S0
M106 S255
G1 X14.446 Y55.358 F250
M106 S0
M106 S255
G1 X14.474 Y55.285 F250
M106 S0
M106 S255
G1 X14.503 Y55.211 F250
M106 S0
G0 X66.009 Y69.053 F6000
M106 S255
G1 X66.009 Y69.053 F250
M106 S0
M106 S255
G1 X66.469 Y69.241 F250
M106 S0
M106 S255
G1 X66.943 Y69.368 F250
M106 S0
M106 S255
G1 X67.921 Y69.468 F250
M106 S0
M106 S255
G1 X71.427 Y69.4 F250
M106 S0
M106 S255
G1 X72.847 Y69.367 F250
M106 S0
M106 S255
G1 X73.554 Y69.411 F250
M106 S0
M106 S255
G1 X74.251 Y69.525 F250
M106 S0
M106 S255
G1 X74.828 Y69.7 F250
M106 S0
M106 S255
G1 X75.293 Y69.934 F250
M106 S0
M106 S255
G1 X75.648 Y70.227 F250
M106 S0
M106 S255
G1 X75.894 Y70.578 F250
M106 S0
M106 S255
G1 X76.035 Y70.986 F250
M106 S0
M106 S255
G1 X76.072 Y71.449 F250
M106 S0
M106 S255
G1 X76.008 Y71.966 F250
M106 S0
M106 S255
G1 X75.844 Y72.537 F250
M106 S0
M106 S255
G1 X75.615 Y73.074 F250
M106 S0
M106 S255
G1 X75.332 Y73.582 F250
M106 S0
M106 S255
G1 X74.651 Y74.529 F250
M106 S0
M106 S255
G1 X73.666 Y75.666 F250
M106 S0
M106 S255
G1 X72.615 Y76.737 F250
M106 S0
M106 S255
G1 X71.509 Y77.751 F250
M106 S0
M106 S255
G1 X70.356 Y78.719 F250
M106 S0
M106 S255
G1 X68.352 Y80.245 F250
M106 S0
M106 S255
G1 X66.242 Y81.61 F250
M106 S0
M106 S255
G1 X64.685 Y82.418 F250
M106 S0
M106 S255
G1 X63.062 Y83.098 F250
M106 S0
M106 S255
G1 X60.055 Y84.099 F250
M106 S0
M106 S255
G1 X57.005 Y84.961 F250
M106 S0
M106 S255
G1 X53.892 Y85.814 F250
M106 S0
M106 S255
G1 X53.22 Y85.922 F250
M106 S0
M106 S255
G1 X52.534 Y85.953 F250
M106 S0
M106 S255
G1 X51.842 Y85.913 F250
M106 S0
M106 S255
G1 X51.149 Y85.811 F250
M106 S0
M106 S255
G1 X50.074 Y85.529 F250
M106 S0
M106 S255
G1 X49.051 Y85.129 F250
M106 S0
M106 S255
G1 X47.087 Y84.131 F250
M106 S0
M106 S255
G1 X45.007 Y83.024 F250
M106 S0
M106 S255
G1 X43.937 Y82.537 F250
M106 S0
M106 S255
G1 X42.824 Y82.142 F250
M106 S0
M106 S255
G1 X41.289 Y81.792 F250
M106 S0
M106 S255
G1 X39.719 Y81.608 F250
M106 S0
M106 S255
G1 X37.228 Y81.435 F250
M106 S0
M106 S255
G1 X35.994 Y81.261 F250
M106 S0
M106 S255
G1 X34.778 Y80.945 F250
M106 S0
M106 S255
G1 X33.542 Y80.419 F250
M106 S0
M106 S255
G1 X32.968 Y80.076 F250
M106 S0
M106 S255
G1 X32.428 Y79.669 F250
M106 S0
G0 X99.032 Y69.312 F6000
M106 S255
G1 X99.032 Y69.312 F250
M106 S0
M106 S255
G1 X98.566 Y71.617 F250
M106 S0
M106 S255
G1 X98.486 Y71.901 F250
M106 S0
M106 S255
G1 X98.3 Y72.521 F250
M106 S0
M106 S255
G1 X97.84 Y73.849 F250
M106 S0
M106 S255
G1 X96.685 Y76.401 F250
M106 S0
M106 S255
G1 X95.987 Y77.623 F250
M106 S0
M106 S255
G1 X95.138 Y78.912 F250
M106 S0
M106 S255
G1 X94.193 Y80.146 F250
M106 S0
M106 S255
G1 X93.147 Y81.287 F250
M106 S0
M106 S255
G1 X91.981 Y82.318 F250
M106 S0
M106 S255
G1 X91.348 Y82.786 F250
M106 S0
M106 S255
G1 X91.04 Y82.994 F250
M106 S0
M106 S255
G1 X90.855 Y83.112 F250
M106 S0
M106 S255
G1 X89.322 Y83.922 F250
M106 S0
M106 S255
G1 X87.681 Y84.463 F250
M106 S0
M106 S255
G1 X87.316 Y84.54 F250
M106 S0
M106 S255
G1 X87.033 Y84.587 F250
M106 S0
M106 S255
G1 X86.461 Y84.652 F250
M106 S0
M106 S255
G1 X85.307 Y84.676 F250
M106 S0
M106 S255
G1 X84.797 Y84.65 F250
M106 S0
M106 S255
G1 X84.707 Y84.628 F250
M106 S0
M106 S255
G1 X84.391 Y84.456 F250
M106 S0
M106 S255
G1 X84.691 Y83.892 F250
M106 S0
G0 X20.398 Y62.62 F6000
M106 S255
G1 X20.398 Y62.62 F250
M106 S0
M106 S255
G1 X20.809 Y60.422 F250
M106 S0
M106 S255
G1 X20.982 Y59.891 F250
M106 S0
M106 S255
G1 X21.106 Y59.545 F250
M106 S0
M106 S255
G1 X21.304 Y59.045 F250
M106 S0
M106 S255
G1 X22.291 Y57.158 F250
M106 S0
M106 S255
G1 X23.576 Y55.46 F250
M106 S0
M106 S255
G1 X24.957 Y54.112 F250
M106 S0
M106 S255
G1 X26.4 Y53.02 F250
M106 S0
M106 S255
G1 X27.972 Y52.113 F250
M106 S0
M106 S255
G1 X30.079 Y51.22 F250
M106 S0
M106 S255
G1 X32.273 Y50.604 F250
M106 S0
M106 S255
G1 X33.403 Y50.409 F250
M106 S0
M106 S255
G1 X34.27 Y50.312 F250
M106 S0
M106 S255
G1 X35.733 Y50.231 F250
M106 S0
M106 S255
G1 X37.198 Y50.29 F250
M106 S0
M106 S255
G1 X37.565 Y50.332 F250
M106 S0
M106 S255
G1 X37.711 Y50.351 F250
M106 S0
M106 S255
G1 X37.785 Y50.356 F250
M106 S0
M106 S255
G1 X38.085 Y50.351 F250
M106 S0
G0 X97.598 Y82.139 F6000
M106 S255
G1 X97.598 Y82.139 F250
M106 S0
M106 S255
G1 X102.216 Y75.951 F250
M106 S0
M106 S255
G1 X103.305 Y74.356 F250
M106 S0
M106 S255
G1 X103.568 Y73.95 F250
M106 S0
M106 S255
G1 X103.726 Y73.702 F250
M106 S0
M106 S255
G1 X103.939 Y73.363 F250
M106 S0
M106 S255
G1 X104.761 Y71.991 F250
M106 S0
M106 S255
G1 X105.525 Y70.586 F250
M106 S0
M106 S255
G1 X105.928 Y69.764 F250
M106 S0
M106 S255
G1 X106.393 Y68.723 F250
M106 S0
M106 S255
G1 X107.175 Y66.589 F250
M106 S0
M106 S255
G1 X107.716 Y64.373 F250
M106 S0
M106 S255
G1 X107.984 Y61.542 F250
M106 S0
M106 S255
G1 X107.731 Y58.472 F250
M106 S0
M106 S255
G1 X107.384 Y56.918 F250
M106 S0
M106 S255
G1 X107.277 Y56.533 F250
M106 S0
M106 S255
G1 X107.238 Y56.401 F250
M106 S0
M106 S255
G1 X107.236 Y56.386 F250
M106 S0
M106 S255
G1 X107.238 Y56.326 F250
M106 S0
G0 X60.034 Y88.433 F6000
M106 S255
G1 X60.034 Y88.433 F250
M106 S0
M106 S255
G1 X60.778 Y88.38 F250
M106 S0
M106 S255
G1 X61.493 Y88.192 F250
M106 S0
M106 S255
G1 X62.37 Y87.908 F250
M106 S0
M106 S255
G1 X64.331 Y87.207 F250
M106 S0
M106 S255
G1 X66.254 Y86.408 F250
M106 S0
M106 S255
G1 X68.147 Y85.544 F250
M106 S0
M106 S255
G1 X70.018 Y84.669 F250
M106 S0
M106 S255
G1 X71.904 Y83.827 F250
M106 S0
M106 S255
G1 X73.792 Y83.062 F250
M106 S0
M106 S255
G1 X75.633 Y82.303 F250
M106 S0
M106 S255
G1 X77.445 Y81.477 F250
M106 S0
M106 S255
G1 X79.019 Y80.662 F250
M106 S0
M106 S255
G1 X80.382 Y79.866 F250
M106 S0
M106 S255
G1 X81.663 Y78.943 F250
M106 S0
M106 S255
G1 X82.5 Y78.161 F250
M106 S0
M106 S255
G1 X83.088 Y77.457 F250
M106 S0
M106 S255
G1 X83.635 Y76.717 F250
M106 S0
M106 S255
G1 X84.433 Y75.579 F250
M106 S0
M106 S255
G1 X85.242 Y74.311 F250
M106 S0
M106 S255
G1 X85.969 Y72.991 F250
M106 S0
M106 S255
G1 X86.127 Y72.629 F250
M106 S0
M106 S255
G1 X86.222 Y72.332 F250
M106 S0
M106 S255
G1 X86.329 Y72.012 F250
M106 S0
M106 S255
G1 X86.667 Y71.413 F250
M106 S0
M106 S255
G1 X87.087 Y70.874 F250
M106 S0
M106 S255
G1 X87.535 Y70.215 F250
M106 S0
M106 S255
G1 X88.114 Y69.103 F250
M106 S0
M106 S255
G1 X88.593 Y67.948 F250
M106 S0
M106 S255
G1 X88.962 Y66.927 F250
M106 S0
M106 S255
G1 X89.288 Y66.255 F250
M106 S0
M106 S255
G1 X89.642 Y65.599 F250
M106 S0
M106 S255
G1 X90.084 Y64.716 F250
M106 S0
M106 S255
G1 X90.767 Y63.655 F250
M106 S0
M106 S255
G1 X91.434 Y62.59 F250
M106 S0
M106 S255
G1 X91.954 Y61.403 F250
M106 S0
M106 S255
G1 X92.429 Y60.168 F250
M106 S0
M106 S255
G1 X92.892 Y58.927 F250
M106 S0
M106 S255
G1 X93.348 Y57.694 F250
M106 S0
M106 S255
G1 X93.795 Y56.461 F250
M106 S0
M106 S255
G1 X94.294 Y55.248 F250
M106 S0
M106 S255
G1 X94.38 Y55.004 F250
M106 S0
M106 S255
G1 X94.384 Y54.9 F250
M106 S0
M106 S255
G1 X94.451 Y54.812 F250
M106 S0
G0 X58.719 Y101.817 F6000
M106 S255
G1 X58.719 Y101.817 F250
M106 S0
M106 S255
G1 X58.213 Y102.186 F250
M106 S0
M106 S255
G1 X57.831 Y102.677 F250
M106 S0
M106 S255
G1 X57.608 Y102.935 F250
M106 S0
M106 S255
G1 X57.093 Y103.428 F250
M106 S0
M106 S255
G1 X55.984 Y104.31 F250
M106 S0
M106 S255
G1 X54.764 Y105.136 F250
M106 S0
M106 S255
G1 X52.976 Y106.185 F250
M106 S0
M106 S255
G1 X51.122 Y107.107 F250
M106 S0
M106 S255
G1 X50.19 Y107.524 F250
M106 S0
M106 S255
G1 X49.294 Y107.866 F250
M106 S0
M106 S255
G1 X47.456 Y108.371 F250
M106 S0
M106 S255
G1 X46.514 Y108.547 F250
M106 S0
M106 S255
G1 X46.038 Y108.617 F250
M106 S0
M106 S255
G1 X45.622 Y108.67 F250
M106 S0
M106 S255
G1 X44.117 Y108.783 F250
M106 S0
M106 S255
G1 X42.611 Y108.792 F250
M106 S0
M106 S255
G1 X42.235 Y108.781 F250
M106 S0
M106 S255
G1 X41.668 Y108.755 F250
M106 S0
M106 S255
G1 X40.428 Y108.65 F250
M106 S0
M106 S255
G1 X39.205 Y108.461 F250
M106 S0
M106 S255
G1 X38.004 Y108.169 F250
M106 S0
M106 S255
G1 X36.832 Y107.753 F250
M106 S0
M106 S255
G1 X36.258 Y107.491 F250
M106 S0
M106 S255
G1 X35.871 Y107.287 F250
M106 S0
M106 S255
G1 X35.176 Y106.834 F250
M106 S0
M106 S255
G1 X34.547 Y106.308 F250
M106 S0
M106 S255
G1 X33.982 Y105.712 F250
M106 S0
M106 S255
G1 X33.477 Y105.051 F250
M106 S0
M106 S255
G1 X32.669 Y103.765 F250
M106 S0
M106 S255
G1 X31.893 Y102.519 F250
M106 S0
M106 S255
G1 X31.499 Y101.899 F250
M106 S0
M106 S255
G1 X31.4 Y101.745 F250
M106 S0
M106 S255
G1 X31.333 Y101.641 F250
M106 S0
M106 S255
G1 X31.27 Y101.556 F250
M106 S0
M106 S255
G1 X30.72 Y100.91 F250
M106 S0
M106 S255
G1 X30.425 Y100.407 F250
M106 S0
M106 S255
G1 X30.022 Y99.964 F250
M106 S0
M106 S255
G1 X29.806 Y99.757 F250
M106 S0
M106 S255
G1 X29.747 Y99.7 F250
M106 S0
M106 S255
G1 X29.619 Y99.579 F250
M106 S0
M106 S255
G1 X29.359 Y99.345 F250
M106 S0
M106 S255
G1 X28.258 Y98.495 F250
M106 S0
M106 S255
G1 X27.068 Y97.761 F250
M106 S0
M106 S255
G1 X26.864 Y97.649 F250
M106 S0
M106 S255
G1 X26.576 Y97.498 F250
M106 S0
M106 S255
G1 X25.995 Y97.213 F250
M106 S0
M106 S255
G1 X24.81 Y96.705 F250
M106 S0
M106 S255
G1 X22.372 Y95.87 F250
M106 S0
M106 S255
G1 X21.133 Y95.506 F250
M106 S0
M106 S255
G1 X20.565 Y95.336 F250
M106 S0
M106 S255
G1 X19.562 Y94.971 F250
M106 S0
M106 S255
G1 X18.6 Y94.497 F250
M106 S0
M106 S255
G1 X18.244 Y94.2 F250
M106 S0
M106 S255
G1 X18.156 Y94.108 F250
M106 S0
M106 S255
G1 X17.998 Y93.913 F250
M106 S0
M106 S255
G1 X17.923 Y93.739 F250
M106 S0
M106 S255
G1 X17.933 Y93.569 F250
M106 S0
M106 S255
G1 X18.189 Y93.197 F250
M106 S0
M106 S255
G1 X18.372 Y92.922 F250
M106 S0
M106 S255
G1 X18.532 Y92.637 F250
M106 S0
M106 S255
G1 X18.58 Y92.572 F250
M106 S0
M106 S255
G1 X18.606 Y92.541 F250
M106 S0
M106 S255
G1 X18.723 Y92.412 F250
M106 S0
M106 S255
G1 X19.253 Y91.92 F250
M106 S0
M106 S255
G1 X19.834 Y91.519 F250
M106 S0
M106 S255
G1 X20.463 Y91.205 F250
M106 S0
M106 S255
G1 X21.139 Y90.975 F250
M106 S0
M106 S255
G1 X21.846 Y90.825 F250
M106 S0
M106 S255
G1 X23.237 Y90.694 F250
M106 S0
M106 S255
G1 X24.63 Y90.743 F250
M106 S0
M106 S255
G1 X25.252 Y90.817 F250
M106 S0
M106 S255
G1 X25.755 Y90.896 F250
M106 S0
M106 S255
G1 X26.757 Y91.08 F250
M106 S0
M106 S255
G1 X28.644 Y91.4 F250
M106 S0
M106 S255
G1 X30.454 Y91.668 F250
M106 S0
M106 S255
G1 X32.276 Y91.688 F250
M106 S0
M106 S255
G1 X33.201 Y91.637 F250
M106 S0
M106 S255
G1 X34.09 Y91.374 F250
M106 S0
M106 S255
G1 X34.196 Y91.315 F250
M106 S0
M106 S255
G1 X34.386 Y91.276 F250
M106 S0
M106 S255
G1 X34.795 Y91.177 F250
M106 S0
M106 S255
G1 X35.535 Y90.852 F250
M106 S0
M106 S255
G1 X36.197 Y90.402 F250
M106 S0
M106 S255
G1 X36.814 Y89.881 F250
M106 S0
M106 S255
G1 X39.304 Y87.736 F250
M106 S0
M106 S255
G1 X39.968 Y87.246 F250
M106 S0
M106 S255
G1 X40.681 Y86.823 F250
M106 S0
M106 S255
G1 X41.842 Y86.371 F250
M106 S0
M106 S255
G1 X43.032 Y86.213 F250
M106 S0
M106 S255
G1 X43.656 Y86.255 F250
M106 S0
M106 S255
G1 X44.081 Y86.325 F250
M106 S0
M106 S255
G1 X45.653 Y86.76 F250
M106 S0
G0 X24.78 Y48.757 F6000
M106 S255
G1 X24.78 Y48.757 F250
M106 S0
M106 S255
G1 X24.992 Y48.296 F250
M106 S0
M106 S255
G1 X25.29 Y47.891 F250
M106 S0
M106 S255
G1 X25.854 Y47.248 F250
M106 S0
M106 S255
G1 X27.245 Y45.98 F250
M106 S0
M106 S255
G1 X28.776 Y44.893 F250
M106 S0
M106 S255
G1 X30.569 Y43.789 F250
M106 S0
M106 S255
G1 X32.587 Y42.615 F250
M106 S0
M106 S255
G1 X34.651 Y41.524 F250
M106 S0
M106 S255
G1 X36.72 Y40.564 F250
M106 S0
M106 S255
G1 X38.814 Y39.722 F250
M106 S0
M106 S255
G1 X40.958 Y39.016 F250
M106 S0
M106 S255
G1 X42.33 Y38.658 F250
M106 S0
M106 S255
G1 X43.721 Y38.366 F250
M106 S0
M106 S255
G1 X45.23 Y38.119 F250
M106 S0
M106 S255
G1 X47.053 Y37.933 F250
M106 S0
M106 S255
G1 X48.88 Y37.874 F250
M106 S0
M106 S255
G1 X50.901 Y37.951 F250
M106 S0
M106 S255
G1 X53.087 Y38.228 F250
M106 S0
M106 S255
G1 X55.24 Y38.719 F250
M106 S0
M106 S255
G1 X55.813 Y38.883 F250
M106 S0
M106 S255
G1 X55.872 Y38.882 F250
M106 S0
M106 S255
G1 X55.931 Y38.878 F250
M106 S0
G0 X32.827 Y72.579 F6000
M106 S255
G1 X32.827 Y72.579 F250
M106 S0
M106 S255
G1 X33.89 Y71.557 F250
M106 S0
M106 S255
G1 X35.116 Y70.792 F250
M106 S0
M106 S255
G1 X36.456 Y70.216 F250
M106 S0
M106 S255
G1 X37.883 Y69.773 F250
M106 S0
M106 S255
G1 X40.831 Y69.246 F250
M106 S0
M106 S255
G1 X42.453 Y69.093 F250
M106 S0
M106 S255
G1 X44.159 Y69.027 F250
M106 S0
M106 S255
G1 X47.57 Y69.069 F250
M106 S0
M106 S255
G1 X50.981 Y69.272 F250
M106 S0
M106 S255
G1 X51.834 Y69.32 F250
M106 S0
M106 S255
G1 X52.567 Y69.352 F250
M106 S0
M106 S255
G1 X53.675 Y69.388 F250
M106 S0
M106 S255
G1 X55.89 Y69.446 F250
M106 S0
M106 S255
G1 X59.702 Y69.557 F250
M106 S0
M106 S255
G1 X61.606 Y69.66 F250
M106 S0
M106 S255
G1 X62.043 Y69.693 F250
M106 S0
M106 S255
G1 X62.324 Y69.714 F250
M106 S0
M106 S255
G1 X62.889 Y69.746 F250
M106 S0
M106 S255
G1 X64.019 Y69.728 F250
M106 S0
M106 S255
G1 X65.134 Y69.515 F250
M106 S0
M106 S255
G1 X65.408 Y69.419 F250
M106 S0
M106 S255
G1 X65.578 Y69.349 F250
M106 S0
M106 S255
G1 X65.617 Y69.332 F250
M106 S0
M106 S255
G1 X65.694 Y69.297 F250
M106 S0
M106 S255
G1 X65.94 Y69.106 F250
M106 S0
M106 S255
G1 X65.97 Y69.03 F250
M106 S0
M106 S255
G1 X65.85 Y68.949 F250
M106 S0
M106 S255
G1 X65.571 Y68.993 F250
M106 S0
G0 X86.763 Y62.222 F6000
M106 S255
G1 X86.763 Y62.222 F250
M106 S0
M106 S255
G1 X86.939 Y60.892 F250
M106 S0
M106 S255
G1 X87.16 Y60.263 F250
M106 S0
M106 S255
G1 X87.326 Y59.866 F250
M106 S0
M106 S255
G1 X87.611 Y59.224 F250
M106 S0
M106 S255
G1 X88.934 Y56.749 F250
M106 S0
M106 S255
G1 X89.325 Y56.165 F250
M106 S0
M106 S255
G1 X89.674 Y55.7 F250
M106 S0
M106 S255
G1 X90.314 Y55.014 F250
M106 S0
M106 S255
G1 X91.781 Y53.835 F250
M106 S0
M106 S255
G1 X93.759 Y52.282 F250
M106 S0
M106 S255
G1 X95.57 Y50.582 F250
M106 S0
M106 S255
G1 X96.865 Y48.781 F250
M106 S0
M106 S255
G1 X97.371 Y47.848 F250
M106 S0
M106 S255
G1 X97.549 Y47.189 F250
M106 S0
M106 S255
G1 X97.438 Y46.594 F250
M106 S0
M106 S255
G1 X97.041 Y46.042 F250
M106 S0
M106 S255
G1 X96.569 Y45.669 F250
M106 S0
M106 S255
G1 X96.083 Y45.449 F250
M106 S0
M106 S255
G1 X95.043 Y45.287 F250
M106 S0
M106 S255
G1 X94.073 Y45.274 F250
M106 S0
M106 S255
G1 X93.576 Y45.304 F250
M106 S0
M106 S255
G1 X92.841 Y45.377 F250
M106 S0
M106 S255
G1 X91.376 Y45.578 F250
M106 S0
M106 S255
G1 X89.43 Y45.959 F250
M106 S0
M106 S255
G1 X88.414 Y46.178 F250
M106 S0
M106 S255
G1 X87.906 Y46.289 F250
M106 S0
M106 S255
G1 X87.526 Y46.372 F250
M106 S0
M106 S255
G1 X86.301 Y46.631 F250
M106 S0
M106 S255
G1 X84.955 Y46.828 F250
M106 S0
M106 S255
G1 X83.487 Y46.946 F250
M106 S0
M106 S255
G1 X83.071 Y46.96 F250
M106 S0
M106 S255
G1 X82.397 Y46.973 F250
M106 S0
M106 S255
G1 X81.049 Y46.987 F250
M106 S0
M106 S255
G1 X78.42 Y47.012 F250
M106 S0
M106 S255
G1 X74.315 Y47.209 F250
M106 S0
M106 S255
G1 X72.282 Y47.407 F250
M106 S0
M106 S255
G1 X71.773 Y47.452 F250
M106 S0
M106 S255
G1 X70.895 Y47.517 F250
M106 S0
M106 S255
G1 X69.097 Y47.592 F250
M106 S0
M106 S255
G1 X67.3 Y47.601 F250
M106 S0
M106 S255
G1 X66.4 Y47.584 F250
M106 S0
M106 S255
G1 X65.951 Y47.572 F250
M106 S0
M106 S255
G1 X65.726 Y47.564 F250
M106 S0
M106 S255
G1 X65.677 Y47.563 F250
M106 S0
M106 S255
G1 X65.416 Y47.562 F250
M106 S0
M106 S255
G1 X65.286 Y47.562 F250
M106 S0
M106 S255
G1 X65.254 Y47.562 F250
M106 S0
M106 S255
G1 X64.857 Y47.559 F250
M106 S0
M106 S255
G1 X64.023 Y47.553 F250
M106 S0
M106 S255
G1 X60.688 Y47.53 F250
M106 S0
M106 S255
G1 X59.855 Y47.527 F250
M106 S0
M106 S255
G1 X59.646 Y47.527 F250
M106 S0
M106 S255
G1 X59.592 Y47.527 F250
M106 S0
M106 S255
G1 X59.5 Y47.528 F250
M106 S0
M106 S255
G1 X59.134 Y47.546 F250
M106 S0
M106 S255
G1 X58.4 Y47.602 F250
M106 S0
G0 X34.022 Y91.102 F6000
M106 S255
G1 X34.022 Y91.102 F250
M106 S0
M106 S255
G1 X32.886 Y90.915 F250
M106 S0
M106 S255
G1 X32.319 Y90.819 F250
M106 S0
M106 S255
G1 X31.946 Y90.751 F250
M106 S0
M106 S255
G1 X31.329 Y90.617 F250
M106 S0
M106 S255
G1 X28.939 Y89.838 F250
M106 S0
M106 S255
G1 X28.359 Y89.591 F250
M106 S0
M106 S255
G1 X27.689 Y89.278 F250
M106 S0
M106 S255
G1 X26.225 Y88.488 F250
M106 S0
M106 S255
G1 X24.834 Y87.583 F250
M106 S0
M106 S255
G1 X23.515 Y86.562 F250
M106 S0
M106 S255
G1 X21.804 Y84.961 F250
M106 S0
M106 S255
G1 X20.251 Y83.139 F250
M106 S0
M106 S255
G1 X18.939 Y81.13 F250
M106 S0
M106 S255
G1 X18.393 Y80.077 F250
M106 S0
M106 S255
G1 X18.137 Y79.514 F250
M106 S0
M106 S255
G1 X17.346 Y77.185 F250
M106 S0
M106 S255
G1 X17.094 Y75.992 F250
M106 S0
M106 S255
G1 X16.953 Y74.895 F250
M106 S0
M106 S255
G1 X16.92 Y72.692 F250
M106 S0
M106 S255
G1 X17.027 Y71.759 F250
M106 S0
M106 S255
G1 X17.28 Y70.93 F250
M106 S0
M106 S255
G1 X17.705 Y70.16 F250
M106 S0
M106 S255
G1 X17.987 Y69.796 F250
M106 S0
M106 S255
G1 X18.559 Y69.17 F250
M106 S0
M106 S255
G1 X21.249 Y66.7 F250
M106 S0
M106 S255
G1 X22.681 Y65.557 F250
M106 S0
M106 S255
G1 X24.137 Y64.26 F250
M106 S0
M106 S255
G1 X25.439 Y62.831 F250
M106 S0
M106 S255
G1 X26.622 Y61.295 F250
M106 S0
M106 S255
G1 X27.117 Y60.59 F250
M106 S0
M106 S255
G1 X27.502 Y60.047 F250
M106 S0
M106 S255
G1 X28.294 Y58.977 F250
M106 S0
M106 S255
G1 X29.12 Y57.932 F250
M106 S0
M106 S255
G1 X30.046 Y56.849 F250
M106 S0
M106 S255
G1 X31.192 Y55.725 F250
M106 S0
M106 S255
G1 X32.434 Y54.726 F250
M106 S0
M106 S255
G1 X33.762 Y53.839 F250
M106 S0
M106 S255
G1 X34.713 Y53.311 F250
M106 S0
M106 S255
G1 X36.644 Y52.414 F250
M106 S0
M106 S255
G1 X37.1 Y52.202 F250
M106 S0
M106 S255
G1 X37.417 Y52.055 F250
M106 S0
M106 S255
G1 X38.053 Y51.766 F250
M106 S0
M106 S255
G1 X38.693 Y51.485 F250
M106 S0
M106 S255
G1 X39.015 Y51.348 F250
M106 S0
M106 S255
G1 X39.176 Y51.28 F250
M106 S0
M106 S255
G1 X39.536 Y51.131 F250
M106 S0
M106 S255
G1 X42.744 Y49.878 F250
M106 S0
M106 S255
G1 X46.089 Y48.671 F250
M106 S0
M106 S255
G1 X49.639 Y47.615 F250
M106 S0
M106 S255
G1 X50.544 Y47.408 F250
M106 S0
M106 S255
G1 X51.314 Y47.257 F250
M106 S0
M106 S255
G1 X52.845 Y47.031 F250
M106 S0
M106 S255
G1 X54.385 Y46.92 F250
M106 S0
M106 S255
G1 X55.872 Y46.941 F250
M106 S0
M106 S255
G1 X56.809 Y47.081 F250
M106 S0
M106 S255
G1 X57.694 Y47.384 F250
M106 S0
M106 S255
G1 X58.521 Y47.868 F250
M106 S0
M106 S255
G1 X59.304 Y48.526 F250
M106 S0
M106 S255
G1 X60.812 Y49.93 F250
M106 S0
M106 S255
G1 X61.203 Y50.266 F250
M106 S0
M106 S255
G1 X61.325 Y50.365 F250
M106 S0
M106 S255
G1 X61.361 Y50.394 F250
M106 S0
M106 S255
G1 X61.503 Y50.512 F250
M106 S0
M106 S255
G1 X61.786 Y50.749 F250
M106 S0
G0 X25.953 Y12.616 F6000
M106 S255
G1 X25.953 Y12.616 F250
M106 S0
M106 S255
G1 X25.549 Y12.459 F250
M106 S0
M106 S255
G1 X25.155 Y12.319 F250
M106 S0
M106 S255
G1 X24.77 Y12.195 F250
M106 S0
M106 S255
G1 X24.396 Y12.088 F250
M106 S0
M106 S255
G1 X24.032 Y11.998 F250
M106 S0
M106 S255
G1 X23.678 Y11.924 F250
M106 S0
M106 S255
G1 X23.334 Y11.866 F250
M106 S0
M106 S255
G1 X23.0 Y11.825 F250
M106 S0
M106 S255
G1 X22.676 Y11.8 F250
M106 S0
M106 S255
G1 X22.362 Y11.792 F250
M106 S0
M106 S255
G1 X22.038 Y11.801 F250
M106 S0
M106 S255
G1 X21.728 Y11.829 F250
M106 S0
M106 S255
G1 X21.433 Y11.876 F250
M106 S0
M106 S255
G1 X21.153 Y11.941 F250
M106 S0
M106 S255
G1 X20.889 Y12.025 F250
M106 S0
M106 S255
G1 X20.639 Y12.128 F250
M106 S0
M106 S255
G1 X20.404 Y12.249 F250
M106 S0
M106 S255
G1 X20.184 Y12.389 F250
M106 S0
M106 S255
G1 X19.978 Y12.548 F250
M106 S0
M106 S255
G1 X19.788 Y12.725 F250
M106 S0
M106 S255
G1 X19.615 Y12.919 F250
M106 S0
M106 S255
G1 X19.459 Y13.129 F250
M106 S0
M106 S255
G1 X19.322 Y13.353 F250
M106 S0
M106 S255
G1 X19.203 Y13.593 F250
M106 S0
M106 S255
G1 X19.103 Y13.848 F250
M106 S0
M106 S255
G1 X19.021 Y14.118 F250
M106 S0
M106 S255
G1 X18.957 Y14.403 F250
M106 S0
M106 S255
G1 X18.911 Y14.704 F250
M106 S0
M106 S255
G1 X18.884 Y15.02 F250
M106 S0
M106 S255
G1 X18.874 Y15.35 F250
M106 S0
M106 S255
G1 X18.892 Y15.879 F250
M106 S0
M106 S255
G1 X18.945 Y16.392 F250
M106 S0
M106 S255
G1 X19.032 Y16.888 F250
M106 S0
M106 S255
G1 X19.155 Y17.369 F250
M106 S0
M106 S255
G1 X19.313 Y17.834 F250
M106 S0
M106 S255
G1 X19.506 Y18.282 F250
M106 S0
M106 S255
G1 X19.734 Y18.715 F250
M106 S0
M106 S255
G1 X19.997 Y19.131 F250
M106 S0
M106 S255
G1 X20.295 Y19.532 F250
M106 S0
M106 S255
G1 X20.628 Y19.916 F250
M106 S0
M106 S255
G1 X20.986 Y20.274 F250
M106 S0
M106 S255
G1 X21.359 Y20.594 F250
M106 S0
M106 S255
G1 X21.746 Y20.876 F250
M106 S0
M106 S255
G1 X22.149 Y21.121 F250
M106 S0
M106 S255
G1 X22.566 Y21.328 F250
M106 S0
M106 S255
G1 X22.997 Y21.497 F250
M106 S0
M106 S255
G1 X23.444 Y21.629 F250
M106 S0
M106 S255
G1 X23.905 Y21.723 F250
M106 S0
M106 S255
G1 X24.381 Y21.78 F250
M106 S0
M106 S255
G1 X24.872 Y21.798 F250
M106 S0
M106 S255
G1 X25.167 Y21.795 F250
M106 S0
M106 S255
G1 X25.458 Y21.783 F250
M106 S0
M106 S255
G1 X25.745 Y21.764 F250
M106 S0
M106 S255
G1 X26.027 Y21.738 F250
M106 S0
M106 S255
G1 X26.305 Y21.703 F250
M106 S0
M106 S255
G1 X26.579 Y21.662 F250
M106 S0
M106 S255
G1 X26.849 Y21.612 F250
M106 S0
M106 S255
G1 X27.114 Y21.555 F250
M106 S0
M106 S255
G1 X27.376 Y21.491 F250
M106 S0
M106 S255
G1 X27.633 Y21.419 F250
M106 S0
M106 S255
G1 X27.086 Y19.649 F250
M106 S0
M106 S255
G1 X26.68 Y19.649 F250
M106 S0
M106 S255
G1 X26.692 Y19.708 F250
M106 S0
M106 S255
G1 X26.703 Y19.766 F250
M106 S0
M106 S255
G1 X26.713 Y19.821 F250
M106 S0
M106 S255
G1 X26.721 Y19.873 F250
M106 S0
M106 S255
G1 X26.728 Y19.924 F250
M106 S0
M106 S255
G1 X26.734 Y19.973 F250
M106 S0
M106 S255
G1 X26.739 Y20.019 F250
M106 S0
M106 S255
G1 X26.742 Y20.063 F250
M106 S0
M106 S255
G1 X26.744 Y20.105 F250
M106 S0
M106 S255
G1 X26.744 Y20.145 F250
M106 S0
M106 S255
G1 X26.738 Y20.254 F250
M106 S0
M106 S255
G1 X26.72 Y20.36 F250
M106 S0
M106 S255
G1 X26.689 Y20.461 F250
M106 S0
M106 S255
G1 X26.647 Y20.558 F250
M106 S0
M106 S255
G1 X26.592 Y20.651 F250
M106 S0
M106 S255
G1 X26.524 Y20.74 F250
M106 S0
M106 S255
G1 X26.445 Y20.824 F250
M106 S0
M106 S255
G1 X26.353 Y20.904 F250
M106 S0
M106 S255
G1 X26.249 Y20.98 F250
M106 S0
M106 S255
G1 X26.133 Y21.052 F250
M106 S0
M106 S255
G1 X26.007 Y21.118 F250
M106 S0
M106 S255
G1 X25.874 Y21.177 F250
M106 S0
M106 S255
G1 X25.733 Y21.229 F250
M106 S0
M106 S255
G1 X25.585 Y21.274 F250
M106 S0
M106 S255
G1 X25.43 Y21.312 F250
M106 S0
M106 S255
G1 X25.268 Y21.344 F250
M106 S0
M106 S255
G1 X25.098 Y21.368 F250
M106 S0
M106 S255
G1 X24.92 Y21.385 F250
M106 S0
M106 S255
G1 X24.736 Y21.396 F250
M106 S0
M106 S255
G1 X24.544 Y21.399 F250
M106 S0
M106 S255
G1 X24.253 Y21.386 F250
M106 S0
M106 S255
G1 X23.969 Y21.347 F250
M106 S0
M106 S255
G1 X23.693 Y21.281 F250
M106 S0
M106 S255
G1 X23.423 Y21.189 F250
M106 S0
M106 S255
G1 X23.162 Y21.071 F250
M106 S0
M106 S255
G1 X22.907 Y20.927 F250
M106 S0
M106 S255
G1 X22.66 Y20.756 F250
M106 S0
M106 S255
G1 X22.421 Y20.559 F250
M106 S0
M106 S255
G1 X22.188 Y20.336 F250
M106 S0
M106 S255
G1 X21.963 Y20.087 F250
M106 S0
M106 S255
G1 X21.819 Y19.909 F250
M106 S0
M106 S255
G1 X21.681 Y19.722 F250
M106 S0
M106 S255
G1 X21.547 Y19.528 F250
M106 S0
M106 S255
G1 X21.42 Y19.325 F250
M106 S0
M106 S255
G1 X21.297 Y19.113 F250
M106 S0
M106 S255
G1 X21.18 Y18.894 F250
M106 S0
M106 S255
G1 X21.069 Y18.665 F250
M106 S0
M106 S255
G1 X20.962 Y18.429 F250
M106 S0
M106 S255
G1 X20.862 Y18.184 F250
M106 S0
M106 S255
G1 X20.766 Y17.931 F250
M106 S0
M106 S255
G1 X20.678 Y17.675 F250
M106 S0
M106 S255
G1 X20.6 Y17.421 F250
M106 S0
M106 S255
G1 X20.53 Y17.171 F250
M106 S0
M106 S255
G1 X20.47 Y16.923 F250
M106 S0
M106 S255
G1 X20.419 Y16.678 F250
M106 S0
M106 S255
G1 X20.377 Y16.435 F250
M106 S0
M106 S255
G1 X20.345 Y16.195 F250
M106 S0
M106 S255
G1 X20.322 Y15.958 F250
M106 S0
M106 S255
G1 X20.308 Y15.724 F250
M106 S0
M106 S255
G1 X20.303 Y15.492 F250
M106 S0
M106 S255
G1 X20.31 Y15.22 F250
M106 S0
M106 S255
G1 X20.332 Y14.96 F250
M106 S0
M106 S255
G1 X20.369 Y14.711 F250
M106 S0
M106 S255
G1 X20.42 Y14.475 F250
M106 S0
M106 S255
G1 X20.486 Y14.25 F250
M106 S0
M106 S255
G1 X20.566 Y14.037 F250
M106 S0
M106 S255
G1 X20.661 Y13.836 F250
M106 S0
M106 S255
G1 X20.77 Y13.647 F250
M106 S0
M106 S255
G1 X20.895 Y13.47 F250
M106 S0
M106 S255
G1 X21.033 Y13.304 F250
M106 S0
M106 S255
G1 X21.185 Y13.153 F250
M106 S0
M106 S255
G1 X21.347 Y13.017 F250
M106 S0
M106 S255
G1 X21.521 Y12.897 F250
M106 S0
M106 S255
G1 X21.705 Y12.793 F250
M106 S0
M106 S255
G1 X21.9 Y12.706 F250
M106 S0
M106 S255
G1 X22.106 Y12.634 F250
M106 S0
M106 S255
G1 X22.322 Y12.578 F250
M106 S0
M106 S255
G1 X22.55 Y12.538 F250
M106 S0
M106 S255
G1 X22.789 Y12.514 F250
M106 S0
M106 S255
G1 X23.038 Y12.506 F250
M106 S0
M106 S255
G1 X23.325 Y12.513 F250
M106 S0
M106 S255
G1 X23.617 Y12.535 F250
M106 S0
M106 S255
G1 X23.911 Y12.571 F250
M106 S0
M106 S255
G1 X24.21 Y12.621 F250
M106 S0
M106 S255
G1 X24.512 Y12.686 F250
M106 S0
M106 S255
G1 X24.817 Y12.766 F250
M106 S0
M106 S255
G1 X25.126 Y12.859 F250
M106 S0
M106 S255
G1 X25.439 Y12.967 F250
M106 S0
M106 S255
G1 X25.755 Y13.09 F250
M106 S0
M106 S255
G1 X26.075 Y13.227 F250
M106 S0
M106 S255
G1 X25.953 Y12.616 F250
M106 S0
G0 X31.313 Y11.792 F6000
M106 S255
G1 X31.313 Y11.792 F250
M106 S0
M106 S255
G1 X31.003 Y11.802 F250
M106 S0
M106 S255
G1 X30.707 Y11.831 F250
M106 S0
M106 S255
G1 X30.423 Y11.881 F250
M106 S0
M106 S255
G1 X30.152 Y11.949 F250
M106 S0
M106 S255
G1 X29.895 Y12.038 F250
M106 S0
M106 S255
G1 X29.651 Y12.146 F250
M106 S0
M106 S255
G1 X29.42 Y12.274 F250
M106 S0
M106 S255
G1 X29.203 Y12.422 F250
M106 S0
M106 S255
G1 X28.998 Y12.589 F250
M106 S0
M106 S255
G1 X28.807 Y12.776 F250
M106 S0
M106 S255
G1 X28.631 Y12.98 F250
M106 S0
M106 S255
G1 X28.474 Y13.198 F250
M106 S0
M106 S255
G1 X28.336 Y13.43 F250
M106 S0
M106 S255
G1 X28.216 Y13.676 F250
M106 S0
M106 S255
G1 X28.114 Y13.936 F250
M106 S0
M106 S255
G1 X28.031 Y14.21 F250
M106 S0
M106 S255
G1 X27.967 Y14.499 F250
M106 S0
M106 S255
G1 X27.92 Y14.801 F250
M106 S0
M106 S255
G1 X27.893 Y15.117 F250
M106 S0
M106 S255
G1 X27.883 Y15.447 F250
M106 S0
M106 S255
G1 X27.901 Y15.947 F250
M106 S0
M106 S255
G1 X27.953 Y16.434 F250
M106 S0
M106 S255
G1 X28.04 Y16.909 F250
M106 S0
M106 S255
G1 X28.162 Y17.371 F250
M106 S0
M106 S255
G1 X28.319 Y17.821 F250
M106 S0
M106 S255
G1 X28.51 Y18.259 F250
M106 S0
M106 S255
G1 X28.736 Y18.685 F250
M106 S0
M106 S255
G1 X28.997 Y19.098 F250
M106 S0
M106 S255
G1 X29.293 Y19.499 F250
M106 S0
M106 S255
G1 X29.624 Y19.887 F250
M106 S0
M106 S255
G1 X29.978 Y20.25 F250
M106 S0
M106 S255
G1 X30.343 Y20.575 F250
M106 S0
M106 S255
G1 X30.719 Y20.862 F250
M106 S0
M106 S255
G1 X31.107 Y21.11 F250
M106 S0
M106 S255
G1 X31.506 Y21.321 F250
M106 S0
M106 S255
G1 X31.916 Y21.493 F250
M106 S0
M106 S255
G1 X32.337 Y21.626 F250
M106 S0
M106 S255
G1 X32.77 Y21.722 F250
M106 S0
M106 S255
G1 X33.213 Y21.779 F250
M106 S0
M106 S255
G1 X33.669 Y21.798 F250
M106 S0
M106 S255
G1 X33.976 Y21.789 F250
M106 S0
M106 S255
G1 X34.27 Y21.76 F250
M106 S0
M106 S255
G1 X34.552 Y21.711 F250
M106 S0
M106 S255
G1 X34.82 Y21.643 F250
M106 S0
M106 S255
G1 X35.075 Y21.556 F250
M106 S0
M106 S255
G1 X35.318 Y21.45 F250
M106 S0
M106 S255
G1 X35.547 Y21.324 F250
M106 S0
M106 S255
G1 X35.763 Y21.179 F250
M106 S0
M106 S255
G1 X35.966 Y21.014 F250
M106 S0
M106 S255
G1 X36.156 Y20.83 F250
M106 S0
M106 S255
G1 X36.33 Y20.629 F250
M106 S0
M106 S255
G1 X36.486 Y20.415 F250
M106 S0
M106 S255
G1 X36.623 Y20.187 F250
M106 S0
M106 S255
G1 X36.743 Y19.944 F250
M106 S0
M106 S255
G1 X36.843 Y19.688 F250
M106 S0
M106 S255
G1 X36.926 Y19.419 F250
M106 S0
M106 S255
G1 X36.99 Y19.135 F250
M106 S0
M106 S255
G1 X37.036 Y18.838 F250
M106 S0
M106 S255
G1 X37.063 Y18.526 F250
M106 S0
M106 S255
G1 X37.073 Y18.201 F250
M106 S0
M106 S255
G1 X37.056 Y17.681 F250
M106 S0
M106 S255
G1 X37.005 Y17.176 F250
M106 S0
M106 S255
G1 X36.92 Y16.686 F250
M106 S0
M106 S255
G1 X36.801 Y16.211 F250
M106 S0
M106 S255
G1 X36.649 Y15.751 F250
M106 S0
M106 S255
G1 X36.462 Y15.306 F250
M106 S0
M106 S255
G1 X36.242 Y14.876 F250
M106 S0
M106 S255
G1 X35.987 Y14.462 F250
M106 S0
M106 S255
G1 X35.699 Y14.062 F250
M106 S0
M106 S255
G1 X35.377 Y13.677 F250
M106 S0
M106 S255
G1 X35.031 Y13.319 F250
M106 S0
M106 S255
G1 X34.672 Y12.999 F250
M106 S0
M106 S255
G1 X34.299 Y12.716 F250
M106 S0
M106 S255
G1 X33.913 Y12.471 F250
M106 S0
M106 S255
G1 X33.513 Y12.263 F250
M106 S0
M106 S255
G1 X33.1 Y12.094 F250
M106 S0
M106 S255
G1 X32.674 Y11.962 F250
M106 S0
M106 S255
G1 X32.234 Y11.867 F250
M106 S0
M106 S255
G1 X31.78 Y11.811 F250
M106 S0
M106 S255
G1 X31.313 Y11.792 F250
M106 S0
G0 X31.564 Y12.229 F6000
M106 S255
G1 X31.564 Y12.229 F250
M106 S0
M106 S255
G1 X31.894 Y12.247 F250
M106 S0
M106 S255
G1 X32.214 Y12.3 F250
M106 S0
M106 S255
G1 X32.525 Y12.389 F250
M106 S0
M106 S255
G1 X32.827 Y12.513 F250
M106 S0
M106 S255
G1 X33.118 Y12.672 F250
M106 S0
M106 S255
G1 X33.401 Y12.867 F250
M106 S0
M106 S255
G1 X33.673 Y13.097 F250
M106 S0
M106 S255
G1 X33.936 Y13.362 F250
M106 S0
M106 S255
G1 X34.19 Y13.663 F250
M106 S0
M106 S255
G1 X34.434 Y13.999 F250
M106 S0
M106 S255
G1 X34.662 Y14.36 F250
M106 S0
M106 S255
G1 X34.865 Y14.735 F250
M106 S0
M106 S255
G1 X35.045 Y15.125 F250
M106 S0
M106 S255
G1 X35.2 Y15.528 F250
M106 S0
M106 S255
G1 X35.332 Y15.946 F250
M106 S0
M106 S255
G1 X35.44 Y16.377 F250
M106 S0
M106 S255
G1 X35.523 Y16.823 F250
M106 S0
M106 S255
G1 X35.583 Y17.284 F250
M106 S0
M106 S255
G1 X35.619 Y17.758 F250
M106 S0
M106 S255
G1 X35.631 Y18.246 F250
M106 S0
M106 S255
G1 X35.609 Y18.843 F250
M106 S0
M106 S255
G1 X35.544 Y19.377 F250
M106 S0
M106 S255
G1 X35.435 Y19.848 F250
M106 S0
M106 S255
G1 X35.282 Y20.256 F250
M106 S0
M106 S255
G1 X35.086 Y20.601 F250
M106 S0
M106 S255
G1 X34.846 Y20.884 F250
M106 S0
M106 S255
G1 X34.562 Y21.104 F250
M106 S0
M106 S255
G1 X34.235 Y21.261 F250
M106 S0
M106 S255
G1 X33.864 Y21.355 F250
M106 S0
M106 S255
G1 X33.45 Y21.386 F250
M106 S0
M106 S255
G1 X33.12 Y21.369 F250
M106 S0
M106 S255
G1 X32.799 Y21.316 F250
M106 S0
M106 S255
G1 X32.488 Y21.229 F250
M106 S0
M106 S255
G1 X32.186 Y21.106 F250
M106 S0
M106 S255
G1 X31.894 Y20.949 F250
M106 S0
M106 S255
G1 X31.611 Y20.756 F250
M106 S0
M106 S255
G1 X31.338 Y20.529 F250
M106 S0
M106 S255
G1 X31.073 Y20.266 F250
M106 S0
M106 S255
G1 X30.819 Y19.969 F250
M106 S0
M106 S255
G1 X30.573 Y19.636 F250
M106 S0
M106 S255
G1 X30.345 Y19.279 F250
M106 S0
M106 S255
G1 X30.14 Y18.908 F250
M106 S0
M106 S255
G1 X29.96 Y18.523 F250
M106 S0
M106 S255
G1 X29.803 Y18.125 F250
M106 S0
M106 S255
G1 X29.671 Y17.712 F250
M106 S0
M106 S255
G1 X29.562 Y17.286 F250
M106 S0
M106 S255
G1 X29.478 Y16.845 F250
M106 S0
M106 S255
G1 X29.418 Y16.391 F250
M106 S0
M106 S255
G1 X29.382 Y15.923 F250
M106 S0
M106 S255
G1 X29.37 Y15.441 F250
M106 S0
M106 S255
G1 X29.392 Y14.83 F250
M106 S0
M106 S255
G1 X29.458 Y14.285 F250
M106 S0
M106 S255
G1 X29.567 Y13.803 F250
M106 S0
M106 S255
G1 X29.721 Y13.385 F250
M106 S0
M106 S255
G1 X29.919 Y13.032 F250
M106 S0
M106 S255
G1 X30.16 Y12.743 F250
M106 S0
M106 S255
G1 X30.445 Y12.518 F250
M106 S0
M106 S255
G1 X30.774 Y12.358 F250
M106 S0
M106 S255
G1 X31.147 Y12.262 F250
M106 S0
M106 S255
G1 X31.564 Y12.229 F250
M106 S0
G0 X36.79 Y12.03 F6000
M106 S255
G1 X36.79 Y12.03 F250
M106 S0
M106 S255
G1 X37.755 Y12.982 F250
M106 S0
M106 S255
G1 X38.186 Y12.982 F250
M106 S0
M106 S255
G1 X38.329 Y12.987 F250
M106 S0
M106 S255
G1 X38.464 Y13.002 F250
M106 S0
M106 S255
G1 X38.592 Y13.026 F250
M106 S0
M106 S255
G1 X38.712 Y13.059 F250
M106 S0
M106 S255
G1 X38.824 Y13.102 F250
M106 S0
M106 S255
G1 X38.928 Y13.155 F250
M106 S0
M106 S255
G1 X39.025 Y13.217 F250
M106 S0
M106 S255
G1 X39.115 Y13.289 F250
M106 S0
M106 S255
G1 X39.196 Y13.371 F250
M106 S0
M106 S255
G1 X39.27 Y13.462 F250
M106 S0
M106 S255
G1 X39.34 Y13.567 F250
M106 S0
M106 S255
G1 X39.408 Y13.691 F250
M106 S0
M106 S255
G1 X39.474 Y13.833 F250
M106 S0
M106 S255
G1 X39.539 Y13.994 F250
M106 S0
M106 S255
G1 X39.602 Y14.174 F250
M106 S0
M106 S255
G1 X39.664 Y14.372 F250
M106 S0
M106 S255
G1 X39.725 Y14.589 F250
M106 S0
M106 S255
G1 X39.784 Y14.824 F250
M106 S0
M106 S255
G1 X39.842 Y15.078 F250
M106 S0
M106 S255
G1 X39.898 Y15.35 F250
M106 S0
M106 S255
G1 X40.947 Y20.601 F250
M106 S0
M106 S255
G1 X39.203 Y20.601 F250
M106 S0
M106 S255
G1 X40.136 Y21.554 F250
M106 S0
M106 S255
G1 X44.325 Y21.554 F250
M106 S0
M106 S255
G1 X43.347 Y20.601 F250
M106 S0
M106 S255
G1 X42.298 Y20.601 F250
M106 S0
M106 S255
G1 X41.391 Y16.045 F250
M106 S0
M106 S255
G1 X41.294 Y15.637 F250
M106 S0
M106 S255
G1 X41.17 Y15.25 F250
M106 S0
M106 S255
G1 X41.02 Y14.883 F250
M106 S0
M106 S255
G1 X40.844 Y14.536 F250
M106 S0
M106 S255
G1 X40.641 Y14.21 F250
M106 S0
M106 S255
G1 X40.411 Y13.904 F250
M106 S0
M106 S255
G1 X40.155 Y13.619 F250
M106 S0
M106 S255
G1 X39.873 Y13.354 F250
M106 S0
M106 S255
G1 X39.564 Y13.11 F250
M106 S0
M106 S255
G1 X39.228 Y12.886 F250
M106 S0
M106 S255
G1 X41.732 Y12.821 F250
M106 S0
M106 S255
G1 X40.805 Y11.869 F250
M106 S0
M106 S255
G1 X36.79 Y12.03 F250
M106 S0
G0 X43.179 Y12.635 F6000
M106 S255
G1 X43.179 Y12.635 F250
M106 S0
M106 S255
G1 X44.1 Y13.574 F250
M106 S0
M106 S255
G1 X44.236 Y13.371 F250
M106 S0
M106 S255
G1 X44.382 Y13.19 F250
M106 S0
M106 S255
G1 X44.538 Y13.03 F250
M106 S0
M106 S255
G1 X44.703 Y12.891 F250
M106 S0
M106 S255
G1 X44.878 Y12.773 F250
M106 S0
M106 S255
G1 X45.063 Y12.677 F250
M106 S0
M106 S255
G1 X45.258 Y12.602 F250
M106 S0
M106 S255
G1 X45.463 Y12.549 F250
M106 S0
M106 S255
G1 X45.677 Y12.517 F250
M106 S0
M106 S255
G1 X45.901 Y12.506 F250
M106 S0
M106 S255
G1 X46.053 Y12.513 F250
M106 S0
M106 S255
G1 X46.201 Y12.532 F250
M106 S0
M106 S255
G1 X46.345 Y12.564 F250
M106 S0
M106 S255
G1 X46.485 Y12.609 F250
M106 S0
M106 S255
G1 X46.622 Y12.666 F250
M106 S0
M106 S255
G1 X46.756 Y12.737 F250
M106 S0
M106 S255
G1 X46.885 Y12.82 F250
M106 S0
M106 S255
G1 X47.011 Y12.916 F250
M106 S0
M106 S255
G1 X47.134 Y13.025 F250
M106 S0
M106 S255
G1 X47.253 Y13.146 F250
M106 S0
M106 S255
G1 X47.366 Y13.279 F250
M106 S0
M106 S255
G1 X47.472 Y13.42 F250
M106 S0
M106 S255
G1 X47.571 Y13.569 F250
M106 S0
M106 S255
G1 X47.662 Y13.727 F250
M106 S0
M106 S255
G1 X47.745 Y13.894 F250
M106 S0
M106 S255
G1 X47.821 Y14.069 F250
M106 S0
M106 S255
G1 X47.89 Y14.253 F250
M106 S0
M106 S255
G1 X47.951 Y14.445 F250
M106 S0
M106 S255
G1 X48.005 Y14.646 F250
M106 S0
M106 S255
G1 X48.051 Y14.855 F250
M106 S0
M106 S255
G1 X49.267 Y20.962 F250
M106 S0
M106 S255
G1 X49.203 Y20.972 F250
M106 S0
M106 S255
G1 X49.143 Y20.98 F250
M106 S0
M106 S255
G1 X49.087 Y20.988 F250
M106 S0
M106 S255
G1 X49.035 Y20.995 F250
M106 S0
M106 S255
G1 X48.987 Y21.0 F250
M106 S0
M106 S255
G1 X48.943 Y21.005 F250
M106 S0
M106 S255
G1 X48.902 Y21.009 F250
M106 S0
M106 S255
G1 X48.865 Y21.011 F250
M106 S0
M106 S255
G1 X48.833 Y21.013 F250
M106 S0
M106 S255
G1 X48.804 Y21.013 F250
M106 S0
M106 S255
G1 X48.596 Y21.006 F250
M106 S0
M106 S255
G1 X48.395 Y20.983 F250
M106 S0
M106 S255
G1 X48.202 Y20.945 F250
M106 S0
M106 S255
G1 X48.015 Y20.892 F250
M106 S0
M106 S255
G1 X47.835 Y20.824 F250
M106 S0
M106 S255
G1 X47.662 Y20.741 F250
M106 S0
M106 S255
G1 X47.496 Y20.643 F250
M106 S0
M106 S255
G1 X47.338 Y20.529 F250
M106 S0
M106 S255
G1 X47.186 Y20.401 F250
M106 S0
M106 S255
G1 X47.04 Y20.257 F250
M106 S0
M106 S255
G1 X46.906 Y20.102 F250
M106 S0
M106 S255
G1 X46.786 Y19.94 F250
M106 S0
M106 S255
G1 X46.679 Y19.77 F250
M106 S0
M106 S255
G1 X46.587 Y19.593 F250
M106 S0
M106 S255
G1 X46.51 Y19.409 F250
M106 S0
M106 S255
G1 X46.446 Y19.217 F250
M106 S0
M106 S255
G1 X46.396 Y19.017 F250
M106 S0
M106 S255
G1 X46.361 Y18.811 F250
M106 S0
M106 S255
G1 X46.34 Y18.596 F250
M106 S0
M106 S255
G1 X46.333 Y18.375 F250
M106 S0
M106 S255
G1 X45.084 Y17.764 F250
M106 S0
M106 S255
G1 X45.121 Y18.098 F250
M106 S0
M106 S255
G1 X45.181 Y18.419 F250
M106 S0
M106 S255
G1 X45.264 Y18.727 F250
M106 S0
M106 S255
G1 X45.369 Y19.022 F250
M106 S0
M106 S255
G1 X45.498 Y19.303 F250
M106 S0
M106 S255
G1 X45.649 Y19.571 F250
M106 S0
M106 S255
G1 X45.823 Y19.826 F250
M106 S0
M106 S255
G1 X46.019 Y20.068 F250
M106 S0
M106 S255
G1 X46.238 Y20.296 F250
M106 S0
M106 S255
G1 X46.481 Y20.511 F250
M106 S0
M106 S255
G1 X46.741 Y20.709 F250
M106 S0
M106 S255
G1 X47.015 Y20.887 F250
M106 S0
M106 S255
G1 X47.302 Y21.043 F250
M106 S0
M106 S255
G1 X47.603 Y21.179 F250
M106 S0
M106 S255
G1 X47.917 Y21.293 F250
M106 S0
M106 S255
G1 X48.245 Y21.387 F250
M106 S0
M106 S255
G1 X48.586 Y21.46 F250
M106 S0
M106 S255
G1 X48.941 Y21.512 F250
M106 S0
M106 S255
G1 X49.31 Y21.543 F250
M106 S0
M106 S255
G1 X49.692 Y21.554 F250
M106 S0
M106 S255
G1 X50.309 Y21.554 F250
M106 S0
M106 S255
G1 X50.446 Y21.212 F250
M106 S0
M106 S255
G1 X50.591 Y20.865 F250
M106 S0
M106 S255
G1 X50.745 Y20.514 F250
M106 S0
M106 S255
G1 X50.907 Y20.159 F250
M106 S0
M106 S255
G1 X51.077 Y19.799 F250
M106 S0
M106 S255
G1 X51.255 Y19.434 F250
M106 S0
M106 S255
G1 X51.442 Y19.065 F250
M106 S0
M106 S255
G1 X51.638 Y18.692 F250
M106 S0
M106 S255
G1 X51.841 Y18.313 F250
M106 S0
M106 S255
G1 X52.053 Y17.931 F250
M106 S0
M106 S255
G1 X52.871 Y16.477 F250
M106 S0
M106 S255
G1 X53.037 Y16.182 F250
M106 S0
M106 S255
G1 X53.195 Y15.9 F250
M106 S0
M106 S255
G1 X53.343 Y15.629 F250
M106 S0
M106 S255
G1 X53.482 Y15.369 F250
M106 S0
M106 S255
G1 X53.612 Y15.12 F250
M106 S0
M106 S255
G1 X53.733 Y14.884 F250
M106 S0
M106 S255
G1 X53.845 Y14.658 F250
M106 S0
M106 S255
G1 X53.948 Y14.444 F250
M106 S0
M106 S255
G1 X54.041 Y14.242 F250
M106 S0
M106 S255
G1 X54.125 Y14.051 F250
M106 S0
M106 S255
G1 X54.865 Y17.77 F250
M106 S0
M106 S255
G1 X54.947 Y18.146 F250
M106 S0
M106 S255
G1 X55.04 Y18.505 F250
M106 S0
M106 S255
G1 X55.144 Y18.846 F250
M106 S0
M106 S255
G1 X55.26 Y19.17 F250
M106 S0
M106 S255
G1 X55.387 Y19.476 F250
M106 S0
M106 S255
G1 X55.525 Y19.765 F250
M106 S0
M106 S255
G1 X55.674 Y20.036 F250
M106 S0
M106 S255
G1 X55.835 Y20.29 F250
M106 S0
M106 S255
G1 X56.008 Y20.527 F250
M106 S0
M106 S255
G1 X56.191 Y20.746 F250
M106 S0
M106 S255
G1 X56.384 Y20.946 F250
M106 S0
M106 S255
G1 X56.585 Y21.125 F250
M106 S0
M106 S255
G1 X56.794 Y21.283 F250
M106 S0
M106 S255
G1 X57.011 Y21.42 F250
M106 S0
M106 S255
G1 X57.235 Y21.535 F250
M106 S0
M106 S255
G1 X57.468 Y21.63 F250
M106 S0
M106 S255
G1 X57.708 Y21.704 F250
M106 S0
M106 S255
G1 X57.956 Y21.756 F250
M106 S0
M106 S255
G1 X58.212 Y21.788 F250
M106 S0
M106 S255
G1 X58.475 Y21.798 F250
M106 S0
M106 S255
G1 X58.571 Y21.797 F250
M106 S0
M106 S255
G1 X58.665 Y21.791 F250
M106 S0
M106 S255
G1 X58.759 Y21.782 F250
M106 S0
M106 S255
G1 X58.853 Y21.769 F250
M106 S0
M106 S255
G1 X58.947 Y21.753 F250
M106 S0
M106 S255
G1 X59.04 Y21.733 F250
M106 S0
M106 S255
G1 X59.133 Y21.71 F250
M106 S0
M106 S255
G1 X59.225 Y21.683 F250
M106 S0
M106 S255
G1 X59.317 Y21.652 F250
M106 S0
M106 S255
G1 X59.409 Y21.618 F250
M106 S0
M106 S255
G1 X58.945 Y20.749 F250
M106 S0
M106 S255
G1 X58.831 Y20.835 F250
M106 S0
M106 S255
G1 X58.718 Y20.912 F250
M106 S0
M106 S255
G1 X58.606 Y20.979 F250
M106 S0
M106 S255
G1 X58.494 Y21.038 F250
M106 S0
M106 S255
G1 X58.384 Y21.087 F250
M106 S0
M106 S255
G1 X58.274 Y21.128 F250
M106 S0
M106 S255
G1 X58.166 Y21.159 F250
M106 S0
M106 S255
G1 X58.058 Y21.182 F250
M106 S0
M106 S255
G1 X57.951 Y21.195 F250
M106 S0
M106 S255
G1 X57.845 Y21.2 F250
M106 S0
M106 S255
G1 X57.576 Y21.176 F250
M106 S0
M106 S255
G1 X57.325 Y21.103 F250
M106 S0
M106 S255
G1 X57.093 Y20.982 F250
M106 S0
M106 S255
G1 X56.879 Y20.813 F250
M106 S0
M106 S255
G1 X56.683 Y20.595 F250
M106 S0
M106 S255
G1 X56.506 Y20.329 F250
M106 S0
M106 S255
G1 X56.347 Y20.014 F250
M106 S0
M106 S255
G1 X56.206 Y19.651 F250
M106 S0
M106 S255
G1 X56.083 Y19.24 F250
M106 S0
M106 S255
G1 X55.979 Y18.78 F250
M106 S0
M106 S255
G1 X55.013 Y13.935 F250
M106 S0
M106 S255
G1 X54.711 Y12.03 F250
M106 S0
M106 S255
G1 X53.887 Y11.747 F250
M106 S0
M106 S255
G1 X53.832 Y11.905 F250
M106 S0
M106 S255
G1 X53.759 Y12.088 F250
M106 S0
M106 S255
G1 X53.668 Y12.297 F250
M106 S0
M106 S255
G1 X53.56 Y12.53 F250
M106 S0
M106 S255
G1 X53.434 Y12.789 F250
M106 S0
M106 S255
G1 X53.29 Y13.073 F250
M106 S0
M106 S255
G1 X53.128 Y13.383 F250
M106 S0
M106 S255
G1 X52.948 Y13.718 F250
M106 S0
M106 S255
G1 X52.751 Y14.077 F250
M106 S0
M106 S255
G1 X52.536 Y14.462 F250
M106 S0
M106 S255
G1 X50.959 Y17.255 F250
M106 S0
M106 S255
G1 X50.835 Y17.477 F250
M106 S0
M106 S255
G1 X50.716 Y17.694 F250
M106 S0
M106 S255
G1 X50.601 Y17.906 F250
M106 S0
M106 S255
G1 X50.49 Y18.113 F250
M106 S0
M106 S255
G1 X50.383 Y18.315 F250
M106 S0
M106 S255
G1 X50.281 Y18.513 F250
M106 S0
M106 S255
G1 X50.184 Y18.706 F250
M106 S0
M106 S255
G1 X50.09 Y18.894 F250
M106 S0
M106 S255
G1 X50.001 Y19.078 F250
M106 S0
M106 S255
G1 X49.917 Y19.256 F250
M106 S0
M106 S255
G1 X49.428 Y16.779 F250
M106 S0
M106 S255
G1 X49.328 Y16.32 F250
M106 S0
M106 S255
G1 X49.215 Y15.883 F250
M106 S0
M106 S255
G1 X49.09 Y15.468 F250
M106 S0
M106 S255
G1 X48.952 Y15.074 F250
M106 S0
M106 S255
G1 X48.801 Y14.702 F250
M106 S0
M106 S255
G1 X48.638 Y14.352 F250
M106 S0
M106 S255
G1 X48.463 Y14.024 F250
M106 S0
M106 S255
G1 X48.275 Y13.717 F250
M106 S0
M106 S255
G1 X48.074 Y13.432 F250
M106 S0
M106 S255
G1 X47.861 Y13.169 F250
M106 S0
M106 S255
G1 X47.637 Y12.929 F250
M106 S0
M106 S255
G1 X47.403 Y12.715 F250
M106 S0
M106 S255
G1 X47.16 Y12.526 F250
M106 S0
M106 S255
G1 X46.907 Y12.362 F250
M106 S0
M106 S255
G1 X46.644 Y12.223 F250
M106 S0
M106 S255
G1 X46.372 Y12.11 F250
M106 S0
M106 S255
G1 X46.09 Y12.021 F250
M106 S0
M106 S255
G1 X45.799 Y11.958 F250
M106 S0
M106 S255
G1 X45.498 Y11.92 F250
M106 S0
M106 S255
G1 X45.187 Y11.908 F250
M106 S0
M106 S255
G1 X44.968 Y11.915 F250
M106 S0
M106 S255
G1 X44.753 Y11.937 F250
M106 S0
M106 S255
G1 X44.542 Y11.973 F250
M106 S0
M106 S255
G1 X44.335 Y12.024 F250
M106 S0
M106 S255
G1 X44.132 Y12.09 F250
M106 S0
M106 S255
G1 X43.933 Y12.169 F250
M106 S0
M106 S255
G1 X43.739 Y12.264 F250
M106 S0
M106 S255
G1 X43.548 Y12.373 F250
M106 S0
M106 S255
G1 X43.362 Y12.497 F250
M106 S0
M106 S255
G1 X43.179 Y12.635 F250
M106 S0
G0 X57.491 Y15.524 F6000
M106 S255
G1 X57.491 Y15.524 F250
M106 S0
M106 S255
G1 X57.761 Y16.477 F250
M106 S0
M106 S255
G1 X60.696 Y16.477 F250
M106 S0
M106 S255
G1 X60.425 Y15.524 F250
M106 S0
M106 S255
G1 X57.491 Y15.524 F250
M106 S0
G0 X68.939 Y12.616 F6000
M106 S255
G1 X68.939 Y12.616 F250
M106 S0
M106 S255
G1 X68.535 Y12.459 F250
M106 S0
M106 S255
G1 X68.14 Y12.319 F250
M106 S0
M106 S255
G1 X67.756 Y12.195 F250
M106 S0
M106 S255
G1 X67.382 Y12.088 F250
M106 S0
M106 S255
G1 X67.018 Y11.998 F250
M106 S0
M106 S255
G1 X66.664 Y11.924 F250
M106 S0
M106 S255
G1 X66.32 Y11.866 F250
M106 S0
M106 S255
G1 X65.986 Y11.825 F250
M106 S0
M106 S255
G1 X65.662 Y11.8 F250
M106 S0
M106 S255
G1 X65.348 Y11.792 F250
M106 S0
M106 S255
G1 X65.023 Y11.801 F250
M106 S0
M106 S255
G1 X64.714 Y11.829 F250
M106 S0
M106 S255
G1 X64.419 Y11.876 F250
M106 S0
M106 S255
G1 X64.139 Y11.941 F250
M106 S0
M106 S255
G1 X63.874 Y12.025 F250
M106 S0
M106 S255
G1 X63.625 Y12.128 F250
M106 S0
M106 S255
G1 X63.39 Y12.249 F250
M106 S0
M106 S255
G1 X63.169 Y12.389 F250
M106 S0
M106 S255
G1 X62.964 Y12.548 F250
M106 S0
M106 S255
G1 X62.774 Y12.725 F250
M106 S0
M106 S255
G1 X62.6 Y12.919 F250
M106 S0
M106 S255
G1 X62.445 Y13.129 F250
M106 S0
M106 S255
G1 X62.308 Y13.353 F250
M106 S0
M106 S255
G1 X62.189 Y13.593 F250
M106 S0
M106 S255
G1 X62.089 Y13.848 F250
M106 S0
M106 S255
G1 X62.007 Y14.118 F250
M106 S0
M106 S255
G1 X61.943 Y14.403 F250
M106 S0
M106 S255
G1 X61.897 Y14.704 F250
M106 S0
M106 S255
G1 X61.869 Y15.02 F250
M106 S0
M106 S255
G1 X61.86 Y15.35 F250
M106 S0
M106 S255
G1 X61.878 Y15.879 F250
M106 S0
M106 S255
G1 X61.93 Y16.392 F250
M106 S0
M106 S255
G1 X62.018 Y16.888 F250
M106 S0
M106 S255
G1 X62.141 Y17.369 F250
M106 S0
M106 S255
G1 X62.299 Y17.834 F250
M106 S0
M106 S255
G1 X62.492 Y18.282 F250
M106 S0
M106 S255
G1 X62.72 Y18.715 F250
M106 S0
M106 S255
G1 X62.983 Y19.131 F250
M106 S0
M106 S255
G1 X63.281 Y19.532 F250
M106 S0
M106 S255
G1 X63.614 Y19.916 F250
M106 S0
M106 S255
G1 X63.972 Y20.274 F250
M106 S0
M106 S255
G1 X64.345 Y20.594 F250
M106 S0
M106 S255
G1 X64.732 Y20.876 F250
M106 S0
M106 S255
G1 X65.135 Y21.121 F250
M106 S0
M106 S255
G1 X65.552 Y21.328 F250
M106 S0
M106 S255
G1 X65.983 Y21.497 F250
M106 S0
M106 S255
G1 X66.43 Y21.629 F250
M106 S0
M106 S255
G1 X66.891 Y21.723 F250
M106 S0
M106 S255
G1 X67.367 Y21.78 F250
M106 S0
M106 S255
G1 X67.858 Y21.798 F250
M106 S0
M106 S255
G1 X68.153 Y21.795 F250
M106 S0
M106 S255
G1 X68.444 Y21.783 F250
M106 S0
M106 S255
G1 X68.731 Y21.764 F250
M106 S0
M106 S255
G1 X69.013 Y21.738 F250
M106 S0
M106 S255
G1 X69.291 Y21.703 F250
M106 S0
M106 S255
G1 X69.565 Y21.662 F250
M106 S0
M106 S255
G1 X69.835 Y21.612 F250
M106 S0
M106 S255
G1 X70.1 Y21.555 F250
M106 S0
M106 S255
G1 X70.361 Y21.491 F250
M106 S0
M106 S255
G1 X70.618 Y21.419 F250
M106 S0
M106 S255
G1 X70.071 Y19.649 F250
M106 S0
M106 S255
G1 X69.666 Y19.649 F250
M106 S0
M106 S255
G1 X69.678 Y19.708 F250
M106 S0
M106 S255
G1 X69.689 Y19.766 F250
M106 S0
M106 S255
G1 X69.699 Y19.821 F250
M106 S0
M106 S255
G1 X69.707 Y19.873 F250
M106 S0
M106 S255
G1 X69.714 Y19.924 F250
M106 S0
M106 S255
G1 X69.72 Y19.973 F250
M106 S0
M106 S255
G1 X69.725 Y20.019 F250
M106 S0
M106 S255
G1 X69.728 Y20.063 F250
M106 S0
M106 S255
G1 X69.73 Y20.105 F250
M106 S0
M106 S255
G1 X69.73 Y20.145 F250
M106 S0
M106 S255
G1 X69.724 Y20.254 F250
M106 S0
M106 S255
G1 X69.706 Y20.36 F250
M106 S0
M106 S255
G1 X69.675 Y20.461 F250
M106 S0
M106 S255
G1 X69.633 Y20.558 F250
M106 S0
M106 S255
G1 X69.577 Y20.651 F250
M106 S0
M106 S255
G1 X69.51 Y20.74 F250
M106 S0
M106 S255
G1 X69.431 Y20.824 F250
M106 S0
M106 S255
G1 X69.339 Y20.904 F250
M106 S0
M106 S255
G1 X69.235 Y20.98 F250
M106 S0
M106 S255
G1 X69.119 Y21.052 F250
M106 S0
M106 S255
G1 X68.993 Y21.118 F250
M106 S0
M106 S255
G1 X68.86 Y21.177 F250
M106 S0
M106 S255
G1 X68.719 Y21.229 F250
M106 S0
M106 S255
G1 X68.571 Y21.274 F250
M106 S0
M106 S255
G1 X68.416 Y21.312 F250
M106 S0
M106 S255
G1 X68.253 Y21.344 F250
M106 S0
M106 S255
G1 X68.083 Y21.368 F250
M106 S0
M106 S255
G1 X67.906 Y21.385 F250
M106 S0
M106 S255
G1 X67.722 Y21.396 F250
M106 S0
M106 S255
G1 X67.53 Y21.399 F250
M106 S0
M106 S255
G1 X67.238 Y21.386 F250
M106 S0
M106 S255
G1 X66.955 Y21.347 F250
M106 S0
M106 S255
G1 X66.678 Y21.281 F250
M106 S0
M106 S255
G1 X66.409 Y21.189 F250
M106 S0
M106 S255
G1 X66.148 Y21.071 F250
M106 S0
M106 S255
G1 X65.893 Y20.927 F250
M106 S0
M106 S255
G1 X65.646 Y20.756 F250
M106 S0
M106 S255
G1 X65.407 Y20.559 F250
M106 S0
M106 S255
G1 X65.174 Y20.336 F250
M106 S0
M106 S255
G1 X64.949 Y20.087 F250
M106 S0
M106 S255
G1 X64.805 Y19.909 F250
M106 S0
M106 S255
G1 X64.666 Y19.722 F250
M106 S0
M106 S255
G1 X64.533 Y19.528 F250
M106 S0
M106 S255
G1 X64.405 Y19.325 F250
M106 S0
M106 S255
G1 X64.283 Y19.113 F250
M106 S0
M106 S255
G1 X64.166 Y18.894 F250
M106 S0
M106 S255
G1 X64.055 Y18.665 F250
M106 S0
M106 S255
G1 X63.948 Y18.429 F250
M106 S0
M106 S255
G1 X63.848 Y18.184 F250
M106 S0
M106 S255
G1 X63.752 Y17.931 F250
M106 S0
M106 S255
G1 X63.664 Y17.675 F250
M106 S0
M106 S255
G1 X63.585 Y17.421 F250
M106 S0
M106 S255
G1 X63.516 Y17.171 F250
M106 S0
M106 S255
G1 X63.456 Y16.923 F250
M106 S0
M106 S255
G1 X63.405 Y16.678 F250
M106 S0
M106 S255
G1 X63.363 Y16.435 F250
M106 S0
M106 S255
G1 X63.331 Y16.195 F250
M106 S0
M106 S255
G1 X63.307 Y15.958 F250
M106 S0
M106 S255
G1 X63.294 Y15.724 F250
M106 S0
M106 S255
G1 X63.289 Y15.492 F250
M106 S0
M106 S255
G1 X63.296 Y15.22 F250
M106 S0
M106 S255
G1 X63.318 Y14.96 F250
M106 S0
M106 S255
G1 X63.355 Y14.711 F250
M106 S0
M106 S255
G1 X63.406 Y14.475 F250
M106 S0
M106 S255
G1 X63.471 Y14.25 F250
M106 S0
M106 S255
G1 X63.552 Y14.037 F250
M106 S0
M106 S255
G1 X63.647 Y13.836 F250
M106 S0
M106 S255
G1 X63.756 Y13.647 F250
M106 S0
M106 S255
G1 X63.88 Y13.47 F250
M106 S0
M106 S255
G1 X64.019 Y13.304 F250
M106 S0
M106 S255
G1 X64.171 Y13.153 F250
M106 S0
M106 S255
G1 X64.333 Y13.017 F250
M106 S0
M106 S255
G1 X64.506 Y12.897 F250
M106 S0
M106 S255
G1 X64.691 Y12.793 F250
M106 S0
M106 S255
G1 X64.886 Y12.706 F250
M106 S0
M106 S255
G1 X65.091 Y12.634 F250
M106 S0
M106 S255
G1 X65.308 Y12.578 F250
M106 S0
M106 S255
G1 X65.536 Y12.538 F250
M106 S0
M106 S255
G1 X65.774 Y12.514 F250
M106 S0
M106 S255
G1 X66.024 Y12.506 F250
M106 S0
M106 S255
G1 X66.311 Y12.513 F250
M106 S0
M106 S255
G1 X66.602 Y12.535 F250
M106 S0
M106 S255
G1 X66.897 Y12.571 F250
M106 S0
M106 S255
G1 X67.195 Y12.621 F250
M106 S0
M106 S255
G1 X67.497 Y12.686 F250
M106 S0
M106 S255
G1 X67.803 Y12.766 F250
M106 S0
M106 S255
G1 X68.112 Y12.859 F250
M106 S0
M106 S255
G1 X68.425 Y12.967 F250
M106 S0
M106 S255
G1 X68.741 Y13.09 F250
M106 S0
M106 S255
G1 X69.061 Y13.227 F250
M106 S0
M106 S255
G1 X68.939 Y12.616 F250
M106 S0
G0 X74.299 Y11.792 F6000
M106 S255
G1 X74.299 Y11.792 F250
M106 S0
M106 S255
G1 X73.989 Y11.802 F250
M106 S0
M106 S255
G1 X73.692 Y11.831 F250
M106 S0
M106 S255
G1 X73.409 Y11.881 F250
M106 S0
M106 S255
G1 X73.138 Y11.949 F250
M106 S0
M106 S255
G1 X72.881 Y12.038 F250
M106 S0
M106 S255
G1 X72.637 Y12.146 F250
M106 S0
M106 S255
G1 X72.406 Y12.274 F250
M106 S0
M106 S255
G1 X72.188 Y12.422 F250
M106 S0
M106 S255
G1 X71.984 Y12.589 F250
M106 S0
M106 S255
G1 X71.793 Y12.776 F250
M106 S0
M106 S255
G1 X71.617 Y12.98 F250
M106 S0
M106 S255
G1 X71.46 Y13.198 F250
M106 S0
M106 S255
G1 X71.322 Y13.43 F250
M106 S0
M106 S255
G1 X71.202 Y13.676 F250
M106 S0
M106 S255
G1 X71.1 Y13.936 F250
M106 S0
M106 S255
G1 X71.017 Y14.21 F250
M106 S0
M106 S255
G1 X70.952 Y14.499 F250
M106 S0
M106 S255
G1 X70.906 Y14.801 F250
M106 S0
M106 S255
G1 X70.879 Y15.117 F250
M106 S0
M106 S255
G1 X70.869 Y15.447 F250
M106 S0
M106 S255
G1 X70.887 Y15.947 F250
M106 S0
M106 S255
G1 X70.939 Y16.434 F250
M106 S0
M106 S255
G1 X71.026 Y16.909 F250
M106 S0
M106 S255
G1 X71.148 Y17.371 F250
M106 S0
M106 S255
G1 X71.304 Y17.821 F250
M106 S0
M106 S255
G1 X71.496 Y18.259 F250
M106 S0
M106 S255
G1 X71.722 Y18.685 F250
M106 S0
M106 S255
G1 X71.983 Y19.098 F250
M106 S0
M106 S255
G1 X72.279 Y19.499 F250
M106 S0
M106 S255
G1 X72.61 Y19.887 F250
M106 S0
M106 S255
G1 X72.964 Y20.25 F250
M106 S0
M106 S255
G1 X73.329 Y20.575 F250
M106 S0
M106 S255
G1 X73.705 Y20.862 F250
M106 S0
M106 S255
G1 X74.093 Y21.11 F250
M106 S0
M106 S255
G1 X74.491 Y21.321 F250
M106 S0
M106 S255
G1 X74.901 Y21.493 F250
M106 S0
M106 S255
G1 X75.323 Y21.626 F250
M106 S0
M106 S255
G1 X75.755 Y21.722 F250
M106 S0
M106 S255
G1 X76.199 Y21.779 F250
M106 S0
M106 S255
G1 X76.654 Y21.798 F250
M106 S0
M106 S255
G1 X76.962 Y21.789 F250
M106 S0
M106 S255
G1 X77.256 Y21.76 F250
M106 S0
M106 S255
G1 X77.538 Y21.711 F250
M106 S0
M106 S255
G1 X77.806 Y21.643 F250
M106 S0
M106 S255
G1 X78.061 Y21.556 F250
M106 S0
M106 S255
G1 X78.303 Y21.45 F250
M106 S0
M106 S255
G1 X78.533 Y21.324 F250
M106 S0
M106 S255
G1 X78.749 Y21.179 F250
M106 S0
M106 S255
G1 X78.952 Y21.014 F250
M106 S0
M106 S255
G1 X79.142 Y20.83 F250
M106 S0
M106 S255
G1 X79.316 Y20.629 F250
M106 S0
M106 S255
G1 X79.472 Y20.415 F250
M106 S0
M106 S255
G1 X79.609 Y20.187 F250
M106 S0
M106 S255
G1 X79.728 Y19.944 F250
M106 S0
M106 S255
G1 X79.829 Y19.688 F250
M106 S0
M106 S255
G1 X79.912 Y19.419 F250
M106 S0
M106 S255
G1 X79.976 Y19.135 F250
M106 S0
M106 S255
G1 X80.022 Y18.838 F250
M106 S0
M106 S255
G1 X80.049 Y18.526 F250
M106 S0
M106 S255
G1 X80.059 Y18.201 F250
M106 S0
M106 S255
G1 X80.042 Y17.681 F250
M106 S0
M106 S255
G1 X79.991 Y17.176 F250
M106 S0
M106 S255
G1 X79.906 Y16.686 F250
M106 S0
M106 S255
G1 X79.787 Y16.211 F250
M106 S0
M106 S255
G1 X79.635 Y15.751 F250
M106 S0
M106 S255
G1 X79.448 Y15.306 F250
M106 S0
M106 S255
G1 X79.228 Y14.876 F250
M106 S0
M106 S255
G1 X78.973 Y14.462 F250
M106 S0
M106 S255
G1 X78.685 Y14.062 F250
M106 S0
M106 S255
G1 X78.363 Y13.677 F250
M106 S0
M106 S255
G1 X78.017 Y13.319 F250
M106 S0
M106 S255
G1 X77.658 Y12.999 F250
M106 S0
M106 S255
G1 X77.285 Y12.716 F250
M106 S0
M106 S255
G1 X76.899 Y12.471 F250
M106 S0
M106 S255
G1 X76.499 Y12.263 F250
M106 S0
M106 S255
G1 X76.086 Y12.094 F250
M106 S0
M106 S255
G1 X75.659 Y11.962 F250
M106 S0
M106 S255
G1 X75.22 Y11.867 F250
M106 S0
M106 S255
G1 X74.766 Y11.811 F250
M106 S0
M106 S255
G1 X74.299 Y11.792 F250
M106 S0
G0 X74.55 Y12.229 F6000
M106 S255
G1 X74.55 Y12.229 F250
M106 S0
M106 S255
G1 X74.88 Y12.247 F250
M106 S0
M106 S255
G1 X75.2 Y12.3 F250
M106 S0
M106 S255
G1 X75.511 Y12.389 F250
M106 S0
M106 S255
G1 X75.812 Y12.513 F250
M106 S0
M106 S255
G1 X76.104 Y12.672 F250
M106 S0
M106 S255
G1 X76.386 Y12.867 F250
M106 S0
M106 S255
G1 X76.659 Y13.097 F250
M106 S0
M106 S255
G1 X76.922 Y13.362 F250
M106 S0
M106 S255
G1 X77.176 Y13.663 F250
M106 S0
M106 S255
G1 X77.42 Y13.999 F250
M106 S0
M106 S255
G1 X77.648 Y14.36 F250
M106 S0
M106 S255
G1 X77.851 Y14.735 F250
M106 S0
M106 S255
G1 X78.031 Y15.125 F250
M106 S0
M106 S255
G1 X78.186 Y15.528 F250
M106 S0
M106 S255
G1 X78.318 Y15.946 F250
M106 S0
M106 S255
G1 X78.426 Y16.377 F250
M106 S0
M106 S255
G1 X78.509 Y16.823 F250
M106 S0
M106 S255
G1 X78.569 Y17.284 F250
M106 S0
M106 S255
G1 X78.605 Y17.758 F250
M106 S0
M106 S255
G1 X78.617 Y18.246 F250
M106 S0
M106 S255
G1 X78.595 Y18.843 F250
M106 S0
M106 S255
G1 X78.53 Y19.377 F250
M106 S0
M106 S255
G1 X78.421 Y19.848 F250
M106 S0
M106 S255
G1 X78.268 Y20.256 F250
M106 S0
M106 S255
G1 X78.072 Y20.601 F250
M106 S0
M106 S255
G1 X77.832 Y20.884 F250
M106 S0
M106 S255
G1 X77.548 Y21.104 F250
M106 S0
M106 S255
G1 X77.221 Y21.261 F250
M106 S0
M106 S255
G1 X76.85 Y21.355 F250
M106 S0
M106 S255
G1 X76.436 Y21.386 F250
M106 S0
M106 S255
G1 X76.106 Y21.369 F250
M106 S0
M106 S255
G1 X75.785 Y21.316 F250
M106 S0
M106 S255
G1 X75.474 Y21.229 F250
M106 S0
M106 S255
G1 X75.172 Y21.106 F250
M106 S0
M106 S255
G1 X74.88 Y20.949 F250
M106 S0
M106 S255
G1 X74.597 Y20.756 F250
M106 S0
M106 S255
G1 X74.323 Y20.529 F250
M106 S0
M106 S255
G1 X74.059 Y20.266 F250
M106 S0
M106 S255
G1 X73.805 Y19.969 F250
M106 S0
M106 S255
G1 X73.559 Y19.636 F250
M106 S0
M106 S255
G1 X73.331 Y19.279 F250
M106 S0
M106 S255
G1 X73.126 Y18.908 F250
M106 S0
M106 S255
G1 X72.945 Y18.523 F250
M106 S0
M106 S255
G1 X72.789 Y18.125 F250
M106 S0
M106 S255
G1 X72.657 Y17.712 F250
M106 S0
M106 S255
G1 X72.548 Y17.286 F250
M106 S0
M106 S255
G1 X72.464 Y16.845 F250
M106 S0
M106 S255
G1 X72.404 Y16.391 F250
M106 S0
M106 S255
G1 X72.368 Y15.923 F250
M106 S0
M106 S255
G1 X72.356 Y15.441 F250
M106 S0
M106 S255
G1 X72.378 Y14.83 F250
M106 S0
M106 S255
G1 X72.444 Y14.285 F250
M106 S0
M106 S255
G1 X72.553 Y13.803 F250
M106 S0
M106 S255
G1 X72.707 Y13.385 F250
M106 S0
M106 S255
G1 X72.904 Y13.032 F250
M106 S0
M106 S255
G1 X73.146 Y12.743 F250
M106 S0
M106 S255
G1 X73.431 Y12.518 F250
M106 S0
M106 S255
G1 X73.76 Y12.358 F250
M106 S0
M106 S255
G1 X74.133 Y12.262 F250
M106 S0
M106 S255
G1 X74.55 Y12.229 F250
M106 S0
G0 X79.775 Y12.03 F6000
M106 S255
G1 X79.775 Y12.03 F250
M106 S0
M106 S255
G1 X80.741 Y12.982 F250
M106 S0
M106 S255
G1 X81.172 Y12.982 F250
M106 S0
M106 S255
G1 X81.315 Y12.987 F250
M106 S0
M106 S255
G1 X81.45 Y13.002 F250
M106 S0
M106 S255
G1 X81.577 Y13.026 F250
M106 S0
M106 S255
G1 X81.697 Y13.059 F250
M106 S0
M106 S255
G1 X81.81 Y13.102 F250
M106 S0
M106 S255
G1 X81.914 Y13.155 F250
M106 S0
M106 S255
G1 X82.011 Y13.217 F250
M106 S0
M106 S255
G1 X82.1 Y13.289 F250
M106 S0
M106 S255
G1 X82.182 Y13.371 F250
M106 S0
M106 S255
G1 X82.256 Y13.462 F250
M106 S0
M106 S255
G1 X82.325 Y13.567 F250
M106 S0
M106 S255
G1 X82.393 Y13.691 F250
M106 S0
M106 S255
G1 X82.46 Y13.833 F250
M106 S0
M106 S255
G1 X82.525 Y13.994 F250
M106 S0
M106 S255
G1 X82.588 Y14.174 F250
M106 S0
M106 S255
G1 X82.65 Y14.372 F250
M106 S0
M106 S255
G1 X82.711 Y14.589 F250
M106 S0
M106 S255
G1 X82.77 Y14.824 F250
M106 S0
M106 S255
G1 X82.827 Y15.078 F250
M106 S0
M106 S255
G1 X82.883 Y15.35 F250
M106 S0
M106 S255
G1 X83.932 Y20.601 F250
M106 S0
M106 S255
G1 X82.188 Y20.601 F250
M106 S0
M106 S255
G1 X83.122 Y21.554 F250
M106 S0
M106 S255
G1 X87.311 Y21.554 F250
M106 S0
M106 S255
G1 X86.333 Y20.601 F250
M106 S0
M106 S255
G1 X85.284 Y20.601 F250
M106 S0
M106 S255
G1 X84.376 Y16.045 F250
M106 S0
M106 S255
G1 X84.279 Y15.637 F250
M106 S0
M106 S255
G1 X84.156 Y15.25 F250
M106 S0
M106 S255
G1 X84.006 Y14.883 F250
M106 S0
M106 S255
G1 X83.83 Y14.536 F250
M106 S0
M106 S255
G1 X83.627 Y14.21 F250
M106 S0
M106 S255
G1 X83.397 Y13.904 F250
M106 S0
M106 S255
G1 X83.141 Y13.619 F250
M106 S0
M106 S255
G1 X82.859 Y13.354 F250
M106 S0
M106 S255
G1 X82.55 Y13.11 F250
M106 S0
M106 S255
G1 X82.214 Y12.886 F250
M106 S0
M106 S255
G1 X84.717 Y12.821 F250
M106 S0
M106 S255
G1 X83.791 Y11.869 F250
M106 S0
M106 S255
G1 X79.775 Y12.03 F250
M106 S0
G0 X86.165 Y12.635 F6000
M106 S255
G1 X86.165 Y12.635 F250
M106 S0
M106 S255
G1 X87.086 Y13.574 F250
M106 S0
M106 S255
G1 X87.222 Y13.371 F250
M106 S0
M106 S255
G1 X87.368 Y13.19 F250
M106 S0
M106 S255
G1 X87.523 Y13.03 F250
M106 S0
M106 S255
G1 X87.689 Y12.891 F250
M106 S0
M106 S255
G1 X87.864 Y12.773 F250
M106 S0
M106 S255
G1 X88.049 Y12.677 F250
M106 S0
M106 S255
G1 X88.244 Y12.602 F250
M106 S0
M106 S255
G1 X88.449 Y12.549 F250
M106 S0
M106 S255
G1 X88.663 Y12.517 F250
M106 S0
M106 S255
G1 X88.887 Y12.506 F250
M106 S0
M106 S255
G1 X89.039 Y12.513 F250
M106 S0
M106 S255
G1 X89.186 Y12.532 F250
M106 S0
M106 S255
G1 X89.331 Y12.564 F250
M106 S0
M106 S255
G1 X89.471 Y12.609 F250
M106 S0
M106 S255
G1 X89.608 Y12.666 F250
M106 S0
M106 S255
G1 X89.741 Y12.737 F250
M106 S0
M106 S255
G1 X89.871 Y12.82 F250
M106 S0
M106 S255
G1 X89.997 Y12.916 F250
M106 S0
M106 S255
G1 X90.12 Y13.025 F250
M106 S0
M106 S255
G1 X90.239 Y13.146 F250
M106 S0
M106 S255
G1 X90.352 Y13.279 F250
M106 S0
M106 S255
G1 X90.458 Y13.42 F250
M106 S0
M106 S255
G1 X90.556 Y13.569 F250
M106 S0
M106 S255
G1 X90.647 Y13.727 F250
M106 S0
M106 S255
G1 X90.731 Y13.894 F250
M106 S0
M106 S255
G1 X90.807 Y14.069 F250
M106 S0
M106 S255
G1 X90.876 Y14.253 F250
M106 S0
M106 S255
G1 X90.937 Y14.445 F250
M106 S0
M106 S255
G1 X90.99 Y14.646 F250
M106 S0
M106 S255
G1 X91.037 Y14.855 F250
M106 S0
M106 S255
G1 X92.253 Y20.962 F250
M106 S0
M106 S255
G1 X92.189 Y20.972 F250
M106 S0
M106 S255
G1 X92.129 Y20.98 F250
M106 S0
M106 S255
G1 X92.073 Y20.988 F250
M106 S0
M106 S255
G1 X92.021 Y20.995 F250
M106 S0
M106 S255
G1 X91.973 Y21.0 F250
M106 S0
M106 S255
G1 X91.929 Y21.005 F250
M106 S0
M106 S255
G1 X91.888 Y21.009 F250
M106 S0
M106 S255
G1 X91.851 Y21.011 F250
M106 S0
M106 S255
G1 X91.818 Y21.013 F250
M106 S0
M106 S255
G1 X91.79 Y21.013 F250
M106 S0
M106 S255
G1 X91.582 Y21.006 F250
M106 S0
M106 S255
G1 X91.381 Y20.983 F250
M106 S0
M106 S255
G1 X91.188 Y20.945 F250
M106 S0
M106 S255
G1 X91.001 Y20.892 F250
M106 S0
M106 S255
G1 X90.821 Y20.824 F250
M106 S0
M106 S255
G1 X90.648 Y20.741 F250
M106 S0
M106 S255
G1 X90.482 Y20.643 F250
M106 S0
M106 S255
G1 X90.323 Y20.529 F250
M106 S0
M106 S255
G1 X90.171 Y20.401 F250
M106 S0
M106 S255
G1 X90.026 Y20.257 F250
M106 S0
M106 S255
G1 X89.892 Y20.102 F250
M106 S0
M106 S255
G1 X89.772 Y19.94 F250
M106 S0
M106 S255
G1 X89.665 Y19.77 F250
M106 S0
M106 S255
G1 X89.573 Y19.593 F250
M106 S0
M106 S255
G1 X89.495 Y19.409 F250
M106 S0
M106 S255
G1 X89.432 Y19.217 F250
M106 S0
M106 S255
G1 X89.382 Y19.017 F250
M106 S0
M106 S255
G1 X89.347 Y18.811 F250
M106 S0
M106 S255
G1 X89.326 Y18.596 F250
M106 S0
M106 S255
G1 X89.318 Y18.375 F250
M106 S0
M106 S255
G1 X88.07 Y17.764 F250
M106 S0
M106 S255
G1 X88.107 Y18.098 F250
M106 S0
M106 S255
G1 X88.167 Y18.419 F250
M106 S0
M106 S255
G1 X88.25 Y18.727 F250
M106 S0
M106 S255
G1 X88.355 Y19.022 F250
M106 S0
M106 S255
G1 X88.484 Y19.303 F250
M106 S0
M106 S255
G1 X88.635 Y19.571 F250
M106 S0
M106 S255
G1 X88.808 Y19.826 F250
M106 S0
M106 S255
G1 X89.005 Y20.068 F250
M106 S0
M106 S255
G1 X89.224 Y20.296 F250
M106 S0
M106 S255
G1 X89.466 Y20.511 F250
M106 S0
M106 S255
G1 X89.727 Y20.709 F250
M106 S0
M106 S255
G1 X90.001 Y20.887 F250
M106 S0
M106 S255
G1 X90.288 Y21.043 F250
M106 S0
M106 S255
G1 X90.589 Y21.179 F250
M106 S0
M106 S255
G1 X90.903 Y21.293 F250
M106 S0
M106 S255
G1 X91.231 Y21.387 F250
M106 S0
M106 S255
G1 X91.572 Y21.46 F250
M106 S0
M106 S255
G1 X91.927 Y21.512 F250
M106 S0
M106 S255
G1 X92.296 Y21.543 F250
M106 S0
M106 S255
G1 X92.678 Y21.554 F250
M106 S0
M106 S255
G1 X93.295 Y21.554 F250
M106 S0
M106 S255
G1 X93.432 Y21.212 F250
M106 S0
M106 S255
G1 X93.577 Y20.865 F250
M106 S0
M106 S255
G1 X93.731 Y20.514 F250
M106 S0
M106 S255
G1 X93.892 Y20.159 F250
M106 S0
M106 S255
G1 X94.063 Y19.799 F250
M106 S0
M106 S255
G1 X94.241 Y19.434 F250
M106 S0
M106 S255
G1 X94.428 Y19.065 F250
M106 S0
M106 S255
G1 X94.623 Y18.692 F250
M106 S0
M106 S255
G1 X94.827 Y18.313 F250
M106 S0
M106 S255
G1 X95.039 Y17.931 F250
M106 S0
M106 S255
G1 X95.856 Y16.477 F250
M106 S0
M106 S255
G1 X96.023 Y16.182 F250
M106 S0
M106 S255
G1 X96.181 Y15.9 F250
M106 S0
M106 S255
G1 X96.329 Y15.629 F250
M106 S0
M106 S255
G1 X96.468 Y15.369 F250
M106 S0
M106 S255
G1 X96.598 Y15.12 F250
M106 S0
M106 S255
G1 X96.719 Y14.884 F250
M106 S0
M106 S255
G1 X96.831 Y14.658 F250
M106 S0
M106 S255
G1 X96.933 Y14.444 F250
M106 S0
M106 S255
G1 X97.027 Y14.242 F250
M106 S0
M106 S255
G1 X97.111 Y14.051 F250
M106 S0
M106 S255
G1 X97.851 Y17.77 F250
M106 S0
M106 S255
G1 X97.933 Y18.146 F250
M106 S0
M106 S255
G1 X98.026 Y18.505 F250
M106 S0
M106 S255
G1 X98.13 Y18.846 F250
M106 S0
M106 S255
G1 X98.246 Y19.17 F250
M106 S0
M106 S255
G1 X98.373 Y19.476 F250
M106 S0
M106 S255
G1 X98.511 Y19.765 F250
M106 S0
M106 S255
G1 X98.66 Y20.036 F250
M106 S0
M106 S255
G1 X98.821 Y20.29 F250
M106 S0
M106 S255
G1 X98.993 Y20.527 F250
M106 S0
M106 S255
G1 X99.177 Y20.746 F250
M106 S0
M106 S255
G1 X99.37 Y20.946 F250
M106 S0
M106 S255
G1 X99.571 Y21.125 F250
M106 S0
M106 S255
G1 X99.78 Y21.283 F250
M106 S0
M106 S255
G1 X99.996 Y21.42 F250
M106 S0
M106 S255
G1 X100.221 Y21.535 F250
M106 S0
M106 S255
G1 X100.453 Y21.63 F250
M106 S0
M106 S255
G1 X100.694 Y21.704 F250
M106 S0
M106 S255
G1 X100.942 Y21.756 F250
M106 S0
M106 S255
G1 X101.198 Y21.788 F250
M106 S0
M106 S255
G1 X101.461 Y21.798 F250
M106 S0
M106 S255
G1 X101.556 Y21.797 F250
M106 S0
M106 S255
G1 X101.651 Y21.791 F250
M106 S0
M106 S255
G1 X101.745 Y21.782 F250
M106 S0
M106 S255
G1 X101.839 Y21.769 F250
M106 S0
M106 S255
G1 X101.933 Y21.753 F250
M106 S0
M106 S255
G1 X102.026 Y21.733 F250
M106 S0
M106 S255
G1 X102.119 Y21.71 F250
M106 S0
M106 S255
G1 X102.211 Y21.683 F250
M106 S0
M106 S255
G1 X102.303 Y21.652 F250
M106 S0
M106 S255
G1 X102.394 Y21.618 F250
M106 S0
M106 S255
G1 X101.931 Y20.749 F250
M106 S0
M106 S255
G1 X101.817 Y20.835 F250
M106 S0
M106 S255
G1 X101.704 Y20.912 F250
M106 S0
M106 S255
G1 X101.592 Y20.979 F250
M106 S0
M106 S255
G1 X101.48 Y21.038 F250
M106 S0
M106 S255
G1 X101.37 Y21.087 F250
M106 S0
M106 S255
G1 X101.26 Y21.128 F250
M106 S0
M106 S255
G1 X101.151 Y21.159 F250
M106 S0
M106 S255
G1 X101.044 Y21.182 F250
M106 S0
M106 S255
G1 X100.937 Y21.195 F250
M106 S0
M106 S255
G1 X100.831 Y21.2 F250
M106 S0
M106 S255
G1 X100.562 Y21.176 F250
M106 S0
M106 S255
G1 X100.311 Y21.103 F250
M106 S0
M106 S255
G1 X100.079 Y20.982 F250
M106 S0
M106 S255
G1 X99.865 Y20.813 F250
M106 S0
M106 S255
G1 X99.669 Y20.595 F250
M106 S0
M106 S255
G1 X99.492 Y20.329 F250
M106 S0
M106 S255
G1 X99.333 Y20.014 F250
M106 S0
M106 S255
G1 X99.192 Y19.651 F250
M106 S0
M106 S255
G1 X99.069 Y19.24 F250
M106 S0
M106 S255
G1 X98.965 Y18.78 F250
M106 S0
M106 S255
G1 X97.999 Y13.935 F250
M106 S0
M106 S255
G1 X97.697 Y12.03 F250
M106 S0
M106 S255
G1 X96.873 Y11.747 F250
M106 S0
M106 S255
G1 X96.818 Y11.905 F250
M106 S0
M106 S255
G1 X96.745 Y12.088 F250
M106 S0
M106 S255
G1 X96.654 Y12.297 F250
M106 S0
M106 S255
G1 X96.546 Y12.53 F250
M106 S0
M106 S255
G1 X96.42 Y12.789 F250
M106 S0
M106 S255
G1 X96.275 Y13.073 F250
M106 S0
M106 S255
G1 X96.114 Y13.383 F250
M106 S0
M106 S255
G1 X95.934 Y13.718 F250
M106 S0
M106 S255
G1 X95.737 Y14.077 F250
M106 S0
M106 S255
G1 X95.522 Y14.462 F250
M106 S0
M106 S255
G1 X93.945 Y17.255 F250
M106 S0
M106 S255
G1 X93.821 Y17.477 F250
M106 S0
M106 S255
G1 X93.702 Y17.694 F250
M106 S0
M106 S255
G1 X93.587 Y17.906 F250
M106 S0
M106 S255
G1 X93.476 Y18.113 F250
M106 S0
M106 S255
G1 X93.369 Y18.315 F250
M106 S0
M106 S255
G1 X93.267 Y18.513 F250
M106 S0
M106 S255
G1 X93.17 Y18.706 F250
M106 S0
M106 S255
G1 X93.076 Y18.894 F250
M106 S0
M106 S255
G1 X92.987 Y19.078 F250
M106 S0
M106 S255
G1 X92.903 Y19.256 F250
M106 S0
M106 S255
G1 X92.414 Y16.779 F250
M106 S0
M106 S255
G1 X92.313 Y16.32 F250
M106 S0
M106 S255
G1 X92.201 Y15.883 F250
M106 S0
M106 S255
G1 X92.075 Y15.468 F250
M106 S0
M106 S255
G1 X91.938 Y15.074 F250
M106 S0
M106 S255
G1 X91.787 Y14.702 F250
M106 S0
M106 S255
G1 X91.624 Y14.352 F250
M106 S0
M106 S255
G1 X91.449 Y14.024 F250
M106 S0
M106 S255
G1 X91.261 Y13.717 F250
M106 S0
M106 S255
G1 X91.06 Y13.432 F250
M106 S0
M106 S255
G1 X90.847 Y13.169 F250
M106 S0
M106 S255
G1 X90.623 Y12.929 F250
M106 S0
M106 S255
G1 X90.389 Y12.715 F250
M106 S0
M106 S255
G1 X90.145 Y12.526 F250
M106 S0
M106 S255
G1 X89.892 Y12.362 F250
M106 S0
M106 S255
G1 X89.63 Y12.223 F250
M106 S0
M106 S255
G1 X89.358 Y12.11 F250
M106 S0
M106 S255
G1 X89.076 Y12.021 F250
M106 S0
M106 S255
G1 X88.784 Y11.958 F250
M106 S0
M106 S255
G1 X88.484 Y11.92 F250
M106 S0
M106 S255
G1 X88.173 Y11.908 F250
M106 S0
M106 S255
G1 X87.954 Y11.915 F250
M106 S0
M106 S255
G1 X87.739 Y11.937 F250
M106 S0
M106 S255
G1 X87.527 Y11.973 F250
M106 S0
M106 S255
G1 X87.321 Y12.024 F250
M106 S0
M106 S255
G1 X87.118 Y12.09 F250
M106 S0
M106 S255
G1 X86.919 Y12.169 F250
M106 S0
M106 S255
G1 X86.724 Y12.264 F250
M106 S0
M106 S255
G1 X86.534 Y12.373 F250
M106 S0
M106 S255
G1 X86.348 Y12.497 F250
M106 S0
M106 S255
G1 X86.165 Y12.635 F250
M106 S0
G0 X62.495 Y51.235 F6000
M106 S255
G1 X62.495 Y51.235 F250
M106 S0
M106 S255
G1 X62.057 Y50.996 F250
M106 S0
G0 X62.591 Y51.06 F6000
M106 S255
G1 X62.591 Y51.06 F250
M106 S0
M106 S255
G1 X62.153 Y50.821 F250
M106 S0
G0 X18.067 Y93.771 F6000
M106 S255
G1 X18.067 Y93.771 F250
M106 S0
M106 S255
G1 X18.067 Y93.293 F250
M106 S0
G0 X18.267 Y93.771 F6000
M106 S255
G1 X18.267 Y93.771 F250
M106 S0
M106 S255
G1 X18.267 Y93.293 F250
M106 S0
G0 X57.825 Y47.62 F6000
M106 S255
G1 X57.825 Y47.62 F250
M106 S0
M106 S255
G1 X57.308 Y47.739 F250
M106 S0
G0 X57.78 Y47.425 F6000
M106 S255
G1 X57.78 Y47.425 F250
M106 S0
M106 S255
G1 X57.263 Y47.545 F250
M106 S0
G0 X39.274 Y88.692 F6000
M106 S255
G1 X39.274 Y88.692 F250
M106 S0
M106 S255
G1 X38.557 Y88.652 F250
M106 S0
G0 X39.285 Y88.492 F6000
M106 S255
G1 X39.285 Y88.492 F250
M106 S0
M106 S255
G1 X38.568 Y88.452 F250
M106 S0
G0 X58.073 Y88.227 F6000
M106 S255
G1 X58.073 Y88.227 F250
M106 S0
M106 S255
G1 X58.591 Y87.231 F250
M106 S0
G0 X58.25 Y88.32 F6000
M106 S255
G1 X58.25 Y88.32 F250
M106 S0
M106 S255
G1 X58.768 Y87.324 F250
M106 S0
G0 X61.231 Y94.544 F6000
M106 S255
G1 X61.231 Y94.544 F250
M106 S0
M106 S255
G1 X61.284 Y94.479 F250
M106 S0
M106 S255
G1 X61.284 Y94.479 F250
M106 S0
M106 S255
G1 X61.331 Y94.415 F250
M106 S0
M106 S255
G1 X61.331 Y94.415 F250
M106 S0
M106 S255
G1 X61.588 Y94.045 F250
M106 S0
M106 S255
G1 X61.588 Y94.045 F250
M106 S0
M106 S255
G1 X62.104 Y93.75 F250
M106 S0
M106 S255
G1 X62.104 Y93.75 F250
M106 S0
M106 S255
G1 X62.591 Y93.624 F250
M106 S0
M106 S255
G1 X62.591 Y93.624 F250
M106 S0
M106 S255
G1 X62.857 Y93.487 F250
M106 S0
M106 S255
G1 X62.857 Y93.487 F250
M106 S0
M106 S255
G1 X63.068 Y93.264 F250
M106 S0
G0 X61.386 Y94.67 F6000
M106 S255
G1 X61.386 Y94.67 F250
M106 S0
M106 S255
G1 X61.442 Y94.602 F250
M106 S0
M106 S255
G1 X61.442 Y94.602 F250
M106 S0
M106 S255
G1 X61.496 Y94.528 F250
M106 S0
M106 S255
G1 X61.496 Y94.528 F250
M106 S0
M106 S255
G1 X61.727 Y94.196 F250
M106 S0
M106 S255
G1 X61.727 Y94.196 F250
M106 S0
M106 S255
G1 X62.18 Y93.937 F250
M106 S0
M106 S255
G1 X62.18 Y93.937 F250
M106 S0
M106 S255
G1 X62.663 Y93.812 F250
M106 S0
M106 S255
G1 X62.663 Y93.812 F250
M106 S0
M106 S255
G1 X62.978 Y93.649 F250
M106 S0
M106 S255
G1 X62.978 Y93.649 F250
M106 S0
M106 S255
G1 X63.213 Y93.401 F250
M106 S0
G0 X58.108 Y88.111 F6000
M106 S255
G1 X58.108 Y88.111 F250
M106 S0
M106 S255
G1 X57.953 Y87.712 F250
M106 S0
M106 S255
G1 X57.953 Y87.712 F250
M106 S0
M106 S255
G1 X57.907 Y87.284 F250
M106 S0
M106 S255
G1 X57.907 Y87.284 F250
M106 S0
M106 S255
G1 X57.894 Y87.061 F250
M106 S0
M106 S255
G1 X57.894 Y87.061 F250
M106 S0
M106 S255
G1 X57.902 Y86.836 F250
M106 S0
G0 X58.294 Y88.038 F6000
M106 S255
G1 X58.294 Y88.038 F250
M106 S0
M106 S255
G1 X58.149 Y87.665 F250
M106 S0
M106 S255
G1 X58.149 Y87.665 F250
M106 S0
M106 S255
G1 X58.107 Y87.269 F250
M106 S0
M106 S255
G1 X58.107 Y87.269 F250
M106 S0
M106 S255
G1 X58.094 Y87.059 F250
M106 S0
M106 S255
G1 X58.094 Y87.059 F250
M106 S0
M106 S255
G1 X58.102 Y86.843 F250
M106 S0
G0 X86.544 Y71.293 F6000
M106 S255
G1 X86.544 Y71.293 F250
M106 S0
M106 S255
G1 X86.624 Y70.58 F250
M106 S0
M106 S255
G1 X86.624 Y70.58 F250
M106 S0
M106 S255
G1 X86.719 Y69.863 F250
M106 S0
M106 S255
G1 X86.719 Y69.863 F250
M106 S0
M106 S255
G1 X86.723 Y69.43 F250
M106 S0
M106 S255
G1 X86.723 Y69.43 F250
M106 S0
M106 S255
G1 X86.743 Y68.989 F250
M106 S0
G0 X86.743 Y71.315 F6000
M106 S255
G1 X86.743 Y71.315 F250
M106 S0
M106 S255
G1 X86.824 Y70.597 F250
M106 S0
M106 S255
G1 X86.824 Y70.597 F250
M106 S0
M106 S255
G1 X86.918 Y69.877 F250
M106 S0
M106 S255
G1 X86.918 Y69.877 F250
M106 S0
M106 S255
G1 X86.923 Y69.435 F250
M106 S0
M106 S255
G1 X86.923 Y69.435 F250
M106 S0
M106 S255
G1 X86.942 Y68.998 F250
M106 S0
G0 X59.734 Y90.624 F6000
M106 S255
G1 X59.734 Y90.624 F250
M106 S0
M106 S255
G1 X61.766 Y89.07 F250
M106 S0
G0 X59.855 Y90.783 F6000
M106 S255
G1 X59.855 Y90.783 F250
M106 S0
M106 S255
G1 X61.887 Y89.229 F250
M106 S0
G0 X59.502 Y93.577 F6000
M106 S255
G1 X59.502 Y93.577 F250
M106 S0
M106 S255
G1 X59.648 Y93.174 F250
M106 S0
M106 S255
G1 X59.648 Y93.174 F250
M106 S0
M106 S255
G1 X59.846 Y92.793 F250
M106 S0
M106 S255
G1 X59.846 Y92.793 F250
M106 S0
M106 S255
G1 X60.063 Y92.401 F250
M106 S0
M106 S255
G1 X60.063 Y92.401 F250
M106 S0
M106 S255
G1 X60.255 Y91.975 F250
M106 S0
M106 S255
G1 X60.255 Y91.975 F250
M106 S0
M106 S255
G1 X60.404 Y91.513 F250
M106 S0
M106 S255
G1 X60.404 Y91.513 F250
M106 S0
M106 S255
G1 X60.637 Y90.945 F250
M106 S0
M106 S255
G1 X60.637 Y90.945 F250
M106 S0
M106 S255
G1 X60.951 Y90.404 F250
M106 S0
M106 S255
G1 X60.951 Y90.404 F250
M106 S0
M106 S255
G1 X61.14 Y90.063 F250
M106 S0
M106 S255
G1 X61.14 Y90.063 F250
M106 S0
M106 S255
G1 X61.185 Y89.92 F250
M106 S0
M106 S255
G1 X61.185 Y89.92 F250
M106 S0
M106 S255
G1 X61.169 Y89.757 F250
M106 S0
G0 X59.69 Y93.645 F6000
M106 S255
G1 X59.69 Y93.645 F250
M106 S0
M106 S255
G1 X59.832 Y93.254 F250
M106 S0
M106 S255
G1 X59.832 Y93.254 F250
M106 S0
M106 S255
G1 X60.022 Y92.887 F250
M106 S0
M106 S255
G1 X60.022 Y92.887 F250
M106 S0
M106 S255
G1 X60.243 Y92.49 F250
M106 S0
M106 S255
G1 X60.243 Y92.49 F250
M106 S0
M106 S255
G1 X60.442 Y92.046 F250
M106 S0
M106 S255
G1 X60.442 Y92.046 F250
M106 S0
M106 S255
G1 X60.592 Y91.581 F250
M106 S0
M106 S255
G1 X60.592 Y91.581 F250
M106 S0
M106 S255
G1 X60.817 Y91.034 F250
M106 S0
M106 S255
G1 X60.817 Y91.034 F250
M106 S0
M106 S255
G1 X61.124 Y90.504 F250
M106 S0
M106 S255
G1 X61.124 Y90.504 F250
M106 S0
M106 S255
G1 X61.324 Y90.142 F250
M106 S0
M106 S255
G1 X61.324 Y90.142 F250
M106 S0
M106 S255
G1 X61.388 Y89.942 F250
M106 S0
M106 S255
G1 X61.388 Y89.942 F250
M106 S0
M106 S255
G1 X61.368 Y89.738 F250
M106 S0
G0 X59.346 Y91.338 F6000
M106 S255
G1 X59.346 Y91.338 F250
M106 S0
M106 S255
G1 X59.555 Y90.898 F250
M106 S0
M106 S255
G1 X59.555 Y90.898 F250
M106 S0
M106 S255
G1 X59.625 Y90.426 F250
M106 S0
M106 S255
G1 X59.625 Y90.426 F250
M106 S0
M106 S255
G1 X59.693 Y89.901 F250
M106 S0
M106 S255
G1 X59.693 Y89.901 F250
M106 S0
M106 S255
G1 X59.776 Y89.318 F250
M106 S0
M106 S255
G1 X59.776 Y89.318 F250
M106 S0
M106 S255
G1 X59.838 Y88.739 F250
M106 S0
M106 S255
G1 X59.838 Y88.739 F250
M106 S0
M106 S255
G1 X59.864 Y88.44 F250
M106 S0
M106 S255
G1 X59.864 Y88.44 F250
M106 S0
M106 S255
G1 X59.866 Y88.317 F250
M106 S0
M106 S255
G1 X59.866 Y88.317 F250
M106 S0
M106 S255
G1 X59.818 Y88.257 F250
M106 S0
M106 S255
G1 X59.818 Y88.257 F250
M106 S0
M106 S255
G1 X59.716 Y88.245 F250
M106 S0
M106 S255
G1 X59.716 Y88.245 F250
M106 S0
M106 S255
G1 X59.588 Y88.3 F250
M106 S0
M106 S255
G1 X59.588 Y88.3 F250
M106 S0
M106 S255
G1 X59.482 Y88.377 F250
M106 S0
M106 S255
G1 X59.482 Y88.377 F250
M106 S0
M106 S255
G1 X59.412 Y88.463 F250
M106 S0
M106 S255
G1 X59.412 Y88.463 F250
M106 S0
M106 S255
G1 X59.215 Y88.67 F250
M106 S0
M106 S255
G1 X59.215 Y88.67 F250
M106 S0
M106 S255
G1 X58.992 Y88.172 F250
M106 S0
M106 S255
G1 X58.992 Y88.172 F250
M106 S0
M106 S255
G1 X58.839 Y87.618 F250
M106 S0
M106 S255
G1 X58.839 Y87.618 F250
M106 S0
M106 S255
G1 X58.59 Y87.123 F250
M106 S0
G0 X59.526 Y91.423 F6000
M106 S255
G1 X59.526 Y91.423 F250
M106 S0
M106 S255
G1 X59.748 Y90.956 F250
M106 S0
M106 S255
G1 X59.748 Y90.956 F250
M106 S0
M106 S255
G1 X59.823 Y90.449 F250
M106 S0
M106 S255
G1 X59.823 Y90.449 F250
M106 S0
M106 S255
G1 X59.891 Y89.925 F250
M106 S0
M106 S255
G1 X59.891 Y89.925 F250
M106 S0
M106 S255
G1 X59.974 Y89.345 F250
M106 S0
M106 S255
G1 X59.974 Y89.345 F250
M106 S0
M106 S255
G1 X60.037 Y88.756 F250
M106 S0
M106 S255
G1 X60.037 Y88.756 F250
M106 S0
M106 S255
G1 X60.064 Y88.449 F250
M106 S0
M106 S255
G1 X60.064 Y88.449 F250
M106 S0
M106 S255
G1 X60.067 Y88.249 F250
M106 S0
M106 S255
G1 X60.067 Y88.249 F250
M106 S0
M106 S255
G1 X59.923 Y88.067 F250
M106 S0
M106 S255
G1 X59.923 Y88.067 F250
M106 S0
M106 S255
G1 X59.686 Y88.041 F250
M106 S0
M106 S255
G1 X59.686 Y88.041 F250
M106 S0
M106 S255
G1 X59.489 Y88.125 F250
M106 S0
M106 S255
G1 X59.489 Y88.125 F250
M106 S0
M106 S255
G1 X59.343 Y88.23 F250
M106 S0
M106 S255
G1 X59.343 Y88.23 F250
M106 S0
M106 S255
G1 X59.262 Y88.33 F250
M106 S0
M106 S255
G1 X59.262 Y88.33 F250
M106 S0
M106 S255
G1 X59.276 Y88.316 F250
M106 S0
M106 S255
G1 X59.276 Y88.316 F250
M106 S0
M106 S255
G1 X59.181 Y88.104 F250
M106 S0
M106 S255
G1 X59.181 Y88.104 F250
M106 S0
M106 S255
G1 X59.027 Y87.546 F250
M106 S0
M106 S255
G1 X59.027 Y87.546 F250
M106 S0
M106 S255
G1 X58.769 Y87.033 F250
M106 S0
G0 X58.878 Y99.893 F6000
M106 S255
G1 X58.878 Y99.893 F250
M106 S0
M106 S255
G1 X59.071 Y99.808 F250
M106 S0
M106 S255
G1 X59.071 Y99.808 F250
M106 S0
M106 S255
G1 X59.185 Y99.622 F250
M106 S0
M106 S255
G1 X59.185 Y99.622 F250
M106 S0
M106 S255
G1 X59.641 Y99.139 F250
M106 S0
M106 S255
G1 X59.641 Y99.139 F250
M106 S0
M106 S255
G1 X60.197 Y98.494 F250
M106 S0
M106 S255
G1 X60.197 Y98.494 F250
M106 S0
M106 S255
G1 X60.636 Y97.76 F250
M106 S0
M106 S255
G1 X60.636 Y97.76 F250
M106 S0
M106 S255
G1 X61.18 Y97.136 F250
M106 S0
M106 S255
G1 X61.18 Y97.136 F250
M106 S0
M106 S255
G1 X61.801 Y96.603 F250
M106 S0
G0 X58.959 Y100.076 F6000
M106 S255
G1 X58.959 Y100.076 F250
M106 S0
M106 S255
G1 X59.209 Y99.966 F250
M106 S0
M106 S255
G1 X59.209 Y99.966 F250
M106 S0
M106 S255
G1 X59.345 Y99.744 F250
M106 S0
M106 S255
G1 X59.345 Y99.744 F250
M106 S0
M106 S255
G1 X59.788 Y99.275 F250
M106 S0
M106 S255
G1 X59.788 Y99.275 F250
M106 S0
M106 S255
G1 X60.36 Y98.612 F250
M106 S0
M106 S255
G1 X60.36 Y98.612 F250
M106 S0
M106 S255
G1 X60.798 Y97.878 F250
M106 S0
M106 S255
G1 X60.798 Y97.878 F250
M106 S0
M106 S255
G1 X61.321 Y97.278 F250
M106 S0
M106 S255
G1 X61.321 Y97.278 F250
M106 S0
M106 S255
G1 X61.931 Y96.754 F250
M106 S0
G0 X42.03 Y99.04 F6000
M106 S255
G1 X42.03 Y99.04 F250
M106 S0
M106 S255
G1 X41.649 Y99.213 F250
M106 S0
M106 S255
G1 X41.649 Y99.213 F250
M106 S0
M106 S255
G1 X41.331 Y99.245 F250
M106 S0
M106 S255
G1 X41.331 Y99.245 F250
M106 S0
M106 S255
G1 X41.064 Y99.102 F250
M106 S0
M106 S255
G1 X41.064 Y99.102 F250
M106 S0
M106 S255
G1 X40.78 Y98.743 F250
M106 S0
M106 S255
G1 X40.78 Y98.743 F250
M106 S0
M106 S255
G1 X41.117 Y98.4 F250
M106 S0
M106 S255
G1 X41.117 Y98.4 F250
M106 S0
M106 S255
G1 X41.443 Y98.325 F250
M106 S0
M106 S255
G1 X41.443 Y98.325 F250
M106 S0
M106 S255
G1 X41.775 Y98.487 F250
M106 S0
M106 S255
G1 X41.775 Y98.487 F250
M106 S0
M106 S255
G1 X42.102 Y98.841 F250
M106 S0
G0 X41.947 Y98.858 F6000
M106 S255
G1 X41.947 Y98.858 F250
M106 S0
M106 S255
G1 X41.596 Y99.017 F250
M106 S0
M106 S255
G1 X41.596 Y99.017 F250
M106 S0
M106 S255
G1 X41.371 Y99.04 F250
M106 S0
M106 S255
G1 X41.371 Y99.04 F250
M106 S0
M106 S255
G1 X41.195 Y98.945 F250
M106 S0
M106 S255
G1 X41.195 Y98.945 F250
M106 S0
M106 S255
G1 X41.046 Y98.757 F250
M106 S0
M106 S255
G1 X41.046 Y98.757 F250
M106 S0
M106 S255
G1 X41.218 Y98.582 F250
M106 S0
M106 S255
G1 X41.218 Y98.582 F250
M106 S0
M106 S255
G1 X41.419 Y98.535 F250
M106 S0
M106 S255
G1 X41.419 Y98.535 F250
M106 S0
M106 S255
G1 X41.654 Y98.651 F250
M106 S0
M106 S255
G1 X41.654 Y98.651 F250
M106 S0
M106 S255
G1 X41.955 Y98.977 F250
M106 S0
G0 X56.042 Y102.686 F6000
M106 S255
G1 X56.042 Y102.686 F250
M106 S0
M106 S255
G1 X56.448 Y102.462 F250
M106 S0
M106 S255
G1 X56.448 Y102.462 F250
M106 S0
M106 S255
G1 X56.868 Y102.237 F250
M106 S0
M106 S255
G1 X56.868 Y102.237 F250
M106 S0
M106 S255
G1 X57.197 Y102.052 F250
M106 S0
M106 S255
G1 X57.197 Y102.052 F250
M106 S0
M106 S255
G1 X57.379 Y101.817 F250
M106 S0
M106 S255
G1 X57.379 Y101.817 F250
M106 S0
M106 S255
G1 X57.609 Y101.569 F250
M106 S0
M106 S255
G1 X57.609 Y101.569 F250
M106 S0
M106 S255
G1 X58.284 Y101.105 F250
M106 S0
M106 S255
G1 X58.284 Y101.105 F250
M106 S0
M106 S255
G1 X58.93 Y100.621 F250
M106 S0
M106 S255
G1 X58.93 Y100.621 F250
M106 S0
M106 S255
G1 X59.617 Y100.092 F250
M106 S0
M106 S255
G1 X59.617 Y100.092 F250
M106 S0
M106 S255
G1 X60.421 Y99.698 F250
M106 S0
M106 S255
G1 X60.421 Y99.698 F250
M106 S0
M106 S255
G1 X61.228 Y99.336 F250
M106 S0
G0 X56.138 Y102.861 F6000
M106 S255
G1 X56.138 Y102.861 F250
M106 S0
M106 S255
G1 X56.557 Y102.63 F250
M106 S0
M106 S255
G1 X56.557 Y102.63 F250
M106 S0
M106 S255
G1 X56.966 Y102.411 F250
M106 S0
M106 S255
G1 X56.966 Y102.411 F250
M106 S0
M106 S255
G1 X57.33 Y102.206 F250
M106 S0
M106 S255
G1 X57.33 Y102.206 F250
M106 S0
M106 S255
G1 X57.532 Y101.946 F250
M106 S0
M106 S255
G1 X57.532 Y101.946 F250
M106 S0
M106 S255
G1 X57.741 Y101.721 F250
M106 S0
M106 S255
G1 X57.741 Y101.721 F250
M106 S0
M106 S255
G1 X58.402 Y101.266 F250
M106 S0
M106 S255
G1 X58.402 Y101.266 F250
M106 S0
M106 S255
G1 X59.052 Y100.78 F250
M106 S0
M106 S255
G1 X59.052 Y100.78 F250
M106 S0
M106 S255
G1 X59.723 Y100.262 F250
M106 S0
M106 S255
G1 X59.723 Y100.262 F250
M106 S0
M106 S255
G1 X60.508 Y99.878 F250
M106 S0
M106 S255
G1 X60.508 Y99.878 F250
M106 S0
M106 S255
G1 X61.309 Y99.518 F250
M106 S0
G0 X93.683 Y57.399 F6000
M106 S255
G1 X93.683 Y57.399 F250
M106 S0
M106 S255
G1 X94.108 Y56.482 F250
M106 S0
M106 S255
G1 X94.108 Y56.482 F250
M106 S0
M106 S255
G1 X94.407 Y55.526 F250
M106 S0
M106 S255
G1 X94.407 Y55.526 F250
M106 S0
M106 S255
G1 X94.525 Y54.961 F250
M106 S0
M106 S255
G1 X94.525 Y54.961 F250
M106 S0
M106 S255
G1 X94.543 Y54.85 F250
M106 S0
M106 S255
G1 X94.543 Y54.85 F250
M106 S0
M106 S255
G1 X94.502 Y54.778 F250
M106 S0
M106 S255
G1 X94.502 Y54.778 F250
M106 S0
M106 S255
G1 X94.546 Y54.791 F250
M106 S0
M106 S255
G1 X94.546 Y54.791 F250
M106 S0
M106 S255
G1 X94.57 Y54.788 F250
M106 S0
M106 S255
G1 X94.57 Y54.788 F250
M106 S0
M106 S255
G1 X94.583 Y54.781 F250
M106 S0
M106 S255
G1 X94.583 Y54.781 F250
M106 S0
M106 S255
G1 X94.578 Y54.786 F250
M106 S0
M106 S255
G1 X94.578 Y54.786 F250
M106 S0
M106 S255
G1 X94.564 Y54.8 F250
M106 S0
G0 X93.864 Y57.483 F6000
M106 S255
G1 X93.864 Y57.483 F250
M106 S0
M106 S255
G1 X94.295 Y56.554 F250
M106 S0
M106 S255
G1 X94.295 Y56.554 F250
M106 S0
M106 S255
G1 X94.601 Y55.576 F250
M106 S0
M106 S255
G1 X94.601 Y55.576 F250
M106 S0
M106 S255
G1 X94.721 Y54.998 F250
M106 S0
M106 S255
G1 X94.721 Y54.998 F250
M106 S0
M106 S255
G1 X94.752 Y54.813 F250
M106 S0
M106 S255
G1 X94.752 Y54.813 F250
M106 S0
M106 S255
G1 X94.637 Y54.609 F250
M106 S0
M106 S255
G1 X94.637 Y54.609 F250
M106 S0
M106 S255
G1 X94.565 Y54.588 F250
M106 S0
M106 S255
G1 X94.565 Y54.588 F250
M106 S0
M106 S255
G1 X94.507 Y54.594 F250
M106 S0
M106 S255
G1 X94.507 Y54.594 F250
M106 S0
M106 S255
G1 X94.461 Y54.62 F250
M106 S0
M106 S255
G1 X94.461 Y54.62 F250
M106 S0
M106 S255
G1 X94.434 Y54.646 F250
M106 S0
M106 S255
G1 X94.434 Y54.646 F250
M106 S0
M106 S255
G1 X94.417 Y54.665 F250
M106 S0
G0 X31.531 Y96.097 F6000
M106 S255
G1 X31.531 Y96.097 F250
M106 S0
M106 S255
G1 X31.469 Y96.473 F250
M106 S0
M106 S255
G1 X31.469 Y96.473 F250
M106 S0
M106 S255
G1 X31.306 Y96.819 F250
M106 S0
M106 S255
G1 X31.306 Y96.819 F250
M106 S0
M106 S255
G1 X31.077 Y97.142 F250
M106 S0
M106 S255
G1 X31.077 Y97.142 F250
M106 S0
M106 S255
G1 X30.666 Y97.346 F250
M106 S0
M106 S255
G1 X30.666 Y97.346 F250
M106 S0
M106 S255
G1 X30.211 Y97.355 F250
M106 S0
M106 S255
G1 X30.211 Y97.355 F250
M106 S0
M106 S255
G1 X29.485 Y97.037 F250
M106 S0
M106 S255
G1 X29.485 Y97.037 F250
M106 S0
M106 S255
G1 X28.752 Y96.567 F250
M106 S0
M106 S255
G1 X28.752 Y96.567 F250
M106 S0
M106 S255
G1 X28.237 Y96.035 F250
M106 S0
M106 S255
G1 X28.237 Y96.035 F250
M106 S0
M106 S255
G1 X28.104 Y95.879 F250
M106 S0
M106 S255
G1 X28.104 Y95.879 F250
M106 S0
M106 S255
G1 X28.018 Y95.67 F250
M106 S0
M106 S255
G1 X28.018 Y95.67 F250
M106 S0
M106 S255
G1 X28.017 Y95.525 F250
M106 S0
M106 S255
G1 X28.017 Y95.525 F250
M106 S0
M106 S255
G1 X27.978 Y95.482 F250
M106 S0
M106 S255
G1 X27.978 Y95.482 F250
M106 S0
M106 S255
G1 X27.882 Y95.433 F250
M106 S0
G0 X31.334 Y96.065 F6000
M106 S255
G1 X31.334 Y96.065 F250
M106 S0
M106 S255
G1 X31.276 Y96.413 F250
M106 S0
M106 S255
G1 X31.276 Y96.413 F250
M106 S0
M106 S255
G1 X31.132 Y96.718 F250
M106 S0
M106 S255
G1 X31.132 Y96.718 F250
M106 S0
M106 S255
G1 X30.943 Y96.986 F250
M106 S0
M106 S255
G1 X30.943 Y96.986 F250
M106 S0
M106 S255
G1 X30.617 Y97.147 F250
M106 S0
M106 S255
G1 X30.617 Y97.147 F250
M106 S0
M106 S255
G1 X30.251 Y97.154 F250
M106 S0
M106 S255
