;GCode generated by Numa's program v0.0
G0 X41.141 Y36.086 F6000
M106 S255
G1 X41.141 Y36.086 F40
M106 S0
M106 S255
G1 X42.407 Y36.086 F40
M106 S0
M106 S255
G1 X42.407 Y35.105 F40
M106 S0
M106 S255
G1 X43.478 Y35.105 F40
M106 S0
M106 S255
G1 X43.478 Y36.086 F40
M106 S0
M106 S255
G1 X45.413 Y36.086 F40
M106 S0
M106 S255
G1 X45.413 Y32.708 F40
M106 S0
M106 S255
G1 X44.752 Y32.708 F40
M106 S0
M106 S255
G1 X43.834 Y31.436 F40
M106 S0
M106 S255
G1 X43.834 Y27.829 F40
M106 S0
M106 S255
G1 X44.755 Y26.573 F40
M106 S0
M106 S255
G1 X45.41 Y26.573 F40
M106 S0
M106 S255
G1 X45.41 Y25.281 F40
M106 S0
M106 S255
G1 X46.659 Y25.281 F40
M106 S0
M106 S255
G1 X46.659 Y23.279 F40
M106 S0
M106 S255
G1 X41.141 Y23.279 F40
M106 S0
M106 S255
G1 X35.623 Y23.279 F40
M106 S0
M106 S255
G1 X35.623 Y25.281 F40
M106 S0
M106 S255
G1 X36.872 Y25.281 F40
M106 S0
M106 S255
G1 X36.872 Y26.573 F40
M106 S0
M106 S255
G1 X37.527 Y26.573 F40
M106 S0
M106 S255
G1 X38.448 Y27.829 F40
M106 S0
M106 S255
G1 X38.448 Y31.436 F40
M106 S0
M106 S255
G1 X37.53 Y32.708 F40
M106 S0
M106 S255
G1 X36.869 Y32.708 F40
M106 S0
M106 S255
G1 X36.869 Y36.086 F40
M106 S0
M106 S255
G1 X38.804 Y36.086 F40
M106 S0
M106 S255
G1 X38.804 Y35.105 F40
M106 S0
M106 S255
G1 X39.875 Y35.105 F40
M106 S0
M106 S255
G1 X39.875 Y36.086 F40
M106 S0
M106 S255
G1 X41.141 Y36.086 F40
M106 S0
G0 X25.972 Y22.919 F6000
M106 S255
G1 X25.972 Y22.919 F40
M106 S0
M106 S255
G1 X26.208 Y22.916 F40
M106 S0
M106 S255
G1 X26.444 Y22.913 F40
M106 S0
M106 S255
G1 X26.679 Y22.912 F40
M106 S0
M106 S255
G1 X26.915 Y22.914 F40
M106 S0
M106 S255
G1 X27.166 Y22.919 F40
M106 S0
M106 S255
G1 X27.386 Y22.928 F40
M106 S0
M106 S255
G1 X27.621 Y22.941 F40
M106 S0
M106 S255
G1 X27.856 Y22.957 F40
M106 S0
M106 S255
G1 X28.09 Y22.976 F40
M106 S0
M106 S255
G1 X28.325 Y22.997 F40
M106 S0
M106 S255
G1 X28.56 Y23.02 F40
M106 S0
M106 S255
G1 X28.794 Y23.044 F40
M106 S0
M106 S255
G1 X29.029 Y23.069 F40
M106 S0
M106 S255
G1 X29.314 Y23.099 F40
M106 S0
M106 S255
G1 X29.498 Y23.118 F40
M106 S0
M106 S255
G1 X29.733 Y23.142 F40
M106 S0
M106 S255
G1 X29.967 Y23.165 F40
M106 S0
M106 S255
G1 X30.202 Y23.188 F40
M106 S0
M106 S255
G1 X30.436 Y23.211 F40
M106 S0
M106 S255
G1 X30.671 Y23.233 F40
M106 S0
M106 S255
G1 X30.905 Y23.255 F40
M106 S0
M106 S255
G1 X31.14 Y23.277 F40
M106 S0
M106 S255
G1 X31.374 Y23.299 F40
M106 S0
M106 S255
G1 X31.374 Y28.107 F40
M106 S0
M106 S255
G1 X32.093 Y32.383 F40
M106 S0
M106 S255
G1 X32.166 Y32.399 F40
M106 S0
M106 S255
G1 X32.238 Y32.415 F40
M106 S0
M106 S255
G1 X32.311 Y32.432 F40
M106 S0
M106 S255
G1 X32.383 Y32.451 F40
M106 S0
M106 S255
G1 X32.454 Y32.471 F40
M106 S0
M106 S255
G1 X32.525 Y32.494 F40
M106 S0
M106 S255
G1 X32.594 Y32.519 F40
M106 S0
M106 S255
G1 X32.663 Y32.547 F40
M106 S0
M106 S255
G1 X32.73 Y32.58 F40
M106 S0
M106 S255
G1 X32.797 Y32.616 F40
M106 S0
M106 S255
G1 X32.861 Y32.656 F40
M106 S0
M106 S255
G1 X32.922 Y32.701 F40
M106 S0
M106 S255
G1 X32.98 Y32.749 F40
M106 S0
M106 S255
G1 X33.034 Y32.801 F40
M106 S0
M106 S255
G1 X33.083 Y32.857 F40
M106 S0
M106 S255
G1 X33.126 Y32.916 F40
M106 S0
M106 S255
G1 X33.164 Y32.98 F40
M106 S0
M106 S255
G1 X33.196 Y33.046 F40
M106 S0
M106 S255
G1 X33.223 Y33.115 F40
M106 S0
M106 S255
G1 X33.245 Y33.187 F40
M106 S0
M106 S255
G1 X33.264 Y33.26 F40
M106 S0
M106 S255
G1 X33.28 Y33.334 F40
M106 S0
M106 S255
G1 X33.292 Y33.409 F40
M106 S0
M106 S255
G1 X33.301 Y33.485 F40
M106 S0
M106 S255
G1 X33.306 Y33.56 F40
M106 S0
M106 S255
G1 X33.307 Y33.635 F40
M106 S0
M106 S255
G1 X33.302 Y33.709 F40
M106 S0
M106 S255
G1 X33.292 Y33.783 F40
M106 S0
M106 S255
G1 X33.276 Y33.854 F40
M106 S0
M106 S255
G1 X33.254 Y33.925 F40
M106 S0
M106 S255
G1 X33.226 Y33.993 F40
M106 S0
M106 S255
G1 X33.192 Y34.059 F40
M106 S0
M106 S255
G1 X33.154 Y34.123 F40
M106 S0
M106 S255
G1 X33.112 Y34.185 F40
M106 S0
M106 S255
G1 X33.065 Y34.245 F40
M106 S0
M106 S255
G1 X33.017 Y34.303 F40
M106 S0
M106 S255
G1 X32.965 Y34.358 F40
M106 S0
M106 S255
G1 X32.911 Y34.41 F40
M106 S0
M106 S255
G1 X32.855 Y34.459 F40
M106 S0
M106 S255
G1 X32.797 Y34.505 F40
M106 S0
M106 S255
G1 X32.735 Y34.546 F40
M106 S0
M106 S255
G1 X32.672 Y34.584 F40
M106 S0
M106 S255
G1 X32.605 Y34.616 F40
M106 S0
M106 S255
G1 X32.536 Y34.643 F40
M106 S0
M106 S255
G1 X32.465 Y34.666 F40
M106 S0
M106 S255
G1 X32.393 Y34.685 F40
M106 S0
M106 S255
G1 X32.319 Y34.698 F40
M106 S0
M106 S255
G1 X32.244 Y34.707 F40
M106 S0
M106 S255
G1 X32.169 Y34.712 F40
M106 S0
M106 S255
G1 X32.093 Y34.713 F40
M106 S0
M106 S255
G1 X32.017 Y34.708 F40
M106 S0
M106 S255
G1 X31.942 Y34.7 F40
M106 S0
M106 S255
G1 X31.867 Y34.687 F40
M106 S0
M106 S255
G1 X31.794 Y34.67 F40
M106 S0
M106 S255
G1 X31.722 Y34.648 F40
M106 S0
M106 S255
G1 X31.651 Y34.621 F40
M106 S0
M106 S255
G1 X31.583 Y34.59 F40
M106 S0
M106 S255
G1 X31.518 Y34.554 F40
M106 S0
M106 S255
G1 X31.455 Y34.513 F40
M106 S0
M106 S255
G1 X31.396 Y34.468 F40
M106 S0
M106 S255
G1 X31.34 Y34.418 F40
M106 S0
M106 S255
G1 X31.288 Y34.364 F40
M106 S0
M106 S255
G1 X31.239 Y34.307 F40
M106 S0
M106 S255
G1 X31.195 Y34.246 F40
M106 S0
M106 S255
G1 X31.154 Y34.183 F40
M106 S0
M106 S255
G1 X31.118 Y34.117 F40
M106 S0
M106 S255
G1 X31.086 Y34.05 F40
M106 S0
M106 S255
G1 X31.059 Y33.981 F40
M106 S0
M106 S255
G1 X31.036 Y33.911 F40
M106 S0
M106 S255
G1 X31.017 Y33.839 F40
M106 S0
M106 S255
G1 X31.002 Y33.767 F40
M106 S0
M106 S255
G1 X30.99 Y33.693 F40
M106 S0
M106 S255
G1 X30.982 Y33.619 F40
M106 S0
M106 S255
G1 X30.978 Y33.544 F40
M106 S0
M106 S255
G1 X30.977 Y33.469 F40
M106 S0
M106 S255
G1 X30.981 Y33.395 F40
M106 S0
M106 S255
G1 X30.99 Y33.321 F40
M106 S0
M106 S255
G1 X31.005 Y33.25 F40
M106 S0
M106 S255
G1 X31.025 Y33.179 F40
M106 S0
M106 S255
G1 X31.051 Y33.111 F40
M106 S0
M106 S255
G1 X31.082 Y33.045 F40
M106 S0
M106 S255
G1 X31.117 Y32.981 F40
M106 S0
M106 S255
G1 X31.156 Y32.919 F40
M106 S0
M106 S255
G1 X31.2 Y32.86 F40
M106 S0
M106 S255
G1 X31.247 Y32.803 F40
M106 S0
M106 S255
G1 X31.298 Y32.749 F40
M106 S0
M106 S255
G1 X31.352 Y32.699 F40
M106 S0
M106 S255
G1 X31.408 Y32.652 F40
M106 S0
M106 S255
G1 X31.467 Y32.606 F40
M106 S0
M106 S255
G1 X29.742 Y29.782 F40
M106 S0
M106 S255
G1 X29.382 Y33.641 F40
M106 S0
M106 S255
G1 X29.466 Y33.683 F40
M106 S0
M106 S255
G1 X29.549 Y33.725 F40
M106 S0
M106 S255
G1 X29.631 Y33.769 F40
M106 S0
M106 S255
G1 X29.712 Y33.816 F40
M106 S0
M106 S255
G1 X29.79 Y33.865 F40
M106 S0
M106 S255
G1 X29.899 Y33.945 F40
M106 S0
M106 S255
G1 X29.938 Y33.978 F40
M106 S0
M106 S255
G1 X30.007 Y34.042 F40
M106 S0
M106 S255
G1 X30.071 Y34.111 F40
M106 S0
M106 S255
G1 X30.13 Y34.185 F40
M106 S0
M106 S255
G1 X30.182 Y34.263 F40
M106 S0
M106 S255
G1 X30.227 Y34.345 F40
M106 S0
M106 S255
G1 X30.256 Y34.408 F40
M106 S0
M106 S255
G1 X30.293 Y34.52 F40
M106 S0
M106 S255
G1 X30.313 Y34.612 F40
M106 S0
M106 S255
G1 X30.324 Y34.706 F40
M106 S0
M106 S255
G1 X30.328 Y34.801 F40
M106 S0
M106 S255
G1 X30.324 Y34.897 F40
M106 S0
M106 S255
G1 X30.312 Y34.992 F40
M106 S0
M106 S255
G1 X30.292 Y35.085 F40
M106 S0
M106 S255
G1 X30.256 Y35.203 F40
M106 S0
M106 S255
G1 X30.231 Y35.265 F40
M106 S0
M106 S255
G1 X30.19 Y35.35 F40
M106 S0
M106 S255
G1 X30.142 Y35.431 F40
M106 S0
M106 S255
G1 X30.088 Y35.508 F40
M106 S0
M106 S255
G1 X30.029 Y35.581 F40
M106 S0
M106 S255
G1 X29.964 Y35.649 F40
M106 S0
M106 S255
G1 X29.873 Y35.729 F40
M106 S0
M106 S255
G1 X29.821 Y35.769 F40
M106 S0
M106 S255
G1 X29.742 Y35.82 F40
M106 S0
M106 S255
G1 X29.661 Y35.866 F40
M106 S0
M106 S255
G1 X29.576 Y35.905 F40
M106 S0
M106 S255
G1 X29.488 Y35.937 F40
M106 S0
M106 S255
G1 X29.414 Y35.958 F40
M106 S0
M106 S255
G1 X29.306 Y35.98 F40
M106 S0
M106 S255
G1 X29.213 Y35.991 F40
M106 S0
M106 S255
G1 X29.119 Y35.994 F40
M106 S0
M106 S255
G1 X29.026 Y35.989 F40
M106 S0
M106 S255
G1 X28.932 Y35.977 F40
M106 S0
M106 S255
G1 X28.843 Y35.958 F40
M106 S0
M106 S255
G1 X28.75 Y35.931 F40
M106 S0
M106 S255
G1 X28.662 Y35.896 F40
M106 S0
M106 S255
G1 X28.576 Y35.855 F40
M106 S0
M106 S255
G1 X28.495 Y35.808 F40
M106 S0
M106 S255
G1 X28.418 Y35.754 F40
M106 S0
M106 S255
G1 X28.346 Y35.694 F40
M106 S0
M106 S255
G1 X28.283 Y35.632 F40
M106 S0
M106 S255
G1 X28.219 Y35.558 F40
M106 S0
M106 S255
G1 X28.164 Y35.482 F40
M106 S0
M106 S255
G1 X28.116 Y35.403 F40
M106 S0
M106 S255
G1 X28.074 Y35.319 F40
M106 S0
M106 S255
G1 X28.037 Y35.232 F40
M106 S0
M106 S255
G1 X28.006 Y35.142 F40
M106 S0
M106 S255
G1 X27.992 Y35.092 F40
M106 S0
M106 S255
G1 X27.962 Y34.957 F40
M106 S0
M106 S255
G1 X27.949 Y34.862 F40
M106 S0
M106 S255
G1 X27.943 Y34.768 F40
M106 S0
M106 S255
G1 X27.945 Y34.674 F40
M106 S0
M106 S255
G1 X27.956 Y34.581 F40
M106 S0
M106 S255
G1 X27.975 Y34.49 F40
M106 S0
M106 S255
G1 X27.992 Y34.435 F40
M106 S0
M106 S255
G1 X28.043 Y34.318 F40
M106 S0
M106 S255
G1 X28.09 Y34.237 F40
M106 S0
M106 S255
G1 X28.144 Y34.16 F40
M106 S0
M106 S255
G1 X28.204 Y34.087 F40
M106 S0
M106 S255
G1 X28.283 Y34.007 F40
M106 S0
M106 S255
G1 X28.339 Y33.957 F40
M106 S0
M106 S255
G1 X28.411 Y33.898 F40
M106 S0
M106 S255
G1 X28.486 Y33.843 F40
M106 S0
M106 S255
G1 X28.562 Y33.789 F40
M106 S0
M106 S255
G1 X28.639 Y33.737 F40
M106 S0
M106 S255
G1 X27.343 Y29.998 F40
M106 S0
M106 S255
G1 X26.348 Y34.3 F40
M106 S0
M106 S255
G1 X26.419 Y34.339 F40
M106 S0
M106 S255
G1 X26.49 Y34.377 F40
M106 S0
M106 S255
G1 X26.559 Y34.418 F40
M106 S0
M106 S255
G1 X26.627 Y34.46 F40
M106 S0
M106 S255
G1 X26.692 Y34.506 F40
M106 S0
M106 S255
G1 X26.754 Y34.555 F40
M106 S0
M106 S255
G1 X26.812 Y34.609 F40
M106 S0
M106 S255
G1 X26.866 Y34.668 F40
M106 S0
M106 S255
G1 X26.915 Y34.731 F40
M106 S0
M106 S255
G1 X26.96 Y34.798 F40
M106 S0
M106 S255
G1 X27.0 Y34.869 F40
M106 S0
M106 S255
G1 X27.034 Y34.942 F40
M106 S0
M106 S255
G1 X27.063 Y35.018 F40
M106 S0
M106 S255
G1 X27.087 Y35.096 F40
M106 S0
M106 S255
G1 X27.104 Y35.175 F40
M106 S0
M106 S255
G1 X27.116 Y35.255 F40
M106 S0
M106 S255
G1 X27.122 Y35.336 F40
M106 S0
M106 S255
G1 X27.123 Y35.417 F40
M106 S0
M106 S255
G1 X27.118 Y35.498 F40
M106 S0
M106 S255
G1 X27.108 Y35.578 F40
M106 S0
M106 S255
G1 X27.092 Y35.657 F40
M106 S0
M106 S255
G1 X27.071 Y35.735 F40
M106 S0
M106 S255
G1 X27.045 Y35.811 F40
M106 S0
M106 S255
G1 X27.014 Y35.885 F40
M106 S0
M106 S255
G1 X26.978 Y35.957 F40
M106 S0
M106 S255
G1 X26.937 Y36.026 F40
M106 S0
M106 S255
G1 X26.891 Y36.092 F40
M106 S0
M106 S255
G1 X26.841 Y36.155 F40
M106 S0
M106 S255
G1 X26.787 Y36.215 F40
M106 S0
M106 S255
G1 X26.728 Y36.272 F40
M106 S0
M106 S255
G1 X26.666 Y36.325 F40
M106 S0
M106 S255
G1 X26.6 Y36.373 F40
M106 S0
M106 S255
G1 X26.531 Y36.417 F40
M106 S0
M106 S255
G1 X26.46 Y36.456 F40
M106 S0
M106 S255
G1 X26.386 Y36.489 F40
M106 S0
M106 S255
G1 X26.311 Y36.516 F40
M106 S0
M106 S255
G1 X26.234 Y36.537 F40
M106 S0
M106 S255
G1 X26.156 Y36.551 F40
M106 S0
M106 S255
G1 X26.078 Y36.559 F40
M106 S0
M106 S255
G1 X25.998 Y36.562 F40
M106 S0
M106 S255
G1 X25.918 Y36.561 F40
M106 S0
M106 S255
G1 X25.838 Y36.562 F40
M106 S0
M106 S255
G1 X25.759 Y36.559 F40
M106 S0
M106 S255
G1 X25.68 Y36.551 F40
M106 S0
M106 S255
G1 X25.603 Y36.537 F40
M106 S0
M106 S255
G1 X25.526 Y36.516 F40
M106 S0
M106 S255
G1 X25.45 Y36.489 F40
M106 S0
M106 S255
G1 X25.377 Y36.456 F40
M106 S0
M106 S255
G1 X25.305 Y36.417 F40
M106 S0
M106 S255
G1 X25.237 Y36.373 F40
M106 S0
M106 S255
G1 X25.171 Y36.325 F40
M106 S0
M106 S255
G1 X25.108 Y36.272 F40
M106 S0
M106 S255
G1 X25.05 Y36.215 F40
M106 S0
M106 S255
G1 X24.996 Y36.155 F40
M106 S0
M106 S255
G1 X24.945 Y36.092 F40
M106 S0
M106 S255
G1 X24.9 Y36.026 F40
M106 S0
M106 S255
G1 X24.859 Y35.957 F40
M106 S0
M106 S255
G1 X24.823 Y35.885 F40
M106 S0
M106 S255
G1 X24.792 Y35.811 F40
M106 S0
M106 S255
G1 X24.765 Y35.735 F40
M106 S0
M106 S255
G1 X24.745 Y35.657 F40
M106 S0
M106 S255
G1 X24.729 Y35.578 F40
M106 S0
M106 S255
G1 X24.719 Y35.498 F40
M106 S0
M106 S255
G1 X24.714 Y35.417 F40
M106 S0
M106 S255
G1 X24.715 Y35.336 F40
M106 S0
M106 S255
G1 X24.721 Y35.255 F40
M106 S0
M106 S255
G1 X24.733 Y35.175 F40
M106 S0
M106 S255
G1 X24.75 Y35.096 F40
M106 S0
M106 S255
G1 X24.773 Y35.018 F40
M106 S0
M106 S255
G1 X24.802 Y34.942 F40
M106 S0
M106 S255
G1 X24.837 Y34.869 F40
M106 S0
M106 S255
G1 X24.877 Y34.798 F40
M106 S0
M106 S255
G1 X24.921 Y34.731 F40
M106 S0
M106 S255
G1 X24.971 Y34.668 F40
M106 S0
M106 S255
G1 X25.025 Y34.609 F40
M106 S0
M106 S255
G1 X25.083 Y34.555 F40
M106 S0
M106 S255
G1 X25.145 Y34.506 F40
M106 S0
M106 S255
G1 X25.21 Y34.46 F40
M106 S0
M106 S255
G1 X25.277 Y34.418 F40
M106 S0
M106 S255
G1 X25.347 Y34.377 F40
M106 S0
M106 S255
G1 X25.418 Y34.339 F40
M106 S0
M106 S255
G1 X25.489 Y34.3 F40
M106 S0
M106 S255
G1 X24.493 Y29.998 F40
M106 S0
M106 S255
G1 X23.198 Y33.737 F40
M106 S0
M106 S255
G1 X23.275 Y33.789 F40
M106 S0
M106 S255
G1 X23.351 Y33.843 F40
M106 S0
M106 S255
G1 X23.426 Y33.898 F40
M106 S0
M106 S255
G1 X23.498 Y33.957 F40
M106 S0
M106 S255
G1 X23.554 Y34.007 F40
M106 S0
M106 S255
G1 X23.632 Y34.087 F40
M106 S0
M106 S255
G1 X23.693 Y34.16 F40
M106 S0
M106 S255
G1 X23.747 Y34.237 F40
M106 S0
M106 S255
G1 X23.794 Y34.318 F40
M106 S0
M106 S255
G1 X23.845 Y34.435 F40
M106 S0
M106 S255
G1 X23.862 Y34.49 F40
M106 S0
M106 S255
G1 X23.881 Y34.581 F40
M106 S0
M106 S255
G1 X23.891 Y34.674 F40
M106 S0
M106 S255
G1 X23.893 Y34.768 F40
M106 S0
M106 S255
G1 X23.888 Y34.862 F40
M106 S0
M106 S255
G1 X23.875 Y34.957 F40
M106 S0
M106 S255
G1 X23.845 Y35.092 F40
M106 S0
M106 S255
G1 X23.83 Y35.142 F40
M106 S0
M106 S255
G1 X23.799 Y35.232 F40
M106 S0
M106 S255
G1 X23.763 Y35.319 F40
M106 S0
M106 S255
G1 X23.721 Y35.403 F40
M106 S0
M106 S255
G1 X23.672 Y35.482 F40
M106 S0
M106 S255
G1 X23.618 Y35.558 F40
M106 S0
M106 S255
G1 X23.554 Y35.632 F40
M106 S0
M106 S255
G1 X23.491 Y35.694 F40
M106 S0
M106 S255
G1 X23.419 Y35.754 F40
M106 S0
M106 S255
G1 X23.342 Y35.808 F40
M106 S0
M106 S255
G1 X23.26 Y35.855 F40
M106 S0
M106 S255
G1 X23.175 Y35.896 F40
M106 S0
M106 S255
G1 X23.087 Y35.931 F40
M106 S0
M106 S255
G1 X22.993 Y35.958 F40
M106 S0
M106 S255
G1 X22.904 Y35.977 F40
M106 S0
M106 S255
G1 X22.811 Y35.989 F40
M106 S0
M106 S255
G1 X22.717 Y35.994 F40
M106 S0
M106 S255
G1 X22.624 Y35.991 F40
M106 S0
M106 S255
G1 X22.531 Y35.98 F40
M106 S0
M106 S255
G1 X22.422 Y35.958 F40
M106 S0
M106 S255
G1 X22.349 Y35.937 F40
M106 S0
M106 S255
G1 X22.261 Y35.905 F40
M106 S0
M106 S255
G1 X22.176 Y35.866 F40
M106 S0
M106 S255
G1 X22.094 Y35.82 F40
M106 S0
M106 S255
G1 X22.016 Y35.769 F40
M106 S0
M106 S255
G1 X21.964 Y35.729 F40
M106 S0
M106 S255
G1 X21.872 Y35.649 F40
M106 S0
M106 S255
G1 X21.808 Y35.581 F40
M106 S0
M106 S255
G1 X21.748 Y35.508 F40
M106 S0
M106 S255
G1 X21.695 Y35.431 F40
M106 S0
M106 S255
G1 X21.647 Y35.35 F40
M106 S0
M106 S255
G1 X21.606 Y35.265 F40
M106 S0
M106 S255
G1 X21.581 Y35.203 F40
M106 S0
M106 S255
G1 X21.545 Y35.085 F40
M106 S0
M106 S255
G1 X21.525 Y34.992 F40
M106 S0
M106 S255
G1 X21.513 Y34.897 F40
M106 S0
M106 S255
G1 X21.509 Y34.801 F40
M106 S0
M106 S255
G1 X21.512 Y34.706 F40
M106 S0
M106 S255
G1 X21.524 Y34.612 F40
M106 S0
M106 S255
G1 X21.544 Y34.52 F40
M106 S0
M106 S255
G1 X21.581 Y34.408 F40
M106 S0
M106 S255
G1 X21.61 Y34.345 F40
M106 S0
M106 S255
G1 X21.655 Y34.263 F40
M106 S0
M106 S255
G1 X21.707 Y34.185 F40
M106 S0
M106 S255
G1 X21.765 Y34.111 F40
M106 S0
M106 S255
G1 X21.83 Y34.042 F40
M106 S0
M106 S255
G1 X21.898 Y33.978 F40
M106 S0
M106 S255
G1 X21.938 Y33.945 F40
M106 S0
M106 S255
G1 X22.047 Y33.865 F40
M106 S0
M106 S255
G1 X22.125 Y33.816 F40
M106 S0
M106 S255
G1 X22.206 Y33.769 F40
M106 S0
M106 S255
G1 X22.288 Y33.725 F40
M106 S0
M106 S255
G1 X22.371 Y33.683 F40
M106 S0
M106 S255
G1 X22.454 Y33.641 F40
M106 S0
M106 S255
G1 X22.095 Y29.782 F40
M106 S0
M106 S255
G1 X20.37 Y32.606 F40
M106 S0
M106 S255
G1 X20.428 Y32.652 F40
M106 S0
M106 S255
G1 X20.485 Y32.699 F40
M106 S0
M106 S255
G1 X20.539 Y32.749 F40
M106 S0
M106 S255
G1 X20.59 Y32.803 F40
M106 S0
M106 S255
G1 X20.637 Y32.86 F40
M106 S0
M106 S255
G1 X20.68 Y32.919 F40
M106 S0
M106 S255
G1 X20.72 Y32.981 F40
M106 S0
M106 S255
G1 X20.755 Y33.045 F40
M106 S0
M106 S255
G1 X20.786 Y33.111 F40
M106 S0
M106 S255
G1 X20.812 Y33.179 F40
M106 S0
M106 S255
G1 X20.832 Y33.25 F40
M106 S0
M106 S255
G1 X20.847 Y33.321 F40
M106 S0
M106 S255
G1 X20.856 Y33.395 F40
M106 S0
M106 S255
G1 X20.86 Y33.469 F40
M106 S0
M106 S255
G1 X20.859 Y33.544 F40
M106 S0
M106 S255
G1 X20.854 Y33.619 F40
M106 S0
M106 S255
G1 X20.846 Y33.693 F40
M106 S0
M106 S255
G1 X20.835 Y33.767 F40
M106 S0
M106 S255
G1 X20.82 Y33.839 F40
M106 S0
M106 S255
G1 X20.801 Y33.911 F40
M106 S0
M106 S255
G1 X20.778 Y33.981 F40
M106 S0
M106 S255
G1 X20.751 Y34.05 F40
M106 S0
M106 S255
G1 X20.719 Y34.117 F40
M106 S0
M106 S255
G1 X20.683 Y34.183 F40
M106 S0
M106 S255
G1 X20.642 Y34.246 F40
M106 S0
M106 S255
G1 X20.598 Y34.307 F40
M106 S0
M106 S255
G1 X20.549 Y34.364 F40
M106 S0
M106 S255
G1 X20.497 Y34.418 F40
M106 S0
M106 S255
G1 X20.441 Y34.468 F40
M106 S0
M106 S255
G1 X20.381 Y34.513 F40
M106 S0
M106 S255
G1 X20.319 Y34.554 F40
M106 S0
M106 S255
G1 X20.253 Y34.59 F40
M106 S0
M106 S255
G1 X20.185 Y34.621 F40
M106 S0
M106 S255
G1 X20.115 Y34.648 F40
M106 S0
M106 S255
G1 X20.043 Y34.67 F40
M106 S0
M106 S255
G1 X19.97 Y34.687 F40
M106 S0
M106 S255
G1 X19.895 Y34.7 F40
M106 S0
M106 S255
G1 X19.82 Y34.708 F40
M106 S0
M106 S255
G1 X19.744 Y34.713 F40
M106 S0
M106 S255
G1 X19.668 Y34.712 F40
M106 S0
M106 S255
G1 X19.593 Y34.707 F40
M106 S0
M106 S255
G1 X19.518 Y34.698 F40
M106 S0
M106 S255
G1 X19.444 Y34.685 F40
M106 S0
M106 S255
G1 X19.371 Y34.666 F40
M106 S0
M106 S255
G1 X19.301 Y34.643 F40
M106 S0
M106 S255
G1 X19.232 Y34.616 F40
M106 S0
M106 S255
G1 X19.165 Y34.584 F40
M106 S0
M106 S255
G1 X19.101 Y34.546 F40
M106 S0
M106 S255
G1 X19.04 Y34.505 F40
M106 S0
M106 S255
G1 X18.981 Y34.459 F40
M106 S0
M106 S255
G1 X18.925 Y34.41 F40
M106 S0
M106 S255
G1 X18.872 Y34.358 F40
M106 S0
M106 S255
G1 X18.82 Y34.303 F40
M106 S0
M106 S255
G1 X18.771 Y34.245 F40
M106 S0
M106 S255
G1 X18.725 Y34.185 F40
M106 S0
M106 S255
G1 X18.683 Y34.123 F40
M106 S0
M106 S255
G1 X18.644 Y34.059 F40
M106 S0
M106 S255
G1 X18.611 Y33.993 F40
M106 S0
M106 S255
G1 X18.582 Y33.925 F40
M106 S0
M106 S255
G1 X18.56 Y33.854 F40
M106 S0
M106 S255
G1 X18.545 Y33.783 F40
M106 S0
M106 S255
G1 X18.535 Y33.709 F40
M106 S0
M106 S255
G1 X18.53 Y33.635 F40
M106 S0
M106 S255
G1 X18.531 Y33.56 F40
M106 S0
M106 S255
G1 X18.536 Y33.485 F40
M106 S0
M106 S255
G1 X18.545 Y33.409 F40
M106 S0
M106 S255
G1 X18.557 Y33.334 F40
M106 S0
M106 S255
G1 X18.573 Y33.26 F40
M106 S0
M106 S255
G1 X18.592 Y33.187 F40
M106 S0
M106 S255
G1 X18.614 Y33.115 F40
M106 S0
M106 S255
G1 X18.641 Y33.046 F40
M106 S0
M106 S255
G1 X18.673 Y32.98 F40
M106 S0
M106 S255
G1 X18.71 Y32.916 F40
M106 S0
M106 S255
G1 X18.754 Y32.857 F40
M106 S0
M106 S255
G1 X18.803 Y32.801 F40
M106 S0
M106 S255
G1 X18.857 Y32.749 F40
M106 S0
M106 S255
G1 X18.915 Y32.701 F40
M106 S0
M106 S255
G1 X18.976 Y32.656 F40
M106 S0
M106 S255
G1 X19.04 Y32.616 F40
M106 S0
M106 S255
G1 X19.106 Y32.58 F40
M106 S0
M106 S255
G1 X19.174 Y32.547 F40
M106 S0
M106 S255
G1 X19.242 Y32.519 F40
M106 S0
M106 S255
G1 X19.312 Y32.494 F40
M106 S0
M106 S255
G1 X19.383 Y32.471 F40
M106 S0
M106 S255
G1 X19.454 Y32.451 F40
M106 S0
M106 S255
G1 X19.526 Y32.432 F40
M106 S0
M106 S255
G1 X19.598 Y32.415 F40
M106 S0
M106 S255
G1 X19.671 Y32.399 F40
M106 S0
M106 S255
G1 X19.744 Y32.383 F40
M106 S0
M106 S255
G1 X20.463 Y28.107 F40
M106 S0
M106 S255
G1 X20.463 Y23.299 F40
M106 S0
M106 S255
G1 X20.697 Y23.277 F40
M106 S0
M106 S255
G1 X20.932 Y23.255 F40
M106 S0
M106 S255
G1 X21.166 Y23.233 F40
M106 S0
M106 S255
G1 X21.401 Y23.211 F40
M106 S0
M106 S255
G1 X21.635 Y23.188 F40
M106 S0
M106 S255
G1 X21.87 Y23.165 F40
M106 S0
M106 S255
G1 X22.104 Y23.142 F40
M106 S0
M106 S255
G1 X22.339 Y23.118 F40
M106 S0
M106 S255
G1 X22.523 Y23.099 F40
M106 S0
M106 S255
G1 X22.808 Y23.069 F40
M106 S0
M106 S255
G1 X23.042 Y23.044 F40
M106 S0
M106 S255
G1 X23.277 Y23.02 F40
M106 S0
M106 S255
G1 X23.512 Y22.997 F40
M106 S0
M106 S255
G1 X23.746 Y22.976 F40
M106 S0
M106 S255
G1 X23.981 Y22.957 F40
M106 S0
M106 S255
G1 X24.216 Y22.941 F40
M106 S0
M106 S255
G1 X24.451 Y22.928 F40
M106 S0
M106 S255
G1 X24.671 Y22.919 F40
M106 S0
M106 S255
G1 X24.922 Y22.914 F40
M106 S0
M106 S255
G1 X25.157 Y22.912 F40
M106 S0
M106 S255
G1 X25.393 Y22.913 F40
M106 S0
M106 S255
G1 X25.629 Y22.916 F40
M106 S0
M106 S255
G1 X25.864 Y22.919 F40
M106 S0
G0 X13.029 Y28.116 F6000
M106 S255
G1 X13.029 Y28.116 F40
M106 S0
M106 S255
G1 X13.029 Y23.308 F40
M106 S0
M106 S255
G1 X12.795 Y23.286 F40
M106 S0
M106 S255
G1 X12.56 Y23.264 F40
M106 S0
M106 S255
G1 X12.326 Y23.242 F40
M106 S0
M106 S255
G1 X12.091 Y23.22 F40
M106 S0
M106 S255
G1 X11.857 Y23.197 F40
M106 S0
M106 S255
G1 X11.622 Y23.174 F40
M106 S0
M106 S255
G1 X11.388 Y23.151 F40
M106 S0
M106 S255
G1 X11.153 Y23.127 F40
M106 S0
M106 S255
G1 X10.969 Y23.108 F40
M106 S0
M106 S255
G1 X10.684 Y23.078 F40
M106 S0
M106 S255
G1 X10.449 Y23.053 F40
M106 S0
M106 S255
G1 X10.215 Y23.029 F40
M106 S0
M106 S255
G1 X9.98 Y23.006 F40
M106 S0
M106 S255
G1 X9.746 Y22.985 F40
M106 S0
M106 S255
G1 X9.511 Y22.966 F40
M106 S0
M106 S255
G1 X9.276 Y22.95 F40
M106 S0
M106 S255
G1 X9.041 Y22.937 F40
M106 S0
M106 S255
G1 X8.821 Y22.928 F40
M106 S0
M106 S255
G1 X8.57 Y22.923 F40
M106 S0
M106 S255
G1 X8.334 Y22.921 F40
M106 S0
M106 S255
G1 X8.099 Y22.922 F40
M106 S0
M106 S255
G1 X7.863 Y22.925 F40
M106 S0
M106 S255
G1 X7.627 Y22.928 F40
M106 S0
M106 S255
G1 X7.392 Y22.925 F40
M106 S0
M106 S255
G1 X7.156 Y22.922 F40
M106 S0
M106 S255
G1 X6.92 Y22.921 F40
M106 S0
M106 S255
G1 X6.685 Y22.923 F40
M106 S0
M106 S255
G1 X6.434 Y22.928 F40
M106 S0
M106 S255
G1 X6.214 Y22.937 F40
M106 S0
M106 S255
G1 X5.979 Y22.95 F40
M106 S0
M106 S255
G1 X5.744 Y22.966 F40
M106 S0
M106 S255
G1 X5.509 Y22.985 F40
M106 S0
M106 S255
G1 X5.274 Y23.006 F40
M106 S0
M106 S255
G1 X5.04 Y23.029 F40
M106 S0
M106 S255
G1 X4.805 Y23.053 F40
M106 S0
M106 S255
G1 X4.571 Y23.078 F40
M106 S0
M106 S255
G1 X4.286 Y23.108 F40
M106 S0
M106 S255
G1 X4.102 Y23.127 F40
M106 S0
M106 S255
G1 X3.867 Y23.151 F40
M106 S0
M106 S255
G1 X3.633 Y23.174 F40
M106 S0
M106 S255
G1 X3.398 Y23.197 F40
M106 S0
M106 S255
G1 X3.164 Y23.22 F40
M106 S0
M106 S255
G1 X2.929 Y23.242 F40
M106 S0
M106 S255
G1 X2.695 Y23.264 F40
M106 S0
M106 S255
G1 X2.46 Y23.286 F40
M106 S0
M106 S255
G1 X2.226 Y23.308 F40
M106 S0
M106 S255
G1 X2.226 Y28.116 F40
M106 S0
M106 S255
G1 X2.315 Y28.123 F40
M106 S0
M106 S255
G1 X2.404 Y28.129 F40
M106 S0
M106 S255
G1 X2.493 Y28.135 F40
M106 S0
M106 S255
G1 X2.582 Y28.141 F40
M106 S0
M106 S255
G1 X2.671 Y28.147 F40
M106 S0
M106 S255
G1 X2.76 Y28.153 F40
M106 S0
M106 S255
G1 X2.849 Y28.158 F40
M106 S0
M106 S255
G1 X2.938 Y28.164 F40
M106 S0
M106 S255
G1 X3.027 Y28.169 F40
M106 S0
M106 S255
G1 X3.116 Y28.174 F40
M106 S0
M106 S255
G1 X3.205 Y28.179 F40
M106 S0
M106 S255
G1 X3.294 Y28.183 F40
M106 S0
M106 S255
G1 X3.383 Y28.187 F40
M106 S0
M106 S255
G1 X3.472 Y28.191 F40
M106 S0
M106 S255
G1 X3.561 Y28.195 F40
M106 S0
M106 S255
G1 X3.651 Y28.198 F40
M106 S0
M106 S255
G1 X3.74 Y28.201 F40
M106 S0
M106 S255
G1 X3.576 Y28.273 F40
M106 S0
M106 S255
G1 X3.414 Y28.349 F40
M106 S0
M106 S255
G1 X3.255 Y28.43 F40
M106 S0
M106 S255
G1 X3.1 Y28.516 F40
M106 S0
M106 S255
G1 X2.948 Y28.609 F40
M106 S0
M106 S255
G1 X2.801 Y28.711 F40
M106 S0
M106 S255
G1 X2.66 Y28.821 F40
M106 S0
M106 S255
G1 X2.524 Y28.939 F40
M106 S0
M106 S255
G1 X2.394 Y29.065 F40
M106 S0
M106 S255
G1 X2.271 Y29.197 F40
M106 S0
M106 S255
G1 X2.154 Y29.337 F40
M106 S0
M106 S255
G1 X2.045 Y29.482 F40
M106 S0
M106 S255
G1 X1.943 Y29.633 F40
M106 S0
M106 S255
G1 X1.848 Y29.788 F40
M106 S0
M106 S255
G1 X1.762 Y29.948 F40
M106 S0
M106 S255
G1 X1.685 Y30.111 F40
M106 S0
M106 S255
G1 X1.616 Y30.278 F40
M106 S0
M106 S255
G1 X1.557 Y30.447 F40
M106 S0
M106 S255
G1 X1.506 Y30.618 F40
M106 S0
M106 S255
G1 X1.464 Y30.792 F40
M106 S0
M106 S255
G1 X1.429 Y30.967 F40
M106 S0
M106 S255
G1 X1.401 Y31.143 F40
M106 S0
M106 S255
G1 X1.38 Y31.321 F40
M106 S0
M106 S255
G1 X1.365 Y31.5 F40
M106 S0
M106 S255
G1 X1.355 Y31.679 F40
M106 S0
M106 S255
G1 X1.351 Y31.859 F40
M106 S0
M106 S255
G1 X1.354 Y32.038 F40
M106 S0
M106 S255
G1 X1.367 Y32.216 F40
M106 S0
M106 S255
G1 X1.391 Y32.393 F40
M106 S0
M106 S255
G1 X1.427 Y32.567 F40
M106 S0
M106 S255
G1 X1.478 Y32.739 F40
M106 S0
M106 S255
G1 X1.542 Y32.907 F40
M106 S0
M106 S255
G1 X1.62 Y33.069 F40
M106 S0
M106 S255
G1 X1.711 Y33.225 F40
M106 S0
M106 S255
G1 X1.814 Y33.372 F40
M106 S0
M106 S255
G1 X1.928 Y33.51 F40
M106 S0
M106 S255
G1 X2.054 Y33.638 F40
M106 S0
M106 S255
G1 X2.19 Y33.755 F40
M106 S0
M106 S255
G1 X2.334 Y33.862 F40
M106 S0
M106 S255
G1 X2.486 Y33.958 F40
M106 S0
M106 S255
G1 X2.645 Y34.044 F40
M106 S0
M106 S255
G1 X2.808 Y34.12 F40
M106 S0
M106 S255
G1 X2.976 Y34.185 F40
M106 S0
M106 S255
G1 X3.148 Y34.239 F40
M106 S0
M106 S255
G1 X3.323 Y34.281 F40
M106 S0
M106 S255
G1 X3.5 Y34.311 F40
M106 S0
M106 S255
G1 X3.678 Y34.328 F40
M106 S0
M106 S255
G1 X3.857 Y34.331 F40
M106 S0
M106 S255
G1 X4.036 Y34.321 F40
M106 S0
M106 S255
G1 X4.213 Y34.297 F40
M106 S0
M106 S255
G1 X4.39 Y34.261 F40
M106 S0
M106 S255
G1 X4.563 Y34.213 F40
M106 S0
M106 S255
G1 X4.734 Y34.153 F40
M106 S0
M106 S255
G1 X4.901 Y34.083 F40
M106 S0
M106 S255
G1 X5.064 Y34.003 F40
M106 S0
M106 S255
G1 X5.222 Y33.913 F40
M106 S0
M106 S255
G1 X5.373 Y33.815 F40
M106 S0
M106 S255
G1 X5.519 Y33.708 F40
M106 S0
M106 S255
G1 X5.657 Y33.593 F40
M106 S0
M106 S255
G1 X5.788 Y33.47 F40
M106 S0
M106 S255
G1 X5.911 Y33.34 F40
M106 S0
M106 S255
G1 X6.026 Y33.203 F40
M106 S0
M106 S255
G1 X6.132 Y33.059 F40
M106 S0
M106 S255
G1 X6.229 Y32.91 F40
M106 S0
M106 S255
G1 X6.32 Y32.756 F40
M106 S0
M106 S255
G1 X6.323 Y32.857 F40
M106 S0
M106 S255
G1 X6.327 Y32.957 F40
M106 S0
M106 S255
G1 X6.331 Y33.057 F40
M106 S0
M106 S255
G1 X6.337 Y33.157 F40
M106 S0
M106 S255
G1 X6.344 Y33.257 F40
M106 S0
M106 S255
G1 X6.353 Y33.357 F40
M106 S0
M106 S255
G1 X6.363 Y33.457 F40
M106 S0
M106 S255
G1 X6.376 Y33.556 F40
M106 S0
M106 S255
G1 X6.39 Y33.656 F40
M106 S0
M106 S255
G1 X6.407 Y33.755 F40
M106 S0
M106 S255
G1 X6.426 Y33.854 F40
M106 S0
M106 S255
G1 X6.447 Y33.952 F40
M106 S0
M106 S255
G1 X6.47 Y34.05 F40
M106 S0
M106 S255
G1 X6.495 Y34.147 F40
M106 S0
M106 S255
G1 X6.522 Y34.244 F40
M106 S0
M106 S255
G1 X6.552 Y34.34 F40
M106 S0
M106 S255
G1 X6.583 Y34.436 F40
M106 S0
M106 S255
G1 X6.616 Y34.531 F40
M106 S0
M106 S255
G1 X6.652 Y34.624 F40
M106 S0
M106 S255
G1 X6.689 Y34.717 F40
M106 S0
M106 S255
G1 X6.729 Y34.809 F40
M106 S0
M106 S255
G1 X6.77 Y34.901 F40
M106 S0
M106 S255
G1 X6.812 Y34.992 F40
M106 S0
M106 S255
G1 X6.856 Y35.082 F40
M106 S0
M106 S255
G1 X6.901 Y35.171 F40
M106 S0
M106 S255
G1 X6.947 Y35.261 F40
M106 S0
M106 S255
G1 X6.993 Y35.35 F40
M106 S0
M106 S255
G1 X7.041 Y35.438 F40
M106 S0
M106 S255
G1 X7.088 Y35.527 F40
M106 S0
M106 S255
G1 X7.137 Y35.615 F40
M106 S0
M106 S255
G1 X7.186 Y35.703 F40
M106 S0
M106 S255
G1 X7.237 Y35.79 F40
M106 S0
M106 S255
G1 X7.289 Y35.875 F40
M106 S0
M106 S255
G1 X7.344 Y35.959 F40
M106 S0
M106 S255
G1 X7.402 Y36.04 F40
M106 S0
M106 S255
G1 X7.463 Y36.12 F40
M106 S0
M106 S255
G1 X7.527 Y36.196 F40
M106 S0
M106 S255
G1 X7.594 Y36.272 F40
M106 S0
M106 S255
G1 X7.661 Y36.272 F40
M106 S0
M106 S255
G1 X7.727 Y36.196 F40
M106 S0
M106 S255
G1 X7.792 Y36.12 F40
M106 S0
M106 S255
G1 X7.853 Y36.04 F40
M106 S0
M106 S255
G1 X7.91 Y35.959 F40
M106 S0
M106 S255
G1 X7.965 Y35.875 F40
M106 S0
M106 S255
G1 X8.018 Y35.79 F40
M106 S0
M106 S255
G1 X8.069 Y35.703 F40
M106 S0
M106 S255
G1 X8.118 Y35.615 F40
M106 S0
M106 S255
G1 X8.166 Y35.527 F40
M106 S0
M106 S255
G1 X8.214 Y35.438 F40
M106 S0
M106 S255
G1 X8.261 Y35.35 F40
M106 S0
M106 S255
G1 X8.308 Y35.261 F40
M106 S0
M106 S255
G1 X8.354 Y35.171 F40
M106 S0
M106 S255
G1 X8.399 Y35.082 F40
M106 S0
M106 S255
G1 X8.443 Y34.992 F40
M106 S0
M106 S255
G1 X8.485 Y34.901 F40
M106 S0
M106 S255
G1 X8.526 Y34.809 F40
M106 S0
M106 S255
G1 X8.565 Y34.717 F40
M106 S0
M106 S255
G1 X8.603 Y34.624 F40
M106 S0
M106 S255
G1 X8.638 Y34.531 F40
M106 S0
M106 S255
G1 X8.672 Y34.436 F40
M106 S0
M106 S255
G1 X8.703 Y34.34 F40
M106 S0
M106 S255
G1 X8.732 Y34.244 F40
M106 S0
M106 S255
G1 X8.76 Y34.147 F40
M106 S0
M106 S255
G1 X8.785 Y34.05 F40
M106 S0
M106 S255
G1 X8.808 Y33.952 F40
M106 S0
M106 S255
G1 X8.829 Y33.854 F40
M106 S0
M106 S255
G1 X8.848 Y33.755 F40
M106 S0
M106 S255
G1 X8.864 Y33.656 F40
M106 S0
M106 S255
G1 X8.879 Y33.556 F40
M106 S0
M106 S255
G1 X8.891 Y33.457 F40
M106 S0
M106 S255
G1 X8.902 Y33.357 F40
M106 S0
M106 S255
G1 X8.91 Y33.257 F40
M106 S0
M106 S255
G1 X8.918 Y33.157 F40
M106 S0
M106 S255
G1 X8.923 Y33.057 F40
M106 S0
M106 S255
G1 X8.928 Y32.957 F40
M106 S0
M106 S255
G1 X8.932 Y32.857 F40
M106 S0
M106 S255
G1 X8.935 Y32.756 F40
M106 S0
M106 S255
G1 X9.026 Y32.91 F40
M106 S0
M106 S255
G1 X9.123 Y33.059 F40
M106 S0
M106 S255
G1 X9.229 Y33.203 F40
M106 S0
M106 S255
G1 X9.343 Y33.34 F40
M106 S0
M106 S255
G1 X9.466 Y33.47 F40
M106 S0
M106 S255
G1 X9.597 Y33.593 F40
M106 S0
M106 S255
G1 X9.736 Y33.708 F40
M106 S0
M106 S255
G1 X9.881 Y33.815 F40
M106 S0
M106 S255
G1 X10.033 Y33.913 F40
M106 S0
M106 S255
G1 X10.19 Y34.003 F40
M106 S0
M106 S255
G1 X10.353 Y34.083 F40
M106 S0
M106 S255
G1 X10.52 Y34.153 F40
M106 S0
M106 S255
G1 X10.691 Y34.213 F40
M106 S0
M106 S255
G1 X10.865 Y34.261 F40
M106 S0
M106 S255
G1 X11.041 Y34.297 F40
M106 S0
M106 S255
G1 X11.219 Y34.321 F40
M106 S0
M106 S255
G1 X11.398 Y34.331 F40
M106 S0
M106 S255
G1 X11.577 Y34.328 F40
M106 S0
M106 S255
G1 X11.755 Y34.311 F40
M106 S0
M106 S255
G1 X11.932 Y34.281 F40
M106 S0
M106 S255
G1 X12.106 Y34.239 F40
M106 S0
M106 S255
G1 X12.278 Y34.185 F40
M106 S0
M106 S255
G1 X12.446 Y34.12 F40
M106 S0
M106 S255
G1 X12.61 Y34.044 F40
M106 S0
M106 S255
G1 X12.769 Y33.958 F40
M106 S0
M106 S255
G1 X12.921 Y33.862 F40
M106 S0
M106 S255
G1 X13.065 Y33.755 F40
M106 S0
M106 S255
G1 X13.2 Y33.638 F40
M106 S0
M106 S255
G1 X13.326 Y33.51 F40
M106 S0
M106 S255
G1 X13.441 Y33.372 F40
M106 S0
M106 S255
G1 X13.544 Y33.225 F40
M106 S0
M106 S255
G1 X13.635 Y33.069 F40
M106 S0
M106 S255
G1 X13.712 Y32.907 F40
M106 S0
M106 S255
G1 X13.777 Y32.739 F40
M106 S0
M106 S255
G1 X13.827 Y32.567 F40
M106 S0
M106 S255
G1 X13.864 Y32.393 F40
M106 S0
M106 S255
G1 X13.888 Y32.216 F40
M106 S0
M106 S255
G1 X13.9 Y32.038 F40
M106 S0
M106 S255
G1 X13.904 Y31.859 F40
M106 S0
M106 S255
G1 X13.9 Y31.679 F40
M106 S0
M106 S255
G1 X13.89 Y31.5 F40
M106 S0
M106 S255
G1 X13.875 Y31.321 F40
M106 S0
M106 S255
G1 X13.854 Y31.143 F40
M106 S0
M106 S255
G1 X13.826 Y30.967 F40
M106 S0
M106 S255
G1 X13.791 Y30.792 F40
M106 S0
M106 S255
G1 X13.749 Y30.618 F40
M106 S0
M106 S255
G1 X13.698 Y30.447 F40
M106 S0
M106 S255
G1 X13.639 Y30.278 F40
M106 S0
M106 S255
G1 X13.57 Y30.111 F40
M106 S0
M106 S255
G1 X13.492 Y29.948 F40
M106 S0
M106 S255
G1 X13.406 Y29.788 F40
M106 S0
M106 S255
G1 X13.312 Y29.633 F40
M106 S0
M106 S255
G1 X13.21 Y29.482 F40
M106 S0
M106 S255
G1 X13.101 Y29.337 F40
M106 S0
M106 S255
G1 X12.984 Y29.197 F40
M106 S0
M106 S255
G1 X12.86 Y29.065 F40
M106 S0
M106 S255
G1 X12.731 Y28.939 F40
M106 S0
M106 S255
G1 X12.595 Y28.821 F40
M106 S0
M106 S255
G1 X12.453 Y28.711 F40
M106 S0
M106 S255
G1 X12.306 Y28.609 F40
M106 S0
M106 S255
G1 X12.155 Y28.516 F40
M106 S0
M106 S255
G1 X11.999 Y28.43 F40
M106 S0
M106 S255
G1 X11.84 Y28.349 F40
M106 S0
M106 S255
G1 X11.679 Y28.273 F40
M106 S0
M106 S255
G1 X11.515 Y28.201 F40
M106 S0
M106 S255
G1 X11.604 Y28.198 F40
M106 S0
M106 S255
G1 X11.693 Y28.195 F40
M106 S0
M106 S255
G1 X11.782 Y28.191 F40
M106 S0
M106 S255
G1 X11.871 Y28.187 F40
M106 S0
M106 S255
G1 X11.96 Y28.183 F40
M106 S0
M106 S255
G1 X12.05 Y28.179 F40
M106 S0
M106 S255
G1 X12.139 Y28.174 F40
M106 S0
M106 S255
G1 X12.228 Y28.169 F40
M106 S0
M106 S255
G1 X12.317 Y28.164 F40
M106 S0
M106 S255
G1 X12.406 Y28.158 F40
M106 S0
M106 S255
G1 X12.495 Y28.153 F40
M106 S0
M106 S255
G1 X12.584 Y28.147 F40
M106 S0
M106 S255
G1 X12.673 Y28.141 F40
M106 S0
M106 S255
G1 X12.762 Y28.135 F40
M106 S0
M106 S255
G1 X12.851 Y28.129 F40
M106 S0
M106 S255
G1 X12.94 Y28.123 F40
M106 S0
M106 S255
G1 X13.029 Y28.116 F40
M106 S0
G0 X26.682 Y2.896 F6000
M106 S255
G1 X26.682 Y2.896 F40
M106 S0
M106 S255
G1 X26.687 Y2.896 F40
M106 S0
M106 S255
G1 X26.692 Y2.896 F40
M106 S0
M106 S255
G1 X26.697 Y2.896 F40
M106 S0
M106 S255
G1 X26.702 Y2.896 F40
M106 S0
M106 S255
G1 X26.707 Y2.896 F40
M106 S0
M106 S255
G1 X26.712 Y2.896 F40
M106 S0
M106 S255
G1 X26.717 Y2.896 F40
M106 S0
M106 S255
G1 X26.721 Y2.896 F40
M106 S0
M106 S255
G1 X26.726 Y2.896 F40
M106 S0
M106 S255
G1 X26.731 Y2.897 F40
M106 S0
M106 S255
G1 X26.736 Y2.897 F40
M106 S0
G0 X26.682 Y2.896 F6000
M106 S255
G1 X26.682 Y2.896 F40
M106 S0
M106 S255
G1 X26.677 Y2.896 F40
M106 S0
M106 S255
G1 X26.672 Y2.896 F40
M106 S0
M106 S255
G1 X26.668 Y2.896 F40
M106 S0
M106 S255
G1 X26.663 Y2.896 F40
M106 S0
M106 S255
G1 X26.658 Y2.896 F40
M106 S0
M106 S255
G1 X26.653 Y2.896 F40
M106 S0
M106 S255
G1 X26.648 Y2.896 F40
M106 S0
M106 S255
G1 X26.643 Y2.896 F40
M106 S0
M106 S255
G1 X26.638 Y2.896 F40
M106 S0
M106 S255
G1 X26.633 Y2.897 F40
M106 S0
M106 S255
G1 X26.628 Y2.897 F40
M106 S0
G0 X26.736 Y2.897 F6000
M106 S255
G1 X26.736 Y2.897 F40
M106 S0
M106 S255
G1 X26.972 Y2.893 F40
M106 S0
M106 S255
G1 X27.208 Y2.89 F40
M106 S0
M106 S255
G1 X27.443 Y2.89 F40
M106 S0
M106 S255
G1 X27.679 Y2.891 F40
M106 S0
M106 S255
G1 X27.93 Y2.897 F40
M106 S0
M106 S255
G1 X28.149 Y2.905 F40
M106 S0
M106 S255
G1 X28.385 Y2.918 F40
M106 S0
M106 S255
G1 X28.619 Y2.935 F40
M106 S0
M106 S255
G1 X28.854 Y2.954 F40
M106 S0
M106 S255
G1 X29.089 Y2.975 F40
M106 S0
M106 S255
G1 X29.324 Y2.998 F40
M106 S0
M106 S255
G1 X29.558 Y3.022 F40
M106 S0
M106 S255
G1 X29.793 Y3.047 F40
M106 S0
M106 S255
G1 X30.078 Y3.077 F40
M106 S0
M106 S255
G1 X30.262 Y3.096 F40
M106 S0
M106 S255
G1 X30.496 Y3.119 F40
M106 S0
M106 S255
G1 X30.731 Y3.143 F40
M106 S0
M106 S255
G1 X30.965 Y3.166 F40
M106 S0
M106 S255
G1 X31.2 Y3.188 F40
M106 S0
M106 S255
G1 X31.434 Y3.211 F40
M106 S0
M106 S255
G1 X31.669 Y3.233 F40
M106 S0
M106 S255
G1 X31.903 Y3.255 F40
M106 S0
M106 S255
G1 X32.138 Y3.277 F40
M106 S0
M106 S255
G1 X32.138 Y8.085 F40
M106 S0
M106 S255
G1 X32.857 Y12.36 F40
M106 S0
M106 S255
G1 X32.929 Y12.376 F40
M106 S0
M106 S255
G1 X33.002 Y12.392 F40
M106 S0
M106 S255
G1 X33.075 Y12.409 F40
M106 S0
M106 S255
G1 X33.146 Y12.428 F40
M106 S0
M106 S255
G1 X33.218 Y12.448 F40
M106 S0
M106 S255
G1 X33.288 Y12.471 F40
M106 S0
M106 S255
G1 X33.358 Y12.496 F40
M106 S0
M106 S255
G1 X33.427 Y12.525 F40
M106 S0
M106 S255
G1 X33.494 Y12.557 F40
M106 S0
M106 S255
G1 X33.56 Y12.593 F40
M106 S0
M106 S255
G1 X33.624 Y12.634 F40
M106 S0
M106 S255
G1 X33.686 Y12.678 F40
M106 S0
M106 S255
G1 X33.744 Y12.726 F40
M106 S0
M106 S255
G1 X33.797 Y12.778 F40
M106 S0
M106 S255
G1 X33.847 Y12.834 F40
M106 S0
M106 S255
G1 X33.89 Y12.894 F40
M106 S0
M106 S255
G1 X33.928 Y12.957 F40
M106 S0
M106 S255
G1 X33.96 Y13.024 F40
M106 S0
M106 S255
G1 X33.986 Y13.093 F40
M106 S0
M106 S255
G1 X34.009 Y13.164 F40
M106 S0
M106 S255
G1 X34.028 Y13.237 F40
M106 S0
M106 S255
G1 X34.043 Y13.312 F40
M106 S0
M106 S255
G1 X34.056 Y13.387 F40
M106 S0
M106 S255
G1 X34.065 Y13.462 F40
M106 S0
M106 S255
G1 X34.07 Y13.537 F40
M106 S0
M106 S255
G1 X34.07 Y13.612 F40
M106 S0
M106 S255
G1 X34.066 Y13.687 F40
M106 S0
M106 S255
G1 X34.056 Y13.76 F40
M106 S0
M106 S255
G1 X34.04 Y13.832 F40
M106 S0
M106 S255
G1 X34.018 Y13.902 F40
M106 S0
M106 S255
G1 X33.99 Y13.97 F40
M106 S0
M106 S255
G1 X33.956 Y14.036 F40
M106 S0
M106 S255
G1 X33.918 Y14.101 F40
M106 S0
M106 S255
G1 X33.875 Y14.163 F40
M106 S0
M106 S255
G1 X33.829 Y14.222 F40
M106 S0
M106 S255
G1 X33.78 Y14.28 F40
M106 S0
M106 S255
G1 X33.729 Y14.335 F40
M106 S0
M106 S255
G1 X33.675 Y14.388 F40
M106 S0
M106 S255
G1 X33.619 Y14.437 F40
M106 S0
M106 S255
G1 X33.56 Y14.482 F40
M106 S0
M106 S255
G1 X33.499 Y14.524 F40
M106 S0
M106 S255
G1 X33.435 Y14.561 F40
M106 S0
M106 S255
G1 X33.369 Y14.593 F40
M106 S0
M106 S255
G1 X33.3 Y14.621 F40
M106 S0
M106 S255
G1 X33.229 Y14.644 F40
M106 S0
M106 S255
G1 X33.157 Y14.662 F40
M106 S0
M106 S255
G1 X33.083 Y14.676 F40
M106 S0
M106 S255
G1 X33.008 Y14.685 F40
M106 S0
M106 S255
G1 X32.933 Y14.69 F40
M106 S0
M106 S255
G1 X32.857 Y14.69 F40
M106 S0
M106 S255
G1 X32.781 Y14.686 F40
M106 S0
M106 S255
G1 X32.706 Y14.678 F40
M106 S0
M106 S255
G1 X32.631 Y14.665 F40
M106 S0
M106 S255
G1 X32.558 Y14.647 F40
M106 S0
M106 S255
G1 X32.486 Y14.625 F40
M106 S0
M106 S255
G1 X32.415 Y14.599 F40
M106 S0
M106 S255
G1 X32.347 Y14.567 F40
M106 S0
M106 S255
G1 X32.282 Y14.531 F40
M106 S0
M106 S255
G1 X32.219 Y14.491 F40
M106 S0
M106 S255
G1 X32.16 Y14.445 F40
M106 S0
M106 S255
G1 X32.104 Y14.395 F40
M106 S0
M106 S255
G1 X32.052 Y14.341 F40
M106 S0
M106 S255
G1 X32.003 Y14.284 F40
M106 S0
M106 S255
G1 X31.958 Y14.223 F40
M106 S0
M106 S255
G1 X31.918 Y14.16 F40
M106 S0
M106 S255
G1 X31.882 Y14.095 F40
M106 S0
M106 S255
G1 X31.85 Y14.027 F40
M106 S0
M106 S255
G1 X31.823 Y13.959 F40
M106 S0
M106 S255
G1 X31.8 Y13.888 F40
M106 S0
M106 S255
G1 X31.781 Y13.817 F40
M106 S0
M106 S255
G1 X31.766 Y13.744 F40
M106 S0
M106 S255
G1 X31.754 Y13.671 F40
M106 S0
M106 S255
G1 X31.746 Y13.596 F40
M106 S0
M106 S255
G1 X31.742 Y13.522 F40
M106 S0
M106 S255
G1 X31.741 Y13.447 F40
M106 S0
M106 S255
G1 X31.745 Y13.372 F40
M106 S0
M106 S255
G1 X31.754 Y13.299 F40
M106 S0
M106 S255
G1 X31.768 Y13.227 F40
M106 S0
M106 S255
G1 X31.789 Y13.157 F40
M106 S0
M106 S255
G1 X31.815 Y13.089 F40
M106 S0
M106 S255
G1 X31.846 Y13.023 F40
M106 S0
M106 S255
G1 X31.881 Y12.958 F40
M106 S0
M106 S255
G1 X31.92 Y12.897 F40
M106 S0
M106 S255
G1 X31.964 Y12.837 F40
M106 S0
M106 S255
G1 X32.011 Y12.781 F40
M106 S0
M106 S255
G1 X32.061 Y12.727 F40
M106 S0
M106 S255
G1 X32.115 Y12.676 F40
M106 S0
M106 S255
G1 X32.172 Y12.629 F40
M106 S0
M106 S255
G1 X32.231 Y12.584 F40
M106 S0
M106 S255
G1 X30.506 Y9.759 F40
M106 S0
M106 S255
G1 X30.146 Y13.619 F40
M106 S0
M106 S255
G1 X30.23 Y13.66 F40
M106 S0
M106 S255
G1 X30.313 Y13.703 F40
M106 S0
M106 S255
G1 X30.395 Y13.747 F40
M106 S0
M106 S255
G1 X30.475 Y13.793 F40
M106 S0
M106 S255
G1 X30.554 Y13.843 F40
M106 S0
M106 S255
G1 X30.663 Y13.922 F40
M106 S0
M106 S255
G1 X30.702 Y13.955 F40
M106 S0
M106 S255
G1 X30.771 Y14.019 F40
M106 S0
M106 S255
G1 X30.835 Y14.088 F40
M106 S0
M106 S255
G1 X30.894 Y14.162 F40
M106 S0
M106 S255
G1 X30.946 Y14.24 F40
M106 S0
M106 S255
G1 X30.991 Y14.322 F40
M106 S0
M106 S255
G1 X31.019 Y14.386 F40
M106 S0
M106 S255
G1 X31.056 Y14.498 F40
M106 S0
M106 S255
G1 X31.076 Y14.59 F40
M106 S0
M106 S255
G1 X31.088 Y14.684 F40
M106 S0
M106 S255
G1 X31.092 Y14.779 F40
M106 S0
M106 S255
G1 X31.088 Y14.874 F40
M106 S0
M106 S255
G1 X31.076 Y14.969 F40
M106 S0
M106 S255
G1 X31.056 Y15.063 F40
M106 S0
M106 S255
G1 X31.019 Y15.181 F40
M106 S0
M106 S255
G1 X30.995 Y15.242 F40
M106 S0
M106 S255
G1 X30.954 Y15.327 F40
M106 S0
M106 S255
G1 X30.906 Y15.408 F40
M106 S0
M106 S255
G1 X30.852 Y15.485 F40
M106 S0
M106 S255
G1 X30.793 Y15.558 F40
M106 S0
M106 S255
G1 X30.728 Y15.626 F40
M106 S0
M106 S255
G1 X30.637 Y15.707 F40
M106 S0
M106 S255
G1 X30.584 Y15.746 F40
M106 S0
M106 S255
G1 X30.506 Y15.798 F40
M106 S0
M106 S255
G1 X30.424 Y15.843 F40
M106 S0
M106 S255
G1 X30.339 Y15.882 F40
M106 S0
M106 S255
G1 X30.252 Y15.915 F40
M106 S0
M106 S255
G1 X30.178 Y15.936 F40
M106 S0
M106 S255
G1 X30.07 Y15.958 F40
M106 S0
M106 S255
G1 X29.977 Y15.968 F40
M106 S0
M106 S255
G1 X29.883 Y15.971 F40
M106 S0
M106 S255
G1 X29.789 Y15.966 F40
M106 S0
M106 S255
G1 X29.696 Y15.954 F40
M106 S0
M106 S255
G1 X29.607 Y15.936 F40
M106 S0
M106 S255
G1 X29.514 Y15.908 F40
M106 S0
M106 S255
G1 X29.425 Y15.874 F40
M106 S0
M106 S255
G1 X29.34 Y15.833 F40
M106 S0
M106 S255
G1 X29.259 Y15.785 F40
M106 S0
M106 S255
G1 X29.182 Y15.731 F40
M106 S0
M106 S255
G1 X29.11 Y15.672 F40
M106 S0
M106 S255
G1 X29.046 Y15.61 F40
M106 S0
M106 S255
G1 X28.983 Y15.535 F40
M106 S0
M106 S255
G1 X28.928 Y15.46 F40
M106 S0
M106 S255
G1 X28.88 Y15.38 F40
M106 S0
M106 S255
G1 X28.838 Y15.296 F40
M106 S0
M106 S255
G1 X28.801 Y15.21 F40
M106 S0
M106 S255
G1 X28.77 Y15.12 F40
M106 S0
M106 S255
G1 X28.756 Y15.07 F40
M106 S0
M106 S255
G1 X28.726 Y14.934 F40
M106 S0
M106 S255
G1 X28.713 Y14.84 F40
M106 S0
M106 S255
G1 X28.707 Y14.745 F40
M106 S0
M106 S255
G1 X28.709 Y14.651 F40
M106 S0
M106 S255
G1 X28.72 Y14.558 F40
M106 S0
M106 S255
G1 X28.739 Y14.468 F40
M106 S0
M106 S255
G1 X28.756 Y14.413 F40
M106 S0
M106 S255
G1 X28.806 Y14.295 F40
M106 S0
M106 S255
G1 X28.853 Y14.214 F40
M106 S0
M106 S255
G1 X28.908 Y14.137 F40
M106 S0
M106 S255
G1 X28.968 Y14.065 F40
M106 S0
M106 S255
G1 X29.046 Y13.985 F40
M106 S0
M106 S255
G1 X29.103 Y13.934 F40
M106 S0
M106 S255
G1 X29.175 Y13.875 F40
M106 S0
M106 S255
G1 X29.25 Y13.82 F40
M106 S0
M106 S255
G1 X29.326 Y13.767 F40
M106 S0
M106 S255
G1 X29.403 Y13.715 F40
M106 S0
M106 S255
G1 X28.107 Y9.975 F40
M106 S0
M106 S255
G1 X27.112 Y14.278 F40
M106 S0
M106 S255
G1 X27.183 Y14.316 F40
M106 S0
M106 S255
G1 X27.254 Y14.355 F40
M106 S0
M106 S255
G1 X27.323 Y14.395 F40
M106 S0
M106 S255
G1 X27.391 Y14.438 F40
M106 S0
M106 S255
G1 X27.456 Y14.483 F40
M106 S0
M106 S255
G1 X27.518 Y14.533 F40
M106 S0
M106 S255
G1 X27.576 Y14.587 F40
M106 S0
M106 S255
G1 X27.63 Y14.646 F40
M106 S0
M106 S255
G1 X27.679 Y14.709 F40
M106 S0
M106 S255
G1 X27.724 Y14.776 F40
M106 S0
M106 S255
G1 X27.764 Y14.846 F40
M106 S0
M106 S255
G1 X27.798 Y14.92 F40
M106 S0
M106 S255
G1 X27.827 Y14.995 F40
M106 S0
M106 S255
G1 X27.85 Y15.073 F40
M106 S0
M106 S255
G1 X27.868 Y15.152 F40
M106 S0
M106 S255
G1 X27.88 Y15.232 F40
M106 S0
M106 S255
G1 X27.886 Y15.313 F40
M106 S0
M106 S255
G1 X27.887 Y15.394 F40
M106 S0
M106 S255
G1 X27.882 Y15.475 F40
M106 S0
M106 S255
G1 X27.872 Y15.556 F40
M106 S0
M106 S255
G1 X27.856 Y15.635 F40
M106 S0
M106 S255
G1 X27.835 Y15.713 F40
M106 S0
M106 S255
G1 X27.809 Y15.789 F40
M106 S0
M106 S255
G1 X27.778 Y15.863 F40
M106 S0
M106 S255
G1 X27.742 Y15.934 F40
M106 S0
M106 S255
G1 X27.701 Y16.003 F40
M106 S0
M106 S255
G1 X27.655 Y16.07 F40
M106 S0
M106 S255
G1 X27.605 Y16.133 F40
M106 S0
M106 S255
G1 X27.551 Y16.193 F40
M106 S0
M106 S255
G1 X27.492 Y16.249 F40
M106 S0
M106 S255
G1 X27.43 Y16.302 F40
M106 S0
M106 S255
G1 X27.364 Y16.351 F40
M106 S0
M106 S255
G1 X27.295 Y16.394 F40
M106 S0
M106 S255
G1 X27.224 Y16.433 F40
M106 S0
M106 S255
G1 X27.15 Y16.466 F40
M106 S0
M106 S255
G1 X27.075 Y16.494 F40
M106 S0
M106 S255
G1 X26.998 Y16.515 F40
M106 S0
M106 S255
G1 X26.92 Y16.529 F40
M106 S0
M106 S255
G1 X26.842 Y16.537 F40
M106 S0
M106 S255
G1 X26.762 Y16.54 F40
M106 S0
M106 S255
G1 X26.682 Y16.538 F40
M106 S0
M106 S255
G1 X26.602 Y16.54 F40
M106 S0
M106 S255
G1 X26.523 Y16.537 F40
M106 S0
M106 S255
G1 X26.444 Y16.529 F40
M106 S0
M106 S255
G1 X26.366 Y16.515 F40
M106 S0
M106 S255
G1 X26.29 Y16.494 F40
M106 S0
M106 S255
G1 X26.214 Y16.466 F40
M106 S0
M106 S255
G1 X26.141 Y16.433 F40
M106 S0
M106 S255
G1 X26.069 Y16.394 F40
M106 S0
M106 S255
G1 X26.0 Y16.351 F40
M106 S0
M106 S255
G1 X25.935 Y16.302 F40
M106 S0
M106 S255
G1 X25.872 Y16.249 F40
M106 S0
M106 S255
G1 X25.814 Y16.193 F40
M106 S0
M106 S255
G1 X25.759 Y16.133 F40
M106 S0
M106 S255
G1 X25.709 Y16.07 F40
M106 S0
M106 S255
G1 X25.664 Y16.003 F40
M106 S0
M106 S255
G1 X25.623 Y15.934 F40
M106 S0
M106 S255
G1 X25.587 Y15.863 F40
M106 S0
M106 S255
G1 X25.555 Y15.789 F40
M106 S0
M106 S255
G1 X25.529 Y15.713 F40
M106 S0
M106 S255
G1 X25.508 Y15.635 F40
M106 S0
M106 S255
G1 X25.493 Y15.556 F40
M106 S0
M106 S255
G1 X25.483 Y15.475 F40
M106 S0
M106 S255
G1 X25.478 Y15.394 F40
M106 S0
M106 S255
G1 X25.478 Y15.313 F40
M106 S0
M106 S255
G1 X25.485 Y15.232 F40
M106 S0
M106 S255
G1 X25.496 Y15.152 F40
M106 S0
M106 S255
G1 X25.514 Y15.073 F40
M106 S0
M106 S255
G1 X25.537 Y14.995 F40
M106 S0
M106 S255
G1 X25.566 Y14.92 F40
M106 S0
M106 S255
G1 X25.601 Y14.846 F40
M106 S0
M106 S255
G1 X25.64 Y14.776 F40
M106 S0
M106 S255
G1 X25.685 Y14.709 F40
M106 S0
M106 S255
G1 X25.735 Y14.646 F40
M106 S0
M106 S255
G1 X25.788 Y14.587 F40
M106 S0
M106 S255
G1 X25.847 Y14.533 F40
M106 S0
M106 S255
G1 X25.909 Y14.483 F40
M106 S0
M106 S255
G1 X25.974 Y14.438 F40
M106 S0
M106 S255
G1 X26.041 Y14.395 F40
M106 S0
M106 S255
G1 X26.111 Y14.355 F40
M106 S0
M106 S255
G1 X26.181 Y14.316 F40
M106 S0
M106 S255
G1 X26.253 Y14.278 F40
M106 S0
M106 S255
G1 X25.257 Y9.975 F40
M106 S0
M106 S255
G1 X23.962 Y13.715 F40
M106 S0
M106 S255
G1 X24.039 Y13.767 F40
M106 S0
M106 S255
G1 X24.115 Y13.82 F40
M106 S0
M106 S255
G1 X24.189 Y13.875 F40
M106 S0
M106 S255
G1 X24.262 Y13.934 F40
M106 S0
M106 S255
G1 X24.318 Y13.985 F40
M106 S0
M106 S255
G1 X24.396 Y14.065 F40
M106 S0
M106 S255
G1 X24.457 Y14.137 F40
M106 S0
M106 S255
G1 X24.511 Y14.214 F40
M106 S0
M106 S255
G1 X24.558 Y14.295 F40
M106 S0
M106 S255
G1 X24.609 Y14.413 F40
M106 S0
M106 S255
G1 X24.626 Y14.468 F40
M106 S0
M106 S255
G1 X24.645 Y14.558 F40
M106 S0
M106 S255
G1 X24.655 Y14.651 F40
M106 S0
M106 S255
G1 X24.657 Y14.745 F40
M106 S0
M106 S255
G1 X24.652 Y14.84 F40
M106 S0
M106 S255
G1 X24.639 Y14.934 F40
M106 S0
M106 S255
G1 X24.609 Y15.07 F40
M106 S0
M106 S255
G1 X24.594 Y15.12 F40
M106 S0
M106 S255
G1 X24.563 Y15.21 F40
M106 S0
M106 S255
G1 X24.527 Y15.296 F40
M106 S0
M106 S255
G1 X24.484 Y15.38 F40
M106 S0
M106 S255
G1 X24.436 Y15.46 F40
M106 S0
M106 S255
G1 X24.382 Y15.535 F40
M106 S0
M106 S255
G1 X24.318 Y15.61 F40
M106 S0
M106 S255
G1 X24.255 Y15.672 F40
M106 S0
M106 S255
G1 X24.183 Y15.731 F40
M106 S0
M106 S255
G1 X24.106 Y15.785 F40
M106 S0
M106 S255
G1 X24.024 Y15.833 F40
M106 S0
M106 S255
G1 X23.939 Y15.874 F40
M106 S0
M106 S255
G1 X23.851 Y15.908 F40
M106 S0
M106 S255
G1 X23.757 Y15.936 F40
M106 S0
M106 S255
G1 X23.668 Y15.954 F40
M106 S0
M106 S255
G1 X23.575 Y15.966 F40
M106 S0
M106 S255
G1 X23.481 Y15.971 F40
M106 S0
M106 S255
G1 X23.388 Y15.968 F40
M106 S0
M106 S255
G1 X23.295 Y15.958 F40
M106 S0
M106 S255
G1 X23.186 Y15.936 F40
M106 S0
M106 S255
G1 X23.113 Y15.915 F40
M106 S0
M106 S255
G1 X23.025 Y15.882 F40
M106 S0
M106 S255
G1 X22.94 Y15.843 F40
M106 S0
M106 S255
G1 X22.858 Y15.798 F40
M106 S0
M106 S255
G1 X22.78 Y15.746 F40
M106 S0
M106 S255
G1 X22.728 Y15.707 F40
M106 S0
M106 S255
G1 X22.636 Y15.626 F40
M106 S0
M106 S255
G1 X22.572 Y15.558 F40
M106 S0
M106 S255
G1 X22.512 Y15.485 F40
M106 S0
M106 S255
G1 X22.458 Y15.408 F40
M106 S0
M106 S255
G1 X22.411 Y15.327 F40
M106 S0
M106 S255
G1 X22.37 Y15.242 F40
M106 S0
M106 S255
G1 X22.345 Y15.181 F40
M106 S0
M106 S255
G1 X22.309 Y15.063 F40
M106 S0
M106 S255
G1 X22.289 Y14.969 F40
M106 S0
M106 S255
G1 X22.277 Y14.874 F40
M106 S0
M106 S255
G1 X22.273 Y14.779 F40
M106 S0
M106 S255
G1 X22.276 Y14.684 F40
M106 S0
M106 S255
G1 X22.288 Y14.59 F40
M106 S0
M106 S255
G1 X22.308 Y14.498 F40
M106 S0
M106 S255
G1 X22.345 Y14.386 F40
M106 S0
M106 S255
G1 X22.373 Y14.322 F40
M106 S0
M106 S255
G1 X22.418 Y14.24 F40
M106 S0
M106 S255
G1 X22.471 Y14.162 F40
M106 S0
M106 S255
G1 X22.529 Y14.088 F40
M106 S0
M106 S255
G1 X22.593 Y14.019 F40
M106 S0
M106 S255
G1 X22.662 Y13.955 F40
M106 S0
M106 S255
G1 X22.702 Y13.922 F40
M106 S0
M106 S255
G1 X22.811 Y13.843 F40
M106 S0
M106 S255
G1 X22.889 Y13.793 F40
M106 S0
M106 S255
G1 X22.97 Y13.747 F40
M106 S0
M106 S255
G1 X23.052 Y13.703 F40
M106 S0
M106 S255
G1 X23.135 Y13.66 F40
M106 S0
M106 S255
G1 X23.218 Y13.619 F40
M106 S0
M106 S255
G1 X22.859 Y9.759 F40
M106 S0
M106 S255
G1 X21.133 Y12.584 F40
M106 S0
M106 S255
G1 X21.192 Y12.629 F40
M106 S0
M106 S255
G1 X21.249 Y12.676 F40
M106 S0
M106 S255
G1 X21.303 Y12.727 F40
M106 S0
M106 S255
G1 X21.354 Y12.781 F40
M106 S0
M106 S255
G1 X21.401 Y12.837 F40
M106 S0
M106 S255
G1 X21.444 Y12.897 F40
M106 S0
M106 S255
G1 X21.484 Y12.958 F40
M106 S0
M106 S255
G1 X21.519 Y13.023 F40
M106 S0
M106 S255
G1 X21.55 Y13.089 F40
M106 S0
M106 S255
G1 X21.576 Y13.157 F40
M106 S0
M106 S255
G1 X21.596 Y13.227 F40
M106 S0
M106 S255
G1 X21.611 Y13.299 F40
M106 S0
M106 S255
G1 X21.62 Y13.372 F40
M106 S0
M106 S255
G1 X21.623 Y13.447 F40
M106 S0
M106 S255
G1 X21.623 Y13.522 F40
M106 S0
M106 S255
G1 X21.618 Y13.596 F40
M106 S0
M106 S255
G1 X21.61 Y13.671 F40
M106 S0
M106 S255
G1 X21.599 Y13.744 F40
M106 S0
M106 S255
G1 X21.584 Y13.817 F40
M106 S0
M106 S255
G1 X21.565 Y13.888 F40
M106 S0
M106 S255
G1 X21.542 Y13.959 F40
M106 S0
M106 S255
G1 X21.515 Y14.027 F40
M106 S0
M106 S255
G1 X21.483 Y14.095 F40
M106 S0
M106 S255
G1 X21.447 Y14.16 F40
M106 S0
M106 S255
G1 X21.406 Y14.223 F40
M106 S0
M106 S255
G1 X21.361 Y14.284 F40
M106 S0
M106 S255
G1 X21.313 Y14.341 F40
M106 S0
M106 S255
G1 X21.26 Y14.395 F40
M106 S0
M106 S255
G1 X21.205 Y14.445 F40
M106 S0
M106 S255
G1 X21.145 Y14.491 F40
M106 S0
M106 S255
G1 X21.083 Y14.531 F40
M106 S0
M106 S255
G1 X21.017 Y14.567 F40
M106 S0
M106 S255
G1 X20.949 Y14.599 F40
M106 S0
M106 S255
G1 X20.879 Y14.625 F40
M106 S0
M106 S255
G1 X20.807 Y14.647 F40
M106 S0
M106 S255
G1 X20.733 Y14.665 F40
M106 S0
M106 S255
G1 X20.659 Y14.678 F40
M106 S0
M106 S255
G1 X20.583 Y14.686 F40
M106 S0
M106 S255
G1 X20.508 Y14.69 F40
M106 S0
M106 S255
G1 X20.432 Y14.69 F40
M106 S0
M106 S255
G1 X20.356 Y14.685 F40
M106 S0
M106 S255
G1 X20.282 Y14.676 F40
M106 S0
M106 S255
G1 X20.208 Y14.662 F40
M106 S0
M106 S255
G1 X20.135 Y14.644 F40
M106 S0
M106 S255
G1 X20.064 Y14.621 F40
M106 S0
M106 S255
G1 X19.996 Y14.593 F40
M106 S0
M106 S255
G1 X19.929 Y14.561 F40
M106 S0
M106 S255
G1 X19.865 Y14.524 F40
M106 S0
M106 S255
G1 X19.804 Y14.482 F40
M106 S0
M106 S255
G1 X19.745 Y14.437 F40
M106 S0
M106 S255
G1 X19.689 Y14.388 F40
M106 S0
M106 S255
G1 X19.635 Y14.335 F40
M106 S0
M106 S255
G1 X19.584 Y14.28 F40
M106 S0
M106 S255
G1 X19.535 Y14.222 F40
M106 S0
M106 S255
G1 X19.489 Y14.163 F40
M106 S0
M106 S255
G1 X19.446 Y14.101 F40
M106 S0
M106 S255
G1 X19.408 Y14.036 F40
M106 S0
M106 S255
G1 X19.374 Y13.97 F40
M106 S0
M106 S255
G1 X19.346 Y13.902 F40
M106 S0
M106 S255
G1 X19.324 Y13.832 F40
M106 S0
M106 S255
G1 X19.308 Y13.76 F40
M106 S0
M106 S255
G1 X19.299 Y13.687 F40
M106 S0
M106 S255
G1 X19.294 Y13.612 F40
M106 S0
M106 S255
G1 X19.295 Y13.537 F40
M106 S0
M106 S255
G1 X19.299 Y13.462 F40
M106 S0
M106 S255
G1 X19.308 Y13.387 F40
M106 S0
M106 S255
G1 X19.321 Y13.312 F40
M106 S0
M106 S255
G1 X19.337 Y13.237 F40
M106 S0
M106 S255
G1 X19.356 Y13.164 F40
M106 S0
M106 S255
G1 X19.378 Y13.093 F40
M106 S0
M106 S255
G1 X19.405 Y13.024 F40
M106 S0
M106 S255
G1 X19.437 Y12.957 F40
M106 S0
M106 S255
G1 X19.474 Y12.894 F40
M106 S0
M106 S255
G1 X19.518 Y12.834 F40
M106 S0
M106 S255
G1 X19.567 Y12.778 F40
M106 S0
M106 S255
G1 X19.621 Y12.726 F40
M106 S0
M106 S255
G1 X19.679 Y12.678 F40
M106 S0
M106 S255
G1 X19.74 Y12.634 F40
M106 S0
M106 S255
G1 X19.804 Y12.593 F40
M106 S0
M106 S255
G1 X19.87 Y12.557 F40
M106 S0
M106 S255
G1 X19.938 Y12.525 F40
M106 S0
M106 S255
G1 X20.006 Y12.496 F40
M106 S0
M106 S255
G1 X20.076 Y12.471 F40
M106 S0
M106 S255
G1 X20.147 Y12.448 F40
M106 S0
M106 S255
G1 X20.218 Y12.428 F40
M106 S0
M106 S255
G1 X20.29 Y12.409 F40
M106 S0
M106 S255
G1 X20.362 Y12.392 F40
M106 S0
M106 S255
G1 X20.435 Y12.376 F40
M106 S0
M106 S255
G1 X20.508 Y12.36 F40
M106 S0
M106 S255
G1 X21.227 Y8.085 F40
M106 S0
M106 S255
G1 X21.227 Y3.277 F40
M106 S0
M106 S255
G1 X21.461 Y3.255 F40
M106 S0
M106 S255
G1 X21.696 Y3.233 F40
M106 S0
M106 S255
G1 X21.93 Y3.211 F40
M106 S0
M106 S255
G1 X22.165 Y3.188 F40
M106 S0
M106 S255
G1 X22.399 Y3.166 F40
M106 S0
M106 S255
G1 X22.634 Y3.143 F40
M106 S0
M106 S255
G1 X22.868 Y3.119 F40
M106 S0
M106 S255
G1 X23.103 Y3.096 F40
M106 S0
M106 S255
G1 X23.287 Y3.077 F40
M106 S0
M106 S255
G1 X23.572 Y3.047 F40
M106 S0
M106 S255
G1 X23.806 Y3.022 F40
M106 S0
M106 S255
G1 X24.041 Y2.998 F40
M106 S0
M106 S255
G1 X24.275 Y2.975 F40
M106 S0
M106 S255
G1 X24.51 Y2.954 F40
M106 S0
M106 S255
G1 X24.745 Y2.935 F40
M106 S0
M106 S255
G1 X24.98 Y2.918 F40
M106 S0
M106 S255
G1 X25.215 Y2.905 F40
M106 S0
M106 S255
G1 X25.435 Y2.897 F40
M106 S0
M106 S255
G1 X25.686 Y2.891 F40
M106 S0
M106 S255
G1 X25.921 Y2.89 F40
M106 S0
M106 S255
G1 X26.157 Y2.89 F40
M106 S0
M106 S255
G1 X26.393 Y2.893 F40
M106 S0
M106 S255
G1 X26.628 Y2.897 F40
M106 S0
G0 X44.059 Y5.577 F6000
M106 S255
G1 X44.059 Y5.577 F40
M106 S0
M106 S255
G1 X44.154 Y5.575 F40
M106 S0
M106 S255
G1 X44.25 Y5.571 F40
M106 S0
M106 S255
G1 X44.345 Y5.564 F40
M106 S0
M106 S255
G1 X44.44 Y5.552 F40
M106 S0
M106 S255
G1 X44.535 Y5.537 F40
M106 S0
M106 S255
G1 X44.629 Y5.518 F40
M106 S0
M106 S255
G1 X44.722 Y5.494 F40
M106 S0
M106 S255
G1 X44.813 Y5.465 F40
M106 S0
M106 S255
G1 X44.903 Y5.431 F40
M106 S0
M106 S255
G1 X44.99 Y5.391 F40
M106 S0
M106 S255
G1 X45.074 Y5.346 F40
M106 S0
M106 S255
G1 X45.156 Y5.295 F40
M106 S0
M106 S255
G1 X45.234 Y5.239 F40
M106 S0
M106 S255
G1 X45.308 Y5.178 F40
M106 S0
M106 S255
G1 X45.378 Y5.112 F40
M106 S0
M106 S255
G1 X45.444 Y5.041 F40
M106 S0
M106 S255
G1 X45.504 Y4.967 F40
M106 S0
M106 S255
G1 X45.559 Y4.888 F40
M106 S0
M106 S255
G1 X45.609 Y4.806 F40
M106 S0
M106 S255
G1 X45.654 Y4.721 F40
M106 S0
M106 S255
G1 X45.693 Y4.633 F40
M106 S0
M106 S255
G1 X45.727 Y4.543 F40
M106 S0
M106 S255
G1 X45.757 Y4.451 F40
M106 S0
M106 S255
G1 X45.781 Y4.358 F40
M106 S0
M106 S255
G1 X45.801 Y4.264 F40
M106 S0
M106 S255
G1 X45.817 Y4.169 F40
M106 S0
M106 S255
G1 X45.828 Y4.074 F40
M106 S0
M106 S255
G1 X45.835 Y3.979 F40
M106 S0
M106 S255
G1 X45.839 Y3.884 F40
M106 S0
M106 S255
G1 X45.84 Y3.789 F40
M106 S0
M106 S255
G1 X45.838 Y3.694 F40
M106 S0
M106 S255
G1 X45.834 Y3.598 F40
M106 S0
M106 S255
G1 X45.829 Y3.503 F40
M106 S0
M106 S255
G1 X45.823 Y3.407 F40
M106 S0
M106 S255
G1 X45.817 Y3.312 F40
M106 S0
M106 S255
G1 X41.206 Y3.312 F40
M106 S0
M106 S255
G1 X36.594 Y3.312 F40
M106 S0
M106 S255
G1 X36.588 Y3.407 F40
M106 S0
M106 S255
G1 X36.582 Y3.503 F40
M106 S0
M106 S255
G1 X36.577 Y3.598 F40
M106 S0
M106 S255
G1 X36.573 Y3.694 F40
M106 S0
M106 S255
G1 X36.571 Y3.789 F40
M106 S0
M106 S255
G1 X36.572 Y3.884 F40
M106 S0
M106 S255
G1 X36.576 Y3.979 F40
M106 S0
M106 S255
G1 X36.583 Y4.074 F40
M106 S0
M106 S255
G1 X36.594 Y4.169 F40
M106 S0
M106 S255
G1 X36.61 Y4.264 F40
M106 S0
M106 S255
G1 X36.63 Y4.358 F40
M106 S0
M106 S255
G1 X36.654 Y4.451 F40
M106 S0
M106 S255
G1 X36.684 Y4.543 F40
M106 S0
M106 S255
G1 X36.718 Y4.633 F40
M106 S0
M106 S255
G1 X36.757 Y4.721 F40
M106 S0
M106 S255
G1 X36.802 Y4.806 F40
M106 S0
M106 S255
G1 X36.852 Y4.888 F40
M106 S0
M106 S255
G1 X36.907 Y4.967 F40
M106 S0
M106 S255
G1 X36.968 Y5.041 F40
M106 S0
M106 S255
G1 X37.033 Y5.112 F40
M106 S0
M106 S255
G1 X37.103 Y5.178 F40
M106 S0
M106 S255
G1 X37.177 Y5.239 F40
M106 S0
M106 S255
G1 X37.255 Y5.295 F40
M106 S0
M106 S255
G1 X37.337 Y5.346 F40
M106 S0
M106 S255
G1 X37.421 Y5.391 F40
M106 S0
M106 S255
G1 X37.508 Y5.431 F40
M106 S0
M106 S255
G1 X37.598 Y5.465 F40
M106 S0
M106 S255
G1 X37.689 Y5.494 F40
M106 S0
M106 S255
G1 X37.782 Y5.518 F40
M106 S0
M106 S255
G1 X37.876 Y5.537 F40
M106 S0
M106 S255
G1 X37.971 Y5.552 F40
M106 S0
M106 S255
G1 X38.066 Y5.564 F40
M106 S0
M106 S255
G1 X38.162 Y5.571 F40
M106 S0
M106 S255
G1 X38.257 Y5.575 F40
M106 S0
M106 S255
G1 X38.352 Y5.577 F40
M106 S0
M106 S255
G1 X38.352 Y6.051 F40
M106 S0
M106 S255
G1 X39.013 Y6.602 F40
M106 S0
M106 S255
G1 X39.383 Y6.602 F40
M106 S0
M106 S255
G1 X39.434 Y6.714 F40
M106 S0
M106 S255
G1 X39.486 Y6.826 F40
M106 S0
M106 S255
G1 X39.538 Y6.938 F40
M106 S0
M106 S255
G1 X39.589 Y7.05 F40
M106 S0
M106 S255
G1 X39.619 Y7.118 F40
M106 S0
M106 S255
G1 X39.689 Y7.276 F40
M106 S0
M106 S255
G1 X39.737 Y7.39 F40
M106 S0
M106 S255
G1 X39.783 Y7.505 F40
M106 S0
M106 S255
G1 X39.825 Y7.621 F40
M106 S0
M106 S255
G1 X39.875 Y7.778 F40
M106 S0
M106 S255
G1 X39.896 Y7.856 F40
M106 S0
M106 S255
G1 X39.924 Y7.976 F40
M106 S0
M106 S255
G1 X39.948 Y8.097 F40
M106 S0
M106 S255
G1 X39.967 Y8.219 F40
M106 S0
M106 S255
G1 X39.983 Y8.342 F40
M106 S0
M106 S255
G1 X39.995 Y8.465 F40
M106 S0
M106 S255
G1 X40.005 Y8.588 F40
M106 S0
M106 S255
G1 X40.016 Y8.774 F40
M106 S0
M106 S255
G1 X40.019 Y8.836 F40
M106 S0
M106 S255
G1 X40.023 Y8.96 F40
M106 S0
M106 S255
G1 X40.026 Y9.083 F40
M106 S0
M106 S255
G1 X40.027 Y9.207 F40
M106 S0
M106 S255
G1 X40.027 Y9.33 F40
M106 S0
M106 S255
G1 X40.027 Y9.453 F40
M106 S0
M106 S255
G1 X40.026 Y9.577 F40
M106 S0
M106 S255
G1 X40.024 Y9.7 F40
M106 S0
M106 S255
G1 X40.021 Y9.823 F40
M106 S0
M106 S255
G1 X40.019 Y9.946 F40
M106 S0
M106 S255
G1 X40.016 Y10.069 F40
M106 S0
M106 S255
G1 X39.959 Y10.089 F40
M106 S0
M106 S255
G1 X39.903 Y10.109 F40
M106 S0
M106 S255
G1 X39.848 Y10.131 F40
M106 S0
M106 S255
G1 X39.794 Y10.155 F40
M106 S0
M106 S255
G1 X39.742 Y10.182 F40
M106 S0
M106 S255
G1 X39.693 Y10.212 F40
M106 S0
M106 S255
G1 X39.647 Y10.247 F40
M106 S0
M106 S255
G1 X39.604 Y10.286 F40
M106 S0
M106 S255
G1 X39.565 Y10.329 F40
M106 S0
M106 S255
G1 X39.529 Y10.377 F40
M106 S0
M106 S255
G1 X39.498 Y10.427 F40
M106 S0
M106 S255
G1 X39.47 Y10.48 F40
M106 S0
M106 S255
G1 X39.445 Y10.535 F40
M106 S0
M106 S255
G1 X39.425 Y10.591 F40
M106 S0
M106 S255
G1 X39.409 Y10.649 F40
M106 S0
M106 S255
G1 X39.396 Y10.706 F40
M106 S0
M106 S255
G1 X39.387 Y10.764 F40
M106 S0
M106 S255
G1 X39.38 Y10.822 F40
M106 S0
M106 S255
G1 X39.376 Y10.881 F40
M106 S0
M106 S255
G1 X39.373 Y10.939 F40
M106 S0
M106 S255
G1 X39.373 Y10.998 F40
M106 S0
M106 S255
G1 X39.373 Y11.057 F40
M106 S0
M106 S255
G1 X39.373 Y11.115 F40
M106 S0
M106 S255
G1 X38.808 Y11.115 F40
M106 S0
M106 S255
G1 X38.755 Y11.146 F40
M106 S0
M106 S255
G1 X38.702 Y11.176 F40
M106 S0
M106 S255
G1 X38.65 Y11.207 F40
M106 S0
M106 S255
G1 X38.599 Y11.24 F40
M106 S0
M106 S255
G1 X38.549 Y11.274 F40
M106 S0
M106 S255
G1 X38.5 Y11.31 F40
M106 S0
M106 S255
G1 X38.432 Y11.368 F40
M106 S0
M106 S255
G1 X38.408 Y11.39 F40
M106 S0
M106 S255
G1 X38.365 Y11.435 F40
M106 S0
M106 S255
G1 X38.325 Y11.482 F40
M106 S0
M106 S255
G1 X38.288 Y11.531 F40
M106 S0
M106 S255
G1 X38.254 Y11.583 F40
M106 S0
M106 S255
G1 X38.223 Y11.636 F40
M106 S0
M106 S255
G1 X38.196 Y11.691 F40
M106 S0
M106 S255
G1 X38.174 Y11.748 F40
M106 S0
M106 S255
G1 X38.156 Y11.808 F40
M106 S0
M106 S255
G1 X38.144 Y11.865 F40
M106 S0
M106 S255
G1 X38.135 Y11.925 F40
M106 S0
M106 S255
G1 X38.13 Y11.985 F40
M106 S0
M106 S255
G1 X38.127 Y12.046 F40
M106 S0
M106 S255
G1 X38.126 Y12.108 F40
M106 S0
M106 S255
G1 X38.126 Y12.169 F40
M106 S0
M106 S255
G1 X38.127 Y12.23 F40
M106 S0
M106 S255
G1 X38.131 Y12.291 F40
M106 S0
M106 S255
G1 X38.137 Y12.351 F40
M106 S0
M106 S255
G1 X38.146 Y12.411 F40
M106 S0
M106 S255
G1 X38.159 Y12.47 F40
M106 S0
M106 S255
G1 X38.176 Y12.528 F40
M106 S0
M106 S255
G1 X38.197 Y12.585 F40
M106 S0
M106 S255
G1 X38.221 Y12.641 F40
M106 S0
M106 S255
G1 X38.25 Y12.695 F40
M106 S0
M106 S255
G1 X38.281 Y12.748 F40
M106 S0
M106 S255
G1 X38.316 Y12.799 F40
M106 S0
M106 S255
G1 X38.354 Y12.848 F40
M106 S0
M106 S255
G1 X38.394 Y12.896 F40
M106 S0
M106 S255
G1 X38.436 Y12.941 F40
M106 S0
M106 S255
G1 X38.471 Y12.973 F40
M106 S0
M106 S255
G1 X38.528 Y13.023 F40
M106 S0
M106 S255
G1 X38.576 Y13.06 F40
M106 S0
M106 S255
G1 X38.627 Y13.095 F40
M106 S0
M106 S255
G1 X38.678 Y13.126 F40
M106 S0
M106 S255
G1 X38.732 Y13.155 F40
M106 S0
M106 S255
G1 X38.787 Y13.18 F40
M106 S0
M106 S255
G1 X38.843 Y13.202 F40
M106 S0
M106 S255
G1 X38.901 Y13.221 F40
M106 S0
M106 S255
G1 X38.959 Y13.239 F40
M106 S0
M106 S255
G1 X39.017 Y13.256 F40
M106 S0
M106 S255
G1 X39.39 Y13.256 F40
M106 S0
M106 S255
G1 X39.351 Y13.33 F40
M106 S0
M106 S255
G1 X39.313 Y13.404 F40
M106 S0
M106 S255
G1 X39.277 Y13.478 F40
M106 S0
M106 S255
G1 X39.243 Y13.554 F40
M106 S0
M106 S255
G1 X39.211 Y13.63 F40
M106 S0
M106 S255
G1 X39.184 Y13.708 F40
M106 S0
M106 S255
G1 X39.162 Y13.787 F40
M106 S0
M106 S255
G1 X39.144 Y13.867 F40
M106 S0
M106 S255
G1 X39.13 Y13.949 F40
M106 S0
M106 S255
G1 X39.12 Y14.031 F40
M106 S0
M106 S255
G1 X39.113 Y14.114 F40
M106 S0
M106 S255
G1 X39.109 Y14.197 F40
M106 S0
M106 S255
G1 X39.108 Y14.281 F40
M106 S0
M106 S255
G1 X39.109 Y14.364 F40
M106 S0
M106 S255
G1 X39.111 Y14.447 F40
M106 S0
M106 S255
G1 X39.116 Y14.53 F40
M106 S0
M106 S255
G1 X39.124 Y14.612 F40
M106 S0
M106 S255
G1 X39.134 Y14.694 F40
M106 S0
M106 S255
G1 X39.147 Y14.776 F40
M106 S0
M106 S255
G1 X39.163 Y14.857 F40
M106 S0
M106 S255
G1 X39.182 Y14.938 F40
M106 S0
M106 S255
G1 X39.205 Y15.018 F40
M106 S0
M106 S255
G1 X39.232 Y15.098 F40
M106 S0
M106 S255
G1 X39.261 Y15.176 F40
M106 S0
M106 S255
G1 X39.294 Y15.253 F40
M106 S0
M106 S255
G1 X39.331 Y15.329 F40
M106 S0
M106 S255
G1 X39.37 Y15.403 F40
M106 S0
M106 S255
G1 X39.414 Y15.474 F40
M106 S0
M106 S255
G1 X39.46 Y15.544 F40
M106 S0
M106 S255
G1 X39.51 Y15.611 F40
M106 S0
M106 S255
G1 X39.563 Y15.675 F40
M106 S0
M106 S255
G1 X39.619 Y15.736 F40
M106 S0
M106 S255
G1 X39.679 Y15.794 F40
M106 S0
M106 S255
G1 X39.741 Y15.849 F40
M106 S0
M106 S255
G1 X39.806 Y15.901 F40
M106 S0
M106 S255
G1 X39.873 Y15.949 F40
M106 S0
M106 S255
G1 X39.942 Y15.995 F40
M106 S0
M106 S255
G1 X40.014 Y16.037 F40
M106 S0
M106 S255
G1 X40.087 Y16.077 F40
M106 S0
M106 S255
G1 X40.161 Y16.113 F40
M106 S0
M106 S255
G1 X40.237 Y16.146 F40
M106 S0
M106 S255
G1 X40.314 Y16.177 F40
M106 S0
M106 S255
G1 X40.392 Y16.205 F40
M106 S0
M106 S255
G1 X40.471 Y16.23 F40
M106 S0
M106 S255
G1 X40.551 Y16.252 F40
M106 S0
M106 S255
G1 X40.631 Y16.272 F40
M106 S0
M106 S255
G1 X40.712 Y16.29 F40
M106 S0
M106 S255
G1 X40.794 Y16.304 F40
M106 S0
M106 S255
G1 X40.876 Y16.315 F40
M106 S0
M106 S255
G1 X40.958 Y16.323 F40
M106 S0
M106 S255
G1 X41.04 Y16.328 F40
M106 S0
M106 S255
G1 X41.123 Y16.33 F40
M106 S0
M106 S255
G1 X41.206 Y16.33 F40
M106 S0
M106 S255
G1 X41.288 Y16.33 F40
M106 S0
M106 S255
G1 X41.371 Y16.328 F40
M106 S0
M106 S255
G1 X41.453 Y16.323 F40
M106 S0
M106 S255
G1 X41.535 Y16.315 F40
M106 S0
M106 S255
G1 X41.617 Y16.304 F40
M106 S0
M106 S255
G1 X41.699 Y16.29 F40
M106 S0
M106 S255
G1 X41.78 Y16.272 F40
M106 S0
M106 S255
G1 X41.86 Y16.252 F40
M106 S0
M106 S255
G1 X41.94 Y16.23 F40
M106 S0
M106 S255
G1 X42.019 Y16.205 F40
M106 S0
M106 S255
G1 X42.097 Y16.177 F40
M106 S0
M106 S255
G1 X42.174 Y16.146 F40
M106 S0
M106 S255
G1 X42.25 Y16.113 F40
M106 S0
M106 S255
G1 X42.324 Y16.077 F40
M106 S0
M106 S255
G1 X42.397 Y16.037 F40
M106 S0
M106 S255
G1 X42.469 Y15.995 F40
M106 S0
M106 S255
G1 X42.538 Y15.949 F40
M106 S0
M106 S255
G1 X42.605 Y15.901 F40
M106 S0
M106 S255
G1 X42.67 Y15.849 F40
M106 S0
M106 S255
G1 X42.732 Y15.794 F40
M106 S0
M106 S255
G1 X42.792 Y15.736 F40
M106 S0
M106 S255
G1 X42.848 Y15.675 F40
M106 S0
M106 S255
G1 X42.901 Y15.611 F40
M106 S0
M106 S255
G1 X42.951 Y15.544 F40
M106 S0
M106 S255
G1 X42.997 Y15.474 F40
M106 S0
M106 S255
G1 X43.041 Y15.403 F40
M106 S0
M106 S255
G1 X43.08 Y15.329 F40
M106 S0
M106 S255
G1 X43.117 Y15.253 F40
M106 S0
M106 S255
G1 X43.15 Y15.176 F40
M106 S0
M106 S255
G1 X43.18 Y15.098 F40
M106 S0
M106 S255
G1 X43.206 Y15.018 F40
M106 S0
M106 S255
G1 X43.229 Y14.938 F40
M106 S0
M106 S255
G1 X43.248 Y14.857 F40
M106 S0
M106 S255
G1 X43.264 Y14.776 F40
M106 S0
M106 S255
G1 X43.277 Y14.694 F40
M106 S0
M106 S255
G1 X43.287 Y14.612 F40
M106 S0
M106 S255
G1 X43.295 Y14.53 F40
M106 S0
M106 S255
G1 X43.3 Y14.447 F40
M106 S0
M106 S255
G1 X43.302 Y14.364 F40
M106 S0
M106 S255
G1 X43.303 Y14.281 F40
M106 S0
M106 S255
G1 X43.302 Y14.197 F40
M106 S0
M106 S255
G1 X43.298 Y14.114 F40
M106 S0
M106 S255
G1 X43.291 Y14.031 F40
M106 S0
M106 S255
G1 X43.281 Y13.949 F40
M106 S0
M106 S255
G1 X43.267 Y13.867 F40
M106 S0
M106 S255
G1 X43.249 Y13.787 F40
M106 S0
M106 S255
G1 X43.227 Y13.708 F40
M106 S0
M106 S255
G1 X43.2 Y13.63 F40
M106 S0
M106 S255
G1 X43.168 Y13.554 F40
M106 S0
M106 S255
G1 X43.134 Y13.478 F40
M106 S0
M106 S255
G1 X43.098 Y13.404 F40
M106 S0
M106 S255
G1 X43.06 Y13.33 F40
M106 S0
M106 S255
G1 X43.021 Y13.256 F40
M106 S0
M106 S255
G1 X43.394 Y13.256 F40
M106 S0
M106 S255
G1 X43.452 Y13.239 F40
M106 S0
M106 S255
G1 X43.51 Y13.221 F40
M106 S0
M106 S255
G1 X43.568 Y13.202 F40
M106 S0
M106 S255
G1 X43.624 Y13.18 F40
M106 S0
M106 S255
G1 X43.679 Y13.155 F40
M106 S0
M106 S255
G1 X43.733 Y13.126 F40
M106 S0
M106 S255
G1 X43.785 Y13.095 F40
M106 S0
M106 S255
G1 X43.835 Y13.06 F40
M106 S0
M106 S255
G1 X43.883 Y13.023 F40
M106 S0
M106 S255
G1 X43.94 Y12.973 F40
M106 S0
M106 S255
G1 X43.975 Y12.941 F40
M106 S0
M106 S255
G1 X44.017 Y12.896 F40
M106 S0
M106 S255
G1 X44.057 Y12.848 F40
M106 S0
M106 S255
G1 X44.095 Y12.799 F40
M106 S0
M106 S255
G1 X44.13 Y12.748 F40
M106 S0
M106 S255
G1 X44.161 Y12.695 F40
M106 S0
M106 S255
G1 X44.19 Y12.641 F40
M106 S0
M106 S255
G1 X44.214 Y12.585 F40
M106 S0
M106 S255
G1 X44.235 Y12.528 F40
M106 S0
M106 S255
G1 X44.252 Y12.47 F40
M106 S0
M106 S255
G1 X44.265 Y12.411 F40
M106 S0
M106 S255
G1 X44.274 Y12.351 F40
M106 S0
M106 S255
G1 X44.28 Y12.291 F40
M106 S0
M106 S255
G1 X44.284 Y12.23 F40
M106 S0
M106 S255
G1 X44.285 Y12.169 F40
M106 S0
M106 S255
G1 X44.285 Y12.108 F40
M106 S0
M106 S255
G1 X44.284 Y12.046 F40
M106 S0
M106 S255
G1 X44.281 Y11.985 F40
M106 S0
M106 S255
G1 X44.276 Y11.925 F40
M106 S0
M106 S255
G1 X44.267 Y11.865 F40
M106 S0
M106 S255
G1 X44.255 Y11.808 F40
M106 S0
M106 S255
G1 X44.237 Y11.748 F40
M106 S0
M106 S255
G1 X44.215 Y11.691 F40
M106 S0
M106 S255
G1 X44.188 Y11.636 F40
M106 S0
M106 S255
G1 X44.157 Y11.583 F40
M106 S0
M106 S255
G1 X44.123 Y11.531 F40
M106 S0
M106 S255
G1 X44.086 Y11.482 F40
M106 S0
M106 S255
G1 X44.046 Y11.435 F40
M106 S0
M106 S255
G1 X44.003 Y11.39 F40
M106 S0
M106 S255
G1 X43.979 Y11.368 F40
M106 S0
M106 S255
G1 X43.911 Y11.31 F40
M106 S0
M106 S255
G1 X43.862 Y11.274 F40
M106 S0
M106 S255
G1 X43.812 Y11.24 F40
M106 S0
M106 S255
G1 X43.761 Y11.207 F40
M106 S0
M106 S255
G1 X43.709 Y11.176 F40
M106 S0
M106 S255
G1 X43.656 Y11.146 F40
M106 S0
M106 S255
G1 X43.603 Y11.115 F40
M106 S0
M106 S255
G1 X43.038 Y11.115 F40
M106 S0
M106 S255
G1 X43.038 Y11.057 F40
M106 S0
M106 S255
G1 X43.038 Y10.998 F40
M106 S0
M106 S255
G1 X43.038 Y10.939 F40
M106 S0
M106 S255
G1 X43.035 Y10.881 F40
M106 S0
M106 S255
G1 X43.031 Y10.822 F40
M106 S0
M106 S255
G1 X43.024 Y10.764 F40
M106 S0
M106 S255
G1 X43.015 Y10.706 F40
M106 S0
M106 S255
G1 X43.002 Y10.649 F40
M106 S0
M106 S255
G1 X42.986 Y10.591 F40
M106 S0
M106 S255
G1 X42.966 Y10.535 F40
M106 S0
M106 S255
G1 X42.941 Y10.48 F40
M106 S0
M106 S255
G1 X42.913 Y10.427 F40
M106 S0
M106 S255
G1 X42.882 Y10.377 F40
M106 S0
M106 S255
G1 X42.846 Y10.329 F40
M106 S0
M106 S255
G1 X42.807 Y10.286 F40
M106 S0
M106 S255
G1 X42.764 Y10.247 F40
M106 S0
M106 S255
G1 X42.718 Y10.212 F40
M106 S0
M106 S255
G1 X42.669 Y10.182 F40
M106 S0
M106 S255
G1 X42.617 Y10.155 F40
M106 S0
M106 S255
G1 X42.563 Y10.131 F40
M106 S0
M106 S255
G1 X42.508 Y10.109 F40
M106 S0
M106 S255
G1 X42.452 Y10.089 F40
M106 S0
M106 S255
G1 X42.395 Y10.069 F40
M106 S0
M106 S255
G1 X42.392 Y9.946 F40
M106 S0
M106 S255
G1 X42.39 Y9.823 F40
M106 S0
M106 S255
G1 X42.387 Y9.7 F40
M106 S0
M106 S255
G1 X42.385 Y9.577 F40
M106 S0
M106 S255
G1 X42.384 Y9.453 F40
M106 S0
M106 S255
G1 X42.384 Y9.33 F40
M106 S0
M106 S255
G1 X42.384 Y9.207 F40
M106 S0
M106 S255
G1 X42.385 Y9.083 F40
M106 S0
M106 S255
G1 X42.388 Y8.96 F40
M106 S0
M106 S255
G1 X42.392 Y8.836 F40
M106 S0
M106 S255
G1 X42.395 Y8.774 F40
M106 S0
M106 S255
G1 X42.406 Y8.588 F40
M106 S0
M106 S255
G1 X42.416 Y8.465 F40
M106 S0
M106 S255
G1 X42.428 Y8.342 F40
M106 S0
M106 S255
G1 X42.444 Y8.219 F40
M106 S0
M106 S255
G1 X42.463 Y8.097 F40
M106 S0
M106 S255
G1 X42.487 Y7.976 F40
M106 S0
M106 S255
G1 X42.515 Y7.856 F40
M106 S0
M106 S255
G1 X42.536 Y7.778 F40
M106 S0
M106 S255
G1 X42.586 Y7.621 F40
M106 S0
M106 S255
G1 X42.628 Y7.505 F40
M106 S0
M106 S255
G1 X42.674 Y7.39 F40
M106 S0
M106 S255
G1 X42.722 Y7.276 F40
M106 S0
M106 S255
G1 X42.792 Y7.118 F40
M106 S0
M106 S255
G1 X42.822 Y7.05 F40
M106 S0
M106 S255
G1 X42.873 Y6.938 F40
M106 S0
M106 S255
G1 X42.925 Y6.826 F40
M106 S0
M106 S255
G1 X42.977 Y6.714 F40
M106 S0
M106 S255
G1 X43.028 Y6.602 F40
M106 S0
M106 S255
G1 X43.398 Y6.602 F40
M106 S0
M106 S255
G1 X44.059 Y6.051 F40
M106 S0
M106 S255
G1 X44.059 Y5.577 F40
M106 S0
G0 X55.774 Y36.086 F6000
M106 S255
G1 X55.774 Y36.086 F40
M106 S0
M106 S255
G1 X57.04 Y36.086 F40
M106 S0
M106 S255
G1 X57.04 Y35.105 F40
M106 S0
M106 S255
G1 X58.111 Y35.105 F40
M106 S0
M106 S255
G1 X58.111 Y36.086 F40
M106 S0
M106 S255
G1 X60.046 Y36.086 F40
M106 S0
M106 S255
G1 X60.046 Y32.708 F40
M106 S0
M106 S255
G1 X59.385 Y32.708 F40
M106 S0
M106 S255
G1 X58.467 Y31.436 F40
M106 S0
M106 S255
G1 X58.467 Y27.829 F40
M106 S0
M106 S255
G1 X59.388 Y26.573 F40
M106 S0
M106 S255
G1 X60.043 Y26.573 F40
M106 S0
M106 S255
G1 X60.043 Y25.281 F40
M106 S0
M106 S255
G1 X61.292 Y25.281 F40
M106 S0
M106 S255
G1 X61.292 Y23.279 F40
M106 S0
M106 S255
G1 X55.774 Y23.279 F40
M106 S0
M106 S255
G1 X50.256 Y23.279 F40
M106 S0
M106 S255
G1 X50.256 Y25.281 F40
M106 S0
M106 S255
G1 X51.505 Y25.281 F40
M106 S0
M106 S255
G1 X51.505 Y26.573 F40
M106 S0
M106 S255
G1 X52.16 Y26.573 F40
M106 S0
M106 S255
G1 X53.081 Y27.829 F40
M106 S0
M106 S255
G1 X53.081 Y31.436 F40
M106 S0
M106 S255
G1 X52.163 Y32.708 F40
M106 S0
M106 S255
G1 X51.502 Y32.708 F40
M106 S0
M106 S255
G1 X51.502 Y36.086 F40
M106 S0
M106 S255
G1 X53.437 Y36.086 F40
M106 S0
M106 S255
G1 X53.437 Y35.105 F40
M106 S0
M106 S255
G1 X54.508 Y35.105 F40
M106 S0
M106 S255
G1 X54.508 Y36.086 F40
M106 S0
M106 S255
G1 X55.774 Y36.086 F40
M106 S0
G0 X57.234 Y5.577 F6000
M106 S255
G1 X57.234 Y5.577 F40
M106 S0
M106 S255
G1 X57.33 Y5.575 F40
M106 S0
M106 S255
G1 X57.425 Y5.571 F40
M106 S0
M106 S255
G1 X57.52 Y5.564 F40
M106 S0
M106 S255
G1 X57.615 Y5.552 F40
M106 S0
M106 S255
G1 X57.71 Y5.537 F40
M106 S0
M106 S255
G1 X57.804 Y5.518 F40
M106 S0
M106 S255
G1 X57.897 Y5.494 F40
M106 S0
M106 S255
G1 X57.989 Y5.465 F40
M106 S0
M106 S255
G1 X58.078 Y5.431 F40
M106 S0
M106 S255
G1 X58.165 Y5.391 F40
M106 S0
M106 S255
G1 X58.25 Y5.346 F40
M106 S0
M106 S255
G1 X58.331 Y5.295 F40
M106 S0
M106 S255
G1 X58.409 Y5.239 F40
M106 S0
M106 S255
G1 X58.483 Y5.178 F40
M106 S0
M106 S255
G1 X58.553 Y5.112 F40
M106 S0
M106 S255
G1 X58.619 Y5.041 F40
M106 S0
M106 S255
G1 X58.679 Y4.967 F40
M106 S0
M106 S255
G1 X58.735 Y4.888 F40
M106 S0
M106 S255
G1 X58.785 Y4.806 F40
M106 S0
M106 S255
G1 X58.829 Y4.721 F40
M106 S0
M106 S255
G1 X58.869 Y4.633 F40
M106 S0
M106 S255
G1 X58.903 Y4.543 F40
M106 S0
M106 S255
G1 X58.932 Y4.451 F40
M106 S0
M106 S255
G1 X58.957 Y4.358 F40
M106 S0
M106 S255
G1 X58.977 Y4.264 F40
M106 S0
M106 S255
G1 X58.992 Y4.169 F40
M106 S0
M106 S255
G1 X59.003 Y4.074 F40
M106 S0
M106 S255
G1 X59.011 Y3.979 F40
M106 S0
M106 S255
G1 X59.014 Y3.884 F40
M106 S0
M106 S255
G1 X59.015 Y3.789 F40
M106 S0
M106 S255
G1 X59.013 Y3.694 F40
M106 S0
M106 S255
G1 X59.01 Y3.598 F40
M106 S0
M106 S255
G1 X59.005 Y3.503 F40
M106 S0
M106 S255
G1 X58.999 Y3.407 F40
M106 S0
M106 S255
G1 X58.992 Y3.312 F40
M106 S0
M106 S255
G1 X54.381 Y3.312 F40
M106 S0
M106 S255
G1 X49.77 Y3.312 F40
M106 S0
M106 S255
G1 X49.763 Y3.407 F40
M106 S0
M106 S255
G1 X49.757 Y3.503 F40
M106 S0
M106 S255
G1 X49.752 Y3.598 F40
M106 S0
M106 S255
G1 X49.748 Y3.694 F40
M106 S0
M106 S255
G1 X49.747 Y3.789 F40
M106 S0
M106 S255
G1 X49.748 Y3.884 F40
M106 S0
M106 S255
G1 X49.751 Y3.979 F40
M106 S0
M106 S255
G1 X49.758 Y4.074 F40
M106 S0
M106 S255
G1 X49.77 Y4.169 F40
M106 S0
M106 S255
G1 X49.785 Y4.264 F40
M106 S0
M106 S255
G1 X49.805 Y4.358 F40
M106 S0
M106 S255
G1 X49.83 Y4.451 F40
M106 S0
M106 S255
G1 X49.859 Y4.543 F40
M106 S0
M106 S255
G1 X49.893 Y4.633 F40
M106 S0
M106 S255
G1 X49.933 Y4.721 F40
M106 S0
M106 S255
G1 X49.977 Y4.806 F40
M106 S0
M106 S255
G1 X50.027 Y4.888 F40
M106 S0
M106 S255
G1 X50.082 Y4.967 F40
M106 S0
M106 S255
G1 X50.143 Y5.041 F40
M106 S0
M106 S255
G1 X50.208 Y5.112 F40
M106 S0
M106 S255
G1 X50.278 Y5.178 F40
M106 S0
M106 S255
G1 X50.353 Y5.239 F40
M106 S0
M106 S255
G1 X50.431 Y5.295 F40
M106 S0
M106 S255
G1 X50.512 Y5.346 F40
M106 S0
M106 S255
G1 X50.597 Y5.391 F40
M106 S0
M106 S255
G1 X50.684 Y5.431 F40
M106 S0
M106 S255
G1 X50.773 Y5.465 F40
M106 S0
M106 S255
G1 X50.865 Y5.494 F40
M106 S0
M106 S255
G1 X50.958 Y5.518 F40
M106 S0
M106 S255
G1 X51.052 Y5.537 F40
M106 S0
M106 S255
G1 X51.146 Y5.552 F40
M106 S0
M106 S255
G1 X51.242 Y5.564 F40
M106 S0
M106 S255
G1 X51.337 Y5.571 F40
M106 S0
M106 S255
G1 X51.432 Y5.575 F40
M106 S0
M106 S255
G1 X51.528 Y5.577 F40
M106 S0
M106 S255
G1 X51.528 Y6.051 F40
M106 S0
M106 S255
G1 X52.189 Y6.602 F40
M106 S0
M106 S255
G1 X52.558 Y6.602 F40
M106 S0
M106 S255
G1 X52.61 Y6.714 F40
M106 S0
M106 S255
G1 X52.662 Y6.826 F40
M106 S0
M106 S255
G1 X52.713 Y6.938 F40
M106 S0
M106 S255
G1 X52.764 Y7.05 F40
M106 S0
M106 S255
G1 X52.795 Y7.118 F40
M106 S0
M106 S255
G1 X52.865 Y7.276 F40
M106 S0
M106 S255
G1 X52.913 Y7.39 F40
M106 S0
M106 S255
G1 X52.958 Y7.505 F40
M106 S0
M106 S255
G1 X53.0 Y7.621 F40
M106 S0
M106 S255
G1 X53.05 Y7.778 F40
M106 S0
M106 S255
G1 X53.071 Y7.856 F40
M106 S0
M106 S255
G1 X53.1 Y7.976 F40
M106 S0
M106 S255
G1 X53.123 Y8.097 F40
M106 S0
M106 S255
G1 X53.143 Y8.219 F40
M106 S0
M106 S255
G1 X53.158 Y8.342 F40
M106 S0
M106 S255
G1 X53.171 Y8.465 F40
M106 S0
M106 S255
G1 X53.181 Y8.588 F40
M106 S0
M106 S255
G1 X53.191 Y8.774 F40
M106 S0
M106 S255
G1 X53.194 Y8.836 F40
M106 S0
M106 S255
G1 X53.198 Y8.96 F40
M106 S0
M106 S255
G1 X53.201 Y9.083 F40
M106 S0
M106 S255
G1 X53.203 Y9.207 F40
M106 S0
M106 S255
G1 X53.203 Y9.33 F40
M106 S0
M106 S255
G1 X53.202 Y9.453 F40
M106 S0
M106 S255
G1 X53.201 Y9.577 F40
M106 S0
M106 S255
G1 X53.199 Y9.7 F40
M106 S0
M106 S255
G1 X53.197 Y9.823 F40
M106 S0
M106 S255
G1 X53.194 Y9.946 F40
M106 S0
M106 S255
G1 X53.191 Y10.069 F40
M106 S0
M106 S255
G1 X53.135 Y10.089 F40
M106 S0
M106 S255
G1 X53.078 Y10.109 F40
M106 S0
M106 S255
G1 X53.023 Y10.131 F40
M106 S0
M106 S255
G1 X52.969 Y10.155 F40
M106 S0
M106 S255
G1 X52.918 Y10.182 F40
M106 S0
M106 S255
G1 X52.868 Y10.212 F40
M106 S0
M106 S255
G1 X52.822 Y10.247 F40
M106 S0
M106 S255
G1 X52.779 Y10.286 F40
M106 S0
M106 S255
G1 X52.74 Y10.329 F40
M106 S0
M106 S255
G1 X52.705 Y10.377 F40
M106 S0
M106 S255
G1 X52.673 Y10.427 F40
M106 S0
M106 S255
G1 X52.645 Y10.48 F40
M106 S0
M106 S255
G1 X52.621 Y10.535 F40
M106 S0
M106 S255
G1 X52.601 Y10.591 F40
M106 S0
M106 S255
G1 X52.584 Y10.649 F40
M106 S0
M106 S255
G1 X52.571 Y10.706 F40
M106 S0
M106 S255
G1 X52.562 Y10.764 F40
M106 S0
M106 S255
G1 X52.555 Y10.822 F40
M106 S0
M106 S255
G1 X52.551 Y10.881 F40
M106 S0
M106 S255
G1 X52.549 Y10.939 F40
M106 S0
M106 S255
G1 X52.548 Y10.998 F40
M106 S0
M106 S255
G1 X52.548 Y11.057 F40
M106 S0
M106 S255
G1 X52.549 Y11.115 F40
M106 S0
M106 S255
G1 X51.983 Y11.115 F40
M106 S0
M106 S255
G1 X51.93 Y11.146 F40
M106 S0
M106 S255
G1 X51.878 Y11.176 F40
M106 S0
M106 S255
G1 X51.826 Y11.207 F40
M106 S0
M106 S255
G1 X51.775 Y11.24 F40
M106 S0
M106 S255
G1 X51.725 Y11.274 F40
M106 S0
M106 S255
G1 X51.676 Y11.31 F40
M106 S0
M106 S255
G1 X51.608 Y11.368 F40
M106 S0
M106 S255
G1 X51.584 Y11.39 F40
M106 S0
M106 S255
G1 X51.541 Y11.435 F40
M106 S0
M106 S255
G1 X51.501 Y11.482 F40
M106 S0
M106 S255
G1 X51.463 Y11.531 F40
M106 S0
M106 S255
G1 X51.429 Y11.583 F40
M106 S0
M106 S255
G1 X51.398 Y11.636 F40
M106 S0
M106 S255
G1 X51.372 Y11.691 F40
M106 S0
M106 S255
G1 X51.35 Y11.748 F40
M106 S0
M106 S255
G1 X51.331 Y11.808 F40
M106 S0
M106 S255
G1 X51.319 Y11.865 F40
M106 S0
M106 S255
G1 X51.31 Y11.925 F40
M106 S0
M106 S255
G1 X51.305 Y11.985 F40
M106 S0
M106 S255
G1 X51.302 Y12.046 F40
M106 S0
M106 S255
G1 X51.301 Y12.108 F40
M106 S0
M106 S255
G1 X51.301 Y12.169 F40
M106 S0
M106 S255
G1 X51.303 Y12.23 F40
M106 S0
M106 S255
G1 X51.306 Y12.291 F40
M106 S0
M106 S255
G1 X51.312 Y12.351 F40
M106 S0
M106 S255
G1 X51.321 Y12.411 F40
M106 S0
M106 S255
G1 X51.334 Y12.47 F40
M106 S0
M106 S255
G1 X51.351 Y12.528 F40
M106 S0
M106 S255
G1 X51.372 Y12.585 F40
M106 S0
M106 S255
G1 X51.397 Y12.641 F40
M106 S0
M106 S255
G1 X51.425 Y12.695 F40
M106 S0
M106 S255
G1 X51.457 Y12.748 F40
M106 S0
M106 S255
G1 X51.491 Y12.799 F40
M106 S0
M106 S255
G1 X51.529 Y12.848 F40
M106 S0
M106 S255
G1 X51.569 Y12.896 F40
M106 S0
M106 S255
G1 X51.612 Y12.941 F40
M106 S0
M106 S255
G1 X51.646 Y12.973 F40
M106 S0
M106 S255
G1 X51.703 Y13.023 F40
M106 S0
M106 S255
G1 X51.752 Y13.06 F40
M106 S0
M106 S255
G1 X51.802 Y13.095 F40
M106 S0
M106 S255
G1 X51.854 Y13.126 F40
M106 S0
M106 S255
G1 X51.907 Y13.155 F40
M106 S0
M106 S255
G1 X51.962 Y13.18 F40
M106 S0
M106 S255
G1 X52.019 Y13.202 F40
M106 S0
M106 S255
G1 X52.076 Y13.221 F40
M106 S0
M106 S255
G1 X52.134 Y13.239 F40
M106 S0
M106 S255
G1 X52.193 Y13.256 F40
M106 S0
M106 S255
G1 X52.566 Y13.256 F40
M106 S0
M106 S255
G1 X52.527 Y13.33 F40
M106 S0
M106 S255
G1 X52.489 Y13.404 F40
M106 S0
M106 S255
G1 X52.452 Y13.478 F40
M106 S0
M106 S255
G1 X52.418 Y13.554 F40
M106 S0
M106 S255
G1 X52.387 Y13.63 F40
M106 S0
M106 S255
G1 X52.36 Y13.708 F40
M106 S0
M106 S255
G1 X52.337 Y13.787 F40
M106 S0
M106 S255
G1 X52.319 Y13.867 F40
M106 S0
M106 S255
G1 X52.305 Y13.949 F40
M106 S0
M106 S255
G1 X52.295 Y14.031 F40
M106 S0
M106 S255
G1 X52.289 Y14.114 F40
M106 S0
M106 S255
G1 X52.285 Y14.197 F40
M106 S0
M106 S255
G1 X52.284 Y14.281 F40
M106 S0
M106 S255
G1 X52.284 Y14.364 F40
M106 S0
M106 S255
G1 X52.287 Y14.447 F40
M106 S0
M106 S255
G1 X52.292 Y14.53 F40
M106 S0
M106 S255
G1 X52.299 Y14.612 F40
M106 S0
M106 S255
G1 X52.309 Y14.694 F40
M106 S0
M106 S255
G1 X52.322 Y14.776 F40
M106 S0
M106 S255
G1 X52.338 Y14.857 F40
M106 S0
M106 S255
G1 X52.358 Y14.938 F40
M106 S0
M106 S255
G1 X52.381 Y15.018 F40
M106 S0
M106 S255
G1 X52.407 Y15.098 F40
M106 S0
M106 S255
G1 X52.437 Y15.176 F40
M106 S0
M106 S255
G1 X52.47 Y15.253 F40
M106 S0
M106 S255
G1 X52.506 Y15.329 F40
M106 S0
M106 S255
G1 X52.546 Y15.403 F40
M106 S0
M106 S255
G1 X52.589 Y15.474 F40
M106 S0
M106 S255
G1 X52.635 Y15.544 F40
M106 S0
M106 S255
G1 X52.685 Y15.611 F40
M106 S0
M106 S255
G1 X52.738 Y15.675 F40
M106 S0
M106 S255
G1 X52.795 Y15.736 F40
M106 S0
M106 S255
G1 X52.854 Y15.794 F40
M106 S0
M106 S255
G1 X52.916 Y15.849 F40
M106 S0
M106 S255
G1 X52.981 Y15.901 F40
M106 S0
M106 S255
G1 X53.048 Y15.949 F40
M106 S0
M106 S255
G1 X53.118 Y15.995 F40
M106 S0
M106 S255
G1 X53.189 Y16.037 F40
M106 S0
M106 S255
G1 X53.262 Y16.077 F40
M106 S0
M106 S255
G1 X53.337 Y16.113 F40
M106 S0
M106 S255
G1 X53.412 Y16.146 F40
M106 S0
M106 S255
G1 X53.489 Y16.177 F40
M106 S0
M106 S255
G1 X53.567 Y16.205 F40
M106 S0
M106 S255
G1 X53.647 Y16.23 F40
M106 S0
M106 S255
G1 X53.726 Y16.252 F40
M106 S0
M106 S255
G1 X53.807 Y16.272 F40
M106 S0
M106 S255
G1 X53.888 Y16.29 F40
M106 S0
M106 S255
G1 X53.969 Y16.304 F40
M106 S0
M106 S255
G1 X54.051 Y16.315 F40
M106 S0
M106 S255
G1 X54.133 Y16.323 F40
M106 S0
M106 S255
G1 X54.216 Y16.328 F40
M106 S0
M106 S255
G1 X54.298 Y16.33 F40
M106 S0
M106 S255
G1 X54.381 Y16.33 F40
M106 S0
M106 S255
G1 X54.464 Y16.33 F40
M106 S0
M106 S255
G1 X54.546 Y16.328 F40
M106 S0
M106 S255
G1 X54.629 Y16.323 F40
M106 S0
M106 S255
G1 X54.711 Y16.315 F40
M106 S0
M106 S255
G1 X54.793 Y16.304 F40
M106 S0
M106 S255
G1 X54.874 Y16.29 F40
M106 S0
M106 S255
G1 X54.955 Y16.272 F40
M106 S0
M106 S255
G1 X55.036 Y16.252 F40
M106 S0
M106 S255
G1 X55.115 Y16.23 F40
M106 S0
M106 S255
G1 X55.194 Y16.205 F40
M106 S0
M106 S255
G1 X55.273 Y16.177 F40
M106 S0
M106 S255
G1 X55.35 Y16.146 F40
M106 S0
M106 S255
G1 X55.425 Y16.113 F40
M106 S0
M106 S255
G1 X55.5 Y16.077 F40
M106 S0
M106 S255
G1 X55.573 Y16.037 F40
M106 S0
M106 S255
G1 X55.644 Y15.995 F40
M106 S0
M106 S255
G1 X55.713 Y15.949 F40
M106 S0
M106 S255
G1 X55.781 Y15.901 F40
M106 S0
M106 S255
G1 X55.846 Y15.849 F40
M106 S0
M106 S255
G1 X55.908 Y15.794 F40
M106 S0
M106 S255
G1 X55.967 Y15.736 F40
M106 S0
M106 S255
G1 X56.024 Y15.675 F40
M106 S0
M106 S255
G1 X56.077 Y15.611 F40
M106 S0
M106 S255
G1 X56.126 Y15.544 F40
M106 S0
M106 S255
G1 X56.173 Y15.474 F40
M106 S0
M106 S255
G1 X56.216 Y15.403 F40
M106 S0
M106 S255
G1 X56.256 Y15.329 F40
M106 S0
M106 S255
G1 X56.292 Y15.253 F40
M106 S0
M106 S255
G1 X56.325 Y15.176 F40
M106 S0
M106 S255
G1 X56.355 Y15.098 F40
M106 S0
M106 S255
G1 X56.381 Y15.018 F40
M106 S0
M106 S255
G1 X56.404 Y14.938 F40
M106 S0
M106 S255
G1 X56.424 Y14.857 F40
M106 S0
M106 S255
G1 X56.44 Y14.776 F40
M106 S0
M106 S255
G1 X56.453 Y14.694 F40
M106 S0
M106 S255
G1 X56.463 Y14.612 F40
M106 S0
M106 S255
G1 X56.47 Y14.53 F40
M106 S0
M106 S255
G1 X56.475 Y14.447 F40
M106 S0
M106 S255
G1 X56.478 Y14.364 F40
M106 S0
M106 S255
G1 X56.478 Y14.281 F40
M106 S0
M106 S255
G1 X56.477 Y14.197 F40
M106 S0
M106 S255
G1 X56.473 Y14.114 F40
M106 S0
M106 S255
G1 X56.467 Y14.031 F40
M106 S0
M106 S255
G1 X56.457 Y13.949 F40
M106 S0
M106 S255
G1 X56.443 Y13.867 F40
M106 S0
M106 S255
G1 X56.425 Y13.787 F40
M106 S0
M106 S255
G1 X56.402 Y13.708 F40
M106 S0
M106 S255
G1 X56.375 Y13.63 F40
M106 S0
M106 S255
G1 X56.344 Y13.554 F40
M106 S0
M106 S255
G1 X56.31 Y13.478 F40
M106 S0
M106 S255
G1 X56.273 Y13.404 F40
M106 S0
M106 S255
G1 X56.235 Y13.33 F40
M106 S0
M106 S255
G1 X56.196 Y13.256 F40
M106 S0
M106 S255
G1 X56.569 Y13.256 F40
M106 S0
M106 S255
G1 X56.628 Y13.239 F40
M106 S0
M106 S255
G1 X56.686 Y13.221 F40
M106 S0
M106 S255
G1 X56.743 Y13.202 F40
M106 S0
M106 S255
G1 X56.8 Y13.18 F40
M106 S0
M106 S255
G1 X56.854 Y13.155 F40
M106 S0
M106 S255
G1 X56.908 Y13.126 F40
M106 S0
M106 S255
G1 X56.96 Y13.095 F40
M106 S0
M106 S255
G1 X57.01 Y13.06 F40
M106 S0
M106 S255
G1 X57.059 Y13.023 F40
M106 S0
M106 S255
G1 X57.116 Y12.973 F40
M106 S0
M106 S255
G1 X57.15 Y12.941 F40
M106 S0
M106 S255
G1 X57.193 Y12.896 F40
M106 S0
M106 S255
G1 X57.233 Y12.848 F40
M106 S0
M106 S255
G1 X57.27 Y12.799 F40
M106 S0
M106 S255
G1 X57.305 Y12.748 F40
M106 S0
M106 S255
G1 X57.337 Y12.695 F40
M106 S0
M106 S255
G1 X57.365 Y12.641 F40
M106 S0
M106 S255
G1 X57.39 Y12.585 F40
M106 S0
M106 S255
G1 X57.411 Y12.528 F40
M106 S0
M106 S255
G1 X57.428 Y12.47 F40
M106 S0
M106 S255
G1 X57.441 Y12.411 F40
M106 S0
M106 S255
G1 X57.45 Y12.351 F40
M106 S0
M106 S255
G1 X57.456 Y12.291 F40
M106 S0
M106 S255
G1 X57.459 Y12.23 F40
M106 S0
M106 S255
G1 X57.461 Y12.169 F40
M106 S0
M106 S255
G1 X57.461 Y12.108 F40
M106 S0
M106 S255
G1 X57.46 Y12.046 F40
M106 S0
M106 S255
G1 X57.457 Y11.985 F40
M106 S0
M106 S255
G1 X57.452 Y11.925 F40
M106 S0
M106 S255
G1 X57.443 Y11.865 F40
M106 S0
M106 S255
G1 X57.431 Y11.808 F40
M106 S0
M106 S255
G1 X57.412 Y11.748 F40
M106 S0
M106 S255
G1 X57.39 Y11.691 F40
M106 S0
M106 S255
G1 X57.363 Y11.636 F40
M106 S0
M106 S255
G1 X57.333 Y11.583 F40
M106 S0
M106 S255
G1 X57.299 Y11.531 F40
M106 S0
M106 S255
G1 X57.261 Y11.482 F40
M106 S0
M106 S255
G1 X57.221 Y11.435 F40
M106 S0
M106 S255
G1 X57.178 Y11.39 F40
M106 S0
M106 S255
G1 X57.154 Y11.368 F40
M106 S0
M106 S255
G1 X57.086 Y11.31 F40
M106 S0
M106 S255
G1 X57.037 Y11.274 F40
M106 S0
M106 S255
G1 X56.987 Y11.24 F40
M106 S0
M106 S255
G1 X56.936 Y11.207 F40
M106 S0
M106 S255
G1 X56.884 Y11.176 F40
M106 S0
M106 S255
G1 X56.832 Y11.146 F40
M106 S0
M106 S255
G1 X56.779 Y11.115 F40
M106 S0
M106 S255
G1 X56.213 Y11.115 F40
M106 S0
M106 S255
G1 X56.214 Y11.057 F40
M106 S0
M106 S255
G1 X56.214 Y10.998 F40
M106 S0
M106 S255
G1 X56.213 Y10.939 F40
M106 S0
M106 S255
G1 X56.211 Y10.881 F40
M106 S0
M106 S255
G1 X56.206 Y10.822 F40
M106 S0
M106 S255
G1 X56.2 Y10.764 F40
M106 S0
M106 S255
G1 X56.19 Y10.706 F40
M106 S0
M106 S255
G1 X56.178 Y10.649 F40
M106 S0
M106 S255
G1 X56.161 Y10.591 F40
M106 S0
M106 S255
G1 X56.141 Y10.535 F40
M106 S0
M106 S255
G1 X56.117 Y10.48 F40
M106 S0
M106 S255
G1 X56.089 Y10.427 F40
M106 S0
M106 S255
G1 X56.057 Y10.377 F40
M106 S0
M106 S255
G1 X56.022 Y10.329 F40
M106 S0
M106 S255
G1 X55.982 Y10.286 F40
M106 S0
M106 S255
G1 X55.94 Y10.247 F40
M106 S0
M106 S255
G1 X55.894 Y10.212 F40
M106 S0
M106 S255
G1 X55.844 Y10.182 F40
M106 S0
M106 S255
G1 X55.793 Y10.155 F40
M106 S0
M106 S255
G1 X55.739 Y10.131 F40
M106 S0
M106 S255
G1 X55.684 Y10.109 F40
M106 S0
M106 S255
G1 X55.627 Y10.089 F40
M106 S0
M106 S255
G1 X55.57 Y10.069 F40
M106 S0
M106 S255
G1 X55.568 Y9.946 F40
M106 S0
M106 S255
G1 X55.565 Y9.823 F40
M106 S0
M106 S255
G1 X55.563 Y9.7 F40
M106 S0
M106 S255
G1 X55.561 Y9.577 F40
M106 S0
M106 S255
G1 X55.559 Y9.453 F40
M106 S0
M106 S255
G1 X55.559 Y9.33 F40
M106 S0
M106 S255
G1 X55.559 Y9.207 F40
M106 S0
M106 S255
G1 X55.561 Y9.083 F40
M106 S0
M106 S255
G1 X55.564 Y8.96 F40
M106 S0
M106 S255
G1 X55.568 Y8.836 F40
M106 S0
M106 S255
G1 X55.57 Y8.774 F40
M106 S0
M106 S255
G1 X55.581 Y8.588 F40
M106 S0
M106 S255
G1 X55.591 Y8.465 F40
M106 S0
M106 S255
G1 X55.604 Y8.342 F40
M106 S0
M106 S255
G1 X55.619 Y8.219 F40
M106 S0
M106 S255
G1 X55.639 Y8.097 F40
M106 S0
M106 S255
G1 X55.662 Y7.976 F40
M106 S0
M106 S255
G1 X55.69 Y7.856 F40
M106 S0
M106 S255
G1 X55.712 Y7.778 F40
M106 S0
M106 S255
G1 X55.762 Y7.621 F40
M106 S0
M106 S255
G1 X55.804 Y7.505 F40
M106 S0
M106 S255
G1 X55.849 Y7.39 F40
M106 S0
M106 S255
G1 X55.897 Y7.276 F40
M106 S0
M106 S255
G1 X55.967 Y7.118 F40
M106 S0
M106 S255
G1 X55.998 Y7.05 F40
M106 S0
M106 S255
G1 X56.049 Y6.938 F40
M106 S0
M106 S255
G1 X56.1 Y6.826 F40
M106 S0
M106 S255
G1 X56.152 Y6.714 F40
M106 S0
M106 S255
G1 X56.204 Y6.602 F40
M106 S0
M106 S255
G1 X56.573 Y6.602 F40
M106 S0
M106 S255
G1 X57.234 Y6.051 F40
M106 S0
M106 S255
G1 X57.234 Y5.577 F40
M106 S0
G0 X13.54 Y8.472 F6000
M106 S255
G1 X13.54 Y8.472 F40
M106 S0
M106 S255
G1 X13.54 Y3.664 F40
M106 S0
M106 S255
G1 X13.305 Y3.642 F40
M106 S0
M106 S255
G1 X13.071 Y3.62 F40
M106 S0
M106 S255
G1 X12.836 Y3.598 F40
M106 S0
M106 S255
G1 X12.602 Y3.576 F40
M106 S0
M106 S255
G1 X12.367 Y3.553 F40
M106 S0
M106 S255
G1 X12.132 Y3.53 F40
M106 S0
M106 S255
G1 X11.898 Y3.507 F40
M106 S0
M106 S255
G1 X11.663 Y3.483 F40
M106 S0
M106 S255
G1 X11.479 Y3.464 F40
M106 S0
M106 S255
G1 X11.194 Y3.434 F40
M106 S0
M106 S255
G1 X10.96 Y3.409 F40
M106 S0
M106 S255
G1 X10.725 Y3.385 F40
M106 S0
M106 S255
G1 X10.491 Y3.362 F40
M106 S0
M106 S255
G1 X10.256 Y3.341 F40
M106 S0
M106 S255
G1 X10.021 Y3.322 F40
M106 S0
M106 S255
G1 X9.786 Y3.305 F40
M106 S0
M106 S255
G1 X9.551 Y3.293 F40
M106 S0
M106 S255
G1 X9.331 Y3.284 F40
M106 S0
M106 S255
G1 X9.08 Y3.278 F40
M106 S0
M106 S255
G1 X8.845 Y3.277 F40
M106 S0
M106 S255
G1 X8.609 Y3.278 F40
M106 S0
M106 S255
G1 X8.373 Y3.28 F40
M106 S0
M106 S255
G1 X8.138 Y3.284 F40
M106 S0
M106 S255
G1 X7.902 Y3.28 F40
M106 S0
M106 S255
G1 X7.666 Y3.278 F40
M106 S0
M106 S255
G1 X7.431 Y3.277 F40
M106 S0
M106 S255
G1 X7.195 Y3.278 F40
M106 S0
M106 S255
G1 X6.944 Y3.284 F40
M106 S0
M106 S255
G1 X6.724 Y3.293 F40
M106 S0
M106 S255
G1 X6.489 Y3.305 F40
M106 S0
M106 S255
G1 X6.254 Y3.322 F40
M106 S0
M106 S255
G1 X6.02 Y3.341 F40
M106 S0
M106 S255
G1 X5.785 Y3.362 F40
M106 S0
M106 S255
G1 X5.55 Y3.385 F40
M106 S0
M106 S255
G1 X5.316 Y3.409 F40
M106 S0
M106 S255
G1 X5.081 Y3.434 F40
M106 S0
M106 S255
G1 X4.796 Y3.464 F40
M106 S0
M106 S255
G1 X4.612 Y3.483 F40
M106 S0
M106 S255
G1 X4.378 Y3.507 F40
M106 S0
M106 S255
G1 X4.143 Y3.53 F40
M106 S0
M106 S255
G1 X3.908 Y3.553 F40
M106 S0
M106 S255
G1 X3.674 Y3.576 F40
M106 S0
M106 S255
G1 X3.439 Y3.598 F40
M106 S0
M106 S255
G1 X3.205 Y3.62 F40
M106 S0
M106 S255
G1 X2.97 Y3.642 F40
M106 S0
M106 S255
G1 X2.736 Y3.664 F40
M106 S0
M106 S255
G1 X2.736 Y8.472 F40
M106 S0
M106 S255
G1 X2.825 Y8.478 F40
M106 S0
M106 S255
G1 X2.914 Y8.485 F40
M106 S0
M106 S255
G1 X3.003 Y8.491 F40
M106 S0
M106 S255
G1 X3.092 Y8.497 F40
M106 S0
M106 S255
G1 X3.181 Y8.503 F40
M106 S0
M106 S255
G1 X3.27 Y8.508 F40
M106 S0
M106 S255
G1 X3.359 Y8.514 F40
M106 S0
M106 S255
G1 X3.448 Y8.52 F40
M106 S0
M106 S255
G1 X3.537 Y8.525 F40
M106 S0
M106 S255
G1 X3.626 Y8.53 F40
M106 S0
M106 S255
G1 X3.716 Y8.535 F40
M106 S0
M106 S255
G1 X3.805 Y8.539 F40
M106 S0
M106 S255
G1 X3.894 Y8.543 F40
M106 S0
M106 S255
G1 X3.983 Y8.547 F40
M106 S0
M106 S255
G1 X4.072 Y8.55 F40
M106 S0
M106 S255
G1 X4.161 Y8.554 F40
M106 S0
M106 S255
G1 X4.25 Y8.556 F40
M106 S0
M106 S255
G1 X4.087 Y8.629 F40
M106 S0
M106 S255
G1 X3.925 Y8.705 F40
M106 S0
M106 S255
G1 X3.766 Y8.785 F40
M106 S0
M106 S255
G1 X3.61 Y8.872 F40
M106 S0
M106 S255
G1 X3.459 Y8.965 F40
M106 S0
M106 S255
G1 X3.312 Y9.066 F40
M106 S0
M106 S255
G1 X3.17 Y9.176 F40
M106 S0
M106 S255
G1 X3.034 Y9.295 F40
M106 S0
M106 S255
G1 X2.905 Y9.42 F40
M106 S0
M106 S255
G1 X2.781 Y9.553 F40
M106 S0
M106 S255
G1 X2.665 Y9.693 F40
M106 S0
M106 S255
G1 X2.555 Y9.838 F40
M106 S0
M106 S255
G1 X2.453 Y9.988 F40
M106 S0
M106 S255
G1 X2.359 Y10.144 F40
M106 S0
M106 S255
G1 X2.273 Y10.303 F40
M106 S0
M106 S255
G1 X2.195 Y10.467 F40
M106 S0
M106 S255
G1 X2.126 Y10.633 F40
M106 S0
M106 S255
G1 X2.067 Y10.802 F40
M106 S0
M106 S255
G1 X2.016 Y10.974 F40
M106 S0
M106 S255
G1 X1.974 Y11.147 F40
M106 S0
M106 S255
G1 X1.939 Y11.322 F40
M106 S0
M106 S255
G1 X1.912 Y11.499 F40
M106 S0
M106 S255
G1 X1.89 Y11.677 F40
M106 S0
M106 S255
G1 X1.875 Y11.856 F40
M106 S0
M106 S255
G1 X1.865 Y12.035 F40
M106 S0
M106 S255
G1 X1.861 Y12.214 F40
M106 S0
M106 S255
G1 X1.865 Y12.393 F40
M106 S0
M106 S255
G1 X1.877 Y12.572 F40
M106 S0
M106 S255
G1 X1.901 Y12.748 F40
M106 S0
M106 S255
G1 X1.938 Y12.923 F40
M106 S0
M106 S255
G1 X1.988 Y13.095 F40
M106 S0
M106 S255
G1 X2.053 Y13.263 F40
M106 S0
M106 S255
G1 X2.131 Y13.425 F40
M106 S0
M106 S255
G1 X2.221 Y13.581 F40
M106 S0
M106 S255
G1 X2.324 Y13.728 F40
M106 S0
M106 S255
G1 X2.439 Y13.866 F40
M106 S0
M106 S255
G1 X2.565 Y13.994 F40
M106 S0
M106 S255
G1 X2.7 Y14.111 F40
M106 S0
M106 S255
G1 X2.845 Y14.217 F40
M106 S0
M106 S255
G1 X2.996 Y14.314 F40
M106 S0
M106 S255
G1 X3.155 Y14.4 F40
M106 S0
M106 S255
G1 X3.319 Y14.475 F40
M106 S0
M106 S255
G1 X3.487 Y14.541 F40
M106 S0
M106 S255
G1 X3.659 Y14.594 F40
M106 S0
M106 S255
G1 X3.833 Y14.637 F40
M106 S0
M106 S255
G1 X4.01 Y14.666 F40
M106 S0
M106 S255
G1 X4.189 Y14.683 F40
M106 S0
M106 S255
G1 X4.367 Y14.687 F40
M106 S0
M106 S255
G1 X4.546 Y14.676 F40
M106 S0
M106 S255
G1 X4.724 Y14.653 F40
M106 S0
M106 S255
G1 X4.9 Y14.617 F40
M106 S0
M106 S255
G1 X5.074 Y14.569 F40
M106 S0
M106 S255
G1 X5.245 Y14.509 F40
M106 S0
M106 S255
G1 X5.412 Y14.439 F40
M106 S0
M106 S255
G1 X5.575 Y14.359 F40
M106 S0
M106 S255
G1 X5.732 Y14.269 F40
M106 S0
M106 S255
G1 X5.884 Y14.17 F40
M106 S0
M106 S255
G1 X6.029 Y14.063 F40
M106 S0
M106 S255
G1 X6.168 Y13.948 F40
M106 S0
M106 S255
G1 X6.299 Y13.826 F40
M106 S0
M106 S255
G1 X6.422 Y13.695 F40
M106 S0
M106 S255
G1 X6.536 Y13.558 F40
M106 S0
M106 S255
G1 X6.642 Y13.415 F40
M106 S0
M106 S255
G1 X6.739 Y13.265 F40
M106 S0
M106 S255
G1 X6.83 Y13.112 F40
M106 S0
M106 S255
G1 X6.833 Y13.213 F40
M106 S0
M106 S255
G1 X6.837 Y13.313 F40
M106 S0
M106 S255
G1 X6.842 Y13.413 F40
M106 S0
M106 S255
G1 X6.848 Y13.513 F40
M106 S0
M106 S255
G1 X6.855 Y13.613 F40
M106 S0
M106 S255
G1 X6.863 Y13.713 F40
M106 S0
M106 S255
G1 X6.874 Y13.813 F40
M106 S0
M106 S255
G1 X6.886 Y13.912 F40
M106 S0
M106 S255
G1 X6.901 Y14.012 F40
M106 S0
M106 S255
G1 X6.917 Y14.111 F40
M106 S0
M106 S255
G1 X6.936 Y14.209 F40
M106 S0
M106 S255
G1 X6.957 Y14.308 F40
M106 S0
M106 S255
G1 X6.98 Y14.406 F40
M106 S0
M106 S255
G1 X7.005 Y14.503 F40
M106 S0
M106 S255
G1 X7.033 Y14.6 F40
M106 S0
M106 S255
G1 X7.062 Y14.696 F40
M106 S0
M106 S255
G1 X7.093 Y14.792 F40
M106 S0
M106 S255
G1 X7.127 Y14.886 F40
M106 S0
M106 S255
G1 X7.162 Y14.98 F40
M106 S0
M106 S255
G1 X7.2 Y15.073 F40
M106 S0
M106 S255
G1 X7.239 Y15.165 F40
M106 S0
M106 S255
G1 X7.28 Y15.257 F40
M106 S0
M106 S255
G1 X7.322 Y15.347 F40
M106 S0
M106 S255
G1 X7.366 Y15.437 F40
M106 S0
M106 S255
G1 X7.411 Y15.527 F40
M106 S0
M106 S255
G1 X7.457 Y15.616 F40
M106 S0
M106 S255
G1 X7.504 Y15.705 F40
M106 S0
M106 S255
G1 X7.551 Y15.794 F40
M106 S0
M106 S255
G1 X7.599 Y15.883 F40
M106 S0
M106 S255
G1 X7.647 Y15.971 F40
M106 S0
M106 S255
G1 X7.696 Y16.059 F40
M106 S0
M106 S255
G1 X7.747 Y16.146 F40
M106 S0
M106 S255
G1 X7.8 Y16.231 F40
M106 S0
M106 S255
G1 X7.855 Y16.315 F40
M106 S0
M106 S255
G1 X7.912 Y16.396 F40
M106 S0
M106 S255
G1 X7.974 Y16.475 F40
M106 S0
M106 S255
G1 X8.038 Y16.552 F40
M106 S0
M106 S255
G1 X8.104 Y16.627 F40
M106 S0
M106 S255
G1 X8.172 Y16.627 F40
M106 S0
M106 S255
G1 X8.238 Y16.552 F40
M106 S0
M106 S255
G1 X8.302 Y16.475 F40
M106 S0
M106 S255
G1 X8.363 Y16.396 F40
M106 S0
M106 S255
G1 X8.421 Y16.315 F40
M106 S0
M106 S255
G1 X8.476 Y16.231 F40
M106 S0
M106 S255
G1 X8.528 Y16.146 F40
M106 S0
M106 S255
G1 X8.579 Y16.059 F40
M106 S0
M106 S255
G1 X8.628 Y15.971 F40
M106 S0
M106 S255
G1 X8.677 Y15.883 F40
M106 S0
M106 S255
G1 X8.724 Y15.794 F40
M106 S0
M106 S255
G1 X8.772 Y15.705 F40
M106 S0
M106 S255
G1 X8.818 Y15.616 F40
M106 S0
M106 S255
G1 X8.864 Y15.527 F40
M106 S0
M106 S255
G1 X8.909 Y15.437 F40
M106 S0
M106 S255
G1 X8.953 Y15.347 F40
M106 S0
M106 S255
G1 X8.996 Y15.257 F40
M106 S0
M106 S255
G1 X9.037 Y15.165 F40
M106 S0
M106 S255
G1 X9.076 Y15.073 F40
M106 S0
M106 S255
G1 X9.113 Y14.98 F40
M106 S0
M106 S255
G1 X9.149 Y14.886 F40
M106 S0
M106 S255
G1 X9.182 Y14.792 F40
M106 S0
M106 S255
G1 X9.214 Y14.696 F40
M106 S0
M106 S255
G1 X9.243 Y14.6 F40
M106 S0
M106 S255
G1 X9.27 Y14.503 F40
M106 S0
M106 S255
G1 X9.295 Y14.406 F40
M106 S0
M106 S255
G1 X9.318 Y14.308 F40
M106 S0
M106 S255
G1 X9.339 Y14.209 F40
M106 S0
M106 S255
G1 X9.358 Y14.111 F40
M106 S0
M106 S255
G1 X9.375 Y14.012 F40
M106 S0
M106 S255
G1 X9.389 Y13.912 F40
M106 S0
M106 S255
G1 X9.402 Y13.813 F40
M106 S0
M106 S255
G1 X9.412 Y13.713 F40
M106 S0
M106 S255
G1 X9.421 Y13.613 F40
M106 S0
M106 S255
G1 X9.428 Y13.513 F40
M106 S0
M106 S255
G1 X9.434 Y13.413 F40
M106 S0
M106 S255
G1 X9.438 Y13.313 F40
M106 S0
M106 S255
G1 X9.442 Y13.213 F40
M106 S0
M106 S255
G1 X9.445 Y13.112 F40
M106 S0
M106 S255
G1 X9.536 Y13.265 F40
M106 S0
M106 S255
G1 X9.633 Y13.415 F40
M106 S0
M106 S255
G1 X9.739 Y13.558 F40
M106 S0
M106 S255
G1 X9.854 Y13.695 F40
M106 S0
M106 S255
G1 X9.977 Y13.826 F40
M106 S0
M106 S255
G1 X10.108 Y13.948 F40
M106 S0
M106 S255
G1 X10.246 Y14.063 F40
M106 S0
M106 S255
G1 X10.392 Y14.17 F40
M106 S0
M106 S255
G1 X10.543 Y14.269 F40
M106 S0
M106 S255
G1 X10.701 Y14.359 F40
M106 S0
M106 S255
G1 X10.864 Y14.439 F40
M106 S0
M106 S255
G1 X11.031 Y14.509 F40
M106 S0
M106 S255
G1 X11.202 Y14.569 F40
M106 S0
M106 S255
G1 X11.376 Y14.617 F40
M106 S0
M106 S255
G1 X11.552 Y14.653 F40
M106 S0
M106 S255
G1 X11.73 Y14.676 F40
M106 S0
M106 S255
G1 X11.908 Y14.687 F40
M106 S0
M106 S255
G1 X12.087 Y14.683 F40
M106 S0
M106 S255
G1 X12.265 Y14.666 F40
M106 S0
M106 S255
G1 X12.442 Y14.637 F40
M106 S0
M106 S255
G1 X12.617 Y14.594 F40
M106 S0
M106 S255
G1 X12.789 Y14.541 F40
M106 S0
M106 S255
G1 X12.957 Y14.475 F40
M106 S0
M106 S255
G1 X13.121 Y14.4 F40
M106 S0
M106 S255
G1 X13.279 Y14.314 F40
M106 S0
M106 S255
G1 X13.431 Y14.217 F40
M106 S0
M106 S255
G1 X13.575 Y14.111 F40
M106 S0
M106 S255
G1 X13.711 Y13.994 F40
M106 S0
M106 S255
G1 X13.837 Y13.866 F40
M106 S0
M106 S255
G1 X13.951 Y13.728 F40
M106 S0
M106 S255
G1 X14.054 Y13.581 F40
M106 S0
M106 S255
G1 X14.145 Y13.425 F40
M106 S0
M106 S255
G1 X14.223 Y13.263 F40
M106 S0
M106 S255
G1 X14.287 Y13.095 F40
M106 S0
M106 S255
G1 X14.338 Y12.923 F40
M106 S0
M106 S255
G1 X14.374 Y12.748 F40
M106 S0
M106 S255
G1 X14.398 Y12.572 F40
M106 S0
M106 S255
G1 X14.411 Y12.393 F40
M106 S0
M106 S255
G1 X14.414 Y12.214 F40
M106 S0
M106 S255
G1 X14.41 Y12.035 F40
M106 S0
M106 S255
G1 X14.4 Y11.856 F40
M106 S0
M106 S255
G1 X14.385 Y11.677 F40
M106 S0
M106 S255
G1 X14.364 Y11.499 F40
M106 S0
M106 S255
G1 X14.336 Y11.322 F40
M106 S0
M106 S255
G1 X14.302 Y11.147 F40
M106 S0
M106 S255
G1 X14.259 Y10.974 F40
M106 S0
M106 S255
G1 X14.209 Y10.802 F40
M106 S0
M106 S255
G1 X14.149 Y10.633 F40
M106 S0
M106 S255
G1 X14.08 Y10.467 F40
M106 S0
M106 S255
G1 X14.003 Y10.303 F40
M106 S0
M106 S255
G1 X13.917 Y10.144 F40
M106 S0
M106 S255
G1 X13.823 Y9.988 F40
M106 S0
M106 S255
G1 X13.72 Y9.838 F40
M106 S0
M106 S255
G1 X13.611 Y9.693 F40
M106 S0
M106 S255
G1 X13.494 Y9.553 F40
M106 S0
M106 S255
G1 X13.371 Y9.42 F40
M106 S0
M106 S255
G1 X13.241 Y9.295 F40
M106 S0
M106 S255
G1 X13.105 Y9.176 F40
M106 S0
M106 S255
G1 X12.964 Y9.066 F40
M106 S0
M106 S255
G1 X12.817 Y8.965 F40
M106 S0
M106 S255
G1 X12.665 Y8.872 F40
M106 S0
M106 S255
G1 X12.51 Y8.785 F40
M106 S0
M106 S255
G1 X12.351 Y8.705 F40
M106 S0
M106 S255
G1 X12.189 Y8.629 F40
M106 S0
M106 S255
G1 X12.025 Y8.556 F40
M106 S0
M106 S255
G1 X12.114 Y8.554 F40
M106 S0
M106 S255
G1 X12.204 Y8.55 F40
M106 S0
M106 S255
G1 X12.293 Y8.547 F40
M106 S0
M106 S255
G1 X12.382 Y8.543 F40
M106 S0
M106 S255
G1 X12.471 Y8.539 F40
M106 S0
M106 S255
G1 X12.56 Y8.535 F40
M106 S0
M106 S255
G1 X12.649 Y8.53 F40
M106 S0
M106 S255
G1 X12.738 Y8.525 F40
M106 S0
M106 S255
G1 X12.827 Y8.52 F40
M106 S0
M106 S255
G1 X12.916 Y8.514 F40
M106 S0
M106 S255
G1 X13.005 Y8.508 F40
M106 S0
M106 S255
G1 X13.094 Y8.503 F40
M106 S0
M106 S255
G1 X13.183 Y8.497 F40
M106 S0
M106 S255
G1 X13.272 Y8.491 F40
M106 S0
M106 S255
G1 X13.361 Y8.485 F40
M106 S0
M106 S255
G1 X13.45 Y8.478 F40
M106 S0
M106 S255
G1 X13.54 Y8.472 F40
M106 S0
M106 S0
