;GCode generated by Numa's program v0.0
G0 X2.931 Y25.278 F6000
M106 S255
G1 X2.931 Y25.278 F120
M106 S0
M106 S255
G1 X2.931 Y26.056 F120
M106 S0
M106 S255
G1 X7.627 Y26.056 F120
M106 S0
M106 S255
G1 X12.324 Y26.056 F120
M106 S0
M106 S255
G1 X12.324 Y25.278 F120
M106 S0
M106 S255
G1 X7.627 Y25.278 F120
M106 S0
M106 S255
G1 X2.931 Y25.278 F120
M106 S0
G0 X25.972 Y23.636 F6000
M106 S255
G1 X25.972 Y23.636 F120
M106 S0
M106 S255
G1 X25.967 Y23.636 F120
M106 S0
M106 S255
G1 X25.962 Y23.636 F120
M106 S0
M106 S255
G1 X25.958 Y23.636 F120
M106 S0
M106 S255
G1 X25.953 Y23.635 F120
M106 S0
M106 S255
G1 X25.948 Y23.635 F120
M106 S0
M106 S255
G1 X25.943 Y23.635 F120
M106 S0
M106 S255
G1 X25.938 Y23.635 F120
M106 S0
M106 S255
G1 X25.933 Y23.635 F120
M106 S0
M106 S255
G1 X25.928 Y23.635 F120
M106 S0
M106 S255
G1 X25.923 Y23.635 F120
M106 S0
M106 S255
G1 X25.918 Y23.635 F120
M106 S0
M106 S255
G1 X25.913 Y23.635 F120
M106 S0
M106 S255
G1 X25.909 Y23.635 F120
M106 S0
M106 S255
G1 X25.904 Y23.635 F120
M106 S0
M106 S255
G1 X25.899 Y23.635 F120
M106 S0
M106 S255
G1 X25.894 Y23.635 F120
M106 S0
M106 S255
G1 X25.889 Y23.635 F120
M106 S0
M106 S255
G1 X25.884 Y23.635 F120
M106 S0
M106 S255
G1 X25.879 Y23.636 F120
M106 S0
M106 S255
G1 X25.874 Y23.636 F120
M106 S0
M106 S255
G1 X25.869 Y23.636 F120
M106 S0
M106 S255
G1 X25.864 Y23.636 F120
M106 S0
M106 S255
G1 X25.66 Y23.632 F120
M106 S0
M106 S255
G1 X25.455 Y23.628 F120
M106 S0
M106 S255
G1 X25.25 Y23.625 F120
M106 S0
M106 S255
G1 X25.045 Y23.623 F120
M106 S0
M106 S255
G1 X24.84 Y23.622 F120
M106 S0
M106 S255
G1 X24.636 Y23.623 F120
M106 S0
M106 S255
G1 X24.431 Y23.627 F120
M106 S0
M106 S255
G1 X24.226 Y23.633 F120
M106 S0
M106 S255
G1 X24.022 Y23.642 F120
M106 S0
M106 S255
G1 X23.818 Y23.653 F120
M106 S0
M106 S255
G1 X23.613 Y23.667 F120
M106 S0
M106 S255
G1 X23.409 Y23.683 F120
M106 S0
M106 S255
G1 X23.205 Y23.701 F120
M106 S0
M106 S255
G1 X23.001 Y23.72 F120
M106 S0
M106 S255
G1 X22.797 Y23.741 F120
M106 S0
M106 S255
G1 X22.594 Y23.762 F120
M106 S0
M106 S255
G1 X22.39 Y23.783 F120
M106 S0
M106 S255
G1 X22.186 Y23.805 F120
M106 S0
M106 S255
G1 X21.983 Y23.826 F120
M106 S0
M106 S255
G1 X21.779 Y23.848 F120
M106 S0
M106 S255
G1 X21.575 Y23.869 F120
M106 S0
M106 S255
G1 X21.372 Y23.891 F120
M106 S0
M106 S255
G1 X21.168 Y23.912 F120
M106 S0
M106 S255
G1 X21.168 Y24.748 F120
M106 S0
M106 S255
G1 X25.864 Y24.748 F120
M106 S0
M106 S255
G1 X25.918 Y24.748 F120
M106 S0
M106 S255
G1 X25.972 Y24.748 F120
M106 S0
M106 S255
G1 X30.669 Y24.748 F120
M106 S0
M106 S255
G1 X30.669 Y23.912 F120
M106 S0
M106 S255
G1 X30.465 Y23.891 F120
M106 S0
M106 S255
G1 X30.261 Y23.869 F120
M106 S0
M106 S255
G1 X30.058 Y23.848 F120
M106 S0
M106 S255
G1 X29.854 Y23.826 F120
M106 S0
M106 S255
G1 X29.651 Y23.805 F120
M106 S0
M106 S255
G1 X29.447 Y23.783 F120
M106 S0
M106 S255
G1 X29.243 Y23.762 F120
M106 S0
M106 S255
G1 X29.039 Y23.741 F120
M106 S0
M106 S255
G1 X28.835 Y23.72 F120
M106 S0
M106 S255
G1 X28.631 Y23.701 F120
M106 S0
M106 S255
G1 X28.427 Y23.683 F120
M106 S0
M106 S255
G1 X28.223 Y23.667 F120
M106 S0
M106 S255
G1 X28.019 Y23.653 F120
M106 S0
M106 S255
G1 X27.815 Y23.642 F120
M106 S0
M106 S255
G1 X27.61 Y23.633 F120
M106 S0
M106 S255
G1 X27.406 Y23.627 F120
M106 S0
M106 S255
G1 X27.201 Y23.623 F120
M106 S0
M106 S255
G1 X26.997 Y23.622 F120
M106 S0
M106 S255
G1 X26.792 Y23.623 F120
M106 S0
M106 S255
G1 X26.587 Y23.625 F120
M106 S0
M106 S255
G1 X26.382 Y23.628 F120
M106 S0
M106 S255
G1 X26.177 Y23.632 F120
M106 S0
M106 S255
G1 X25.972 Y23.636 F120
M106 S0
G0 X25.918 Y27.688 F6000
M106 S255
G1 X25.918 Y27.688 F120
M106 S0
M106 S255
G1 X25.913 Y27.688 F120
M106 S0
M106 S255
G1 X25.909 Y27.688 F120
M106 S0
M106 S255
G1 X25.904 Y27.688 F120
M106 S0
M106 S255
G1 X25.899 Y27.688 F120
M106 S0
M106 S255
G1 X25.894 Y27.688 F120
M106 S0
M106 S255
G1 X25.889 Y27.689 F120
M106 S0
M106 S255
G1 X25.884 Y27.689 F120
M106 S0
M106 S255
G1 X25.879 Y27.689 F120
M106 S0
M106 S255
G1 X25.874 Y27.689 F120
M106 S0
M106 S255
G1 X25.869 Y27.689 F120
M106 S0
M106 S255
G1 X25.864 Y27.689 F120
M106 S0
M106 S255
G1 X25.588 Y27.681 F120
M106 S0
M106 S255
G1 X25.312 Y27.674 F120
M106 S0
M106 S255
G1 X25.036 Y27.666 F120
M106 S0
M106 S255
G1 X24.759 Y27.658 F120
M106 S0
M106 S255
G1 X24.483 Y27.65 F120
M106 S0
M106 S255
G1 X24.207 Y27.642 F120
M106 S0
M106 S255
G1 X23.931 Y27.633 F120
M106 S0
M106 S255
G1 X23.654 Y27.625 F120
M106 S0
M106 S255
G1 X23.378 Y27.617 F120
M106 S0
M106 S255
G1 X23.102 Y27.608 F120
M106 S0
M106 S255
G1 X22.826 Y27.6 F120
M106 S0
M106 S255
G1 X22.549 Y27.591 F120
M106 S0
M106 S255
G1 X22.273 Y27.583 F120
M106 S0
M106 S255
G1 X21.997 Y27.574 F120
M106 S0
M106 S255
G1 X21.721 Y27.565 F120
M106 S0
M106 S255
G1 X21.444 Y27.557 F120
M106 S0
M106 S255
G1 X21.168 Y27.548 F120
M106 S0
M106 S255
G1 X21.168 Y26.592 F120
M106 S0
M106 S255
G1 X25.864 Y26.592 F120
M106 S0
M106 S255
G1 X25.918 Y26.592 F120
M106 S0
M106 S255
G1 X25.972 Y26.592 F120
M106 S0
M106 S255
G1 X30.669 Y26.592 F120
M106 S0
M106 S255
G1 X30.669 Y27.548 F120
M106 S0
M106 S255
G1 X30.392 Y27.557 F120
M106 S0
M106 S255
G1 X30.116 Y27.565 F120
M106 S0
M106 S255
G1 X29.84 Y27.574 F120
M106 S0
M106 S255
G1 X29.564 Y27.583 F120
M106 S0
M106 S255
G1 X29.287 Y27.591 F120
M106 S0
M106 S255
G1 X29.011 Y27.6 F120
M106 S0
M106 S255
G1 X28.735 Y27.608 F120
M106 S0
M106 S255
G1 X28.459 Y27.617 F120
M106 S0
M106 S255
G1 X28.182 Y27.625 F120
M106 S0
M106 S255
G1 X27.906 Y27.633 F120
M106 S0
M106 S255
G1 X27.63 Y27.642 F120
M106 S0
M106 S255
G1 X27.354 Y27.65 F120
M106 S0
M106 S255
G1 X27.077 Y27.658 F120
M106 S0
M106 S255
G1 X26.801 Y27.666 F120
M106 S0
M106 S255
G1 X26.525 Y27.674 F120
M106 S0
M106 S255
G1 X26.249 Y27.681 F120
M106 S0
M106 S255
G1 X25.972 Y27.689 F120
M106 S0
M106 S255
G1 X25.967 Y27.689 F120
M106 S0
M106 S255
G1 X25.962 Y27.689 F120
M106 S0
M106 S255
G1 X25.958 Y27.689 F120
M106 S0
M106 S255
G1 X25.953 Y27.689 F120
M106 S0
M106 S255
G1 X25.948 Y27.689 F120
M106 S0
M106 S255
G1 X25.943 Y27.688 F120
M106 S0
M106 S255
G1 X25.938 Y27.688 F120
M106 S0
M106 S255
G1 X25.933 Y27.688 F120
M106 S0
M106 S255
G1 X25.928 Y27.688 F120
M106 S0
M106 S255
G1 X25.923 Y27.688 F120
M106 S0
M106 S255
G1 X25.918 Y27.688 F120
M106 S0
G0 X25.864 Y26.047 F6000
M106 S255
G1 X25.864 Y26.047 F120
M106 S0
M106 S255
G1 X21.168 Y26.047 F120
M106 S0
M106 S255
G1 X21.168 Y25.269 F120
M106 S0
M106 S255
G1 X25.864 Y25.269 F120
M106 S0
M106 S255
G1 X25.918 Y25.269 F120
M106 S0
M106 S255
G1 X25.972 Y25.269 F120
M106 S0
M106 S255
G1 X30.669 Y25.269 F120
M106 S0
M106 S255
G1 X30.669 Y26.047 F120
M106 S0
M106 S255
G1 X25.972 Y26.047 F120
M106 S0
M106 S255
G1 X25.918 Y26.047 F120
M106 S0
M106 S255
G1 X25.864 Y26.047 F120
M106 S0
G0 X36.872 Y25.281 F6000
M106 S255
G1 X36.872 Y25.281 F120
M106 S0
M106 S255
G1 X45.41 Y25.281 F120
M106 S0
G0 X37.527 Y26.573 F6000
M106 S255
G1 X37.527 Y26.573 F120
M106 S0
M106 S255
G1 X44.755 Y26.573 F120
M106 S0
G0 X38.448 Y27.829 F6000
M106 S255
G1 X38.448 Y27.829 F120
M106 S0
M106 S255
G1 X43.834 Y27.829 F120
M106 S0
G0 X38.448 Y31.436 F6000
M106 S255
G1 X38.448 Y31.436 F120
M106 S0
M106 S255
G1 X43.834 Y31.436 F120
M106 S0
G0 X37.53 Y32.708 F6000
M106 S255
G1 X37.53 Y32.708 F120
M106 S0
M106 S255
G1 X44.752 Y32.708 F120
M106 S0
G0 X27.541 Y28.261 F6000
M106 S255
G1 X27.541 Y28.261 F120
M106 S0
M106 S255
G1 X28.817 Y32.006 F120
M106 S0
M106 S255
G1 X29.176 Y28.212 F120
M106 S0
M106 S255
G1 X29.027 Y28.216 F120
M106 S0
M106 S255
G1 X28.878 Y28.221 F120
M106 S0
M106 S255
G1 X28.73 Y28.225 F120
M106 S0
M106 S255
G1 X28.581 Y28.23 F120
M106 S0
M106 S255
G1 X28.433 Y28.234 F120
M106 S0
M106 S255
G1 X28.284 Y28.238 F120
M106 S0
M106 S255
G1 X28.135 Y28.243 F120
M106 S0
M106 S255
G1 X27.987 Y28.247 F120
M106 S0
M106 S255
G1 X27.838 Y28.252 F120
M106 S0
M106 S255
G1 X27.69 Y28.256 F120
M106 S0
M106 S255
G1 X27.541 Y28.261 F120
M106 S0
G0 X29.581 Y28.2 F6000
M106 S255
G1 X29.581 Y28.2 F120
M106 S0
M106 S255
G1 X31.147 Y30.737 F120
M106 S0
M106 S255
G1 X30.662 Y28.155 F120
M106 S0
M106 S255
G1 X30.642 Y28.156 F120
M106 S0
M106 S255
G1 X30.621 Y28.157 F120
M106 S0
M106 S255
G1 X30.601 Y28.159 F120
M106 S0
M106 S255
G1 X30.581 Y28.16 F120
M106 S0
M106 S255
G1 X30.56 Y28.161 F120
M106 S0
M106 S255
G1 X30.54 Y28.162 F120
M106 S0
M106 S255
G1 X30.519 Y28.163 F120
M106 S0
M106 S255
G1 X30.499 Y28.164 F120
M106 S0
M106 S255
G1 X30.479 Y28.165 F120
M106 S0
M106 S255
G1 X30.458 Y28.167 F120
M106 S0
M106 S255
G1 X30.438 Y28.168 F120
M106 S0
M106 S255
G1 X30.417 Y28.169 F120
M106 S0
M106 S255
G1 X30.397 Y28.17 F120
M106 S0
M106 S255
G1 X30.377 Y28.171 F120
M106 S0
M106 S255
G1 X30.356 Y28.172 F120
M106 S0
M106 S255
G1 X30.336 Y28.173 F120
M106 S0
M106 S255
G1 X30.315 Y28.174 F120
M106 S0
M106 S255
G1 X30.295 Y28.175 F120
M106 S0
M106 S255
G1 X30.275 Y28.176 F120
M106 S0
M106 S255
G1 X30.254 Y28.177 F120
M106 S0
M106 S255
G1 X30.234 Y28.178 F120
M106 S0
M106 S255
G1 X30.213 Y28.179 F120
M106 S0
M106 S255
G1 X30.193 Y28.18 F120
M106 S0
M106 S255
G1 X30.173 Y28.18 F120
M106 S0
M106 S255
G1 X30.152 Y28.181 F120
M106 S0
M106 S255
G1 X30.132 Y28.182 F120
M106 S0
M106 S255
G1 X30.111 Y28.183 F120
M106 S0
M106 S255
G1 X30.091 Y28.184 F120
M106 S0
M106 S255
G1 X30.071 Y28.185 F120
M106 S0
M106 S255
G1 X30.05 Y28.185 F120
M106 S0
M106 S255
G1 X30.03 Y28.186 F120
M106 S0
M106 S255
G1 X30.009 Y28.187 F120
M106 S0
M106 S255
G1 X29.989 Y28.188 F120
M106 S0
M106 S255
G1 X29.969 Y28.188 F120
M106 S0
M106 S255
G1 X29.948 Y28.189 F120
M106 S0
M106 S255
G1 X29.928 Y28.19 F120
M106 S0
M106 S255
G1 X29.907 Y28.19 F120
M106 S0
M106 S255
G1 X29.887 Y28.191 F120
M106 S0
M106 S255
G1 X29.867 Y28.192 F120
M106 S0
M106 S255
G1 X29.846 Y28.192 F120
M106 S0
M106 S255
G1 X29.826 Y28.193 F120
M106 S0
M106 S255
G1 X29.805 Y28.193 F120
M106 S0
M106 S255
G1 X29.785 Y28.194 F120
M106 S0
M106 S255
G1 X29.765 Y28.195 F120
M106 S0
M106 S255
G1 X29.744 Y28.195 F120
M106 S0
M106 S255
G1 X29.724 Y28.196 F120
M106 S0
M106 S255
G1 X29.703 Y28.196 F120
M106 S0
M106 S255
G1 X29.683 Y28.197 F120
M106 S0
M106 S255
G1 X29.662 Y28.198 F120
M106 S0
M106 S255
G1 X29.642 Y28.198 F120
M106 S0
M106 S255
G1 X29.622 Y28.199 F120
M106 S0
M106 S255
G1 X29.601 Y28.199 F120
M106 S0
M106 S255
G1 X29.581 Y28.2 F120
M106 S0
G0 X25.918 Y33.309 F6000
M106 S255
G1 X25.918 Y33.309 F120
M106 S0
M106 S255
G1 X24.769 Y28.275 F120
M106 S0
M106 S255
G1 X24.873 Y28.278 F120
M106 S0
M106 S255
G1 X24.978 Y28.281 F120
M106 S0
M106 S255
G1 X25.082 Y28.284 F120
M106 S0
M106 S255
G1 X25.187 Y28.287 F120
M106 S0
M106 S255
G1 X25.291 Y28.29 F120
M106 S0
M106 S255
G1 X25.396 Y28.293 F120
M106 S0
M106 S255
G1 X25.5 Y28.296 F120
M106 S0
M106 S255
G1 X25.605 Y28.299 F120
M106 S0
M106 S255
G1 X25.709 Y28.302 F120
M106 S0
M106 S255
G1 X25.814 Y28.306 F120
M106 S0
M106 S255
G1 X25.918 Y28.309 F120
M106 S0
M106 S255
G1 X26.023 Y28.306 F120
M106 S0
M106 S255
G1 X26.127 Y28.302 F120
M106 S0
M106 S255
G1 X26.232 Y28.299 F120
M106 S0
M106 S255
G1 X26.336 Y28.296 F120
M106 S0
M106 S255
G1 X26.441 Y28.293 F120
M106 S0
M106 S255
G1 X26.545 Y28.29 F120
M106 S0
M106 S255
G1 X26.65 Y28.287 F120
M106 S0
M106 S255
G1 X26.754 Y28.284 F120
M106 S0
M106 S255
G1 X26.859 Y28.281 F120
M106 S0
M106 S255
G1 X26.963 Y28.278 F120
M106 S0
M106 S255
G1 X27.068 Y28.275 F120
M106 S0
M106 S255
G1 X25.918 Y33.309 F120
M106 S0
G0 X24.296 Y28.261 F6000
M106 S255
G1 X24.296 Y28.261 F120
M106 S0
M106 S255
G1 X23.019 Y32.006 F120
M106 S0
M106 S255
G1 X22.661 Y28.212 F120
M106 S0
M106 S255
G1 X22.81 Y28.216 F120
M106 S0
M106 S255
G1 X22.958 Y28.221 F120
M106 S0
M106 S255
G1 X23.107 Y28.225 F120
M106 S0
M106 S255
G1 X23.256 Y28.23 F120
M106 S0
M106 S255
G1 X23.404 Y28.234 F120
M106 S0
M106 S255
G1 X23.553 Y28.238 F120
M106 S0
M106 S255
G1 X23.701 Y28.243 F120
M106 S0
M106 S255
G1 X23.85 Y28.247 F120
M106 S0
M106 S255
G1 X23.999 Y28.252 F120
M106 S0
M106 S255
G1 X24.147 Y28.256 F120
M106 S0
M106 S255
G1 X24.296 Y28.261 F120
M106 S0
G0 X22.256 Y28.2 F6000
M106 S255
G1 X22.256 Y28.2 F120
M106 S0
M106 S255
G1 X20.69 Y30.737 F120
M106 S0
M106 S255
G1 X21.175 Y28.155 F120
M106 S0
M106 S255
G1 X21.195 Y28.156 F120
M106 S0
M106 S255
G1 X21.215 Y28.157 F120
M106 S0
M106 S255
G1 X21.236 Y28.159 F120
M106 S0
M106 S255
G1 X21.256 Y28.16 F120
M106 S0
M106 S255
G1 X21.277 Y28.161 F120
M106 S0
M106 S255
G1 X21.297 Y28.162 F120
M106 S0
M106 S255
G1 X21.317 Y28.163 F120
M106 S0
M106 S255
G1 X21.338 Y28.164 F120
M106 S0
M106 S255
G1 X21.358 Y28.165 F120
M106 S0
M106 S255
G1 X21.378 Y28.167 F120
M106 S0
M106 S255
G1 X21.399 Y28.168 F120
M106 S0
M106 S255
G1 X21.419 Y28.169 F120
M106 S0
M106 S255
G1 X21.44 Y28.17 F120
M106 S0
M106 S255
G1 X21.46 Y28.171 F120
M106 S0
M106 S255
G1 X21.48 Y28.172 F120
M106 S0
M106 S255
G1 X21.501 Y28.173 F120
M106 S0
M106 S255
G1 X21.521 Y28.174 F120
M106 S0
M106 S255
G1 X21.542 Y28.175 F120
M106 S0
M106 S255
G1 X21.562 Y28.176 F120
M106 S0
M106 S255
G1 X21.582 Y28.177 F120
M106 S0
M106 S255
G1 X21.603 Y28.178 F120
M106 S0
M106 S255
G1 X21.623 Y28.179 F120
M106 S0
M106 S255
G1 X21.644 Y28.18 F120
M106 S0
M106 S255
G1 X21.664 Y28.18 F120
M106 S0
M106 S255
G1 X21.684 Y28.181 F120
M106 S0
M106 S255
G1 X21.705 Y28.182 F120
M106 S0
M106 S255
G1 X21.725 Y28.183 F120
M106 S0
M106 S255
G1 X21.746 Y28.184 F120
M106 S0
M106 S255
G1 X21.766 Y28.185 F120
M106 S0
M106 S255
G1 X21.786 Y28.185 F120
M106 S0
M106 S255
G1 X21.807 Y28.186 F120
M106 S0
M106 S255
G1 X21.827 Y28.187 F120
M106 S0
M106 S255
G1 X21.848 Y28.188 F120
M106 S0
M106 S255
G1 X21.868 Y28.188 F120
M106 S0
M106 S255
G1 X21.889 Y28.189 F120
M106 S0
M106 S255
G1 X21.909 Y28.19 F120
M106 S0
M106 S255
G1 X21.929 Y28.19 F120
M106 S0
M106 S255
G1 X21.95 Y28.191 F120
M106 S0
M106 S255
G1 X21.97 Y28.192 F120
M106 S0
M106 S255
G1 X21.991 Y28.192 F120
M106 S0
M106 S255
G1 X22.011 Y28.193 F120
M106 S0
M106 S255
G1 X22.031 Y28.193 F120
M106 S0
M106 S255
G1 X22.052 Y28.194 F120
M106 S0
M106 S255
G1 X22.072 Y28.195 F120
M106 S0
M106 S255
G1 X22.093 Y28.195 F120
M106 S0
M106 S255
G1 X22.113 Y28.196 F120
M106 S0
M106 S255
G1 X22.133 Y28.196 F120
M106 S0
M106 S255
G1 X22.154 Y28.197 F120
M106 S0
M106 S255
G1 X22.174 Y28.198 F120
M106 S0
M106 S255
G1 X22.195 Y28.198 F120
M106 S0
M106 S255
G1 X22.215 Y28.199 F120
M106 S0
M106 S255
G1 X22.236 Y28.199 F120
M106 S0
M106 S255
G1 X22.256 Y28.2 F120
M106 S0
G0 X8.448 Y28.44 F6000
M106 S255
G1 X8.448 Y28.44 F120
M106 S0
M106 S255
G1 X8.525 Y28.423 F120
M106 S0
M106 S255
G1 X8.648 Y28.395 F120
M106 S0
M106 S255
G1 X8.773 Y28.368 F120
M106 S0
M106 S255
G1 X8.897 Y28.343 F120
M106 S0
M106 S255
G1 X9.021 Y28.321 F120
M106 S0
M106 S255
G1 X9.146 Y28.303 F120
M106 S0
M106 S255
G1 X9.271 Y28.29 F120
M106 S0
M106 S255
G1 X9.346 Y28.284 F120
M106 S0
M106 S255
G1 X9.522 Y28.279 F120
M106 S0
M106 S255
G1 X9.648 Y28.282 F120
M106 S0
M106 S255
G1 X9.774 Y28.291 F120
M106 S0
M106 S255
G1 X9.9 Y28.304 F120
M106 S0
M106 S255
G1 X10.026 Y28.322 F120
M106 S0
M106 S255
G1 X10.151 Y28.345 F120
M106 S0
M106 S255
G1 X10.276 Y28.372 F120
M106 S0
M106 S255
G1 X10.4 Y28.403 F120
M106 S0
M106 S255
G1 X10.513 Y28.435 F120
M106 S0
M106 S255
G1 X10.646 Y28.477 F120
M106 S0
M106 S255
G1 X10.766 Y28.519 F120
M106 S0
M106 S255
G1 X10.886 Y28.565 F120
M106 S0
M106 S255
G1 X11.004 Y28.614 F120
M106 S0
M106 S255
G1 X11.121 Y28.667 F120
M106 S0
M106 S255
G1 X11.235 Y28.723 F120
M106 S0
M106 S255
G1 X11.348 Y28.783 F120
M106 S0
M106 S255
G1 X11.459 Y28.847 F120
M106 S0
M106 S255
G1 X11.568 Y28.914 F120
M106 S0
M106 S255
G1 X11.674 Y28.984 F120
M106 S0
M106 S255
G1 X11.778 Y29.058 F120
M106 S0
M106 S255
G1 X11.879 Y29.135 F120
M106 S0
M106 S255
G1 X11.977 Y29.215 F120
M106 S0
M106 S255
G1 X12.073 Y29.299 F120
M106 S0
M106 S255
G1 X12.166 Y29.387 F120
M106 S0
M106 S255
G1 X12.217 Y29.438 F120
M106 S0
M106 S255
G1 X12.341 Y29.572 F120
M106 S0
M106 S255
G1 X12.424 Y29.669 F120
M106 S0
M106 S255
G1 X12.503 Y29.769 F120
M106 S0
M106 S255
G1 X12.579 Y29.872 F120
M106 S0
M106 S255
G1 X12.651 Y29.977 F120
M106 S0
M106 S255
G1 X12.719 Y30.085 F120
M106 S0
M106 S255
G1 X12.782 Y30.196 F120
M106 S0
M106 S255
G1 X12.842 Y30.308 F120
M106 S0
M106 S255
G1 X12.898 Y30.423 F120
M106 S0
M106 S255
G1 X12.949 Y30.539 F120
M106 S0
M106 S255
G1 X12.995 Y30.657 F120
M106 S0
M106 S255
G1 X13.035 Y30.77 F120
M106 S0
M106 S255
G1 X13.074 Y30.898 F120
M106 S0
M106 S255
G1 X13.107 Y31.02 F120
M106 S0
M106 S255
G1 X13.134 Y31.143 F120
M106 S0
M106 S255
G1 X13.158 Y31.268 F120
M106 S0
M106 S255
G1 X13.172 Y31.362 F120
M106 S0
M106 S255
G1 X13.191 Y31.519 F120
M106 S0
M106 S255
G1 X13.201 Y31.645 F120
M106 S0
M106 S255
G1 X13.205 Y31.772 F120
M106 S0
M106 S255
G1 X13.205 Y31.898 F120
M106 S0
M106 S255
G1 X13.198 Y32.025 F120
M106 S0
M106 S255
G1 X13.185 Y32.151 F120
M106 S0
M106 S255
G1 X13.172 Y32.241 F120
M106 S0
M106 S255
G1 X13.141 Y32.402 F120
M106 S0
M106 S255
G1 X13.108 Y32.525 F120
M106 S0
M106 S255
G1 X13.068 Y32.646 F120
M106 S0
M106 S255
G1 X13.02 Y32.764 F120
M106 S0
M106 S255
G1 X12.964 Y32.878 F120
M106 S0
M106 S255
G1 X12.877 Y33.023 F120
M106 S0
M106 S255
G1 X12.828 Y33.092 F120
M106 S0
M106 S255
G1 X12.747 Y33.191 F120
M106 S0
M106 S255
G1 X12.658 Y33.282 F120
M106 S0
M106 S255
G1 X12.562 Y33.366 F120
M106 S0
M106 S255
G1 X12.46 Y33.442 F120
M106 S0
M106 S255
G1 X12.368 Y33.499 F120
M106 S0
M106 S255
G1 X12.238 Y33.565 F120
M106 S0
M106 S255
G1 X12.12 Y33.612 F120
M106 S0
M106 S255
G1 X11.998 Y33.65 F120
M106 S0
M106 S255
G1 X11.874 Y33.679 F120
M106 S0
M106 S255
G1 X11.757 Y33.698 F120
M106 S0
M106 S255
G1 X11.623 Y33.71 F120
M106 S0
M106 S255
G1 X11.497 Y33.713 F120
M106 S0
M106 S255
G1 X11.37 Y33.709 F120
M106 S0
M106 S255
G1 X11.235 Y33.698 F120
M106 S0
M106 S255
G1 X11.118 Y33.681 F120
M106 S0
M106 S255
G1 X10.993 Y33.657 F120
M106 S0
M106 S255
G1 X10.871 Y33.624 F120
M106 S0
M106 S255
G1 X10.748 Y33.581 F120
M106 S0
M106 S255
G1 X10.637 Y33.531 F120
M106 S0
M106 S255
G1 X10.526 Y33.471 F120
M106 S0
M106 S255
G1 X10.419 Y33.403 F120
M106 S0
M106 S255
G1 X10.316 Y33.328 F120
M106 S0
M106 S255
G1 X10.217 Y33.247 F120
M106 S0
M106 S255
G1 X10.122 Y33.161 F120
M106 S0
M106 S255
G1 X10.006 Y33.046 F120
M106 S0
M106 S255
G1 X9.943 Y32.978 F120
M106 S0
M106 S255
G1 X9.858 Y32.883 F120
M106 S0
M106 S255
G1 X9.777 Y32.786 F120
M106 S0
M106 S255
G1 X9.7 Y32.686 F120
M106 S0
M106 S255
G1 X9.625 Y32.584 F120
M106 S0
M106 S255
G1 X9.553 Y32.48 F120
M106 S0
M106 S255
G1 X9.484 Y32.375 F120
M106 S0
M106 S255
G1 X9.436 Y32.298 F120
M106 S0
M106 S255
G1 X9.354 Y32.159 F120
M106 S0
M106 S255
G1 X9.293 Y32.049 F120
M106 S0
M106 S255
G1 X9.234 Y31.938 F120
M106 S0
M106 S255
G1 X9.177 Y31.825 F120
M106 S0
M106 S255
G1 X9.121 Y31.711 F120
M106 S0
M106 S255
G1 X9.044 Y31.543 F120
M106 S0
M106 S255
G1 X9.017 Y31.479 F120
M106 S0
M106 S255
G1 X8.967 Y31.362 F120
M106 S0
M106 S255
G1 X8.919 Y31.244 F120
M106 S0
M106 S255
G1 X8.873 Y31.125 F120
M106 S0
M106 S255
G1 X8.83 Y31.007 F120
M106 S0
M106 S255
G1 X8.789 Y30.888 F120
M106 S0
M106 S255
G1 X8.742 Y30.738 F120
M106 S0
M106 S255
G1 X8.716 Y30.651 F120
M106 S0
M106 S255
G1 X8.685 Y30.532 F120
M106 S0
M106 S255
G1 X8.655 Y30.413 F120
M106 S0
M106 S255
G1 X8.628 Y30.293 F120
M106 S0
M106 S255
G1 X8.603 Y30.171 F120
M106 S0
M106 S255
G1 X8.579 Y30.046 F120
M106 S0
M106 S255
G1 X8.557 Y29.918 F120
M106 S0
M106 S255
G1 X8.529 Y29.743 F120
M106 S0
M106 S255
G1 X8.515 Y29.65 F120
M106 S0
M106 S255
G1 X8.495 Y29.511 F120
M106 S0
M106 S255
G1 X8.476 Y29.371 F120
M106 S0
M106 S255
G1 X8.458 Y29.234 F120
M106 S0
M106 S255
G1 X8.442 Y29.103 F120
M106 S0
M106 S255
G1 X8.428 Y28.979 F120
M106 S0
M106 S255
G1 X8.417 Y28.865 F120
M106 S0
M106 S255
G1 X8.405 Y28.727 F120
M106 S0
M106 S255
G1 X8.402 Y28.68 F120
M106 S0
M106 S255
G1 X8.399 Y28.61 F120
M106 S0
M106 S255
G1 X8.399 Y28.551 F120
M106 S0
M106 S255
G1 X8.399 Y28.499 F120
M106 S0
M106 S255
G1 X8.448 Y28.44 F120
M106 S0
G0 X7.627 Y24.756 F6000
M106 S255
G1 X7.627 Y24.756 F120
M106 S0
M106 S255
G1 X2.931 Y24.756 F120
M106 S0
M106 S255
G1 X2.931 Y23.921 F120
M106 S0
M106 S255
G1 X3.135 Y23.9 F120
M106 S0
M106 S255
G1 X3.338 Y23.878 F120
M106 S0
M106 S255
G1 X3.542 Y23.857 F120
M106 S0
M106 S255
G1 X3.745 Y23.835 F120
M106 S0
M106 S255
G1 X3.949 Y23.814 F120
M106 S0
M106 S255
G1 X4.153 Y23.792 F120
M106 S0
M106 S255
G1 X4.357 Y23.771 F120
M106 S0
M106 S255
G1 X4.56 Y23.75 F120
M106 S0
M106 S255
G1 X4.764 Y23.729 F120
M106 S0
M106 S255
G1 X4.968 Y23.71 F120
M106 S0
M106 S255
G1 X5.172 Y23.692 F120
M106 S0
M106 S255
G1 X5.376 Y23.676 F120
M106 S0
M106 S255
G1 X5.581 Y23.662 F120
M106 S0
M106 S255
G1 X5.785 Y23.65 F120
M106 S0
M106 S255
G1 X5.989 Y23.642 F120
M106 S0
M106 S255
G1 X6.194 Y23.636 F120
M106 S0
M106 S255
G1 X6.398 Y23.632 F120
M106 S0
M106 S255
G1 X6.603 Y23.631 F120
M106 S0
M106 S255
G1 X6.808 Y23.632 F120
M106 S0
M106 S255
G1 X7.013 Y23.634 F120
M106 S0
M106 S255
G1 X7.218 Y23.637 F120
M106 S0
M106 S255
G1 X7.422 Y23.641 F120
M106 S0
M106 S255
G1 X7.627 Y23.645 F120
M106 S0
M106 S255
G1 X7.832 Y23.641 F120
M106 S0
M106 S255
G1 X8.037 Y23.637 F120
M106 S0
M106 S255
G1 X8.242 Y23.634 F120
M106 S0
M106 S255
G1 X8.447 Y23.632 F120
M106 S0
M106 S255
G1 X8.652 Y23.631 F120
M106 S0
M106 S255
G1 X8.856 Y23.632 F120
M106 S0
M106 S255
G1 X9.061 Y23.636 F120
M106 S0
M106 S255
G1 X9.265 Y23.642 F120
M106 S0
M106 S255
G1 X9.47 Y23.65 F120
M106 S0
M106 S255
G1 X9.674 Y23.662 F120
M106 S0
M106 S255
G1 X9.878 Y23.676 F120
M106 S0
M106 S255
G1 X10.082 Y23.692 F120
M106 S0
M106 S255
G1 X10.286 Y23.71 F120
M106 S0
M106 S255
G1 X10.49 Y23.729 F120
M106 S0
M106 S255
G1 X10.694 Y23.75 F120
M106 S0
M106 S255
G1 X10.898 Y23.771 F120
M106 S0
M106 S255
G1 X11.102 Y23.792 F120
M106 S0
M106 S255
G1 X11.306 Y23.814 F120
M106 S0
M106 S255
G1 X11.509 Y23.835 F120
M106 S0
M106 S255
G1 X11.713 Y23.857 F120
M106 S0
M106 S255
G1 X11.916 Y23.878 F120
M106 S0
M106 S255
G1 X12.12 Y23.9 F120
M106 S0
M106 S255
G1 X12.324 Y23.921 F120
M106 S0
M106 S255
G1 X12.324 Y24.756 F120
M106 S0
M106 S255
G1 X7.627 Y24.756 F120
M106 S0
G0 X7.627 Y26.601 F6000
M106 S255
G1 X7.627 Y26.601 F120
M106 S0
M106 S255
G1 X12.324 Y26.601 F120
M106 S0
M106 S255
G1 X12.324 Y27.557 F120
M106 S0
M106 S255
G1 X12.047 Y27.565 F120
M106 S0
M106 S255
G1 X11.771 Y27.574 F120
M106 S0
M106 S255
G1 X11.495 Y27.583 F120
M106 S0
M106 S255
G1 X11.219 Y27.592 F120
M106 S0
M106 S255
G1 X10.942 Y27.6 F120
M106 S0
M106 S255
G1 X10.666 Y27.609 F120
M106 S0
M106 S255
G1 X10.39 Y27.617 F120
M106 S0
M106 S255
G1 X10.114 Y27.626 F120
M106 S0
M106 S255
G1 X9.837 Y27.634 F120
M106 S0
M106 S255
G1 X9.561 Y27.642 F120
M106 S0
M106 S255
G1 X9.285 Y27.65 F120
M106 S0
M106 S255
G1 X9.009 Y27.659 F120
M106 S0
M106 S255
G1 X8.732 Y27.667 F120
M106 S0
M106 S255
G1 X8.456 Y27.675 F120
M106 S0
M106 S255
G1 X8.18 Y27.682 F120
M106 S0
M106 S255
G1 X7.904 Y27.69 F120
M106 S0
M106 S255
G1 X7.627 Y27.698 F120
M106 S0
M106 S255
G1 X7.351 Y27.69 F120
M106 S0
M106 S255
G1 X7.075 Y27.682 F120
M106 S0
M106 S255
G1 X6.799 Y27.675 F120
M106 S0
M106 S255
G1 X6.522 Y27.667 F120
M106 S0
M106 S255
G1 X6.246 Y27.659 F120
M106 S0
M106 S255
G1 X5.97 Y27.65 F120
M106 S0
M106 S255
G1 X5.694 Y27.642 F120
M106 S0
M106 S255
G1 X5.417 Y27.634 F120
M106 S0
M106 S255
G1 X5.141 Y27.626 F120
M106 S0
M106 S255
G1 X4.865 Y27.617 F120
M106 S0
M106 S255
G1 X4.589 Y27.609 F120
M106 S0
M106 S255
G1 X4.312 Y27.6 F120
M106 S0
M106 S255
G1 X4.036 Y27.592 F120
M106 S0
M106 S255
G1 X3.76 Y27.583 F120
M106 S0
M106 S255
G1 X3.484 Y27.574 F120
M106 S0
M106 S255
G1 X3.207 Y27.565 F120
M106 S0
M106 S255
G1 X2.931 Y27.557 F120
M106 S0
M106 S255
G1 X2.931 Y26.601 F120
M106 S0
M106 S255
G1 X7.627 Y26.601 F120
M106 S0
G0 X7.627 Y28.814 F6000
M106 S255
G1 X7.627 Y28.814 F120
M106 S0
M106 S255
G1 X7.659 Y28.924 F120
M106 S0
M106 S255
G1 X7.688 Y29.034 F120
M106 S0
M106 S255
G1 X7.715 Y29.145 F120
M106 S0
M106 S255
G1 X7.74 Y29.257 F120
M106 S0
M106 S255
G1 X7.763 Y29.369 F120
M106 S0
M106 S255
G1 X7.785 Y29.481 F120
M106 S0
M106 S255
G1 X7.805 Y29.594 F120
M106 S0
M106 S255
G1 X7.825 Y29.707 F120
M106 S0
M106 S255
G1 X7.845 Y29.819 F120
M106 S0
M106 S255
G1 X7.864 Y29.932 F120
M106 S0
M106 S255
G1 X7.885 Y30.045 F120
M106 S0
M106 S255
G1 X7.906 Y30.158 F120
M106 S0
M106 S255
G1 X7.928 Y30.27 F120
M106 S0
M106 S255
G1 X7.951 Y30.382 F120
M106 S0
M106 S255
G1 X7.974 Y30.494 F120
M106 S0
M106 S255
G1 X7.998 Y30.606 F120
M106 S0
M106 S255
G1 X8.021 Y30.718 F120
M106 S0
M106 S255
G1 X8.045 Y30.83 F120
M106 S0
M106 S255
G1 X8.067 Y30.942 F120
M106 S0
M106 S255
G1 X8.09 Y31.054 F120
M106 S0
M106 S255
G1 X8.111 Y31.167 F120
M106 S0
M106 S255
G1 X8.131 Y31.279 F120
M106 S0
M106 S255
G1 X8.15 Y31.392 F120
M106 S0
M106 S255
G1 X8.168 Y31.505 F120
M106 S0
M106 S255
G1 X8.185 Y31.618 F120
M106 S0
M106 S255
G1 X8.2 Y31.732 F120
M106 S0
M106 S255
G1 X8.214 Y31.846 F120
M106 S0
M106 S255
G1 X8.226 Y31.96 F120
M106 S0
M106 S255
G1 X8.236 Y32.074 F120
M106 S0
M106 S255
G1 X8.245 Y32.189 F120
M106 S0
M106 S255
G1 X8.252 Y32.304 F120
M106 S0
M106 S255
G1 X8.257 Y32.419 F120
M106 S0
M106 S255
G1 X8.26 Y32.534 F120
M106 S0
M106 S255
G1 X8.261 Y32.648 F120
M106 S0
M106 S255
G1 X8.259 Y32.763 F120
M106 S0
M106 S255
G1 X8.255 Y32.878 F120
M106 S0
M106 S255
G1 X8.249 Y32.992 F120
M106 S0
M106 S255
G1 X8.24 Y33.106 F120
M106 S0
M106 S255
G1 X8.228 Y33.22 F120
M106 S0
M106 S255
G1 X8.214 Y33.333 F120
M106 S0
M106 S255
G1 X8.197 Y33.446 F120
M106 S0
M106 S255
G1 X8.178 Y33.558 F120
M106 S0
M106 S255
G1 X8.156 Y33.67 F120
M106 S0
M106 S255
G1 X8.134 Y33.783 F120
M106 S0
M106 S255
G1 X8.11 Y33.895 F120
M106 S0
M106 S255
G1 X8.086 Y34.008 F120
M106 S0
M106 S255
G1 X8.062 Y34.121 F120
M106 S0
M106 S255
G1 X8.035 Y34.234 F120
M106 S0
M106 S255
G1 X8.006 Y34.346 F120
M106 S0
M106 S255
G1 X7.973 Y34.456 F120
M106 S0
M106 S255
G1 X7.936 Y34.564 F120
M106 S0
M106 S255
G1 X7.893 Y34.67 F120
M106 S0
M106 S255
G1 X7.845 Y34.773 F120
M106 S0
M106 S255
G1 X7.79 Y34.872 F120
M106 S0
M106 S255
G1 X7.728 Y34.968 F120
M106 S0
M106 S255
G1 X7.662 Y35.061 F120
M106 S0
M106 S255
G1 X7.593 Y35.061 F120
M106 S0
M106 S255
G1 X7.526 Y34.968 F120
M106 S0
M106 S255
G1 X7.465 Y34.872 F120
M106 S0
M106 S255
G1 X7.41 Y34.773 F120
M106 S0
M106 S255
G1 X7.361 Y34.67 F120
M106 S0
M106 S255
G1 X7.319 Y34.564 F120
M106 S0
M106 S255
G1 X7.282 Y34.456 F120
M106 S0
M106 S255
G1 X7.249 Y34.346 F120
M106 S0
M106 S255
G1 X7.22 Y34.234 F120
M106 S0
M106 S255
G1 X7.193 Y34.121 F120
M106 S0
M106 S255
G1 X7.168 Y34.008 F120
M106 S0
M106 S255
G1 X7.144 Y33.895 F120
M106 S0
M106 S255
G1 X7.121 Y33.783 F120
M106 S0
M106 S255
G1 X7.098 Y33.67 F120
M106 S0
M106 S255
G1 X7.077 Y33.558 F120
M106 S0
M106 S255
G1 X7.058 Y33.446 F120
M106 S0
M106 S255
G1 X7.041 Y33.333 F120
M106 S0
M106 S255
G1 X7.026 Y33.22 F120
M106 S0
M106 S255
G1 X7.015 Y33.106 F120
M106 S0
M106 S255
G1 X7.006 Y32.992 F120
M106 S0
M106 S255
G1 X6.999 Y32.878 F120
M106 S0
M106 S255
G1 X6.996 Y32.763 F120
M106 S0
M106 S255
G1 X6.994 Y32.648 F120
M106 S0
M106 S255
G1 X6.995 Y32.534 F120
M106 S0
M106 S255
G1 X6.998 Y32.419 F120
M106 S0
M106 S255
G1 X7.003 Y32.304 F120
M106 S0
M106 S255
G1 X7.009 Y32.189 F120
M106 S0
M106 S255
G1 X7.018 Y32.074 F120
M106 S0
M106 S255
G1 X7.029 Y31.96 F120
M106 S0
M106 S255
G1 X7.041 Y31.846 F120
M106 S0
M106 S255
G1 X7.055 Y31.732 F120
M106 S0
M106 S255
G1 X7.07 Y31.618 F120
M106 S0
M106 S255
G1 X7.087 Y31.505 F120
M106 S0
M106 S255
G1 X7.105 Y31.392 F120
M106 S0
M106 S255
G1 X7.124 Y31.279 F120
M106 S0
M106 S255
G1 X7.144 Y31.167 F120
M106 S0
M106 S255
G1 X7.165 Y31.054 F120
M106 S0
M106 S255
G1 X7.187 Y30.942 F120
M106 S0
M106 S255
G1 X7.21 Y30.83 F120
M106 S0
M106 S255
G1 X7.233 Y30.718 F120
M106 S0
M106 S255
G1 X7.257 Y30.606 F120
M106 S0
M106 S255
G1 X7.281 Y30.494 F120
M106 S0
M106 S255
G1 X7.304 Y30.382 F120
M106 S0
M106 S255
G1 X7.327 Y30.27 F120
M106 S0
M106 S255
G1 X7.349 Y30.158 F120
M106 S0
M106 S255
G1 X7.37 Y30.045 F120
M106 S0
M106 S255
G1 X7.39 Y29.932 F120
M106 S0
M106 S255
G1 X7.41 Y29.819 F120
M106 S0
M106 S255
G1 X7.43 Y29.707 F120
M106 S0
M106 S255
G1 X7.449 Y29.594 F120
M106 S0
M106 S255
G1 X7.47 Y29.481 F120
M106 S0
M106 S255
G1 X7.492 Y29.369 F120
M106 S0
M106 S255
G1 X7.515 Y29.257 F120
M106 S0
M106 S255
G1 X7.54 Y29.145 F120
M106 S0
M106 S255
G1 X7.567 Y29.034 F120
M106 S0
M106 S255
G1 X7.596 Y28.924 F120
M106 S0
M106 S255
G1 X7.627 Y28.814 F120
M106 S0
G0 X6.806 Y28.44 F6000
M106 S255
G1 X6.806 Y28.44 F120
M106 S0
M106 S255
G1 X6.73 Y28.423 F120
M106 S0
M106 S255
G1 X6.606 Y28.395 F120
M106 S0
M106 S255
G1 X6.482 Y28.368 F120
M106 S0
M106 S255
G1 X6.358 Y28.343 F120
M106 S0
M106 S255
G1 X6.234 Y28.321 F120
M106 S0
M106 S255
G1 X6.109 Y28.303 F120
M106 S0
M106 S255
G1 X5.984 Y28.29 F120
M106 S0
M106 S255
G1 X5.909 Y28.284 F120
M106 S0
M106 S255
G1 X5.732 Y28.279 F120
M106 S0
M106 S255
G1 X5.606 Y28.282 F120
M106 S0
M106 S255
G1 X5.48 Y28.291 F120
M106 S0
M106 S255
G1 X5.354 Y28.304 F120
M106 S0
M106 S255
G1 X5.229 Y28.322 F120
M106 S0
M106 S255
G1 X5.103 Y28.345 F120
M106 S0
M106 S255
G1 X4.978 Y28.372 F120
M106 S0
M106 S255
G1 X4.854 Y28.403 F120
M106 S0
M106 S255
G1 X4.742 Y28.435 F120
M106 S0
M106 S255
G1 X4.609 Y28.477 F120
M106 S0
M106 S255
G1 X4.488 Y28.519 F120
M106 S0
M106 S255
G1 X4.369 Y28.565 F120
M106 S0
M106 S255
G1 X4.251 Y28.614 F120
M106 S0
M106 S255
G1 X4.134 Y28.667 F120
M106 S0
M106 S255
G1 X4.019 Y28.723 F120
M106 S0
M106 S255
G1 X3.907 Y28.783 F120
M106 S0
M106 S255
G1 X3.796 Y28.847 F120
M106 S0
M106 S255
G1 X3.687 Y28.914 F120
M106 S0
M106 S255
G1 X3.581 Y28.984 F120
M106 S0
M106 S255
G1 X3.477 Y29.058 F120
M106 S0
M106 S255
G1 X3.376 Y29.135 F120
M106 S0
M106 S255
G1 X3.277 Y29.215 F120
M106 S0
M106 S255
G1 X3.182 Y29.299 F120
M106 S0
M106 S255
G1 X3.089 Y29.387 F120
M106 S0
M106 S255
G1 X3.037 Y29.438 F120
M106 S0
M106 S255
G1 X2.913 Y29.572 F120
M106 S0
M106 S255
G1 X2.831 Y29.669 F120
M106 S0
M106 S255
G1 X2.751 Y29.769 F120
M106 S0
M106 S255
G1 X2.676 Y29.872 F120
M106 S0
M106 S255
G1 X2.604 Y29.977 F120
M106 S0
M106 S255
G1 X2.536 Y30.085 F120
M106 S0
M106 S255
G1 X2.472 Y30.196 F120
M106 S0
M106 S255
G1 X2.413 Y30.308 F120
M106 S0
M106 S255
G1 X2.357 Y30.423 F120
M106 S0
M106 S255
G1 X2.306 Y30.539 F120
M106 S0
M106 S255
G1 X2.26 Y30.657 F120
M106 S0
M106 S255
G1 X2.22 Y30.77 F120
M106 S0
M106 S255
G1 X2.181 Y30.898 F120
M106 S0
M106 S255
G1 X2.148 Y31.02 F120
M106 S0
M106 S255
G1 X2.12 Y31.143 F120
M106 S0
M106 S255
G1 X2.097 Y31.268 F120
M106 S0
M106 S255
G1 X2.082 Y31.362 F120
M106 S0
M106 S255
G1 X2.064 Y31.519 F120
M106 S0
M106 S255
G1 X2.054 Y31.645 F120
M106 S0
M106 S255
G1 X2.049 Y31.772 F120
M106 S0
M106 S255
G1 X2.05 Y31.898 F120
M106 S0
M106 S255
G1 X2.057 Y32.025 F120
M106 S0
M106 S255
G1 X2.069 Y32.151 F120
M106 S0
M106 S255
G1 X2.082 Y32.241 F120
M106 S0
M106 S255
G1 X2.114 Y32.402 F120
M106 S0
M106 S255
G1 X2.147 Y32.525 F120
M106 S0
M106 S255
G1 X2.187 Y32.646 F120
M106 S0
M106 S255
G1 X2.235 Y32.764 F120
M106 S0
M106 S255
G1 X2.29 Y32.878 F120
M106 S0
M106 S255
G1 X2.378 Y33.023 F120
M106 S0
M106 S255
G1 X2.427 Y33.092 F120
M106 S0
M106 S255
G1 X2.508 Y33.191 F120
M106 S0
M106 S255
G1 X2.597 Y33.282 F120
M106 S0
M106 S255
G1 X2.693 Y33.366 F120
M106 S0
M106 S255
G1 X2.795 Y33.442 F120
M106 S0
M106 S255
G1 X2.886 Y33.499 F120
M106 S0
M106 S255
G1 X3.017 Y33.565 F120
M106 S0
M106 S255
G1 X3.135 Y33.612 F120
M106 S0
M106 S255
G1 X3.256 Y33.65 F120
M106 S0
M106 S255
G1 X3.38 Y33.679 F120
M106 S0
M106 S255
G1 X3.497 Y33.698 F120
M106 S0
M106 S255
G1 X3.632 Y33.71 F120
M106 S0
M106 S255
G1 X3.758 Y33.713 F120
M106 S0
M106 S255
G1 X3.885 Y33.709 F120
M106 S0
M106 S255
G1 X4.019 Y33.698 F120
M106 S0
M106 S255
G1 X4.137 Y33.681 F120
M106 S0
M106 S255
G1 X4.261 Y33.657 F120
M106 S0
M106 S255
G1 X4.384 Y33.624 F120
M106 S0
M106 S255
G1 X4.507 Y33.581 F120
M106 S0
M106 S255
G1 X4.618 Y33.531 F120
M106 S0
M106 S255
G1 X4.729 Y33.471 F120
M106 S0
M106 S255
G1 X4.835 Y33.403 F120
M106 S0
M106 S255
G1 X4.938 Y33.328 F120
M106 S0
M106 S255
G1 X5.037 Y33.247 F120
M106 S0
M106 S255
G1 X5.132 Y33.161 F120
M106 S0
M106 S255
G1 X5.249 Y33.046 F120
M106 S0
M106 S255
G1 X5.312 Y32.978 F120
M106 S0
M106 S255
G1 X5.396 Y32.883 F120
M106 S0
M106 S255
G1 X5.477 Y32.786 F120
M106 S0
M106 S255
G1 X5.555 Y32.686 F120
M106 S0
M106 S255
G1 X5.63 Y32.584 F120
M106 S0
M106 S255
G1 X5.702 Y32.48 F120
M106 S0
M106 S255
G1 X5.77 Y32.375 F120
M106 S0
M106 S255
G1 X5.819 Y32.298 F120
M106 S0
M106 S255
G1 X5.901 Y32.159 F120
M106 S0
M106 S255
G1 X5.962 Y32.049 F120
M106 S0
M106 S255
G1 X6.021 Y31.938 F120
M106 S0
M106 S255
G1 X6.078 Y31.825 F120
M106 S0
M106 S255
G1 X6.133 Y31.711 F120
M106 S0
M106 S255
G1 X6.21 Y31.543 F120
M106 S0
M106 S255
G1 X6.238 Y31.479 F120
M106 S0
M106 S255
G1 X6.288 Y31.362 F120
M106 S0
M106 S255
G1 X6.336 Y31.244 F120
M106 S0
M106 S255
G1 X6.382 Y31.125 F120
M106 S0
M106 S255
G1 X6.425 Y31.007 F120
M106 S0
M106 S255
G1 X6.466 Y30.888 F120
M106 S0
M106 S255
G1 X6.513 Y30.738 F120
M106 S0
M106 S255
G1 X6.538 Y30.651 F120
M106 S0
M106 S255
G1 X6.57 Y30.532 F120
M106 S0
M106 S255
G1 X6.599 Y30.413 F120
M106 S0
M106 S255
G1 X6.626 Y30.293 F120
M106 S0
M106 S255
G1 X6.652 Y30.171 F120
M106 S0
M106 S255
G1 X6.675 Y30.046 F120
M106 S0
M106 S255
G1 X6.698 Y29.918 F120
M106 S0
M106 S255
G1 X6.726 Y29.743 F120
M106 S0
M106 S255
G1 X6.74 Y29.65 F120
M106 S0
M106 S255
G1 X6.76 Y29.511 F120
M106 S0
M106 S255
G1 X6.779 Y29.371 F120
M106 S0
M106 S255
G1 X6.797 Y29.234 F120
M106 S0
M106 S255
G1 X6.813 Y29.103 F120
M106 S0
M106 S255
G1 X6.826 Y28.979 F120
M106 S0
M106 S255
G1 X6.838 Y28.865 F120
M106 S0
M106 S255
G1 X6.849 Y28.727 F120
M106 S0
M106 S255
G1 X6.852 Y28.68 F120
M106 S0
M106 S255
G1 X6.855 Y28.61 F120
M106 S0
M106 S255
G1 X6.856 Y28.551 F120
M106 S0
M106 S255
G1 X6.855 Y28.499 F120
M106 S0
M106 S255
G1 X6.806 Y28.44 F120
M106 S0
G0 X26.736 Y3.613 F6000
M106 S255
G1 X26.736 Y3.613 F120
M106 S0
M106 S255
G1 X26.731 Y3.613 F120
M106 S0
M106 S255
G1 X26.726 Y3.613 F120
M106 S0
M106 S255
G1 X26.721 Y3.613 F120
M106 S0
M106 S255
G1 X26.717 Y3.613 F120
M106 S0
M106 S255
G1 X26.712 Y3.613 F120
M106 S0
M106 S255
G1 X26.707 Y3.613 F120
M106 S0
M106 S255
G1 X26.702 Y3.613 F120
M106 S0
M106 S255
G1 X26.697 Y3.613 F120
M106 S0
M106 S255
G1 X26.692 Y3.612 F120
M106 S0
M106 S255
G1 X26.687 Y3.612 F120
M106 S0
M106 S255
G1 X26.682 Y3.612 F120
M106 S0
M106 S255
G1 X26.677 Y3.612 F120
M106 S0
M106 S255
G1 X26.672 Y3.612 F120
M106 S0
M106 S255
G1 X26.668 Y3.613 F120
M106 S0
M106 S255
G1 X26.663 Y3.613 F120
M106 S0
M106 S255
G1 X26.658 Y3.613 F120
M106 S0
M106 S255
G1 X26.653 Y3.613 F120
M106 S0
M106 S255
G1 X26.648 Y3.613 F120
M106 S0
M106 S255
G1 X26.643 Y3.613 F120
M106 S0
M106 S255
G1 X26.638 Y3.613 F120
M106 S0
M106 S255
G1 X26.633 Y3.613 F120
M106 S0
M106 S255
G1 X26.628 Y3.613 F120
M106 S0
M106 S255
G1 X26.423 Y3.609 F120
M106 S0
M106 S255
G1 X26.219 Y3.605 F120
M106 S0
M106 S255
G1 X26.014 Y3.602 F120
M106 S0
M106 S255
G1 X25.809 Y3.6 F120
M106 S0
M106 S255
G1 X25.604 Y3.6 F120
M106 S0
M106 S255
G1 X25.399 Y3.601 F120
M106 S0
M106 S255
G1 X25.195 Y3.604 F120
M106 S0
M106 S255
G1 X24.99 Y3.61 F120
M106 S0
M106 S255
G1 X24.786 Y3.619 F120
M106 S0
M106 S255
G1 X24.581 Y3.631 F120
M106 S0
M106 S255
G1 X24.377 Y3.645 F120
M106 S0
M106 S255
G1 X24.173 Y3.661 F120
M106 S0
M106 S255
G1 X23.969 Y3.679 F120
M106 S0
M106 S255
G1 X23.765 Y3.698 F120
M106 S0
M106 S255
G1 X23.561 Y3.718 F120
M106 S0
M106 S255
G1 X23.358 Y3.739 F120
M106 S0
M106 S255
G1 X23.154 Y3.761 F120
M106 S0
M106 S255
G1 X22.95 Y3.782 F120
M106 S0
M106 S255
G1 X22.746 Y3.804 F120
M106 S0
M106 S255
G1 X22.543 Y3.825 F120
M106 S0
M106 S255
G1 X22.339 Y3.847 F120
M106 S0
M106 S255
G1 X22.136 Y3.868 F120
M106 S0
M106 S255
G1 X21.932 Y3.89 F120
M106 S0
M106 S255
G1 X21.932 Y4.725 F120
M106 S0
M106 S255
G1 X26.628 Y4.725 F120
M106 S0
M106 S255
G1 X26.682 Y4.725 F120
M106 S0
M106 S255
G1 X26.736 Y4.725 F120
M106 S0
M106 S255
G1 X31.432 Y4.725 F120
M106 S0
M106 S255
G1 X31.432 Y3.89 F120
M106 S0
M106 S255
G1 X31.229 Y3.868 F120
M106 S0
M106 S255
G1 X31.025 Y3.847 F120
M106 S0
M106 S255
G1 X30.822 Y3.825 F120
M106 S0
M106 S255
G1 X30.618 Y3.804 F120
M106 S0
M106 S255
G1 X30.414 Y3.782 F120
M106 S0
M106 S255
G1 X30.211 Y3.761 F120
M106 S0
M106 S255
G1 X30.007 Y3.739 F120
M106 S0
M106 S255
G1 X29.803 Y3.718 F120
M106 S0
M106 S255
G1 X29.599 Y3.698 F120
M106 S0
M106 S255
G1 X29.395 Y3.679 F120
M106 S0
M106 S255
G1 X29.191 Y3.661 F120
M106 S0
M106 S255
G1 X28.987 Y3.645 F120
M106 S0
M106 S255
G1 X28.783 Y3.631 F120
M106 S0
M106 S255
G1 X28.579 Y3.619 F120
M106 S0
M106 S255
G1 X28.374 Y3.61 F120
M106 S0
M106 S255
G1 X28.17 Y3.604 F120
M106 S0
M106 S255
G1 X27.965 Y3.601 F120
M106 S0
M106 S255
G1 X27.76 Y3.6 F120
M106 S0
M106 S255
G1 X27.556 Y3.6 F120
M106 S0
M106 S255
G1 X27.351 Y3.602 F120
M106 S0
M106 S255
G1 X27.146 Y3.605 F120
M106 S0
M106 S255
G1 X26.941 Y3.609 F120
M106 S0
M106 S255
G1 X26.736 Y3.613 F120
M106 S0
G0 X26.682 Y7.665 F6000
M106 S255
G1 X26.682 Y7.665 F120
M106 S0
M106 S255
G1 X26.677 Y7.665 F120
M106 S0
M106 S255
G1 X26.672 Y7.665 F120
M106 S0
M106 S255
G1 X26.668 Y7.666 F120
M106 S0
M106 S255
G1 X26.663 Y7.666 F120
M106 S0
M106 S255
G1 X26.658 Y7.666 F120
M106 S0
M106 S255
G1 X26.653 Y7.666 F120
M106 S0
M106 S255
G1 X26.648 Y7.666 F120
M106 S0
M106 S255
G1 X26.643 Y7.666 F120
M106 S0
M106 S255
G1 X26.638 Y7.666 F120
M106 S0
M106 S255
G1 X26.633 Y7.667 F120
M106 S0
M106 S255
G1 X26.628 Y7.667 F120
M106 S0
M106 S255
G1 X26.352 Y7.659 F120
M106 S0
M106 S255
G1 X26.076 Y7.651 F120
M106 S0
M106 S255
G1 X25.8 Y7.643 F120
M106 S0
M106 S255
G1 X25.523 Y7.635 F120
M106 S0
M106 S255
G1 X25.247 Y7.627 F120
M106 S0
M106 S255
G1 X24.971 Y7.619 F120
M106 S0
M106 S255
G1 X24.694 Y7.611 F120
M106 S0
M106 S255
G1 X24.418 Y7.603 F120
M106 S0
M106 S255
G1 X24.142 Y7.594 F120
M106 S0
M106 S255
G1 X23.866 Y7.586 F120
M106 S0
M106 S255
G1 X23.589 Y7.577 F120
M106 S0
M106 S255
G1 X23.313 Y7.569 F120
M106 S0
M106 S255
G1 X23.037 Y7.56 F120
M106 S0
M106 S255
G1 X22.761 Y7.551 F120
M106 S0
M106 S255
G1 X22.485 Y7.543 F120
M106 S0
M106 S255
G1 X22.208 Y7.534 F120
M106 S0
M106 S255
G1 X21.932 Y7.525 F120
M106 S0
M106 S255
G1 X21.932 Y6.57 F120
M106 S0
M106 S255
G1 X26.628 Y6.57 F120
M106 S0
M106 S255
G1 X26.682 Y6.57 F120
M106 S0
M106 S255
G1 X26.736 Y6.57 F120
M106 S0
M106 S255
G1 X31.432 Y6.57 F120
M106 S0
M106 S255
G1 X31.432 Y7.525 F120
M106 S0
M106 S255
G1 X31.156 Y7.534 F120
M106 S0
M106 S255
G1 X30.88 Y7.543 F120
M106 S0
M106 S255
G1 X30.604 Y7.551 F120
M106 S0
M106 S255
G1 X30.327 Y7.56 F120
M106 S0
M106 S255
G1 X30.051 Y7.569 F120
M106 S0
M106 S255
G1 X29.775 Y7.577 F120
M106 S0
M106 S255
G1 X29.499 Y7.586 F120
M106 S0
M106 S255
G1 X29.222 Y7.594 F120
M106 S0
M106 S255
G1 X28.946 Y7.603 F120
M106 S0
M106 S255
G1 X28.67 Y7.611 F120
M106 S0
M106 S255
G1 X28.394 Y7.619 F120
M106 S0
M106 S255
G1 X28.117 Y7.627 F120
M106 S0
M106 S255
G1 X27.841 Y7.635 F120
M106 S0
M106 S255
G1 X27.565 Y7.643 F120
M106 S0
M106 S255
G1 X27.289 Y7.651 F120
M106 S0
M106 S255
G1 X27.012 Y7.659 F120
M106 S0
M106 S255
G1 X26.736 Y7.667 F120
M106 S0
M106 S255
G1 X26.731 Y7.667 F120
M106 S0
M106 S255
G1 X26.726 Y7.666 F120
M106 S0
M106 S255
G1 X26.721 Y7.666 F120
M106 S0
M106 S255
G1 X26.717 Y7.666 F120
M106 S0
M106 S255
G1 X26.712 Y7.666 F120
M106 S0
M106 S255
G1 X26.707 Y7.666 F120
M106 S0
M106 S255
G1 X26.702 Y7.666 F120
M106 S0
M106 S255
G1 X26.697 Y7.666 F120
M106 S0
M106 S255
G1 X26.692 Y7.665 F120
M106 S0
M106 S255
G1 X26.687 Y7.665 F120
M106 S0
M106 S255
G1 X26.682 Y7.665 F120
M106 S0
G0 X26.628 Y6.025 F6000
M106 S255
G1 X26.628 Y6.025 F120
M106 S0
M106 S255
G1 X21.932 Y6.025 F120
M106 S0
M106 S255
G1 X21.932 Y5.247 F120
M106 S0
M106 S255
G1 X26.628 Y5.247 F120
M106 S0
M106 S255
G1 X26.682 Y5.247 F120
M106 S0
M106 S255
G1 X26.736 Y5.247 F120
M106 S0
M106 S255
G1 X31.432 Y5.247 F120
M106 S0
M106 S255
G1 X31.432 Y6.025 F120
M106 S0
M106 S255
G1 X26.736 Y6.025 F120
M106 S0
M106 S255
G1 X26.682 Y6.025 F120
M106 S0
M106 S255
G1 X26.628 Y6.025 F120
M106 S0
G0 X28.305 Y8.238 F6000
M106 S255
G1 X28.305 Y8.238 F120
M106 S0
M106 S255
G1 X29.581 Y11.984 F120
M106 S0
M106 S255
G1 X29.94 Y8.189 F120
M106 S0
M106 S255
G1 X29.791 Y8.194 F120
M106 S0
M106 S255
G1 X29.642 Y8.198 F120
M106 S0
M106 S255
G1 X29.494 Y8.203 F120
M106 S0
M106 S255
G1 X29.345 Y8.207 F120
M106 S0
M106 S255
G1 X29.196 Y8.212 F120
M106 S0
M106 S255
G1 X29.048 Y8.216 F120
M106 S0
M106 S255
G1 X28.899 Y8.22 F120
M106 S0
M106 S255
G1 X28.751 Y8.225 F120
M106 S0
M106 S255
G1 X28.602 Y8.229 F120
M106 S0
M106 S255
G1 X28.453 Y8.234 F120
M106 S0
M106 S255
G1 X28.305 Y8.238 F120
M106 S0
G0 X30.345 Y8.177 F6000
M106 S255
G1 X30.345 Y8.177 F120
M106 S0
M106 S255
G1 X31.911 Y10.714 F120
M106 S0
M106 S255
G1 X31.426 Y8.132 F120
M106 S0
M106 S255
G1 X31.406 Y8.134 F120
M106 S0
M106 S255
G1 X31.385 Y8.135 F120
M106 S0
M106 S255
G1 X31.365 Y8.136 F120
M106 S0
M106 S255
G1 X31.344 Y8.137 F120
M106 S0
M106 S255
G1 X31.324 Y8.138 F120
M106 S0
M106 S255
G1 X31.304 Y8.139 F120
M106 S0
M106 S255
G1 X31.283 Y8.141 F120
M106 S0
M106 S255
G1 X31.263 Y8.142 F120
M106 S0
M106 S255
G1 X31.243 Y8.143 F120
M106 S0
M106 S255
G1 X31.222 Y8.144 F120
M106 S0
M106 S255
G1 X31.202 Y8.145 F120
M106 S0
M106 S255
G1 X31.181 Y8.146 F120
M106 S0
M106 S255
G1 X31.161 Y8.147 F120
M106 S0
M106 S255
G1 X31.141 Y8.148 F120
M106 S0
M106 S255
G1 X31.12 Y8.149 F120
M106 S0
M106 S255
G1 X31.1 Y8.15 F120
M106 S0
M106 S255
G1 X31.079 Y8.151 F120
M106 S0
M106 S255
G1 X31.059 Y8.152 F120
M106 S0
M106 S255
G1 X31.039 Y8.153 F120
M106 S0
M106 S255
G1 X31.018 Y8.154 F120
M106 S0
M106 S255
G1 X30.998 Y8.155 F120
M106 S0
M106 S255
G1 X30.977 Y8.156 F120
M106 S0
M106 S255
G1 X30.957 Y8.157 F120
M106 S0
M106 S255
G1 X30.937 Y8.158 F120
M106 S0
M106 S255
G1 X30.916 Y8.159 F120
M106 S0
M106 S255
G1 X30.896 Y8.16 F120
M106 S0
M106 S255
G1 X30.875 Y8.16 F120
M106 S0
M106 S255
G1 X30.855 Y8.161 F120
M106 S0
M106 S255
G1 X30.835 Y8.162 F120
M106 S0
M106 S255
G1 X30.814 Y8.163 F120
M106 S0
M106 S255
G1 X30.794 Y8.164 F120
M106 S0
M106 S255
G1 X30.773 Y8.164 F120
M106 S0
M106 S255
G1 X30.753 Y8.165 F120
M106 S0
M106 S255
G1 X30.732 Y8.166 F120
M106 S0
M106 S255
G1 X30.712 Y8.166 F120
M106 S0
M106 S255
G1 X30.692 Y8.167 F120
M106 S0
M106 S255
G1 X30.671 Y8.168 F120
M106 S0
M106 S255
G1 X30.651 Y8.168 F120
M106 S0
M106 S255
G1 X30.63 Y8.169 F120
M106 S0
M106 S255
G1 X30.61 Y8.17 F120
M106 S0
M106 S255
G1 X30.59 Y8.17 F120
M106 S0
M106 S255
G1 X30.569 Y8.171 F120
M106 S0
M106 S255
G1 X30.549 Y8.171 F120
M106 S0
M106 S255
G1 X30.528 Y8.172 F120
M106 S0
M106 S255
G1 X30.508 Y8.173 F120
M106 S0
M106 S255
G1 X30.488 Y8.173 F120
M106 S0
M106 S255
G1 X30.467 Y8.174 F120
M106 S0
M106 S255
G1 X30.447 Y8.174 F120
M106 S0
M106 S255
G1 X30.426 Y8.175 F120
M106 S0
M106 S255
G1 X30.406 Y8.176 F120
M106 S0
M106 S255
G1 X30.386 Y8.176 F120
M106 S0
M106 S255
G1 X30.365 Y8.177 F120
M106 S0
M106 S255
G1 X30.345 Y8.177 F120
M106 S0
G0 X26.682 Y13.286 F6000
M106 S255
G1 X26.682 Y13.286 F120
M106 S0
M106 S255
G1 X25.533 Y8.252 F120
M106 S0
M106 S255
G1 X25.637 Y8.255 F120
M106 S0
M106 S255
G1 X25.742 Y8.258 F120
M106 S0
M106 S255
G1 X25.846 Y8.261 F120
M106 S0
M106 S255
G1 X25.951 Y8.264 F120
M106 S0
M106 S255
G1 X26.055 Y8.268 F120
M106 S0
M106 S255
G1 X26.16 Y8.271 F120
M106 S0
M106 S255
G1 X26.264 Y8.274 F120
M106 S0
M106 S255
G1 X26.369 Y8.277 F120
M106 S0
M106 S255
G1 X26.473 Y8.28 F120
M106 S0
M106 S255
G1 X26.578 Y8.283 F120
M106 S0
M106 S255
G1 X26.682 Y8.286 F120
M106 S0
M106 S255
G1 X26.787 Y8.283 F120
M106 S0
M106 S255
G1 X26.891 Y8.28 F120
M106 S0
M106 S255
G1 X26.996 Y8.277 F120
M106 S0
M106 S255
G1 X27.1 Y8.274 F120
M106 S0
M106 S255
G1 X27.205 Y8.271 F120
M106 S0
M106 S255
G1 X27.309 Y8.268 F120
M106 S0
M106 S255
G1 X27.414 Y8.264 F120
M106 S0
M106 S255
G1 X27.518 Y8.261 F120
M106 S0
M106 S255
G1 X27.623 Y8.258 F120
M106 S0
M106 S255
G1 X27.727 Y8.255 F120
M106 S0
M106 S255
G1 X27.832 Y8.252 F120
M106 S0
M106 S255
G1 X26.682 Y13.286 F120
M106 S0
G0 X25.06 Y8.238 F6000
M106 S255
G1 X25.06 Y8.238 F120
M106 S0
M106 S255
G1 X23.783 Y11.984 F120
M106 S0
M106 S255
G1 X23.425 Y8.189 F120
M106 S0
M106 S255
G1 X23.574 Y8.194 F120
M106 S0
M106 S255
G1 X23.722 Y8.198 F120
M106 S0
M106 S255
G1 X23.871 Y8.203 F120
M106 S0
M106 S255
G1 X24.019 Y8.207 F120
M106 S0
M106 S255
G1 X24.168 Y8.212 F120
M106 S0
M106 S255
G1 X24.317 Y8.216 F120
M106 S0
M106 S255
G1 X24.465 Y8.22 F120
M106 S0
M106 S255
G1 X24.614 Y8.225 F120
M106 S0
M106 S255
G1 X24.762 Y8.229 F120
M106 S0
M106 S255
G1 X24.911 Y8.234 F120
M106 S0
M106 S255
G1 X25.06 Y8.238 F120
M106 S0
G0 X23.02 Y8.177 F6000
M106 S255
G1 X23.02 Y8.177 F120
M106 S0
M106 S255
G1 X21.454 Y10.714 F120
M106 S0
M106 S255
G1 X21.938 Y8.132 F120
M106 S0
M106 S255
G1 X21.959 Y8.134 F120
M106 S0
M106 S255
G1 X21.979 Y8.135 F120
M106 S0
M106 S255
G1 X22.0 Y8.136 F120
M106 S0
M106 S255
G1 X22.02 Y8.137 F120
M106 S0
M106 S255
G1 X22.04 Y8.138 F120
M106 S0
M106 S255
G1 X22.061 Y8.139 F120
M106 S0
M106 S255
G1 X22.081 Y8.141 F120
M106 S0
M106 S255
G1 X22.102 Y8.142 F120
M106 S0
M106 S255
G1 X22.122 Y8.143 F120
M106 S0
M106 S255
G1 X22.142 Y8.144 F120
M106 S0
M106 S255
G1 X22.163 Y8.145 F120
M106 S0
M106 S255
G1 X22.183 Y8.146 F120
M106 S0
M106 S255
G1 X22.204 Y8.147 F120
M106 S0
M106 S255
G1 X22.224 Y8.148 F120
M106 S0
M106 S255
G1 X22.244 Y8.149 F120
M106 S0
M106 S255
G1 X22.265 Y8.15 F120
M106 S0
M106 S255
G1 X22.285 Y8.151 F120
M106 S0
M106 S255
G1 X22.306 Y8.152 F120
M106 S0
M106 S255
G1 X22.326 Y8.153 F120
M106 S0
M106 S255
G1 X22.346 Y8.154 F120
M106 S0
M106 S255
G1 X22.367 Y8.155 F120
M106 S0
M106 S255
G1 X22.387 Y8.156 F120
M106 S0
M106 S255
G1 X22.408 Y8.157 F120
M106 S0
M106 S255
G1 X22.428 Y8.158 F120
M106 S0
M106 S255
G1 X22.448 Y8.159 F120
M106 S0
M106 S255
G1 X22.469 Y8.16 F120
M106 S0
M106 S255
G1 X22.489 Y8.16 F120
M106 S0
M106 S255
G1 X22.51 Y8.161 F120
M106 S0
M106 S255
G1 X22.53 Y8.162 F120
M106 S0
M106 S255
G1 X22.55 Y8.163 F120
M106 S0
M106 S255
G1 X22.571 Y8.164 F120
M106 S0
M106 S255
G1 X22.591 Y8.164 F120
M106 S0
M106 S255
G1 X22.612 Y8.165 F120
M106 S0
M106 S255
G1 X22.632 Y8.166 F120
M106 S0
M106 S255
G1 X22.652 Y8.166 F120
M106 S0
M106 S255
G1 X22.673 Y8.167 F120
M106 S0
M106 S255
G1 X22.693 Y8.168 F120
M106 S0
M106 S255
G1 X22.714 Y8.168 F120
M106 S0
M106 S255
G1 X22.734 Y8.169 F120
M106 S0
M106 S255
G1 X22.754 Y8.17 F120
M106 S0
M106 S255
G1 X22.775 Y8.17 F120
M106 S0
M106 S255
G1 X22.795 Y8.171 F120
M106 S0
M106 S255
G1 X22.816 Y8.171 F120
M106 S0
M106 S255
G1 X22.836 Y8.172 F120
M106 S0
M106 S255
G1 X22.856 Y8.173 F120
M106 S0
M106 S255
G1 X22.877 Y8.173 F120
M106 S0
M106 S255
G1 X22.897 Y8.174 F120
M106 S0
M106 S255
G1 X22.918 Y8.174 F120
M106 S0
M106 S255
G1 X22.938 Y8.175 F120
M106 S0
M106 S255
G1 X22.959 Y8.176 F120
M106 S0
M106 S255
G1 X22.979 Y8.176 F120
M106 S0
M106 S255
G1 X22.999 Y8.177 F120
M106 S0
M106 S255
G1 X23.02 Y8.177 F120
M106 S0
G0 X43.021 Y13.256 F6000
M106 S255
G1 X43.021 Y13.256 F120
M106 S0
M106 S255
G1 X41.206 Y13.256 F120
M106 S0
M106 S255
G1 X39.39 Y13.256 F120
M106 S0
G0 X43.038 Y11.115 F6000
M106 S255
G1 X43.038 Y11.115 F120
M106 S0
M106 S255
G1 X41.206 Y11.115 F120
M106 S0
M106 S255
G1 X39.373 Y11.115 F120
M106 S0
G0 X42.395 Y10.069 F6000
M106 S255
G1 X42.395 Y10.069 F120
M106 S0
M106 S255
G1 X41.206 Y10.069 F120
M106 S0
M106 S255
G1 X40.016 Y10.069 F120
M106 S0
G0 X43.028 Y6.602 F6000
M106 S255
G1 X43.028 Y6.602 F120
M106 S0
M106 S255
G1 X41.206 Y6.602 F120
M106 S0
M106 S255
G1 X39.383 Y6.602 F120
M106 S0
G0 X44.059 Y5.577 F6000
M106 S255
G1 X44.059 Y5.577 F120
M106 S0
M106 S255
G1 X41.206 Y5.577 F120
M106 S0
M106 S255
G1 X38.352 Y5.577 F120
M106 S0
G0 X51.505 Y25.281 F6000
M106 S255
G1 X51.505 Y25.281 F120
M106 S0
M106 S255
G1 X60.043 Y25.281 F120
M106 S0
G0 X52.16 Y26.573 F6000
M106 S255
G1 X52.16 Y26.573 F120
M106 S0
M106 S255
G1 X59.388 Y26.573 F120
M106 S0
G0 X53.081 Y27.829 F6000
M106 S255
G1 X53.081 Y27.829 F120
M106 S0
M106 S255
G1 X58.467 Y27.829 F120
M106 S0
G0 X53.081 Y31.436 F6000
M106 S255
G1 X53.081 Y31.436 F120
M106 S0
M106 S255
G1 X58.467 Y31.436 F120
M106 S0
G0 X52.163 Y32.708 F6000
M106 S255
G1 X52.163 Y32.708 F120
M106 S0
M106 S255
G1 X59.385 Y32.708 F120
M106 S0
G0 X56.196 Y13.256 F6000
M106 S255
G1 X56.196 Y13.256 F120
M106 S0
M106 S255
G1 X54.381 Y13.256 F120
M106 S0
M106 S255
G1 X52.566 Y13.256 F120
M106 S0
G0 X56.213 Y11.115 F6000
M106 S255
G1 X56.213 Y11.115 F120
M106 S0
M106 S255
G1 X54.381 Y11.115 F120
M106 S0
M106 S255
G1 X52.549 Y11.115 F120
M106 S0
G0 X55.57 Y10.069 F6000
M106 S255
G1 X55.57 Y10.069 F120
M106 S0
M106 S255
G1 X54.381 Y10.069 F120
M106 S0
M106 S255
G1 X53.191 Y10.069 F120
M106 S0
G0 X56.204 Y6.602 F6000
M106 S255
G1 X56.204 Y6.602 F120
M106 S0
M106 S255
G1 X54.381 Y6.602 F120
M106 S0
M106 S255
G1 X52.558 Y6.602 F120
M106 S0
G0 X57.234 Y5.577 F6000
M106 S255
G1 X57.234 Y5.577 F120
M106 S0
M106 S255
G1 X54.381 Y5.577 F120
M106 S0
M106 S255
G1 X51.528 Y5.577 F120
M106 S0
G0 X3.442 Y5.634 F6000
M106 S255
G1 X3.442 Y5.634 F120
M106 S0
M106 S255
G1 X3.442 Y6.412 F120
M106 S0
M106 S255
G1 X8.138 Y6.412 F120
M106 S0
M106 S255
G1 X12.834 Y6.412 F120
M106 S0
M106 S255
G1 X12.834 Y5.634 F120
M106 S0
M106 S255
G1 X8.138 Y5.634 F120
M106 S0
M106 S255
G1 X3.442 Y5.634 F120
M106 S0
G0 X8.959 Y8.796 F6000
M106 S255
G1 X8.959 Y8.796 F120
M106 S0
M106 S255
G1 X9.035 Y8.779 F120
M106 S0
M106 S255
G1 X9.159 Y8.75 F120
M106 S0
M106 S255
G1 X9.283 Y8.724 F120
M106 S0
M106 S255
G1 X9.407 Y8.699 F120
M106 S0
M106 S255
G1 X9.532 Y8.677 F120
M106 S0
M106 S255
G1 X9.656 Y8.659 F120
M106 S0
M106 S255
G1 X9.781 Y8.646 F120
M106 S0
M106 S255
G1 X9.856 Y8.64 F120
M106 S0
M106 S255
G1 X10.033 Y8.635 F120
M106 S0
M106 S255
G1 X10.159 Y8.638 F120
M106 S0
M106 S255
G1 X10.285 Y8.646 F120
M106 S0
M106 S255
G1 X10.411 Y8.66 F120
M106 S0
M106 S255
G1 X10.537 Y8.678 F120
M106 S0
M106 S255
G1 X10.662 Y8.701 F120
M106 S0
M106 S255
G1 X10.787 Y8.728 F120
M106 S0
M106 S255
G1 X10.911 Y8.759 F120
M106 S0
M106 S255
G1 X11.023 Y8.791 F120
M106 S0
M106 S255
G1 X11.156 Y8.833 F120
M106 S0
M106 S255
G1 X11.277 Y8.875 F120
M106 S0
M106 S255
G1 X11.396 Y8.921 F120
M106 S0
M106 S255
G1 X11.514 Y8.97 F120
M106 S0
M106 S255
G1 X11.631 Y9.023 F120
M106 S0
M106 S255
G1 X11.746 Y9.079 F120
M106 S0
M106 S255
G1 X11.859 Y9.139 F120
M106 S0
M106 S255
G1 X11.969 Y9.202 F120
M106 S0
M106 S255
G1 X12.078 Y9.269 F120
M106 S0
M106 S255
G1 X12.184 Y9.34 F120
M106 S0
M106 S255
G1 X12.288 Y9.413 F120
M106 S0
M106 S255
G1 X12.389 Y9.491 F120
M106 S0
M106 S255
G1 X12.488 Y9.571 F120
M106 S0
M106 S255
G1 X12.584 Y9.655 F120
M106 S0
M106 S255
G1 X12.676 Y9.743 F120
M106 S0
M106 S255
G1 X12.728 Y9.794 F120
M106 S0
M106 S255
G1 X12.852 Y9.927 F120
M106 S0
M106 S255
G1 X12.935 Y10.025 F120
M106 S0
M106 S255
G1 X13.014 Y10.125 F120
M106 S0
M106 S255
G1 X13.089 Y10.228 F120
M106 S0
M106 S255
G1 X13.161 Y10.333 F120
M106 S0
M106 S255
G1 X13.229 Y10.441 F120
M106 S0
M106 S255
G1 X13.293 Y10.552 F120
M106 S0
M106 S255
G1 X13.353 Y10.664 F120
M106 S0
M106 S255
G1 X13.408 Y10.779 F120
M106 S0
M106 S255
G1 X13.459 Y10.895 F120
M106 S0
M106 S255
G1 X13.505 Y11.013 F120
M106 S0
M106 S255
G1 X13.545 Y11.126 F120
M106 S0
M106 S255
G1 X13.584 Y11.254 F120
M106 S0
M106 S255
G1 X13.617 Y11.376 F120
M106 S0
M106 S255
G1 X13.645 Y11.499 F120
M106 S0
M106 S255
G1 X13.668 Y11.623 F120
M106 S0
M106 S255
G1 X13.683 Y11.718 F120
M106 S0
M106 S255
G1 X13.702 Y11.874 F120
M106 S0
M106 S255
G1 X13.711 Y12.001 F120
M106 S0
M106 S255
G1 X13.716 Y12.127 F120
M106 S0
M106 S255
G1 X13.715 Y12.254 F120
M106 S0
M106 S255
G1 X13.708 Y12.381 F120
M106 S0
M106 S255
G1 X13.696 Y12.507 F120
M106 S0
M106 S255
G1 X13.683 Y12.596 F120
M106 S0
M106 S255
G1 X13.651 Y12.758 F120
M106 S0
M106 S255
G1 X13.618 Y12.881 F120
M106 S0
M106 S255
G1 X13.578 Y13.002 F120
M106 S0
M106 S255
G1 X13.53 Y13.12 F120
M106 S0
M106 S255
G1 X13.475 Y13.234 F120
M106 S0
M106 S255
G1 X13.388 Y13.379 F120
M106 S0
M106 S255
G1 X13.338 Y13.448 F120
M106 S0
M106 S255
G1 X13.257 Y13.546 F120
M106 S0
M106 S255
G1 X13.168 Y13.638 F120
M106 S0
M106 S255
G1 X13.073 Y13.722 F120
M106 S0
M106 S255
G1 X12.97 Y13.798 F120
M106 S0
M106 S255
G1 X12.879 Y13.854 F120
M106 S0
M106 S255
G1 X12.748 Y13.921 F120
M106 S0
M106 S255
G1 X12.63 Y13.968 F120
M106 S0
M106 S255
G1 X12.509 Y14.006 F120
M106 S0
M106 S255
G1 X12.385 Y14.035 F120
M106 S0
M106 S255
G1 X12.268 Y14.053 F120
M106 S0
M106 S255
G1 X12.133 Y14.066 F120
M106 S0
M106 S255
G1 X12.007 Y14.069 F120
M106 S0
M106 S255
G1 X11.88 Y14.065 F120
M106 S0
M106 S255
G1 X11.746 Y14.053 F120
M106 S0
M106 S255
G1 X11.628 Y14.037 F120
M106 S0
M106 S255
G1 X11.504 Y14.013 F120
M106 S0
M106 S255
G1 X11.381 Y13.98 F120
M106 S0
M106 S255
G1 X11.258 Y13.937 F120
M106 S0
M106 S255
G1 X11.147 Y13.887 F120
M106 S0
M106 S255
G1 X11.036 Y13.827 F120
M106 S0
M106 S255
G1 X10.93 Y13.759 F120
M106 S0
M106 S255
G1 X10.827 Y13.684 F120
M106 S0
M106 S255
G1 X10.728 Y13.603 F120
M106 S0
M106 S255
G1 X10.633 Y13.517 F120
M106 S0
M106 S255
G1 X10.516 Y13.401 F120
M106 S0
M106 S255
G1 X10.453 Y13.334 F120
M106 S0
M106 S255
G1 X10.369 Y13.239 F120
M106 S0
M106 S255
G1 X10.288 Y13.141 F120
M106 S0
M106 S255
G1 X10.21 Y13.042 F120
M106 S0
M106 S255
G1 X10.135 Y12.94 F120
M106 S0
M106 S255
G1 X10.064 Y12.836 F120
M106 S0
M106 S255
G1 X9.995 Y12.731 F120
M106 S0
M106 S255
G1 X9.946 Y12.653 F120
M106 S0
M106 S255
G1 X9.865 Y12.515 F120
M106 S0
M106 S255
G1 X9.803 Y12.405 F120
M106 S0
M106 S255
G1 X9.744 Y12.293 F120
M106 S0
M106 S255
G1 X9.687 Y12.181 F120
M106 S0
M106 S255
G1 X9.632 Y12.067 F120
M106 S0
M106 S255
G1 X9.555 Y11.898 F120
M106 S0
M106 S255
G1 X9.527 Y11.835 F120
M106 S0
M106 S255
G1 X9.477 Y11.718 F120
M106 S0
M106 S255
G1 X9.429 Y11.6 F120
M106 S0
M106 S255
G1 X9.384 Y11.481 F120
M106 S0
M106 S255
G1 X9.34 Y11.362 F120
M106 S0
M106 S255
G1 X9.3 Y11.244 F120
M106 S0
M106 S255
G1 X9.252 Y11.093 F120
M106 S0
M106 S255
G1 X9.227 Y11.007 F120
M106 S0
M106 S255
G1 X9.195 Y10.888 F120
M106 S0
M106 S255
G1 X9.166 Y10.769 F120
M106 S0
M106 S255
G1 X9.139 Y10.649 F120
M106 S0
M106 S255
G1 X9.113 Y10.527 F120
M106 S0
M106 S255
G1 X9.09 Y10.402 F120
M106 S0
M106 S255
G1 X9.067 Y10.274 F120
M106 S0
M106 S255
G1 X9.039 Y10.098 F120
M106 S0
M106 S255
G1 X9.025 Y10.005 F120
M106 S0
M106 S255
G1 X9.005 Y9.866 F120
M106 S0
M106 S255
G1 X8.986 Y9.727 F120
M106 S0
M106 S255
G1 X8.968 Y9.59 F120
M106 S0
M106 S255
G1 X8.953 Y9.458 F120
M106 S0
M106 S255
G1 X8.939 Y9.334 F120
M106 S0
M106 S255
G1 X8.927 Y9.221 F120
M106 S0
M106 S255
G1 X8.916 Y9.083 F120
M106 S0
M106 S255
G1 X8.913 Y9.036 F120
M106 S0
M106 S255
G1 X8.91 Y8.966 F120
M106 S0
M106 S255
G1 X8.909 Y8.907 F120
M106 S0
M106 S255
G1 X8.91 Y8.855 F120
M106 S0
M106 S255
G1 X8.959 Y8.796 F120
M106 S0
G0 X8.138 Y5.112 F6000
M106 S255
G1 X8.138 Y5.112 F120
M106 S0
M106 S255
G1 X3.442 Y5.112 F120
M106 S0
M106 S255
G1 X3.442 Y4.277 F120
M106 S0
M106 S255
G1 X3.645 Y4.255 F120
M106 S0
M106 S255
G1 X3.849 Y4.234 F120
M106 S0
M106 S255
G1 X4.052 Y4.212 F120
M106 S0
M106 S255
G1 X4.256 Y4.191 F120
M106 S0
M106 S255
G1 X4.46 Y4.169 F120
M106 S0
M106 S255
G1 X4.663 Y4.148 F120
M106 S0
M106 S255
G1 X4.867 Y4.127 F120
M106 S0
M106 S255
G1 X5.071 Y4.105 F120
M106 S0
M106 S255
G1 X5.275 Y4.085 F120
M106 S0
M106 S255
G1 X5.479 Y4.066 F120
M106 S0
M106 S255
G1 X5.683 Y4.048 F120
M106 S0
M106 S255
G1 X5.887 Y4.032 F120
M106 S0
M106 S255
G1 X6.091 Y4.018 F120
M106 S0
M106 S255
G1 X6.295 Y4.006 F120
M106 S0
M106 S255
G1 X6.5 Y3.997 F120
M106 S0
M106 S255
G1 X6.704 Y3.992 F120
M106 S0
M106 S255
G1 X6.909 Y3.988 F120
M106 S0
M106 S255
G1 X7.113 Y3.987 F120
M106 S0
M106 S255
G1 X7.318 Y3.987 F120
M106 S0
M106 S255
G1 X7.523 Y3.989 F120
M106 S0
M106 S255
G1 X7.728 Y3.993 F120
M106 S0
M106 S255
G1 X7.933 Y3.996 F120
M106 S0
M106 S255
G1 X8.138 Y4.001 F120
M106 S0
M106 S255
G1 X8.343 Y3.996 F120
M106 S0
M106 S255
G1 X8.548 Y3.993 F120
M106 S0
M106 S255
G1 X8.752 Y3.989 F120
M106 S0
M106 S255
G1 X8.957 Y3.987 F120
M106 S0
M106 S255
G1 X9.162 Y3.987 F120
M106 S0
M106 S255
G1 X9.367 Y3.988 F120
M106 S0
M106 S255
G1 X9.571 Y3.992 F120
M106 S0
M106 S255
G1 X9.776 Y3.997 F120
M106 S0
M106 S255
G1 X9.98 Y4.006 F120
M106 S0
M106 S255
G1 X10.185 Y4.018 F120
M106 S0
M106 S255
G1 X10.389 Y4.032 F120
M106 S0
M106 S255
G1 X10.593 Y4.048 F120
M106 S0
M106 S255
G1 X10.797 Y4.066 F120
M106 S0
M106 S255
G1 X11.001 Y4.085 F120
M106 S0
M106 S255
G1 X11.205 Y4.105 F120
M106 S0
M106 S255
G1 X11.409 Y4.127 F120
M106 S0
M106 S255
G1 X11.612 Y4.148 F120
M106 S0
M106 S255
G1 X11.816 Y4.169 F120
M106 S0
M106 S255
G1 X12.02 Y4.191 F120
M106 S0
M106 S255
G1 X12.223 Y4.212 F120
M106 S0
M106 S255
G1 X12.427 Y4.234 F120
M106 S0
M106 S255
G1 X12.63 Y4.255 F120
M106 S0
M106 S255
G1 X12.834 Y4.277 F120
M106 S0
M106 S255
G1 X12.834 Y5.112 F120
M106 S0
M106 S255
G1 X8.138 Y5.112 F120
M106 S0
G0 X8.138 Y6.957 F6000
M106 S255
G1 X8.138 Y6.957 F120
M106 S0
M106 S255
G1 X12.834 Y6.957 F120
M106 S0
M106 S255
G1 X12.834 Y7.912 F120
M106 S0
M106 S255
G1 X12.558 Y7.921 F120
M106 S0
M106 S255
G1 X12.282 Y7.93 F120
M106 S0
M106 S255
G1 X12.005 Y7.939 F120
M106 S0
M106 S255
G1 X11.729 Y7.947 F120
M106 S0
M106 S255
G1 X11.453 Y7.956 F120
M106 S0
M106 S255
G1 X11.177 Y7.965 F120
M106 S0
M106 S255
G1 X10.9 Y7.973 F120
M106 S0
M106 S255
G1 X10.624 Y7.981 F120
M106 S0
M106 S255
G1 X10.348 Y7.99 F120
M106 S0
M106 S255
G1 X10.072 Y7.998 F120
M106 S0
M106 S255
G1 X9.795 Y8.006 F120
M106 S0
M106 S255
G1 X9.519 Y8.014 F120
M106 S0
M106 S255
G1 X9.243 Y8.022 F120
M106 S0
M106 S255
G1 X8.967 Y8.03 F120
M106 S0
M106 S255
G1 X8.69 Y8.038 F120
M106 S0
M106 S255
G1 X8.414 Y8.046 F120
M106 S0
M106 S255
G1 X8.138 Y8.054 F120
M106 S0
M106 S255
G1 X7.861 Y8.046 F120
M106 S0
M106 S255
G1 X7.585 Y8.038 F120
M106 S0
M106 S255
G1 X7.309 Y8.03 F120
M106 S0
M106 S255
G1 X7.033 Y8.022 F120
M106 S0
M106 S255
G1 X6.756 Y8.014 F120
M106 S0
M106 S255
G1 X6.48 Y8.006 F120
M106 S0
M106 S255
G1 X6.204 Y7.998 F120
M106 S0
M106 S255
G1 X5.928 Y7.99 F120
M106 S0
M106 S255
G1 X5.651 Y7.981 F120
M106 S0
M106 S255
G1 X5.375 Y7.973 F120
M106 S0
M106 S255
G1 X5.099 Y7.965 F120
M106 S0
M106 S255
G1 X4.823 Y7.956 F120
M106 S0
M106 S255
G1 X4.546 Y7.947 F120
M106 S0
M106 S255
G1 X4.27 Y7.939 F120
M106 S0
M106 S255
G1 X3.994 Y7.93 F120
M106 S0
M106 S255
G1 X3.718 Y7.921 F120
M106 S0
M106 S255
G1 X3.442 Y7.912 F120
M106 S0
M106 S255
G1 X3.442 Y6.957 F120
M106 S0
M106 S255
G1 X8.138 Y6.957 F120
M106 S0
G0 X8.138 Y9.17 F6000
M106 S255
G1 X8.138 Y9.17 F120
M106 S0
M106 S255
G1 X8.169 Y9.28 F120
M106 S0
M106 S255
G1 X8.198 Y9.39 F120
M106 S0
M106 S255
G1 X8.226 Y9.501 F120
M106 S0
M106 S255
G1 X8.25 Y9.613 F120
M106 S0
M106 S255
G1 X8.274 Y9.725 F120
M106 S0
M106 S255
G1 X8.295 Y9.837 F120
M106 S0
M106 S255
G1 X8.316 Y9.95 F120
M106 S0
M106 S255
G1 X8.336 Y10.062 F120
M106 S0
M106 S255
G1 X8.355 Y10.175 F120
M106 S0
M106 S255
G1 X8.375 Y10.288 F120
M106 S0
M106 S255
G1 X8.395 Y10.401 F120
M106 S0
M106 S255
G1 X8.416 Y10.513 F120
M106 S0
M106 S255
G1 X8.438 Y10.626 F120
M106 S0
M106 S255
G1 X8.461 Y10.738 F120
M106 S0
M106 S255
G1 X8.484 Y10.85 F120
M106 S0
M106 S255
G1 X8.508 Y10.962 F120
M106 S0
M106 S255
G1 X8.532 Y11.074 F120
M106 S0
M106 S255
G1 X8.555 Y11.186 F120
M106 S0
M106 S255
G1 X8.578 Y11.298 F120
M106 S0
M106 S255
G1 X8.6 Y11.41 F120
M106 S0
M106 S255
G1 X8.621 Y11.522 F120
M106 S0
M106 S255
G1 X8.641 Y11.635 F120
M106 S0
M106 S255
G1 X8.661 Y11.748 F120
M106 S0
M106 S255
G1 X8.678 Y11.861 F120
M106 S0
M106 S255
G1 X8.695 Y11.974 F120
M106 S0
M106 S255
G1 X8.71 Y12.088 F120
M106 S0
M106 S255
G1 X8.724 Y12.201 F120
M106 S0
M106 S255
G1 X8.736 Y12.316 F120
M106 S0
M106 S255
G1 X8.747 Y12.43 F120
M106 S0
M106 S255
G1 X8.756 Y12.545 F120
M106 S0
M106 S255
G1 X8.762 Y12.659 F120
M106 S0
M106 S255
G1 X8.767 Y12.774 F120
M106 S0
M106 S255
G1 X8.77 Y12.889 F120
M106 S0
M106 S255
G1 X8.771 Y13.004 F120
M106 S0
M106 S255
G1 X8.769 Y13.119 F120
M106 S0
M106 S255
G1 X8.766 Y13.233 F120
M106 S0
M106 S255
G1 X8.759 Y13.348 F120
M106 S0
M106 S255
G1 X8.75 Y13.462 F120
M106 S0
M106 S255
G1 X8.739 Y13.575 F120
M106 S0
M106 S255
G1 X8.724 Y13.689 F120
M106 S0
M106 S255
G1 X8.707 Y13.801 F120
M106 S0
M106 S255
G1 X8.688 Y13.914 F120
M106 S0
M106 S255
G1 X8.667 Y14.026 F120
M106 S0
M106 S255
G1 X8.644 Y14.138 F120
M106 S0
M106 S255
G1 X8.621 Y14.251 F120
M106 S0
M106 S255
G1 X8.597 Y14.364 F120
M106 S0
M106 S255
G1 X8.572 Y14.477 F120
M106 S0
M106 S255
G1 X8.545 Y14.59 F120
M106 S0
M106 S255
G1 X8.516 Y14.702 F120
M106 S0
M106 S255
G1 X8.483 Y14.812 F120
M106 S0
M106 S255
G1 X8.446 Y14.92 F120
M106 S0
M106 S255
G1 X8.404 Y15.026 F120
M106 S0
M106 S255
G1 X8.355 Y15.128 F120
M106 S0
M106 S255
G1 X8.3 Y15.228 F120
M106 S0
M106 S255
G1 X8.239 Y15.323 F120
M106 S0
M106 S255
G1 X8.172 Y15.417 F120
M106 S0
M106 S255
G1 X8.103 Y15.417 F120
M106 S0
M106 S255
G1 X8.037 Y15.323 F120
M106 S0
M106 S255
G1 X7.975 Y15.228 F120
M106 S0
M106 S255
G1 X7.92 Y15.128 F120
M106 S0
M106 S255
G1 X7.872 Y15.026 F120
M106 S0
M106 S255
G1 X7.829 Y14.92 F120
M106 S0
M106 S255
G1 X7.792 Y14.812 F120
M106 S0
M106 S255
G1 X7.759 Y14.702 F120
M106 S0
M106 S255
G1 X7.73 Y14.59 F120
M106 S0
M106 S255
G1 X7.704 Y14.477 F120
M106 S0
M106 S255
G1 X7.679 Y14.364 F120
M106 S0
M106 S255
G1 X7.655 Y14.251 F120
M106 S0
M106 S255
G1 X7.631 Y14.138 F120
M106 S0
M106 S255
G1 X7.609 Y14.026 F120
M106 S0
M106 S255
G1 X7.588 Y13.914 F120
M106 S0
M106 S255
G1 X7.568 Y13.801 F120
M106 S0
M106 S255
G1 X7.551 Y13.689 F120
M106 S0
M106 S255
G1 X7.537 Y13.575 F120
M106 S0
M106 S255
G1 X7.525 Y13.462 F120
M106 S0
M106 S255
G1 X7.516 Y13.348 F120
M106 S0
M106 S255
G1 X7.51 Y13.233 F120
M106 S0
M106 S255
G1 X7.506 Y13.119 F120
M106 S0
M106 S255
G1 X7.504 Y13.004 F120
M106 S0
M106 S255
G1 X7.505 Y12.889 F120
M106 S0
M106 S255
G1 X7.508 Y12.774 F120
M106 S0
M106 S255
G1 X7.513 Y12.659 F120
M106 S0
M106 S255
G1 X7.52 Y12.545 F120
M106 S0
M106 S255
G1 X7.529 Y12.43 F120
M106 S0
M106 S255
G1 X7.539 Y12.316 F120
M106 S0
M106 S255
G1 X7.551 Y12.201 F120
M106 S0
M106 S255
G1 X7.565 Y12.088 F120
M106 S0
M106 S255
G1 X7.58 Y11.974 F120
M106 S0
M106 S255
G1 X7.597 Y11.861 F120
M106 S0
M106 S255
G1 X7.615 Y11.748 F120
M106 S0
M106 S255
G1 X7.634 Y11.635 F120
M106 S0
M106 S255
G1 X7.654 Y11.522 F120
M106 S0
M106 S255
G1 X7.675 Y11.41 F120
M106 S0
M106 S255
G1 X7.698 Y11.298 F120
M106 S0
M106 S255
G1 X7.72 Y11.186 F120
M106 S0
M106 S255
G1 X7.744 Y11.074 F120
M106 S0
M106 S255
G1 X7.767 Y10.962 F120
M106 S0
M106 S255
G1 X7.791 Y10.85 F120
M106 S0
M106 S255
G1 X7.814 Y10.738 F120
M106 S0
M106 S255
G1 X7.837 Y10.626 F120
M106 S0
M106 S255
G1 X7.859 Y10.513 F120
M106 S0
M106 S255
G1 X7.88 Y10.401 F120
M106 S0
M106 S255
G1 X7.901 Y10.288 F120
M106 S0
M106 S255
G1 X7.92 Y10.175 F120
M106 S0
M106 S255
G1 X7.94 Y10.062 F120
M106 S0
M106 S255
G1 X7.96 Y9.95 F120
M106 S0
M106 S255
G1 X7.98 Y9.837 F120
M106 S0
M106 S255
G1 X8.002 Y9.725 F120
M106 S0
M106 S255
G1 X8.025 Y9.613 F120
M106 S0
M106 S255
G1 X8.05 Y9.501 F120
M106 S0
M106 S255
G1 X8.077 Y9.39 F120
M106 S0
M106 S255
G1 X8.107 Y9.28 F120
M106 S0
M106 S255
G1 X8.138 Y9.17 F120
M106 S0
G0 X7.317 Y8.796 F6000
M106 S255
G1 X7.317 Y8.796 F120
M106 S0
M106 S255
G1 X7.241 Y8.779 F120
M106 S0
M106 S255
G1 X7.117 Y8.75 F120
M106 S0
M106 S255
G1 X6.993 Y8.724 F120
M106 S0
M106 S255
G1 X6.868 Y8.699 F120
M106 S0
M106 S255
G1 X6.744 Y8.677 F120
M106 S0
M106 S255
G1 X6.619 Y8.659 F120
M106 S0
M106 S255
G1 X6.494 Y8.646 F120
M106 S0
M106 S255
G1 X6.42 Y8.64 F120
M106 S0
M106 S255
G1 X6.243 Y8.635 F120
M106 S0
M106 S255
G1 X6.117 Y8.638 F120
M106 S0
M106 S255
G1 X5.991 Y8.646 F120
M106 S0
M106 S255
G1 X5.865 Y8.66 F120
M106 S0
M106 S255
G1 X5.739 Y8.678 F120
M106 S0
M106 S255
G1 X5.614 Y8.701 F120
M106 S0
M106 S255
G1 X5.489 Y8.728 F120
M106 S0
M106 S255
G1 X5.365 Y8.759 F120
M106 S0
M106 S255
G1 X5.252 Y8.791 F120
M106 S0
M106 S255
G1 X5.12 Y8.833 F120
M106 S0
M106 S255
G1 X4.999 Y8.875 F120
M106 S0
M106 S255
G1 X4.879 Y8.921 F120
M106 S0
M106 S255
G1 X4.761 Y8.97 F120
M106 S0
M106 S255
G1 X4.645 Y9.023 F120
M106 S0
M106 S255
G1 X4.53 Y9.079 F120
M106 S0
M106 S255
G1 X4.417 Y9.139 F120
M106 S0
M106 S255
G1 X4.306 Y9.202 F120
M106 S0
M106 S255
G1 X4.198 Y9.269 F120
M106 S0
M106 S255
G1 X4.091 Y9.34 F120
M106 S0
M106 S255
G1 X3.987 Y9.413 F120
M106 S0
M106 S255
G1 X3.886 Y9.491 F120
M106 S0
M106 S255
G1 X3.788 Y9.571 F120
M106 S0
M106 S255
G1 X3.692 Y9.655 F120
M106 S0
M106 S255
G1 X3.599 Y9.743 F120
M106 S0
M106 S255
G1 X3.548 Y9.794 F120
M106 S0
M106 S255
G1 X3.424 Y9.927 F120
M106 S0
M106 S255
G1 X3.341 Y10.025 F120
M106 S0
M106 S255
G1 X3.262 Y10.125 F120
M106 S0
M106 S255
G1 X3.186 Y10.228 F120
M106 S0
M106 S255
G1 X3.114 Y10.333 F120
M106 S0
M106 S255
G1 X3.047 Y10.441 F120
M106 S0
M106 S255
G1 X2.983 Y10.552 F120
M106 S0
M106 S255
G1 X2.923 Y10.664 F120
M106 S0
M106 S255
G1 X2.868 Y10.779 F120
M106 S0
M106 S255
G1 X2.817 Y10.895 F120
M106 S0
M106 S255
G1 X2.77 Y11.013 F120
M106 S0
M106 S255
G1 X2.731 Y11.126 F120
M106 S0
M106 S255
G1 X2.691 Y11.254 F120
M106 S0
M106 S255
G1 X2.659 Y11.376 F120
M106 S0
M106 S255
G1 X2.631 Y11.499 F120
M106 S0
M106 S255
G1 X2.607 Y11.623 F120
M106 S0
M106 S255
G1 X2.593 Y11.718 F120
M106 S0
M106 S255
G1 X2.574 Y11.874 F120
M106 S0
M106 S255
G1 X2.564 Y12.001 F120
M106 S0
M106 S255
G1 X2.56 Y12.127 F120
M106 S0
M106 S255
G1 X2.561 Y12.254 F120
M106 S0
M106 S255
G1 X2.567 Y12.381 F120
M106 S0
M106 S255
G1 X2.58 Y12.507 F120
M106 S0
M106 S255
G1 X2.593 Y12.596 F120
M106 S0
M106 S255
G1 X2.624 Y12.758 F120
M106 S0
M106 S255
G1 X2.657 Y12.881 F120
M106 S0
M106 S255
G1 X2.697 Y13.002 F120
M106 S0
M106 S255
G1 X2.745 Y13.12 F120
M106 S0
M106 S255
G1 X2.801 Y13.234 F120
M106 S0
M106 S255
G1 X2.888 Y13.379 F120
M106 S0
M106 S255
G1 X2.937 Y13.448 F120
M106 S0
M106 S255
G1 X3.018 Y13.546 F120
M106 S0
M106 S255
G1 X3.107 Y13.638 F120
M106 S0
M106 S255
G1 X3.203 Y13.722 F120
M106 S0
M106 S255
G1 X3.305 Y13.798 F120
M106 S0
M106 S255
G1 X3.397 Y13.854 F120
M106 S0
M106 S255
G1 X3.527 Y13.921 F120
M106 S0
M106 S255
G1 X3.645 Y13.968 F120
M106 S0
M106 S255
G1 X3.767 Y14.006 F120
M106 S0
M106 S255
G1 X3.891 Y14.035 F120
M106 S0
M106 S255
G1 X4.008 Y14.053 F120
M106 S0
M106 S255
G1 X4.142 Y14.066 F120
M106 S0
M106 S255
G1 X4.269 Y14.069 F120
M106 S0
M106 S255
G1 X4.395 Y14.065 F120
M106 S0
M106 S255
G1 X4.53 Y14.053 F120
M106 S0
M106 S255
G1 X4.647 Y14.037 F120
M106 S0
M106 S255
G1 X4.772 Y14.013 F120
M106 S0
M106 S255
G1 X4.894 Y13.98 F120
M106 S0
M106 S255
G1 X5.017 Y13.937 F120
M106 S0
M106 S255
G1 X5.128 Y13.887 F120
M106 S0
M106 S255
G1 X5.239 Y13.827 F120
M106 S0
M106 S255
G1 X5.346 Y13.759 F120
M106 S0
M106 S255
G1 X5.449 Y13.684 F120
M106 S0
M106 S255
G1 X5.548 Y13.603 F120
M106 S0
M106 S255
G1 X5.643 Y13.517 F120
M106 S0
M106 S255
G1 X5.759 Y13.401 F120
M106 S0
M106 S255
G1 X5.822 Y13.334 F120
M106 S0
M106 S255
G1 X5.907 Y13.239 F120
M106 S0
M106 S255
G1 X5.988 Y13.141 F120
M106 S0
M106 S255
G1 X6.065 Y13.042 F120
M106 S0
M106 S255
G1 X6.14 Y12.94 F120
M106 S0
M106 S255
G1 X6.212 Y12.836 F120
M106 S0
M106 S255
G1 X6.281 Y12.731 F120
M106 S0
M106 S255
G1 X6.329 Y12.653 F120
M106 S0
M106 S255
G1 X6.411 Y12.515 F120
M106 S0
M106 S255
G1 X6.472 Y12.405 F120
M106 S0
M106 S255
G1 X6.531 Y12.293 F120
M106 S0
M106 S255
G1 X6.589 Y12.181 F120
M106 S0
M106 S255
G1 X6.644 Y12.067 F120
M106 S0
M106 S255
G1 X6.721 Y11.898 F120
M106 S0
M106 S255
G1 X6.748 Y11.835 F120
M106 S0
M106 S255
G1 X6.798 Y11.718 F120
M106 S0
M106 S255
G1 X6.846 Y11.6 F120
M106 S0
M106 S255
G1 X6.892 Y11.481 F120
M106 S0
M106 S255
G1 X6.935 Y11.362 F120
M106 S0
M106 S255
G1 X6.976 Y11.244 F120
M106 S0
M106 S255
G1 X7.023 Y11.093 F120
M106 S0
M106 S255
G1 X7.049 Y11.007 F120
M106 S0
M106 S255
G1 X7.08 Y10.888 F120
M106 S0
M106 S255
G1 X7.11 Y10.769 F120
M106 S0
M106 S255
G1 X7.137 Y10.649 F120
M106 S0
M106 S255
G1 X7.162 Y10.527 F120
M106 S0
M106 S255
G1 X7.186 Y10.402 F120
M106 S0
M106 S255
G1 X7.208 Y10.274 F120
M106 S0
M106 S255
G1 X7.236 Y10.098 F120
M106 S0
M106 S255
G1 X7.25 Y10.005 F120
M106 S0
M106 S255
G1 X7.27 Y9.866 F120
M106 S0
M106 S255
G1 X7.289 Y9.727 F120
M106 S0
M106 S255
G1 X7.307 Y9.59 F120
M106 S0
M106 S255
G1 X7.323 Y9.458 F120
M106 S0
M106 S255
G1 X7.337 Y9.334 F120
M106 S0
M106 S255
G1 X7.348 Y9.221 F120
M106 S0
M106 S255
G1 X7.36 Y9.083 F120
M106 S0
M106 S255
G1 X7.363 Y9.036 F120
M106 S0
M106 S255
G1 X7.366 Y8.966 F120
M106 S0
M106 S255
G1 X7.366 Y8.907 F120
M106 S0
M106 S255
G1 X7.366 Y8.855 F120
M106 S0
M106 S255
G1 X7.317 Y8.796 F120
M106 S0
M106 S0
