;GCode generated by Numa's program v0.0
G0 X4.641 Y28.651 F6000
M106 S255
G1 X4.641 Y28.651 F300
M106 S0
M106 S255
G1 X7.221 Y35.504 F300
M106 S0
M106 S255
G1 X8.099 Y35.504 F300
M106 S0
M106 S255
G1 X10.67 Y28.651 F300
M106 S0
M106 S255
G1 X9.758 Y28.651 F300
M106 S0
M106 S255
G1 X8.996 Y30.667 F300
M106 S0
M106 S255
G1 X6.136 Y30.667 F300
M106 S0
M106 S255
G1 X5.384 Y28.651 F300
M106 S0
M106 S255
G1 X4.641 Y28.651 F300
M106 S0
G0 X56.142 Y16.797 F6000
M106 S255
G1 X56.142 Y16.797 F300
M106 S0
M106 S255
G1 X56.142 Y23.93 F300
M106 S0
M106 S255
G1 X56.88 Y23.93 F300
M106 S0
M106 S255
G1 X56.88 Y16.797 F300
M106 S0
M106 S255
G1 X56.142 Y16.797 F300
M106 S0
G0 X83.658 Y21.876 F6000
M106 S255
G1 X83.658 Y21.876 F300
M106 S0
M106 S255
G1 X83.914 Y23.11 F300
M106 S0
M106 S255
G1 X83.658 Y23.11 F300
M106 S0
M106 S255
G1 X83.658 Y23.94 F300
M106 S0
M106 S255
G1 X84.488 Y23.94 F300
M106 S0
M106 S255
G1 X84.488 Y23.25 F300
M106 S0
M106 S255
G1 X84.478 Y23.11 F300
M106 S0
M106 S255
G1 X84.073 Y21.876 F300
M106 S0
M106 S255
G1 X83.658 Y21.876 F300
M106 S0
G0 X76.607 Y4.944 F6000
M106 S255
G1 X76.607 Y4.944 F300
M106 S0
M106 S255
G1 X76.607 Y5.349 F300
M106 S0
M106 S255
G1 X79.236 Y8.759 F300
M106 S0
M106 S255
G1 X78.941 Y8.744 F300
M106 S0
M106 S255
G1 X76.747 Y8.744 F300
M106 S0
M106 S255
G1 X76.747 Y9.338 F300
M106 S0
M106 S255
G1 X80.273 Y9.338 F300
M106 S0
M106 S255
G1 X80.273 Y8.942 F300
M106 S0
M106 S255
G1 X77.654 Y5.556 F300
M106 S0
M106 S255
G1 X79.641 Y5.556 F300
M106 S0
M106 S255
G1 X79.848 Y5.566 F300
M106 S0
M106 S255
G1 X80.302 Y5.566 F300
M106 S0
M106 S255
G1 X80.302 Y4.944 F300
M106 S0
M106 S255
G1 X76.607 Y4.944 F300
M106 S0
G0 X73.033 Y7.669 F6000
M106 S255
G1 X73.033 Y7.669 F300
M106 S0
M106 S255
G1 X73.054 Y7.669 F300
M106 S0
M106 S255
G1 X73.115 Y7.669 F300
M106 S0
M106 S255
G1 X73.333 Y7.669 F300
M106 S0
M106 S255
G1 X73.651 Y7.669 F300
M106 S0
M106 S255
G1 X74.03 Y7.669 F300
M106 S0
M106 S255
G1 X74.814 Y7.669 F300
M106 S0
M106 S255
G1 X75.143 Y7.669 F300
M106 S0
M106 S255
G1 X75.378 Y7.669 F300
M106 S0
M106 S255
G1 X75.449 Y7.669 F300
M106 S0
M106 S255
G1 X75.481 Y7.669 F300
M106 S0
M106 S255
G1 X75.472 Y7.74 F300
M106 S0
M106 S255
G1 X75.438 Y7.897 F300
M106 S0
M106 S255
G1 X75.342 Y8.177 F300
M106 S0
M106 S255
G1 X75.212 Y8.411 F300
M106 S0
M106 S255
G1 X75.063 Y8.589 F300
M106 S0
M106 S255
G1 X74.9 Y8.709 F300
M106 S0
M106 S255
G1 X74.741 Y8.789 F300
M106 S0
M106 S255
G1 X74.467 Y8.869 F300
M106 S0
M106 S255
G1 X74.34 Y8.883 F300
M106 S0
M106 S255
G1 X74.256 Y8.884 F300
M106 S0
M106 S255
G1 X74.047 Y8.86 F300
M106 S0
M106 S255
G1 X73.855 Y8.8 F300
M106 S0
M106 S255
G1 X73.679 Y8.703 F300
M106 S0
M106 S255
G1 X73.521 Y8.57 F300
M106 S0
M106 S255
G1 X73.379 Y8.405 F300
M106 S0
M106 S255
G1 X73.162 Y8.05 F300
M106 S0
M106 S255
G1 X73.033 Y7.669 F300
M106 S0
M106 S255
G1 X73.033 Y7.669 F300
M106 S0
G0 X72.295 Y7.178 F6000
M106 S255
G1 X72.295 Y7.178 F300
M106 S0
M106 S255
G1 X72.328 Y7.62 F300
M106 S0
M106 S255
G1 X72.426 Y8.028 F300
M106 S0
M106 S255
G1 X72.59 Y8.402 F300
M106 S0
M106 S255
G1 X72.819 Y8.742 F300
M106 S0
M106 S255
G1 X73.102 Y9.037 F300
M106 S0
M106 S255
G1 X73.409 Y9.261 F300
M106 S0
M106 S255
G1 X73.738 Y9.41 F300
M106 S0
M106 S255
G1 X74.09 Y9.486 F300
M106 S0
M106 S255
G1 X74.275 Y9.497 F300
M106 S0
M106 S255
G1 X74.351 Y9.496 F300
M106 S0
M106 S255
G1 X74.486 Y9.486 F300
M106 S0
M106 S255
G1 X74.748 Y9.435 F300
M106 S0
M106 S255
G1 X75.0 Y9.34 F300
M106 S0
M106 S255
G1 X75.253 Y9.193 F300
M106 S0
M106 S255
G1 X75.504 Y8.986 F300
M106 S0
M106 S255
G1 X75.719 Y8.691 F300
M106 S0
M106 S255
G1 X75.892 Y8.301 F300
M106 S0
M106 S255
G1 X76.005 Y7.832 F300
M106 S0
M106 S255
G1 X76.036 Y7.57 F300
M106 S0
M106 S255
G1 X76.046 Y7.432 F300
M106 S0
M106 S255
G1 X76.048 Y7.403 F300
M106 S0
M106 S255
G1 X76.048 Y7.397 F300
M106 S0
M106 S255
G1 X76.048 Y7.332 F300
M106 S0
M106 S255
G1 X76.048 Y7.235 F300
M106 S0
M106 S255
G1 X76.048 Y7.149 F300
M106 S0
M106 S255
G1 X76.039 Y7.119 F300
M106 S0
M106 S255
G1 X75.978 Y7.119 F300
M106 S0
M106 S255
G1 X75.865 Y7.119 F300
M106 S0
M106 S255
G1 X75.708 Y7.119 F300
M106 S0
M106 S255
G1 X75.514 Y7.119 F300
M106 S0
M106 S255
G1 X75.045 Y7.119 F300
M106 S0
M106 S255
G1 X74.516 Y7.119 F300
M106 S0
M106 S255
G1 X73.988 Y7.119 F300
M106 S0
M106 S255
G1 X73.518 Y7.119 F300
M106 S0
M106 S255
G1 X73.324 Y7.119 F300
M106 S0
M106 S255
G1 X73.167 Y7.119 F300
M106 S0
M106 S255
G1 X73.055 Y7.119 F300
M106 S0
M106 S255
G1 X72.994 Y7.119 F300
M106 S0
M106 S255
G1 X72.985 Y7.119 F300
M106 S0
M106 S255
G1 X72.987 Y7.079 F300
M106 S0
M106 S255
G1 X72.993 Y6.993 F300
M106 S0
M106 S255
G1 X73.013 Y6.829 F300
M106 S0
M106 S255
G1 X73.086 Y6.522 F300
M106 S0
M106 S255
G1 X73.202 Y6.246 F300
M106 S0
M106 S255
G1 X73.362 Y6.001 F300
M106 S0
M106 S255
G1 X73.561 Y5.789 F300
M106 S0
M106 S255
G1 X73.779 Y5.627 F300
M106 S0
M106 S255
G1 X74.015 Y5.516 F300
M106 S0
M106 S255
G1 X74.268 Y5.457 F300
M106 S0
M106 S255
G1 X74.401 Y5.446 F300
M106 S0
M106 S255
G1 X74.564 Y5.449 F300
M106 S0
M106 S255
G1 X74.916 Y5.499 F300
M106 S0
M106 S255
G1 X75.268 Y5.608 F300
M106 S0
M106 S255
G1 X75.619 Y5.778 F300
M106 S0
M106 S255
G1 X75.794 Y5.885 F300
M106 S0
M106 S255
G1 X75.882 Y5.945 F300
M106 S0
M106 S255
G1 X75.926 Y5.976 F300
M106 S0
M106 S255
G1 X75.946 Y5.99 F300
M106 S0
M106 S255
G1 X75.949 Y5.959 F300
M106 S0
M106 S255
G1 X75.956 Y5.889 F300
M106 S0
M106 S255
G1 X75.997 Y5.465 F300
M106 S0
M106 S255
G1 X76.004 Y5.386 F300
M106 S0
M106 S255
G1 X76.009 Y5.343 F300
M106 S0
M106 S255
G1 X76.009 Y5.34 F300
M106 S0
M106 S255
G1 X75.991 Y5.328 F300
M106 S0
M106 S255
G1 X75.903 Y5.271 F300
M106 S0
M106 S255
G1 X75.725 Y5.169 F300
M106 S0
M106 S255
G1 X75.364 Y5.004 F300
M106 S0
M106 S255
G1 X74.996 Y4.895 F300
M106 S0
M106 S255
G1 X74.623 Y4.84 F300
M106 S0
M106 S255
G1 X74.432 Y4.833 F300
M106 S0
M106 S255
G1 X74.216 Y4.844 F300
M106 S0
M106 S255
G1 X73.814 Y4.923 F300
M106 S0
M106 S255
G1 X73.448 Y5.079 F300
M106 S0
M106 S255
G1 X73.118 Y5.311 F300
M106 S0
M106 S255
G1 X72.827 Y5.618 F300
M106 S0
M106 S255
G1 X72.594 Y5.966 F300
M106 S0
M106 S255
G1 X72.428 Y6.342 F300
M106 S0
M106 S255
G1 X72.328 Y6.746 F300
M106 S0
M106 S255
G1 X72.295 Y7.178 F300
M106 S0
M106 S255
G1 X72.295 Y7.178 F300
M106 S0
G0 X67.646 Y4.944 F6000
M106 S255
G1 X67.646 Y4.944 F300
M106 S0
M106 S255
G1 X67.646 Y4.966 F300
M106 S0
M106 S255
G1 X67.646 Y5.029 F300
M106 S0
M106 S255
G1 X67.646 Y5.129 F300
M106 S0
M106 S255
G1 X67.646 Y5.264 F300
M106 S0
M106 S255
G1 X67.646 Y5.428 F300
M106 S0
M106 S255
G1 X67.646 Y5.619 F300
M106 S0
M106 S255
G1 X67.646 Y5.833 F300
M106 S0
M106 S255
G1 X67.646 Y6.066 F300
M106 S0
M106 S255
G1 X67.646 Y6.574 F300
M106 S0
M106 S255
G1 X67.646 Y7.115 F300
M106 S0
M106 S255
G1 X67.646 Y7.659 F300
M106 S0
M106 S255
G1 X67.646 Y8.176 F300
M106 S0
M106 S255
G1 X67.646 Y8.636 F300
M106 S0
M106 S255
G1 X67.646 Y8.837 F300
M106 S0
M106 S255
G1 X67.646 Y9.012 F300
M106 S0
M106 S255
G1 X67.646 Y9.158 F300
M106 S0
M106 S255
G1 X67.646 Y9.272 F300
M106 S0
M106 S255
G1 X67.646 Y9.35 F300
M106 S0
M106 S255
G1 X67.646 Y9.388 F300
M106 S0
M106 S255
G1 X67.655 Y9.391 F300
M106 S0
M106 S255
G1 X67.688 Y9.391 F300
M106 S0
M106 S255
G1 X67.812 Y9.391 F300
M106 S0
M106 S255
G1 X68.153 Y9.391 F300
M106 S0
M106 S255
G1 X68.293 Y9.391 F300
M106 S0
M106 S255
G1 X68.339 Y9.391 F300
M106 S0
M106 S255
G1 X68.362 Y9.391 F300
M106 S0
M106 S255
G1 X68.364 Y9.385 F300
M106 S0
M106 S255
G1 X68.364 Y9.357 F300
M106 S0
M106 S255
G1 X68.364 Y9.241 F300
M106 S0
M106 S255
G1 X68.364 Y8.91 F300
M106 S0
M106 S255
G1 X68.364 Y8.768 F300
M106 S0
M106 S255
G1 X68.364 Y8.719 F300
M106 S0
M106 S255
G1 X68.364 Y8.691 F300
M106 S0
M106 S255
G1 X68.364 Y8.687 F300
M106 S0
M106 S255
G1 X68.405 Y8.739 F300
M106 S0
M106 S255
G1 X68.503 Y8.853 F300
M106 S0
M106 S255
G1 X68.71 Y9.05 F300
M106 S0
M106 S255
G1 X68.934 Y9.208 F300
M106 S0
M106 S255
G1 X69.173 Y9.324 F300
M106 S0
M106 S255
G1 X69.428 Y9.4 F300
M106 S0
M106 S255
G1 X69.699 Y9.436 F300
M106 S0
M106 S255
G1 X69.769 Y9.439 F300
M106 S0
M106 S255
G1 X69.805 Y9.439 F300
M106 S0
M106 S255
G1 X69.821 Y9.439 F300
M106 S0
M106 S255
G1 X69.88 Y9.438 F300
M106 S0
M106 S255
G1 X69.994 Y9.431 F300
M106 S0
M106 S255
G1 X70.205 Y9.401 F300
M106 S0
M106 S255
G1 X70.394 Y9.347 F300
M106 S0
M106 S255
G1 X70.559 Y9.273 F300
M106 S0
M106 S255
G1 X70.698 Y9.188 F300
M106 S0
M106 S255
G1 X70.809 Y9.092 F300
M106 S0
M106 S255
G1 X70.897 Y8.984 F300
M106 S0
M106 S255
G1 X70.971 Y8.858 F300
M106 S0
M106 S255
G1 X71.078 Y8.559 F300
M106 S0
M106 S255
G1 X71.137 Y8.281 F300
M106 S0
M106 S255
G1 X71.157 Y8.014 F300
M106 S0
M106 S255
G1 X71.161 Y7.86 F300
M106 S0
M106 S255
G1 X71.162 Y7.785 F300
M106 S0
M106 S255
G1 X71.162 Y7.756 F300
M106 S0
M106 S255
G1 X71.162 Y7.701 F300
M106 S0
M106 S255
G1 X71.162 Y7.624 F300
M106 S0
M106 S255
G1 X71.162 Y7.527 F300
M106 S0
M106 S255
G1 X71.162 Y7.281 F300
M106 S0
M106 S255
G1 X71.162 Y6.982 F300
M106 S0
M106 S255
G1 X71.162 Y6.3 F300
M106 S0
M106 S255
G1 X71.162 Y5.955 F300
M106 S0
M106 S255
G1 X71.162 Y5.633 F300
M106 S0
M106 S255
G1 X71.162 Y5.352 F300
M106 S0
M106 S255
G1 X71.162 Y5.131 F300
M106 S0
M106 S255
G1 X71.162 Y5.048 F300
M106 S0
M106 S255
G1 X71.162 Y4.988 F300
M106 S0
M106 S255
G1 X71.162 Y4.953 F300
M106 S0
M106 S255
G1 X71.162 Y4.944 F300
M106 S0
M106 S255
G1 X71.144 Y4.944 F300
M106 S0
M106 S255
G1 X71.101 Y4.944 F300
M106 S0
M106 S255
G1 X70.959 Y4.944 F300
M106 S0
M106 S255
G1 X70.776 Y4.944 F300
M106 S0
M106 S255
G1 X70.593 Y4.944 F300
M106 S0
M106 S255
G1 X70.451 Y4.944 F300
M106 S0
M106 S255
G1 X70.408 Y4.944 F300
M106 S0
M106 S255
G1 X70.39 Y4.944 F300
M106 S0
M106 S255
G1 X70.39 Y4.953 F300
M106 S0
M106 S255
G1 X70.39 Y4.987 F300
M106 S0
M106 S255
G1 X70.39 Y5.046 F300
M106 S0
M106 S255
G1 X70.39 Y5.125 F300
M106 S0
M106 S255
G1 X70.39 Y5.34 F300
M106 S0
M106 S255
G1 X70.39 Y5.613 F300
M106 S0
M106 S255
G1 X70.39 Y5.927 F300
M106 S0
M106 S255
G1 X70.39 Y6.262 F300
M106 S0
M106 S255
G1 X70.39 Y6.925 F300
M106 S0
M106 S255
G1 X70.39 Y7.216 F300
M106 S0
M106 S255
G1 X70.39 Y7.455 F300
M106 S0
M106 S255
G1 X70.39 Y7.55 F300
M106 S0
M106 S255
G1 X70.39 Y7.624 F300
M106 S0
M106 S255
G1 X70.39 Y7.677 F300
M106 S0
M106 S255
G1 X70.39 Y7.706 F300
M106 S0
M106 S255
G1 X70.39 Y7.756 F300
M106 S0
M106 S255
G1 X70.389 Y7.853 F300
M106 S0
M106 S255
G1 X70.383 Y8.003 F300
M106 S0
M106 S255
G1 X70.371 Y8.084 F300
M106 S0
M106 S255
G1 X70.348 Y8.183 F300
M106 S0
M106 S255
G1 X70.273 Y8.404 F300
M106 S0
M106 S255
G1 X70.162 Y8.57 F300
M106 S0
M106 S255
G1 X70.083 Y8.637 F300
M106 S0
M106 S255
G1 X69.983 Y8.699 F300
M106 S0
M106 S255
G1 X69.863 Y8.755 F300
M106 S0
M106 S255
G1 X69.722 Y8.797 F300
M106 S0
M106 S255
G1 X69.563 Y8.82 F300
M106 S0
M106 S255
G1 X69.476 Y8.826 F300
M106 S0
M106 S255
G1 X69.431 Y8.826 F300
M106 S0
M106 S255
G1 X69.356 Y8.825 F300
M106 S0
M106 S255
G1 X69.197 Y8.804 F300
M106 S0
M106 S255
G1 X69.054 Y8.759 F300
M106 S0
M106 S255
G1 X68.926 Y8.69 F300
M106 S0
M106 S255
G1 X68.813 Y8.598 F300
M106 S0
M106 S255
G1 X68.716 Y8.481 F300
M106 S0
M106 S255
G1 X68.634 Y8.342 F300
M106 S0
M106 S255
G1 X68.511 Y8.025 F300
M106 S0
M106 S255
G1 X68.438 Y7.668 F300
M106 S0
M106 S255
G1 X68.422 Y7.475 F300
M106 S0
M106 S255
G1 X68.418 Y7.374 F300
M106 S0
M106 S255
G1 X68.417 Y7.323 F300
M106 S0
M106 S255
G1 X68.417 Y7.304 F300
M106 S0
M106 S255
G1 X68.417 Y7.276 F300
M106 S0
M106 S255
G1 X68.417 Y7.227 F300
M106 S0
M106 S255
G1 X68.417 Y7.075 F300
M106 S0
M106 S255
G1 X68.417 Y6.866 F300
M106 S0
M106 S255
G1 X68.417 Y6.614 F300
M106 S0
M106 S255
G1 X68.417 Y6.044 F300
M106 S0
M106 S255
G1 X68.417 Y5.758 F300
M106 S0
M106 S255
G1 X68.417 Y5.493 F300
M106 S0
M106 S255
G1 X68.417 Y5.263 F300
M106 S0
M106 S255
G1 X68.417 Y5.085 F300
M106 S0
M106 S255
G1 X68.417 Y5.02 F300
M106 S0
M106 S255
G1 X68.417 Y4.974 F300
M106 S0
M106 S255
G1 X68.417 Y4.948 F300
M106 S0
M106 S255
G1 X68.417 Y4.944 F300
M106 S0
M106 S255
G1 X68.397 Y4.944 F300
M106 S0
M106 S255
G1 X68.352 Y4.944 F300
M106 S0
M106 S255
G1 X68.206 Y4.944 F300
M106 S0
M106 S255
G1 X67.84 Y4.944 F300
M106 S0
M106 S255
G1 X67.701 Y4.944 F300
M106 S0
M106 S255
G1 X67.66 Y4.944 F300
M106 S0
M106 S255
G1 X67.646 Y4.944 F300
M106 S0
M106 S255
G1 X67.646 Y4.944 F300
M106 S0
G0 X63.546 Y7.669 F6000
M106 S255
G1 X63.546 Y7.669 F300
M106 S0
M106 S255
G1 X63.567 Y7.669 F300
M106 S0
M106 S255
G1 X63.627 Y7.669 F300
M106 S0
M106 S255
G1 X63.846 Y7.669 F300
M106 S0
M106 S255
G1 X64.164 Y7.669 F300
M106 S0
M106 S255
G1 X64.543 Y7.669 F300
M106 S0
M106 S255
G1 X65.327 Y7.669 F300
M106 S0
M106 S255
G1 X65.655 Y7.669 F300
M106 S0
M106 S255
G1 X65.891 Y7.669 F300
M106 S0
M106 S255
G1 X65.961 Y7.669 F300
M106 S0
M106 S255
G1 X65.994 Y7.669 F300
M106 S0
M106 S255
G1 X65.984 Y7.74 F300
M106 S0
M106 S255
G1 X65.951 Y7.897 F300
M106 S0
M106 S255
G1 X65.855 Y8.177 F300
M106 S0
M106 S255
G1 X65.725 Y8.411 F300
M106 S0
M106 S255
G1 X65.576 Y8.589 F300
M106 S0
M106 S255
G1 X65.413 Y8.709 F300
M106 S0
M106 S255
G1 X65.254 Y8.789 F300
M106 S0
M106 S255
G1 X64.98 Y8.869 F300
M106 S0
M106 S255
G1 X64.853 Y8.883 F300
M106 S0
M106 S255
G1 X64.769 Y8.884 F300
M106 S0
M106 S255
G1 X64.56 Y8.86 F300
M106 S0
M106 S255
G1 X64.368 Y8.8 F300
M106 S0
M106 S255
G1 X64.192 Y8.703 F300
M106 S0
M106 S255
G1 X64.033 Y8.57 F300
M106 S0
M106 S255
G1 X63.892 Y8.405 F300
M106 S0
M106 S255
G1 X63.675 Y8.05 F300
M106 S0
M106 S255
G1 X63.546 Y7.669 F300
M106 S0
M106 S255
G1 X63.546 Y7.669 F300
M106 S0
G0 X62.808 Y7.178 F6000
M106 S255
G1 X62.808 Y7.178 F300
M106 S0
M106 S255
G1 X62.841 Y7.62 F300
M106 S0
M106 S255
G1 X62.939 Y8.028 F300
M106 S0
M106 S255
G1 X63.102 Y8.402 F300
M106 S0
M106 S255
G1 X63.332 Y8.742 F300
M106 S0
M106 S255
G1 X63.615 Y9.037 F300
M106 S0
M106 S255
G1 X63.922 Y9.261 F300
M106 S0
M106 S255
G1 X64.251 Y9.41 F300
M106 S0
M106 S255
G1 X64.603 Y9.486 F300
M106 S0
M106 S255
G1 X64.787 Y9.497 F300
M106 S0
M106 S255
G1 X64.864 Y9.496 F300
M106 S0
M106 S255
G1 X64.999 Y9.486 F300
M106 S0
M106 S255
G1 X65.261 Y9.435 F300
M106 S0
M106 S255
G1 X65.513 Y9.34 F300
M106 S0
M106 S255
G1 X65.766 Y9.193 F300
M106 S0
M106 S255
G1 X66.017 Y8.986 F300
M106 S0
M106 S255
G1 X66.232 Y8.691 F300
M106 S0
M106 S255
G1 X66.405 Y8.301 F300
M106 S0
M106 S255
G1 X66.518 Y7.832 F300
M106 S0
M106 S255
G1 X66.549 Y7.57 F300
M106 S0
M106 S255
G1 X66.559 Y7.432 F300
M106 S0
M106 S255
G1 X66.56 Y7.403 F300
M106 S0
M106 S255
G1 X66.56 Y7.397 F300
M106 S0
M106 S255
G1 X66.56 Y7.332 F300
M106 S0
M106 S255
G1 X66.56 Y7.235 F300
M106 S0
M106 S255
G1 X66.56 Y7.149 F300
M106 S0
M106 S255
G1 X66.552 Y7.119 F300
M106 S0
M106 S255
G1 X66.491 Y7.119 F300
M106 S0
M106 S255
G1 X66.378 Y7.119 F300
M106 S0
M106 S255
G1 X66.221 Y7.119 F300
M106 S0
M106 S255
G1 X66.027 Y7.119 F300
M106 S0
M106 S255
G1 X65.558 Y7.119 F300
M106 S0
M106 S255
G1 X65.029 Y7.119 F300
M106 S0
M106 S255
G1 X64.501 Y7.119 F300
M106 S0
M106 S255
G1 X64.031 Y7.119 F300
M106 S0
M106 S255
G1 X63.837 Y7.119 F300
M106 S0
M106 S255
G1 X63.68 Y7.119 F300
M106 S0
M106 S255
G1 X63.567 Y7.119 F300
M106 S0
M106 S255
G1 X63.507 Y7.119 F300
M106 S0
M106 S255
G1 X63.498 Y7.119 F300
M106 S0
M106 S255
G1 X63.5 Y7.079 F300
M106 S0
M106 S255
G1 X63.506 Y6.993 F300
M106 S0
M106 S255
G1 X63.526 Y6.829 F300
M106 S0
M106 S255
G1 X63.599 Y6.522 F300
M106 S0
M106 S255
G1 X63.715 Y6.246 F300
M106 S0
M106 S255
G1 X63.875 Y6.001 F300
M106 S0
M106 S255
G1 X64.074 Y5.789 F300
M106 S0
M106 S255
G1 X64.292 Y5.627 F300
M106 S0
M106 S255
G1 X64.528 Y5.516 F300
M106 S0
M106 S255
G1 X64.781 Y5.457 F300
M106 S0
M106 S255
G1 X64.914 Y5.446 F300
M106 S0
M106 S255
G1 X65.077 Y5.449 F300
M106 S0
M106 S255
G1 X65.429 Y5.499 F300
M106 S0
M106 S255
G1 X65.781 Y5.608 F300
M106 S0
M106 S255
G1 X66.132 Y5.778 F300
M106 S0
M106 S255
G1 X66.307 Y5.885 F300
M106 S0
M106 S255
G1 X66.395 Y5.945 F300
M106 S0
M106 S255
G1 X66.439 Y5.976 F300
M106 S0
M106 S255
G1 X66.459 Y5.99 F300
M106 S0
M106 S255
G1 X66.462 Y5.959 F300
M106 S0
M106 S255
G1 X66.469 Y5.889 F300
M106 S0
M106 S255
G1 X66.51 Y5.465 F300
M106 S0
M106 S255
G1 X66.517 Y5.386 F300
M106 S0
M106 S255
G1 X66.521 Y5.343 F300
M106 S0
M106 S255
G1 X66.522 Y5.34 F300
M106 S0
M106 S255
G1 X66.504 Y5.328 F300
M106 S0
M106 S255
G1 X66.416 Y5.271 F300
M106 S0
M106 S255
G1 X66.238 Y5.169 F300
M106 S0
M106 S255
G1 X65.877 Y5.004 F300
M106 S0
M106 S255
G1 X65.509 Y4.895 F300
M106 S0
M106 S255
G1 X65.136 Y4.84 F300
M106 S0
M106 S255
G1 X64.944 Y4.833 F300
M106 S0
M106 S255
G1 X64.729 Y4.844 F300
M106 S0
M106 S255
G1 X64.326 Y4.923 F300
M106 S0
M106 S255
G1 X63.96 Y5.079 F300
M106 S0
M106 S255
G1 X63.631 Y5.311 F300
M106 S0
M106 S255
G1 X63.34 Y5.618 F300
M106 S0
M106 S255
G1 X63.107 Y5.966 F300
M106 S0
M106 S255
G1 X62.941 Y6.342 F300
M106 S0
M106 S255
G1 X62.841 Y6.746 F300
M106 S0
M106 S255
G1 X62.808 Y7.178 F300
M106 S0
M106 S255
G1 X62.808 Y7.178 F300
M106 S0
G0 X58.159 Y4.944 F6000
M106 S255
G1 X58.159 Y4.944 F300
M106 S0
M106 S255
G1 X58.159 Y4.966 F300
M106 S0
M106 S255
G1 X58.159 Y5.029 F300
M106 S0
M106 S255
G1 X58.159 Y5.129 F300
M106 S0
M106 S255
G1 X58.159 Y5.264 F300
M106 S0
M106 S255
G1 X58.159 Y5.428 F300
M106 S0
M106 S255
G1 X58.159 Y5.619 F300
M106 S0
M106 S255
G1 X58.159 Y5.833 F300
M106 S0
M106 S255
G1 X58.159 Y6.066 F300
M106 S0
M106 S255
G1 X58.159 Y6.574 F300
M106 S0
M106 S255
G1 X58.159 Y7.115 F300
M106 S0
M106 S255
G1 X58.159 Y7.659 F300
M106 S0
M106 S255
G1 X58.159 Y8.176 F300
M106 S0
M106 S255
G1 X58.159 Y8.636 F300
M106 S0
M106 S255
G1 X58.159 Y8.837 F300
M106 S0
M106 S255
G1 X58.159 Y9.012 F300
M106 S0
M106 S255
G1 X58.159 Y9.158 F300
M106 S0
M106 S255
G1 X58.159 Y9.272 F300
M106 S0
M106 S255
G1 X58.159 Y9.35 F300
M106 S0
M106 S255
G1 X58.159 Y9.388 F300
M106 S0
M106 S255
G1 X58.168 Y9.391 F300
M106 S0
M106 S255
G1 X58.201 Y9.391 F300
M106 S0
M106 S255
G1 X58.325 Y9.391 F300
M106 S0
M106 S255
G1 X58.665 Y9.391 F300
M106 S0
M106 S255
G1 X58.806 Y9.391 F300
M106 S0
M106 S255
G1 X58.852 Y9.391 F300
M106 S0
M106 S255
G1 X58.875 Y9.391 F300
M106 S0
M106 S255
G1 X58.877 Y9.385 F300
M106 S0
M106 S255
G1 X58.877 Y9.357 F300
M106 S0
M106 S255
G1 X58.877 Y9.241 F300
M106 S0
M106 S255
G1 X58.877 Y8.91 F300
M106 S0
M106 S255
G1 X58.877 Y8.768 F300
M106 S0
M106 S255
G1 X58.877 Y8.719 F300
M106 S0
M106 S255
G1 X58.877 Y8.691 F300
M106 S0
M106 S255
G1 X58.877 Y8.687 F300
M106 S0
M106 S255
G1 X58.918 Y8.739 F300
M106 S0
M106 S255
G1 X59.016 Y8.853 F300
M106 S0
M106 S255
G1 X59.223 Y9.05 F300
M106 S0
M106 S255
G1 X59.447 Y9.208 F300
M106 S0
M106 S255
G1 X59.686 Y9.324 F300
M106 S0
M106 S255
G1 X59.941 Y9.4 F300
M106 S0
M106 S255
G1 X60.212 Y9.436 F300
M106 S0
M106 S255
G1 X60.282 Y9.439 F300
M106 S0
M106 S255
G1 X60.318 Y9.439 F300
M106 S0
M106 S255
G1 X60.334 Y9.439 F300
M106 S0
M106 S255
G1 X60.393 Y9.438 F300
M106 S0
M106 S255
G1 X60.507 Y9.431 F300
M106 S0
M106 S255
G1 X60.718 Y9.401 F300
M106 S0
M106 S255
G1 X60.907 Y9.347 F300
M106 S0
M106 S255
G1 X61.072 Y9.273 F300
M106 S0
M106 S255
G1 X61.211 Y9.188 F300
M106 S0
M106 S255
G1 X61.322 Y9.092 F300
M106 S0
M106 S255
G1 X61.41 Y8.984 F300
M106 S0
M106 S255
G1 X61.484 Y8.858 F300
M106 S0
M106 S255
G1 X61.591 Y8.559 F300
M106 S0
M106 S255
G1 X61.65 Y8.281 F300
M106 S0
M106 S255
G1 X61.67 Y8.014 F300
M106 S0
M106 S255
G1 X61.674 Y7.86 F300
M106 S0
M106 S255
G1 X61.675 Y7.785 F300
M106 S0
M106 S255
G1 X61.675 Y7.756 F300
M106 S0
M106 S255
G1 X61.675 Y7.701 F300
M106 S0
M106 S255
G1 X61.675 Y7.624 F300
M106 S0
M106 S255
G1 X61.675 Y7.527 F300
M106 S0
M106 S255
G1 X61.675 Y7.281 F300
M106 S0
M106 S255
G1 X61.675 Y6.982 F300
M106 S0
M106 S255
G1 X61.675 Y6.3 F300
M106 S0
M106 S255
G1 X61.675 Y5.955 F300
M106 S0
M106 S255
G1 X61.675 Y5.633 F300
M106 S0
M106 S255
G1 X61.675 Y5.352 F300
M106 S0
M106 S255
G1 X61.675 Y5.131 F300
M106 S0
M106 S255
G1 X61.675 Y5.048 F300
M106 S0
M106 S255
G1 X61.675 Y4.988 F300
M106 S0
M106 S255
G1 X61.675 Y4.953 F300
M106 S0
M106 S255
G1 X61.674 Y4.944 F300
M106 S0
M106 S255
G1 X61.657 Y4.944 F300
M106 S0
M106 S255
G1 X61.614 Y4.944 F300
M106 S0
M106 S255
G1 X61.472 Y4.944 F300
M106 S0
M106 S255
G1 X61.289 Y4.944 F300
M106 S0
M106 S255
G1 X61.106 Y4.944 F300
M106 S0
M106 S255
G1 X60.963 Y4.944 F300
M106 S0
M106 S255
G1 X60.92 Y4.944 F300
M106 S0
M106 S255
G1 X60.903 Y4.944 F300
M106 S0
M106 S255
G1 X60.903 Y4.953 F300
M106 S0
M106 S255
G1 X60.903 Y4.987 F300
M106 S0
M106 S255
G1 X60.903 Y5.046 F300
M106 S0
M106 S255
G1 X60.903 Y5.125 F300
M106 S0
M106 S255
G1 X60.903 Y5.34 F300
M106 S0
M106 S255
G1 X60.903 Y5.613 F300
M106 S0
M106 S255
G1 X60.903 Y5.927 F300
M106 S0
M106 S255
G1 X60.903 Y6.262 F300
M106 S0
M106 S255
G1 X60.903 Y6.925 F300
M106 S0
M106 S255
G1 X60.903 Y7.216 F300
M106 S0
M106 S255
G1 X60.903 Y7.455 F300
M106 S0
M106 S255
G1 X60.903 Y7.55 F300
M106 S0
M106 S255
G1 X60.903 Y7.624 F300
M106 S0
M106 S255
G1 X60.903 Y7.677 F300
M106 S0
M106 S255
G1 X60.903 Y7.706 F300
M106 S0
M106 S255
G1 X60.903 Y7.756 F300
M106 S0
M106 S255
G1 X60.902 Y7.853 F300
M106 S0
M106 S255
G1 X60.896 Y8.003 F300
M106 S0
M106 S255
G1 X60.884 Y8.084 F300
M106 S0
M106 S255
G1 X60.861 Y8.183 F300
M106 S0
M106 S255
G1 X60.786 Y8.404 F300
M106 S0
M106 S255
G1 X60.675 Y8.57 F300
M106 S0
M106 S255
G1 X60.596 Y8.637 F300
M106 S0
M106 S255
G1 X60.496 Y8.699 F300
M106 S0
M106 S255
G1 X60.375 Y8.755 F300
M106 S0
M106 S255
G1 X60.235 Y8.797 F300
M106 S0
M106 S255
G1 X60.076 Y8.82 F300
M106 S0
M106 S255
G1 X59.989 Y8.826 F300
M106 S0
M106 S255
G1 X59.944 Y8.826 F300
M106 S0
M106 S255
G1 X59.869 Y8.825 F300
M106 S0
M106 S255
G1 X59.71 Y8.804 F300
M106 S0
M106 S255
G1 X59.567 Y8.759 F300
M106 S0
M106 S255
G1 X59.439 Y8.69 F300
M106 S0
M106 S255
G1 X59.326 Y8.598 F300
M106 S0
M106 S255
G1 X59.229 Y8.481 F300
M106 S0
M106 S255
G1 X59.147 Y8.342 F300
M106 S0
M106 S255
G1 X59.023 Y8.025 F300
M106 S0
M106 S255
G1 X58.951 Y7.668 F300
M106 S0
M106 S255
G1 X58.934 Y7.475 F300
M106 S0
M106 S255
G1 X58.931 Y7.374 F300
M106 S0
M106 S255
G1 X58.93 Y7.323 F300
M106 S0
M106 S255
G1 X58.93 Y7.304 F300
M106 S0
M106 S255
G1 X58.93 Y7.276 F300
M106 S0
M106 S255
G1 X58.93 Y7.227 F300
M106 S0
M106 S255
G1 X58.93 Y7.075 F300
M106 S0
M106 S255
G1 X58.93 Y6.866 F300
M106 S0
M106 S255
G1 X58.93 Y6.614 F300
M106 S0
M106 S255
G1 X58.93 Y6.044 F300
M106 S0
M106 S255
G1 X58.93 Y5.758 F300
M106 S0
M106 S255
G1 X58.93 Y5.493 F300
M106 S0
M106 S255
G1 X58.93 Y5.263 F300
M106 S0
M106 S255
G1 X58.93 Y5.085 F300
M106 S0
M106 S255
G1 X58.93 Y5.02 F300
M106 S0
M106 S255
G1 X58.93 Y4.974 F300
M106 S0
M106 S255
G1 X58.93 Y4.948 F300
M106 S0
M106 S255
G1 X58.93 Y4.944 F300
M106 S0
M106 S255
G1 X58.91 Y4.944 F300
M106 S0
M106 S255
G1 X58.864 Y4.944 F300
M106 S0
M106 S255
G1 X58.719 Y4.944 F300
M106 S0
M106 S255
G1 X58.353 Y4.944 F300
M106 S0
M106 S255
G1 X58.214 Y4.944 F300
M106 S0
M106 S255
G1 X58.173 Y4.944 F300
M106 S0
M106 S255
G1 X58.159 Y4.944 F300
M106 S0
M106 S255
G1 X58.159 Y4.944 F300
M106 S0
G0 X54.792 Y4.944 F6000
M106 S255
G1 X54.792 Y4.944 F300
M106 S0
M106 S255
G1 X54.792 Y4.977 F300
M106 S0
M106 S255
G1 X54.792 Y5.072 F300
M106 S0
M106 S255
G1 X54.792 Y5.222 F300
M106 S0
M106 S255
G1 X54.792 Y5.42 F300
M106 S0
M106 S255
G1 X54.792 Y5.658 F300
M106 S0
M106 S255
G1 X54.792 Y5.931 F300
M106 S0
M106 S255
G1 X54.792 Y6.23 F300
M106 S0
M106 S255
G1 X54.792 Y6.549 F300
M106 S0
M106 S255
G1 X54.792 Y7.885 F300
M106 S0
M106 S255
G1 X54.792 Y8.199 F300
M106 S0
M106 S255
G1 X54.792 Y8.491 F300
M106 S0
M106 S255
G1 X54.792 Y8.754 F300
M106 S0
M106 S255
G1 X54.792 Y8.98 F300
M106 S0
M106 S255
G1 X54.792 Y9.164 F300
M106 S0
M106 S255
G1 X54.792 Y9.298 F300
M106 S0
M106 S255
G1 X54.792 Y9.375 F300
M106 S0
M106 S255
G1 X54.792 Y9.391 F300
M106 S0
M106 S255
G1 X54.818 Y9.391 F300
M106 S0
M106 S255
G1 X54.877 Y9.391 F300
M106 S0
M106 S255
G1 X55.057 Y9.391 F300
M106 S0
M106 S255
G1 X55.263 Y9.391 F300
M106 S0
M106 S255
G1 X55.355 Y9.391 F300
M106 S0
M106 S255
G1 X55.428 Y9.391 F300
M106 S0
M106 S255
G1 X55.472 Y9.391 F300
M106 S0
M106 S255
G1 X55.482 Y9.388 F300
M106 S0
M106 S255
G1 X55.482 Y9.348 F300
M106 S0
M106 S255
G1 X55.482 Y9.268 F300
M106 S0
M106 S255
G1 X55.482 Y9.031 F300
M106 S0
M106 S255
G1 X55.482 Y8.768 F300
M106 S0
M106 S255
G1 X55.482 Y8.653 F300
M106 S0
M106 S255
G1 X55.482 Y8.565 F300
M106 S0
M106 S255
G1 X55.482 Y8.515 F300
M106 S0
M106 S255
G1 X55.482 Y8.507 F300
M106 S0
M106 S255
G1 X55.493 Y8.525 F300
M106 S0
M106 S255
G1 X55.545 Y8.6 F300
M106 S0
M106 S255
G1 X55.79 Y8.887 F300
M106 S0
M106 S255
G1 X55.874 Y8.959 F300
M106 S0
M106 S255
G1 X55.976 Y9.032 F300
M106 S0
M106 S255
G1 X56.098 Y9.108 F300
M106 S0
M106 S255
G1 X56.239 Y9.185 F300
M106 S0
M106 S255
G1 X56.567 Y9.329 F300
M106 S0
M106 S255
G1 X56.922 Y9.415 F300
M106 S0
M106 S255
G1 X57.11 Y9.435 F300
M106 S0
M106 S255
G1 X57.206 Y9.439 F300
M106 S0
M106 S255
G1 X57.213 Y9.423 F300
M106 S0
M106 S255
G1 X57.213 Y9.374 F300
M106 S0
M106 S255
G1 X57.213 Y9.301 F300
M106 S0
M106 S255
G1 X57.213 Y9.113 F300
M106 S0
M106 S255
G1 X57.213 Y8.926 F300
M106 S0
M106 S255
G1 X57.213 Y8.853 F300
M106 S0
M106 S255
G1 X57.213 Y8.804 F300
M106 S0
M106 S255
G1 X57.209 Y8.788 F300
M106 S0
M106 S255
G1 X57.157 Y8.785 F300
M106 S0
M106 S255
G1 X57.053 Y8.774 F300
M106 S0
M106 S255
G1 X56.844 Y8.735 F300
M106 S0
M106 S255
G1 X56.635 Y8.671 F300
M106 S0
M106 S255
G1 X56.419 Y8.576 F300
M106 S0
M106 S255
G1 X56.195 Y8.448 F300
M106 S0
M106 S255
G1 X55.978 Y8.276 F300
M106 S0
M106 S255
G1 X55.797 Y8.041 F300
M106 S0
M106 S255
G1 X55.654 Y7.743 F300
M106 S0
M106 S255
G1 X55.563 Y7.4 F300
M106 S0
M106 S255
G1 X55.53 Y7.016 F300
M106 S0
M106 S255
G1 X55.53 Y6.982 F300
M106 S0
M106 S255
G1 X55.53 Y6.955 F300
M106 S0
M106 S255
G1 X55.53 Y6.902 F300
M106 S0
M106 S255
G1 X55.53 Y6.824 F300
M106 S0
M106 S255
G1 X55.53 Y6.61 F300
M106 S0
M106 S255
G1 X55.53 Y6.339 F300
M106 S0
M106 S255
G1 X55.53 Y5.727 F300
M106 S0
M106 S255
G1 X55.53 Y5.438 F300
M106 S0
M106 S255
G1 X55.53 Y5.194 F300
M106 S0
M106 S255
G1 X55.53 Y5.097 F300
M106 S0
M106 S255
G1 X55.53 Y5.021 F300
M106 S0
M106 S255
G1 X55.53 Y4.97 F300
M106 S0
M106 S255
G1 X55.53 Y4.945 F300
M106 S0
M106 S255
G1 X55.514 Y4.944 F300
M106 S0
M106 S255
G1 X55.462 Y4.944 F300
M106 S0
M106 S255
G1 X55.381 Y4.944 F300
M106 S0
M106 S255
G1 X55.28 Y4.944 F300
M106 S0
M106 S255
G1 X55.058 Y4.944 F300
M106 S0
M106 S255
G1 X54.871 Y4.944 F300
M106 S0
M106 S255
G1 X54.813 Y4.944 F300
M106 S0
M106 S255
G1 X54.792 Y4.944 F300
M106 S0
M106 S255
G1 X54.792 Y4.944 F300
M106 S0
G0 X50.668 Y6.08 F6000
M106 S255
G1 X50.668 Y6.08 F300
M106 S0
M106 S255
G1 X50.702 Y5.897 F300
M106 S0
M106 S255
G1 X50.803 Y5.736 F300
M106 S0
M106 S255
G1 X50.972 Y5.6 F300
M106 S0
M106 S255
G1 X51.185 Y5.503 F300
M106 S0
M106 S255
G1 X51.434 Y5.453 F300
M106 S0
M106 S255
G1 X51.721 Y5.45 F300
M106 S0
M106 S255
G1 X52.006 Y5.495 F300
M106 S0
M106 S255
G1 X52.27 Y5.587 F300
M106 S0
M106 S255
G1 X52.497 Y5.729 F300
M106 S0
M106 S255
G1 X52.639 Y5.937 F300
M106 S0
M106 S255
G1 X52.693 Y6.209 F300
M106 S0
M106 S255
G1 X52.694 Y6.396 F300
M106 S0
M106 S255
G1 X52.694 Y6.724 F300
M106 S0
M106 S255
G1 X52.669 Y6.878 F300
M106 S0
M106 S255
G1 X52.448 Y6.872 F300
M106 S0
M106 S255
G1 X52.224 Y6.855 F300
M106 S0
M106 S255
G1 X51.996 Y6.828 F300
M106 S0
M106 S255
G1 X51.764 Y6.791 F300
M106 S0
M106 S255
G1 X51.527 Y6.743 F300
M106 S0
M106 S255
G1 X51.291 Y6.682 F300
M106 S0
M106 S255
G1 X51.084 Y6.6 F300
M106 S0
M106 S255
G1 X50.91 Y6.496 F300
M106 S0
M106 S255
G1 X50.776 Y6.371 F300
M106 S0
M106 S255
G1 X50.695 Y6.233 F300
M106 S0
M106 S255
G1 X50.668 Y6.08 F300
M106 S0
G0 X49.959 Y6.058 F6000
M106 S255
G1 X49.959 Y6.058 F300
M106 S0
M106 S255
G1 X49.986 Y6.278 F300
M106 S0
M106 S255
G1 X50.067 Y6.479 F300
M106 S0
M106 S255
G1 X50.202 Y6.663 F300
M106 S0
M106 S255
G1 X50.384 Y6.824 F300
M106 S0
M106 S255
G1 X50.6 Y6.959 F300
M106 S0
M106 S255
G1 X50.85 Y7.067 F300
M106 S0
M106 S255
G1 X51.401 Y7.218 F300
M106 S0
M106 S255
G1 X51.941 Y7.315 F300
M106 S0
M106 S255
G1 X52.478 Y7.361 F300
M106 S0
M106 S255
G1 X52.613 Y7.364 F300
M106 S0
M106 S255
G1 X52.68 Y7.365 F300
M106 S0
M106 S255
G1 X52.694 Y7.369 F300
M106 S0
M106 S255
G1 X52.694 Y7.47 F300
M106 S0
M106 S255
G1 X52.694 Y7.621 F300
M106 S0
M106 S255
G1 X52.694 Y7.676 F300
M106 S0
M106 S255
G1 X52.694 Y7.698 F300
M106 S0
M106 S255
G1 X52.661 Y8.058 F300
M106 S0
M106 S255
G1 X52.585 Y8.35 F300
M106 S0
M106 S255
G1 X52.466 Y8.573 F300
M106 S0
M106 S255
G1 X52.306 Y8.738 F300
M106 S0
M106 S255
G1 X52.119 Y8.847 F300
M106 S0
M106 S255
G1 X51.906 Y8.899 F300
M106 S0
M106 S255
G1 X51.849 Y8.903 F300
M106 S0
M106 S255
G1 X51.767 Y8.903 F300
M106 S0
M106 S255
G1 X51.531 Y8.886 F300
M106 S0
M106 S255
G1 X51.065 Y8.778 F300
M106 S0
M106 S255
G1 X50.608 Y8.572 F300
M106 S0
M106 S255
G1 X50.382 Y8.433 F300
M106 S0
M106 S255
G1 X50.337 Y8.402 F300
M106 S0
M106 S255
G1 X50.337 Y8.406 F300
M106 S0
M106 S255
G1 X50.335 Y8.43 F300
M106 S0
M106 S255
G1 X50.327 Y8.529 F300
M106 S0
M106 S255
G1 X50.314 Y8.671 F300
M106 S0
M106 S255
G1 X50.289 Y8.96 F300
M106 S0
M106 S255
G1 X50.282 Y9.046 F300
M106 S0
M106 S255
G1 X50.281 Y9.062 F300
M106 S0
M106 S255
G1 X50.315 Y9.083 F300
M106 S0
M106 S255
G1 X50.373 Y9.115 F300
M106 S0
M106 S255
G1 X50.845 Y9.327 F300
M106 S0
M106 S255
G1 X51.328 Y9.454 F300
M106 S0
M106 S255
G1 X51.824 Y9.497 F300
M106 S0
M106 S255
G1 X52.228 Y9.453 F300
M106 S0
M106 S255
G1 X52.589 Y9.322 F300
M106 S0
M106 S255
G1 X52.907 Y9.103 F300
M106 S0
M106 S255
G1 X53.17 Y8.812 F300
M106 S0
M106 S255
G1 X53.351 Y8.483 F300
M106 S0
M106 S255
G1 X53.449 Y8.116 F300
M106 S0
M106 S255
G1 X53.461 Y8.018 F300
M106 S0
M106 S255
G1 X53.465 Y7.968 F300
M106 S0
M106 S255
G1 X53.466 Y7.95 F300
M106 S0
M106 S255
G1 X53.466 Y7.858 F300
M106 S0
M106 S255
G1 X53.466 Y7.68 F300
M106 S0
M106 S255
G1 X53.466 Y7.433 F300
M106 S0
M106 S255
G1 X53.466 Y7.135 F300
M106 S0
M106 S255
G1 X53.466 Y6.451 F300
M106 S0
M106 S255
G1 X53.466 Y5.768 F300
M106 S0
M106 S255
G1 X53.466 Y5.469 F300
M106 S0
M106 S255
G1 X53.466 Y5.222 F300
M106 S0
M106 S255
G1 X53.466 Y5.044 F300
M106 S0
M106 S255
G1 X53.466 Y4.952 F300
M106 S0
M106 S255
G1 X53.433 Y4.944 F300
M106 S0
M106 S255
G1 X53.321 Y4.944 F300
M106 S0
M106 S255
G1 X53.162 Y4.944 F300
M106 S0
M106 S255
G1 X52.835 Y4.944 F300
M106 S0
M106 S255
G1 X52.737 Y4.944 F300
M106 S0
M106 S255
G1 X52.718 Y4.948 F300
M106 S0
M106 S255
G1 X52.718 Y4.986 F300
M106 S0
M106 S255
G1 X52.718 Y5.054 F300
M106 S0
M106 S255
G1 X52.718 Y5.211 F300
M106 S0
M106 S255
G1 X52.718 Y5.268 F300
M106 S0
M106 S255
G1 X52.718 Y5.291 F300
M106 S0
M106 S255
G1 X52.628 Y5.223 F300
M106 S0
M106 S255
G1 X52.552 Y5.174 F300
M106 S0
M106 S255
G1 X52.445 Y5.117 F300
M106 S0
M106 S255
G1 X52.286 Y5.053 F300
M106 S0
M106 S255
G1 X52.073 Y4.983 F300
M106 S0
M106 S255
G1 X51.541 Y4.863 F300
M106 S0
M106 S255
G1 X51.253 Y4.837 F300
M106 S0
M106 S255
G1 X50.939 Y4.839 F300
M106 S0
M106 S255
G1 X50.64 Y4.909 F300
M106 S0
M106 S255
G1 X50.395 Y5.058 F300
M106 S0
M106 S255
G1 X50.204 Y5.283 F300
M106 S0
M106 S255
G1 X50.068 Y5.537 F300
M106 S0
M106 S255
G1 X49.986 Y5.795 F300
M106 S0
M106 S255
G1 X49.959 Y6.058 F300
M106 S0
M106 S255
G1 X49.959 Y6.058 F300
M106 S0
G0 X45.213 Y6.15 F6000
M106 S255
G1 X45.213 Y6.15 F300
M106 S0
M106 S255
G1 X45.213 Y6.162 F300
M106 S0
M106 S255
G1 X45.213 Y6.2 F300
M106 S0
M106 S255
G1 X45.213 Y6.259 F300
M106 S0
M106 S255
G1 X45.213 Y6.339 F300
M106 S0
M106 S255
G1 X45.213 Y6.553 F300
M106 S0
M106 S255
G1 X45.213 Y6.826 F300
M106 S0
M106 S255
G1 X45.213 Y7.141 F300
M106 S0
M106 S255
G1 X45.213 Y7.483 F300
M106 S0
M106 S255
G1 X45.213 Y8.187 F300
M106 S0
M106 S255
G1 X45.213 Y8.517 F300
M106 S0
M106 S255
G1 X45.213 Y8.811 F300
M106 S0
M106 S255
G1 X45.213 Y9.055 F300
M106 S0
M106 S255
G1 X45.213 Y9.232 F300
M106 S0
M106 S255
G1 X45.213 Y9.29 F300
M106 S0
M106 S255
G1 X45.213 Y9.326 F300
M106 S0
M106 S255
G1 X45.217 Y9.338 F300
M106 S0
M106 S255
G1 X45.241 Y9.338 F300
M106 S0
M106 S255
G1 X45.284 Y9.338 F300
M106 S0
M106 S255
G1 X45.416 Y9.338 F300
M106 S0
M106 S255
G1 X45.581 Y9.338 F300
M106 S0
M106 S255
G1 X45.749 Y9.338 F300
M106 S0
M106 S255
G1 X45.89 Y9.338 F300
M106 S0
M106 S255
G1 X45.974 Y9.338 F300
M106 S0
M106 S255
G1 X45.985 Y9.338 F300
M106 S0
M106 S255
G1 X45.985 Y9.321 F300
M106 S0
M106 S255
G1 X45.985 Y9.28 F300
M106 S0
M106 S255
G1 X45.985 Y9.216 F300
M106 S0
M106 S255
G1 X45.985 Y9.13 F300
M106 S0
M106 S255
G1 X45.985 Y8.905 F300
M106 S0
M106 S255
G1 X45.985 Y8.619 F300
M106 S0
M106 S255
G1 X45.985 Y8.289 F300
M106 S0
M106 S255
G1 X45.985 Y7.565 F300
M106 S0
M106 S255
G1 X45.985 Y7.202 F300
M106 S0
M106 S255
G1 X45.985 Y6.861 F300
M106 S0
M106 S255
G1 X45.985 Y6.557 F300
M106 S0
M106 S255
G1 X45.985 Y6.307 F300
M106 S0
M106 S255
G1 X45.985 Y6.208 F300
M106 S0
M106 S255
G1 X45.985 Y6.128 F300
M106 S0
M106 S255
G1 X45.985 Y6.069 F300
M106 S0
M106 S255
G1 X45.985 Y6.034 F300
M106 S0
M106 S255
G1 X46.0 Y5.854 F300
M106 S0
M106 S255
G1 X46.041 Y5.697 F300
M106 S0
M106 S255
G1 X46.107 Y5.575 F300
M106 S0
M106 S255
G1 X46.202 Y5.487 F300
M106 S0
M106 S255
G1 X46.35 Y5.427 F300
M106 S0
M106 S255
G1 X46.555 Y5.392 F300
M106 S0
M106 S255
G1 X46.819 Y5.383 F300
M106 S0
M106 S255
G1 X47.099 Y5.415 F300
M106 S0
M106 S255
G1 X47.345 Y5.495 F300
M106 S0
M106 S255
G1 X47.556 Y5.623 F300
M106 S0
M106 S255
G1 X47.728 Y5.788 F300
M106 S0
M106 S255
G1 X47.851 Y5.969 F300
M106 S0
M106 S255
G1 X47.927 Y6.165 F300
M106 S0
M106 S255
G1 X47.946 Y6.269 F300
M106 S0
M106 S255
G1 X47.95 Y6.311 F300
M106 S0
M106 S255
G1 X47.957 Y6.472 F300
M106 S0
M106 S255
G1 X47.958 Y6.573 F300
M106 S0
M106 S255
G1 X47.958 Y6.593 F300
M106 S0
M106 S255
G1 X47.958 Y6.634 F300
M106 S0
M106 S255
G1 X47.958 Y6.77 F300
M106 S0
M106 S255
G1 X47.958 Y6.967 F300
M106 S0
M106 S255
G1 X47.958 Y7.212 F300
M106 S0
M106 S255
G1 X47.958 Y7.492 F300
M106 S0
M106 S255
G1 X47.958 Y7.792 F300
M106 S0
M106 S255
G1 X47.958 Y8.401 F300
M106 S0
M106 S255
G1 X47.958 Y8.682 F300
M106 S0
M106 S255
G1 X47.958 Y8.929 F300
M106 S0
M106 S255
G1 X47.958 Y9.13 F300
M106 S0
M106 S255
G1 X47.958 Y9.269 F300
M106 S0
M106 S255
G1 X47.958 Y9.312 F300
M106 S0
M106 S255
G1 X47.958 Y9.335 F300
M106 S0
M106 S255
G1 X47.964 Y9.338 F300
M106 S0
M106 S255
G1 X48.04 Y9.338 F300
M106 S0
M106 S255
G1 X48.177 Y9.338 F300
M106 S0
M106 S255
G1 X48.343 Y9.338 F300
M106 S0
M106 S255
G1 X48.51 Y9.338 F300
M106 S0
M106 S255
G1 X48.647 Y9.338 F300
M106 S0
M106 S255
G1 X48.723 Y9.338 F300
M106 S0
M106 S255
G1 X48.729 Y9.333 F300
M106 S0
M106 S255
G1 X48.729 Y9.297 F300
M106 S0
M106 S255
G1 X48.729 Y9.229 F300
M106 S0
M106 S255
G1 X48.729 Y9.132 F300
M106 S0
M106 S255
G1 X48.729 Y9.007 F300
M106 S0
M106 S255
G1 X48.729 Y8.859 F300
M106 S0
M106 S255
G1 X48.729 Y8.689 F300
M106 S0
M106 S255
G1 X48.729 Y8.296 F300
M106 S0
M106 S255
G1 X48.729 Y7.85 F300
M106 S0
M106 S255
G1 X48.729 Y6.884 F300
M106 S0
M106 S255
G1 X48.729 Y6.407 F300
M106 S0
M106 S255
G1 X48.729 Y5.963 F300
M106 S0
M106 S255
G1 X48.729 Y5.573 F300
M106 S0
M106 S255
G1 X48.729 Y5.406 F300
M106 S0
M106 S255
G1 X48.729 Y5.26 F300
M106 S0
M106 S255
G1 X48.729 Y5.138 F300
M106 S0
M106 S255
G1 X48.729 Y5.044 F300
M106 S0
M106 S255
G1 X48.729 Y4.979 F300
M106 S0
M106 S255
G1 X48.729 Y4.947 F300
M106 S0
M106 S255
G1 X48.722 Y4.944 F300
M106 S0
M106 S255
G1 X48.693 Y4.944 F300
M106 S0
M106 S255
G1 X48.584 Y4.944 F300
M106 S0
M106 S255
G1 X48.266 Y4.944 F300
M106 S0
M106 S255
G1 X48.115 Y4.944 F300
M106 S0
M106 S255
G1 X48.009 Y4.944 F300
M106 S0
M106 S255
G1 X47.983 Y4.944 F300
M106 S0
M106 S255
G1 X47.977 Y4.945 F300
M106 S0
M106 S255
G1 X47.977 Y4.981 F300
M106 S0
M106 S255
G1 X47.977 Y5.057 F300
M106 S0
M106 S255
G1 X47.977 Y5.156 F300
M106 S0
M106 S255
G1 X47.977 Y5.347 F300
M106 S0
M106 S255
G1 X47.977 Y5.402 F300
M106 S0
M106 S255
G1 X47.977 Y5.411 F300
M106 S0
M106 S255
G1 X47.968 Y5.404 F300
M106 S0
M106 S255
G1 X47.943 Y5.383 F300
M106 S0
M106 S255
G1 X47.892 Y5.342 F300
M106 S0
M106 S255
G1 X47.677 Y5.193 F300
M106 S0
M106 S255
G1 X47.445 Y5.07 F300
M106 S0
M106 S255
G1 X47.197 Y4.973 F300
M106 S0
M106 S255
G1 X46.931 Y4.901 F300
M106 S0
M106 S255
G1 X46.648 Y4.855 F300
M106 S0
M106 S255
G1 X46.348 Y4.834 F300
M106 S0
M106 S255
G1 X46.271 Y4.833 F300
M106 S0
M106 S255
G1 X46.245 Y4.833 F300
M106 S0
M106 S255
G1 X46.234 Y4.833 F300
M106 S0
M106 S255
G1 X46.191 Y4.834 F300
M106 S0
M106 S255
G1 X46.108 Y4.839 F300
M106 S0
M106 S255
G1 X45.954 Y4.861 F300
M106 S0
M106 S255
G1 X45.814 Y4.9 F300
M106 S0
M106 S255
G1 X45.689 Y4.954 F300
M106 S0
M106 S255
G1 X45.583 Y5.014 F300
M106 S0
M106 S255
G1 X45.495 Y5.079 F300
M106 S0
M106 S255
G1 X45.426 Y5.149 F300
M106 S0
M106 S255
G1 X45.323 Y5.328 F300
M106 S0
M106 S255
G1 X45.255 Y5.563 F300
M106 S0
M106 S255
G1 X45.222 Y5.76 F300
M106 S0
M106 S255
G1 X45.215 Y5.925 F300
M106 S0
M106 S255
G1 X45.213 Y6.15 F300
M106 S0
M106 S255
G1 X45.213 Y6.15 F300
M106 S0
G0 X40.549 Y7.223 F6000
M106 S255
G1 X40.549 Y7.223 F300
M106 S0
M106 S255
G1 X40.605 Y6.647 F300
M106 S0
M106 S255
G1 X40.771 Y6.183 F300
M106 S0
M106 S255
G1 X41.046 Y5.832 F300
M106 S0
M106 S255
G1 X41.378 Y5.597 F300
M106 S0
M106 S255
G1 X41.746 Y5.479 F300
M106 S0
M106 S255
G1 X42.14 Y5.48 F300
M106 S0
M106 S255
G1 X42.508 Y5.598 F300
M106 S0
M106 S255
G1 X42.84 Y5.836 F300
M106 S0
M106 S255
G1 X43.115 Y6.189 F300
M106 S0
M106 S255
G1 X43.282 Y6.652 F300
M106 S0
M106 S255
G1 X43.337 Y7.223 F300
M106 S0
M106 S255
G1 X43.282 Y7.772 F300
M106 S0
M106 S255
G1 X43.115 Y8.211 F300
M106 S0
M106 S255
G1 X42.84 Y8.541 F300
M106 S0
M106 S255
G1 X42.508 Y8.761 F300
M106 S0
M106 S255
G1 X42.14 Y8.871 F300
M106 S0
M106 S255
G1 X41.749 Y8.871 F300
M106 S0
M106 S255
G1 X41.384 Y8.761 F300
M106 S0
M106 S255
G1 X41.052 Y8.541 F300
M106 S0
M106 S255
G1 X40.774 Y8.211 F300
M106 S0
M106 S255
G1 X40.605 Y7.772 F300
M106 S0
M106 S255
G1 X40.549 Y7.223 F300
M106 S0
G0 X39.778 Y7.126 F6000
M106 S255
G1 X39.778 Y7.126 F300
M106 S0
M106 S255
G1 X39.862 Y7.812 F300
M106 S0
M106 S255
G1 X40.116 Y8.414 F300
M106 S0
M106 S255
G1 X40.535 Y8.93 F300
M106 S0
M106 S255
G1 X41.049 Y9.293 F300
M106 S0
M106 S255
G1 X41.629 Y9.474 F300
M106 S0
M106 S255
G1 X42.27 Y9.473 F300
M106 S0
M106 S255
G1 X42.863 Y9.283 F300
M106 S0
M106 S255
G1 X43.374 Y8.904 F300
M106 S0
M106 S255
G1 X43.781 Y8.372 F300
M106 S0
M106 S255
G1 X44.027 Y7.774 F300
M106 S0
M106 S255
G1 X44.109 Y7.117 F300
M106 S0
M106 S255
G1 X44.023 Y6.448 F300
M106 S0
M106 S255
G1 X43.766 Y5.866 F300
M106 S0
M106 S255
G1 X43.34 Y5.372 F300
M106 S0
M106 S255
G1 X42.825 Y5.027 F300
M106 S0
M106 S255
G1 X42.252 Y4.854 F300
M106 S0
M106 S255
G1 X41.635 Y4.855 F300
M106 S0
M106 S255
G1 X41.061 Y5.028 F300
M106 S0
M106 S255
G1 X40.546 Y5.376 F300
M106 S0
M106 S255
G1 X40.121 Y5.873 F300
M106 S0
M106 S255
G1 X39.863 Y6.457 F300
M106 S0
M106 S255
G1 X39.778 Y7.126 F300
M106 S0
G0 X34.154 Y5.494 F6000
M106 S255
G1 X34.154 Y5.494 F300
M106 S0
M106 S255
G1 X34.166 Y5.494 F300
M106 S0
M106 S255
G1 X34.201 Y5.494 F300
M106 S0
M106 S255
G1 X34.255 Y5.494 F300
M106 S0
M106 S255
G1 X34.327 Y5.494 F300
M106 S0
M106 S255
G1 X34.51 Y5.494 F300
M106 S0
M106 S255
G1 X34.729 Y5.494 F300
M106 S0
M106 S255
G1 X35.181 Y5.494 F300
M106 S0
M106 S255
G1 X35.37 Y5.494 F300
M106 S0
M106 S255
G1 X35.446 Y5.494 F300
M106 S0
M106 S255
G1 X35.506 Y5.494 F300
M106 S0
M106 S255
G1 X35.547 Y5.494 F300
M106 S0
M106 S255
G1 X35.566 Y5.494 F300
M106 S0
M106 S255
G1 X35.567 Y5.494 F300
M106 S0
M106 S255
G1 X35.596 Y5.494 F300
M106 S0
M106 S255
G1 X35.663 Y5.495 F300
M106 S0
M106 S255
G1 X35.794 Y5.502 F300
M106 S0
M106 S255
G1 X36.046 Y5.531 F300
M106 S0
M106 S255
G1 X36.285 Y5.582 F300
M106 S0
M106 S255
G1 X36.512 Y5.655 F300
M106 S0
M106 S255
G1 X36.725 Y5.75 F300
M106 S0
M106 S255
G1 X36.925 Y5.866 F300
M106 S0
M106 S255
G1 X37.112 Y6.004 F300
M106 S0
M106 S255
G1 X37.287 Y6.164 F300
M106 S0
M106 S255
G1 X37.448 Y6.345 F300
M106 S0
M106 S255
G1 X37.518 Y6.437 F300
M106 S0
M106 S255
G1 X37.579 Y6.523 F300
M106 S0
M106 S255
G1 X37.69 Y6.701 F300
M106 S0
M106 S255
G1 X37.786 Y6.888 F300
M106 S0
M106 S255
G1 X37.869 Y7.084 F300
M106 S0
M106 S255
G1 X37.938 Y7.289 F300
M106 S0
M106 S255
G1 X37.993 Y7.503 F300
M106 S0
M106 S255
G1 X38.034 Y7.727 F300
M106 S0
M106 S255
G1 X38.061 Y7.96 F300
M106 S0
M106 S255
G1 X38.074 Y8.202 F300
M106 S0
M106 S255
G1 X38.072 Y8.463 F300
M106 S0
M106 S255
G1 X38.056 Y8.727 F300
M106 S0
M106 S255
G1 X38.023 Y8.981 F300
M106 S0
M106 S255
G1 X37.975 Y9.225 F300
M106 S0
M106 S255
G1 X37.91 Y9.46 F300
M106 S0
M106 S255
G1 X37.831 Y9.684 F300
M106 S0
M106 S255
G1 X37.735 Y9.899 F300
M106 S0
M106 S255
G1 X37.623 Y10.104 F300
M106 S0
M106 S255
G1 X37.496 Y10.298 F300
M106 S0
M106 S255
G1 X37.354 Y10.482 F300
M106 S0
M106 S255
G1 X37.198 Y10.648 F300
M106 S0
M106 S255
G1 X37.029 Y10.793 F300
M106 S0
M106 S255
G1 X36.848 Y10.919 F300
M106 S0
M106 S255
G1 X36.654 Y11.024 F300
M106 S0
M106 S255
G1 X36.447 Y11.109 F300
M106 S0
M106 S255
G1 X36.227 Y11.173 F300
M106 S0
M106 S255
G1 X35.995 Y11.218 F300
M106 S0
M106 S255
G1 X35.75 Y11.242 F300
M106 S0
M106 S255
G1 X35.623 Y11.247 F300
M106 S0
M106 S255
G1 X35.567 Y11.248 F300
M106 S0
M106 S255
G1 X35.563 Y11.248 F300
M106 S0
M106 S255
G1 X35.537 Y11.248 F300
M106 S0
M106 S255
G1 X35.491 Y11.248 F300
M106 S0
M106 S255
G1 X35.426 Y11.248 F300
M106 S0
M106 S255
G1 X35.346 Y11.248 F300
M106 S0
M106 S255
G1 X35.151 Y11.248 F300
M106 S0
M106 S255
G1 X34.927 Y11.248 F300
M106 S0
M106 S255
G1 X34.696 Y11.248 F300
M106 S0
M106 S255
G1 X34.482 Y11.248 F300
M106 S0
M106 S255
G1 X34.305 Y11.248 F300
M106 S0
M106 S255
G1 X34.238 Y11.248 F300
M106 S0
M106 S255
G1 X34.189 Y11.248 F300
M106 S0
M106 S255
G1 X34.16 Y11.248 F300
M106 S0
M106 S255
G1 X34.154 Y11.243 F300
M106 S0
M106 S255
G1 X34.154 Y11.217 F300
M106 S0
M106 S255
G1 X34.154 Y11.166 F300
M106 S0
M106 S255
G1 X34.154 Y11.094 F300
M106 S0
M106 S255
G1 X34.154 Y11.0 F300
M106 S0
M106 S255
G1 X34.154 Y10.888 F300
M106 S0
M106 S255
G1 X34.154 Y10.757 F300
M106 S0
M106 S255
G1 X34.154 Y10.61 F300
M106 S0
M106 S255
G1 X34.154 Y10.448 F300
M106 S0
M106 S255
G1 X34.154 Y10.083 F300
M106 S0
M106 S255
G1 X34.154 Y9.675 F300
M106 S0
M106 S255
G1 X34.154 Y9.235 F300
M106 S0
M106 S255
G1 X34.154 Y8.774 F300
M106 S0
M106 S255
G1 X34.154 Y7.834 F300
M106 S0
M106 S255
G1 X34.154 Y7.378 F300
M106 S0
M106 S255
G1 X34.154 Y6.946 F300
M106 S0
M106 S255
G1 X34.154 Y6.549 F300
M106 S0
M106 S255
G1 X34.154 Y6.199 F300
M106 S0
M106 S255
G1 X34.154 Y6.045 F300
M106 S0
M106 S255
G1 X34.154 Y5.907 F300
M106 S0
M106 S255
G1 X34.154 Y5.787 F300
M106 S0
M106 S255
G1 X34.154 Y5.685 F300
M106 S0
M106 S255
G1 X34.154 Y5.603 F300
M106 S0
M106 S255
G1 X34.154 Y5.543 F300
M106 S0
M106 S255
G1 X34.154 Y5.506 F300
M106 S0
M106 S255
G1 X34.154 Y5.494 F300
M106 S0
M106 S255
G1 X34.154 Y5.494 F300
M106 S0
G0 X33.295 Y4.944 F6000
M106 S255
G1 X33.295 Y4.944 F300
M106 S0
M106 S255
G1 X33.295 Y4.95 F300
M106 S0
M106 S255
G1 X33.295 Y4.969 F300
M106 S0
M106 S255
G1 X33.295 Y5.041 F300
M106 S0
M106 S255
G1 X33.295 Y5.156 F300
M106 S0
M106 S255
G1 X33.295 Y5.312 F300
M106 S0
M106 S255
G1 X33.295 Y5.505 F300
M106 S0
M106 S255
G1 X33.295 Y5.73 F300
M106 S0
M106 S255
G1 X33.295 Y5.985 F300
M106 S0
M106 S255
G1 X33.295 Y6.265 F300
M106 S0
M106 S255
G1 X33.295 Y6.568 F300
M106 S0
M106 S255
G1 X33.295 Y6.889 F300
M106 S0
M106 S255
G1 X33.295 Y7.574 F300
M106 S0
M106 S255
G1 X33.295 Y9.01 F300
M106 S0
M106 S255
G1 X33.295 Y9.704 F300
M106 S0
M106 S255
G1 X33.295 Y10.032 F300
M106 S0
M106 S255
G1 X33.295 Y10.344 F300
M106 S0
M106 S255
G1 X33.295 Y10.635 F300
M106 S0
M106 S255
G1 X33.295 Y10.901 F300
M106 S0
M106 S255
G1 X33.295 Y11.14 F300
M106 S0
M106 S255
G1 X33.295 Y11.348 F300
M106 S0
M106 S255
G1 X33.295 Y11.52 F300
M106 S0
M106 S255
G1 X33.295 Y11.654 F300
M106 S0
M106 S255
G1 X33.295 Y11.746 F300
M106 S0
M106 S255
G1 X33.295 Y11.793 F300
M106 S0
M106 S255
G1 X33.298 Y11.797 F300
M106 S0
M106 S255
G1 X33.316 Y11.797 F300
M106 S0
M106 S255
G1 X33.35 Y11.797 F300
M106 S0
M106 S255
G1 X33.4 Y11.797 F300
M106 S0
M106 S255
G1 X33.462 Y11.797 F300
M106 S0
M106 S255
G1 X33.537 Y11.797 F300
M106 S0
M106 S255
G1 X33.718 Y11.797 F300
M106 S0
M106 S255
G1 X33.933 Y11.797 F300
M106 S0
M106 S255
G1 X34.171 Y11.797 F300
M106 S0
M106 S255
G1 X34.678 Y11.797 F300
M106 S0
M106 S255
G1 X34.927 Y11.797 F300
M106 S0
M106 S255
G1 X35.159 Y11.797 F300
M106 S0
M106 S255
G1 X35.363 Y11.797 F300
M106 S0
M106 S255
G1 X35.531 Y11.797 F300
M106 S0
M106 S255
G1 X35.598 Y11.797 F300
M106 S0
M106 S255
G1 X35.651 Y11.797 F300
M106 S0
M106 S255
G1 X35.691 Y11.797 F300
M106 S0
M106 S255
G1 X35.714 Y11.797 F300
M106 S0
M106 S255
G1 X35.729 Y11.797 F300
M106 S0
M106 S255
G1 X35.798 Y11.797 F300
M106 S0
M106 S255
G1 X35.934 Y11.792 F300
M106 S0
M106 S255
G1 X36.198 Y11.769 F300
M106 S0
M106 S255
G1 X36.452 Y11.727 F300
M106 S0
M106 S255
G1 X36.694 Y11.667 F300
M106 S0
M106 S255
G1 X36.926 Y11.588 F300
M106 S0
M106 S255
G1 X37.147 Y11.492 F300
M106 S0
M106 S255
G1 X37.356 Y11.377 F300
M106 S0
M106 S255
G1 X37.557 Y11.242 F300
M106 S0
M106 S255
G1 X37.745 Y11.094 F300
M106 S0
M106 S255
G1 X37.92 Y10.931 F300
M106 S0
M106 S255
G1 X38.082 Y10.755 F300
M106 S0
M106 S255
G1 X38.231 Y10.566 F300
M106 S0
M106 S255
G1 X38.367 Y10.363 F300
M106 S0
M106 S255
G1 X38.49 Y10.146 F300
M106 S0
M106 S255
G1 X38.599 Y9.917 F300
M106 S0
M106 S255
G1 X38.694 Y9.684 F300
M106 S0
M106 S255
G1 X38.772 Y9.447 F300
M106 S0
M106 S255
G1 X38.835 Y9.206 F300
M106 S0
M106 S255
G1 X38.883 Y8.961 F300
M106 S0
M106 S255
G1 X38.915 Y8.712 F300
M106 S0
M106 S255
G1 X38.931 Y8.46 F300
M106 S0
M106 S255
G1 X38.933 Y8.332 F300
M106 S0
M106 S255
G1 X38.93 Y8.148 F300
M106 S0
M106 S255
G1 X38.9 Y7.778 F300
M106 S0
M106 S255
G1 X38.838 Y7.426 F300
M106 S0
M106 S255
G1 X38.743 Y7.092 F300
M106 S0
M106 S255
G1 X38.617 Y6.776 F300
M106 S0
M106 S255
G1 X38.459 Y6.477 F300
M106 S0
M106 S255
G1 X38.268 Y6.196 F300
M106 S0
M106 S255
G1 X38.047 Y5.934 F300
M106 S0
M106 S255
G1 X37.809 Y5.7 F300
M106 S0
M106 S255
G1 X37.561 Y5.497 F300
M106 S0
M106 S255
G1 X37.301 Y5.326 F300
M106 S0
M106 S255
G1 X37.03 Y5.186 F300
M106 S0
M106 S255
G1 X36.748 Y5.078 F300
M106 S0
M106 S255
G1 X36.454 Y5.001 F300
M106 S0
M106 S255
G1 X36.303 Y4.974 F300
M106 S0
M106 S255
G1 X36.227 Y4.964 F300
M106 S0
M106 S255
G1 X36.208 Y4.962 F300
M106 S0
M106 S255
G1 X36.103 Y4.953 F300
M106 S0
M106 S255
G1 X35.973 Y4.947 F300
M106 S0
M106 S255
G1 X35.818 Y4.944 F300
M106 S0
M106 S255
G1 X35.739 Y4.944 F300
M106 S0
M106 S255
G1 X35.722 Y4.944 F300
M106 S0
M106 S255
G1 X35.69 Y4.944 F300
M106 S0
M106 S255
G1 X35.642 Y4.944 F300
M106 S0
M106 S255
G1 X35.58 Y4.944 F300
M106 S0
M106 S255
G1 X35.421 Y4.944 F300
M106 S0
M106 S255
G1 X35.222 Y4.944 F300
M106 S0
M106 S255
G1 X34.994 Y4.944 F300
M106 S0
M106 S255
G1 X34.746 Y4.944 F300
M106 S0
M106 S255
G1 X34.234 Y4.944 F300
M106 S0
M106 S255
G1 X33.989 Y4.944 F300
M106 S0
M106 S255
G1 X33.767 Y4.944 F300
M106 S0
M106 S255
G1 X33.576 Y4.944 F300
M106 S0
M106 S255
G1 X33.427 Y4.944 F300
M106 S0
M106 S255
G1 X33.371 Y4.944 F300
M106 S0
M106 S255
G1 X33.33 Y4.944 F300
M106 S0
M106 S255
G1 X33.304 Y4.944 F300
M106 S0
M106 S255
G1 X33.295 Y4.944 F300
M106 S0
M106 S255
G1 X33.295 Y4.944 F300
M106 S0
G0 X25.308 Y8.012 F6000
M106 S255
G1 X25.308 Y8.012 F300
M106 S0
M106 S255
G1 X25.319 Y7.575 F300
M106 S0
M106 S255
G1 X25.351 Y7.177 F300
M106 S0
M106 S255
G1 X25.404 Y6.818 F300
M106 S0
M106 S255
G1 X25.471 Y6.505 F300
M106 S0
M106 S255
G1 X25.548 Y6.243 F300
M106 S0
M106 S255
G1 X25.633 Y6.033 F300
M106 S0
M106 S255
G1 X25.731 Y5.857 F300
M106 S0
M106 S255
G1 X25.842 Y5.707 F300
M106 S0
M106 S255
G1 X25.965 Y5.582 F300
M106 S0
M106 S255
G1 X26.087 Y5.486 F300
M106 S0
M106 S255
G1 X26.202 Y5.418 F300
M106 S0
M106 S255
G1 X26.312 Y5.378 F300
M106 S0
M106 S255
G1 X26.425 Y5.353 F300
M106 S0
M106 S255
G1 X26.543 Y5.341 F300
M106 S0
M106 S255
G1 X26.682 Y5.343 F300
M106 S0
M106 S255
G1 X26.832 Y5.368 F300
M106 S0
M106 S255
G1 X26.974 Y5.418 F300
M106 S0
M106 S255
G1 X27.112 Y5.495 F300
M106 S0
M106 S255
G1 X27.251 Y5.609 F300
M106 S0
M106 S255
G1 X27.393 Y5.76 F300
M106 S0
M106 S255
G1 X27.53 Y5.959 F300
M106 S0
M106 S255
G1 X27.649 Y6.229 F300
M106 S0
M106 S255
G1 X27.747 Y6.574 F300
M106 S0
M106 S255
G1 X27.822 Y6.986 F300
M106 S0
M106 S255
G1 X27.867 Y7.459 F300
M106 S0
M106 S255
G1 X27.884 Y7.992 F300
M106 S0
M106 S255
G1 X27.884 Y8.168 F300
M106 S0
M106 S255
G1 X27.884 Y8.458 F300
M106 S0
M106 S255
G1 X27.884 Y8.631 F300
M106 S0
M106 S255
G1 X27.867 Y9.118 F300
M106 S0
M106 S255
G1 X27.822 Y9.548 F300
M106 S0
M106 S255
G1 X27.747 Y9.92 F300
M106 S0
M106 S255
G1 X27.648 Y10.23 F300
M106 S0
M106 S255
G1 X27.528 Y10.475 F300
M106 S0
M106 S255
G1 X27.387 Y10.656 F300
M106 S0
M106 S255
G1 X27.243 Y10.794 F300
M106 S0
M106 S255
G1 X27.103 Y10.895 F300
M106 S0
M106 S255
G1 X26.965 Y10.963 F300
M106 S0
M106 S255
G1 X26.822 Y11.006 F300
M106 S0
M106 S255
G1 X26.673 Y11.028 F300
M106 S0
M106 S255
G1 X26.518 Y11.028 F300
M106 S0
M106 S255
G1 X26.368 Y11.008 F300
M106 S0
M106 S255
G1 X26.225 Y10.965 F300
M106 S0
M106 S255
G1 X26.087 Y10.9 F300
M106 S0
M106 S255
G1 X25.948 Y10.8 F300
M106 S0
M106 S255
G1 X25.807 Y10.664 F300
M106 S0
M106 S255
G1 X25.668 Y10.486 F300
M106 S0
M106 S255
G1 X25.549 Y10.242 F300
M106 S0
M106 S255
G1 X25.449 Y9.932 F300
M106 S0
M106 S255
G1 X25.373 Y9.559 F300
M106 S0
M106 S255
G1 X25.326 Y9.134 F300
M106 S0
M106 S255
G1 X25.308 Y8.657 F300
M106 S0
M106 S255
G1 X25.308 Y8.469 F300
M106 S0
M106 S255
G1 X25.308 Y8.175 F300
M106 S0
M106 S255
G1 X25.308 Y8.012 F300
M106 S0
G0 X24.536 Y8.006 F6000
M106 S255
G1 X24.536 Y8.006 F300
M106 S0
M106 S255
G1 X24.536 Y8.052 F300
M106 S0
M106 S255
G1 X24.536 Y8.136 F300
M106 S0
M106 S255
G1 X24.536 Y8.197 F300
M106 S0
M106 S255
G1 X24.538 Y8.448 F300
M106 S0
M106 S255
G1 X24.544 Y8.675 F300
M106 S0
M106 S255
G1 X24.553 Y8.879 F300
M106 S0
M106 S255
G1 X24.573 Y9.103 F300
M106 S0
M106 S255
G1 X24.608 Y9.371 F300
M106 S0
M106 S255
G1 X24.659 Y9.68 F300
M106 S0
M106 S255
G1 X24.724 Y9.978 F300
M106 S0
M106 S255
G1 X24.802 Y10.243 F300
M106 S0
M106 S255
G1 X24.895 Y10.477 F300
M106 S0
M106 S255
G1 X25.019 Y10.701 F300
M106 S0
M106 S255
G1 X25.178 Y10.924 F300
M106 S0
M106 S255
G1 X25.371 Y11.14 F300
M106 S0
M106 S255
G1 X25.591 Y11.324 F300
M106 S0
M106 S255
G1 X25.837 Y11.466 F300
M106 S0
M106 S255
G1 X26.074 Y11.56 F300
M106 S0
M106 S255
G1 X26.285 Y11.615 F300
M106 S0
M106 S255
G1 X26.5 Y11.641 F300
M106 S0
M106 S255
G1 X26.7 Y11.64 F300
M106 S0
M106 S255
G1 X26.885 Y11.621 F300
M106 S0
M106 S255
G1 X27.065 Y11.585 F300
M106 S0
M106 S255
G1 X27.244 Y11.526 F300
M106 S0
M106 S255
G1 X27.428 Y11.435 F300
M106 S0
M106 S255
G1 X27.62 Y11.309 F300
M106 S0
M106 S255
G1 X27.812 Y11.149 F300
M106 S0
M106 S255
G1 X27.986 Y10.96 F300
M106 S0
M106 S255
G1 X28.144 Y10.742 F300
M106 S0
M106 S255
G1 X28.283 Y10.483 F300
M106 S0
M106 S255
G1 X28.406 Y10.163 F300
M106 S0
M106 S255
G1 X28.51 Y9.782 F300
M106 S0
M106 S255
G1 X28.591 Y9.348 F300
M106 S0
M106 S255
G1 X28.639 Y8.872 F300
M106 S0
M106 S255
G1 X28.655 Y8.354 F300
M106 S0
M106 S255
G1 X28.655 Y8.297 F300
M106 S0
M106 S255
G1 X28.655 Y8.195 F300
M106 S0
M106 S255
G1 X28.655 Y8.125 F300
M106 S0
M106 S255
G1 X28.653 Y7.878 F300
M106 S0
M106 S255
G1 X28.648 Y7.65 F300
M106 S0
M106 S255
G1 X28.639 Y7.439 F300
M106 S0
M106 S255
G1 X28.619 Y7.211 F300
M106 S0
M106 S255
G1 X28.584 Y6.945 F300
M106 S0
M106 S255
G1 X28.533 Y6.644 F300
M106 S0
M106 S255
G1 X28.467 Y6.353 F300
M106 S0
M106 S255
G1 X28.387 Y6.092 F300
M106 S0
M106 S255
G1 X28.291 Y5.86 F300
M106 S0
M106 S255
G1 X28.165 Y5.637 F300
M106 S0
M106 S255
G1 X28.005 Y5.419 F300
M106 S0
M106 S255
G1 X27.812 Y5.208 F300
M106 S0
M106 S255
G1 X27.591 Y5.029 F300
M106 S0
M106 S255
G1 X27.346 Y4.889 F300
M106 S0
M106 S255
G1 X27.102 Y4.798 F300
M106 S0
M106 S255
G1 X26.885 Y4.749 F300
M106 S0
M106 S255
G1 X26.676 Y4.728 F300
M106 S0
M106 S255
G1 X26.482 Y4.73 F300
M106 S0
M106 S255
G1 X26.299 Y4.747 F300
M106 S0
M106 S255
G1 X26.121 Y4.782 F300
M106 S0
M106 S255
G1 X25.945 Y4.836 F300
M106 S0
M106 S255
G1 X25.761 Y4.923 F300
M106 S0
M106 S255
G1 X25.568 Y5.043 F300
M106 S0
M106 S255
G1 X25.373 Y5.197 F300
M106 S0
M106 S255
G1 X25.198 Y5.381 F300
M106 S0
M106 S255
G1 X25.043 Y5.597 F300
M106 S0
M106 S255
G1 X24.906 Y5.855 F300
M106 S0
M106 S255
G1 X24.786 Y6.175 F300
M106 S0
M106 S255
G1 X24.682 Y6.559 F300
M106 S0
M106 S255
G1 X24.601 Y6.997 F300
M106 S0
M106 S255
G1 X24.553 Y7.48 F300
M106 S0
M106 S255
G1 X24.536 Y8.006 F300
M106 S0
G0 X20.369 Y8.012 F6000
M106 S255
G1 X20.369 Y8.012 F300
M106 S0
M106 S255
G1 X20.38 Y7.575 F300
M106 S0
M106 S255
G1 X20.412 Y7.177 F300
M106 S0
M106 S255
G1 X20.465 Y6.818 F300
M106 S0
M106 S255
G1 X20.532 Y6.505 F300
M106 S0
M106 S255
G1 X20.609 Y6.243 F300
M106 S0
M106 S255
G1 X20.694 Y6.033 F300
M106 S0
M106 S255
G1 X20.792 Y5.857 F300
M106 S0
M106 S255
G1 X20.903 Y5.707 F300
M106 S0
M106 S255
G1 X21.026 Y5.582 F300
M106 S0
M106 S255
G1 X21.148 Y5.486 F300
M106 S0
M106 S255
G1 X21.263 Y5.418 F300
M106 S0
M106 S255
G1 X21.373 Y5.378 F300
M106 S0
M106 S255
G1 X21.486 Y5.353 F300
M106 S0
M106 S255
G1 X21.604 Y5.341 F300
M106 S0
M106 S255
G1 X21.743 Y5.343 F300
M106 S0
M106 S255
G1 X21.893 Y5.368 F300
M106 S0
M106 S255
G1 X22.035 Y5.418 F300
M106 S0
M106 S255
G1 X22.173 Y5.495 F300
M106 S0
M106 S255
G1 X22.312 Y5.609 F300
M106 S0
M106 S255
G1 X22.454 Y5.76 F300
M106 S0
M106 S255
G1 X22.592 Y5.959 F300
M106 S0
M106 S255
G1 X22.71 Y6.229 F300
M106 S0
M106 S255
G1 X22.808 Y6.574 F300
M106 S0
M106 S255
G1 X22.883 Y6.986 F300
M106 S0
M106 S255
G1 X22.929 Y7.459 F300
M106 S0
M106 S255
G1 X22.945 Y7.992 F300
M106 S0
M106 S255
G1 X22.945 Y8.168 F300
M106 S0
M106 S255
G1 X22.945 Y8.458 F300
M106 S0
M106 S255
G1 X22.945 Y8.631 F300
M106 S0
M106 S255
G1 X22.929 Y9.118 F300
M106 S0
M106 S255
G1 X22.883 Y9.548 F300
M106 S0
M106 S255
G1 X22.808 Y9.92 F300
M106 S0
M106 S255
G1 X22.709 Y10.23 F300
M106 S0
M106 S255
G1 X22.589 Y10.475 F300
M106 S0
M106 S255
G1 X22.448 Y10.656 F300
M106 S0
M106 S255
G1 X22.304 Y10.794 F300
M106 S0
M106 S255
G1 X22.164 Y10.895 F300
M106 S0
M106 S255
G1 X22.026 Y10.963 F300
M106 S0
M106 S255
G1 X21.883 Y11.006 F300
M106 S0
M106 S255
G1 X21.734 Y11.028 F300
M106 S0
M106 S255
G1 X21.579 Y11.028 F300
M106 S0
M106 S255
G1 X21.429 Y11.008 F300
M106 S0
M106 S255
G1 X21.286 Y10.965 F300
M106 S0
M106 S255
G1 X21.148 Y10.9 F300
M106 S0
M106 S255
G1 X21.009 Y10.8 F300
M106 S0
M106 S255
G1 X20.868 Y10.664 F300
M106 S0
M106 S255
G1 X20.729 Y10.486 F300
M106 S0
M106 S255
G1 X20.61 Y10.242 F300
M106 S0
M106 S255
G1 X20.511 Y9.932 F300
M106 S0
M106 S255
G1 X20.434 Y9.559 F300
M106 S0
M106 S255
G1 X20.387 Y9.134 F300
M106 S0
M106 S255
G1 X20.369 Y8.657 F300
M106 S0
M106 S255
G1 X20.369 Y8.469 F300
M106 S0
M106 S255
G1 X20.369 Y8.175 F300
M106 S0
M106 S255
G1 X20.369 Y8.012 F300
M106 S0
G0 X19.598 Y8.006 F6000
M106 S255
G1 X19.598 Y8.006 F300
M106 S0
M106 S255
G1 X19.598 Y8.052 F300
M106 S0
M106 S255
G1 X19.598 Y8.136 F300
M106 S0
M106 S255
G1 X19.598 Y8.197 F300
M106 S0
M106 S255
G1 X19.6 Y8.448 F300
M106 S0
M106 S255
G1 X19.605 Y8.675 F300
M106 S0
M106 S255
G1 X19.614 Y8.879 F300
M106 S0
M106 S255
G1 X19.634 Y9.103 F300
M106 S0
M106 S255
G1 X19.669 Y9.371 F300
M106 S0
M106 S255
G1 X19.72 Y9.68 F300
M106 S0
M106 S255
G1 X19.785 Y9.978 F300
M106 S0
M106 S255
G1 X19.863 Y10.243 F300
M106 S0
M106 S255
G1 X19.957 Y10.477 F300
M106 S0
M106 S255
G1 X20.08 Y10.701 F300
M106 S0
M106 S255
G1 X20.239 Y10.924 F300
M106 S0
M106 S255
G1 X20.432 Y11.14 F300
M106 S0
M106 S255
G1 X20.652 Y11.324 F300
M106 S0
M106 S255
G1 X20.898 Y11.466 F300
M106 S0
M106 S255
G1 X21.135 Y11.56 F300
M106 S0
M106 S255
G1 X21.346 Y11.615 F300
M106 S0
M106 S255
G1 X21.562 Y11.641 F300
M106 S0
M106 S255
G1 X21.762 Y11.64 F300
M106 S0
M106 S255
G1 X21.946 Y11.621 F300
M106 S0
M106 S255
G1 X22.126 Y11.585 F300
M106 S0
M106 S255
G1 X22.305 Y11.526 F300
M106 S0
M106 S255
G1 X22.49 Y11.435 F300
M106 S0
M106 S255
G1 X22.681 Y11.309 F300
M106 S0
M106 S255
G1 X22.873 Y11.149 F300
M106 S0
M106 S255
G1 X23.048 Y10.96 F300
M106 S0
M106 S255
G1 X23.205 Y10.742 F300
M106 S0
M106 S255
G1 X23.345 Y10.483 F300
M106 S0
M106 S255
G1 X23.467 Y10.163 F300
M106 S0
M106 S255
G1 X23.571 Y9.782 F300
M106 S0
M106 S255
G1 X23.652 Y9.348 F300
M106 S0
M106 S255
G1 X23.7 Y8.872 F300
M106 S0
M106 S255
G1 X23.717 Y8.354 F300
M106 S0
M106 S255
G1 X23.717 Y8.297 F300
M106 S0
M106 S255
G1 X23.717 Y8.195 F300
M106 S0
M106 S255
G1 X23.717 Y8.125 F300
M106 S0
M106 S255
G1 X23.715 Y7.878 F300
M106 S0
M106 S255
G1 X23.709 Y7.65 F300
M106 S0
M106 S255
G1 X23.7 Y7.439 F300
M106 S0
M106 S255
G1 X23.68 Y7.211 F300
M106 S0
M106 S255
G1 X23.645 Y6.945 F300
M106 S0
M106 S255
G1 X23.594 Y6.644 F300
M106 S0
M106 S255
G1 X23.528 Y6.353 F300
M106 S0
M106 S255
G1 X23.448 Y6.092 F300
M106 S0
M106 S255
G1 X23.352 Y5.86 F300
M106 S0
M106 S255
G1 X23.226 Y5.637 F300
M106 S0
M106 S255
G1 X23.066 Y5.419 F300
M106 S0
M106 S255
G1 X22.873 Y5.208 F300
M106 S0
M106 S255
G1 X22.652 Y5.029 F300
M106 S0
M106 S255
G1 X22.407 Y4.889 F300
M106 S0
M106 S255
G1 X22.163 Y4.798 F300
M106 S0
M106 S255
G1 X21.946 Y4.749 F300
M106 S0
M106 S255
G1 X21.737 Y4.728 F300
M106 S0
M106 S255
G1 X21.543 Y4.73 F300
M106 S0
M106 S255
G1 X21.36 Y4.747 F300
M106 S0
M106 S255
G1 X21.182 Y4.782 F300
M106 S0
M106 S255
G1 X21.006 Y4.836 F300
M106 S0
M106 S255
G1 X20.822 Y4.923 F300
M106 S0
M106 S255
G1 X20.629 Y5.043 F300
M106 S0
M106 S255
G1 X20.435 Y5.197 F300
M106 S0
M106 S255
G1 X20.259 Y5.381 F300
M106 S0
M106 S255
G1 X20.104 Y5.597 F300
M106 S0
M106 S255
G1 X19.967 Y5.855 F300
M106 S0
M106 S255
G1 X19.847 Y6.175 F300
M106 S0
M106 S255
G1 X19.743 Y6.559 F300
M106 S0
M106 S255
G1 X19.662 Y6.997 F300
M106 S0
M106 S255
G1 X19.614 Y7.48 F300
M106 S0
M106 S255
G1 X19.598 Y8.006 F300
M106 S0
G0 X15.127 Y10.418 F6000
M106 S255
G1 X15.127 Y10.418 F300
M106 S0
M106 S255
G1 X15.127 Y10.43 F300
M106 S0
M106 S255
G1 X15.127 Y10.463 F300
M106 S0
M106 S255
G1 X15.127 Y10.576 F300
M106 S0
M106 S255
G1 X15.127 Y10.863 F300
M106 S0
M106 S255
G1 X15.127 Y10.921 F300
M106 S0
M106 S255
G1 X15.127 Y10.966 F300
M106 S0
M106 S255
G1 X15.127 Y10.992 F300
M106 S0
M106 S255
G1 X15.127 Y10.997 F300
M106 S0
M106 S255
G1 X15.127 Y10.997 F300
M106 S0
M106 S255
G1 X15.15 Y10.997 F300
M106 S0
M106 S255
G1 X15.2 Y10.997 F300
M106 S0
M106 S255
G1 X15.589 Y11.023 F300
M106 S0
M106 S255
G1 X15.949 Y11.088 F300
M106 S0
M106 S255
G1 X16.281 Y11.19 F300
M106 S0
M106 S255
G1 X16.583 Y11.331 F300
M106 S0
M106 S255
G1 X16.857 Y11.509 F300
M106 S0
M106 S255
G1 X16.983 Y11.613 F300
M106 S0
M106 S255
G1 X17.013 Y11.641 F300
M106 S0
M106 S255
G1 X17.016 Y11.643 F300
M106 S0
M106 S255
G1 X17.018 Y11.643 F300
M106 S0
M106 S255
G1 X17.041 Y11.643 F300
M106 S0
M106 S255
G1 X17.082 Y11.643 F300
M106 S0
M106 S255
G1 X17.172 Y11.643 F300
M106 S0
M106 S255
G1 X17.197 Y11.643 F300
M106 S0
M106 S255
G1 X17.2 Y11.642 F300
M106 S0
M106 S255
G1 X17.2 Y11.628 F300
M106 S0
M106 S255
G1 X17.2 Y11.597 F300
M106 S0
M106 S255
G1 X17.2 Y11.552 F300
M106 S0
M106 S255
G1 X17.2 Y11.492 F300
M106 S0
M106 S255
G1 X17.2 Y11.331 F300
M106 S0
M106 S255
G1 X17.2 Y11.121 F300
M106 S0
M106 S255
G1 X17.2 Y10.868 F300
M106 S0
M106 S255
G1 X17.2 Y10.577 F300
M106 S0
M106 S255
G1 X17.2 Y10.254 F300
M106 S0
M106 S255
G1 X17.2 Y9.906 F300
M106 S0
M106 S255
G1 X17.2 Y9.537 F300
M106 S0
M106 S255
G1 X17.2 Y9.154 F300
M106 S0
M106 S255
G1 X17.2 Y8.368 F300
M106 S0
M106 S255
G1 X17.2 Y7.595 F300
M106 S0
M106 S255
G1 X17.2 Y7.227 F300
M106 S0
M106 S255
G1 X17.2 Y6.881 F300
M106 S0
M106 S255
G1 X17.2 Y6.561 F300
M106 S0
M106 S255
G1 X17.2 Y6.273 F300
M106 S0
M106 S255
G1 X17.2 Y6.023 F300
M106 S0
M106 S255
G1 X17.2 Y5.818 F300
M106 S0
M106 S255
G1 X17.2 Y5.662 F300
M106 S0
M106 S255
G1 X17.2 Y5.604 F300
M106 S0
M106 S255
G1 X17.2 Y5.562 F300
M106 S0
M106 S255
G1 X17.2 Y5.534 F300
M106 S0
M106 S255
G1 X17.2 Y5.523 F300
M106 S0
M106 S255
G1 X17.206 Y5.523 F300
M106 S0
M106 S255
G1 X17.254 Y5.523 F300
M106 S0
M106 S255
G1 X17.344 Y5.523 F300
M106 S0
M106 S255
G1 X17.465 Y5.523 F300
M106 S0
M106 S255
G1 X17.767 Y5.523 F300
M106 S0
M106 S255
G1 X18.082 Y5.523 F300
M106 S0
M106 S255
G1 X18.221 Y5.523 F300
M106 S0
M106 S255
G1 X18.334 Y5.523 F300
M106 S0
M106 S255
G1 X18.414 Y5.523 F300
M106 S0
M106 S255
G1 X18.449 Y5.523 F300
M106 S0
M106 S255
G1 X18.45 Y5.514 F300
M106 S0
M106 S255
G1 X18.45 Y5.485 F300
M106 S0
M106 S255
G1 X18.45 Y5.377 F300
M106 S0
M106 S255
G1 X18.45 Y5.233 F300
M106 S0
M106 S255
G1 X18.45 Y5.09 F300
M106 S0
M106 S255
G1 X18.45 Y4.982 F300
M106 S0
M106 S255
G1 X18.45 Y4.952 F300
M106 S0
M106 S255
G1 X18.447 Y4.944 F300
M106 S0
M106 S255
G1 X18.417 Y4.944 F300
M106 S0
M106 S255
G1 X18.356 Y4.944 F300
M106 S0
M106 S255
G1 X18.265 Y4.944 F300
M106 S0
M106 S255
G1 X18.149 Y4.944 F300
M106 S0
M106 S255
G1 X18.011 Y4.944 F300
M106 S0
M106 S255
G1 X17.853 Y4.944 F300
M106 S0
M106 S255
G1 X17.49 Y4.944 F300
M106 S0
M106 S255
G1 X17.088 Y4.944 F300
M106 S0
M106 S255
G1 X16.669 Y4.944 F300
M106 S0
M106 S255
G1 X16.26 Y4.944 F300
M106 S0
M106 S255
G1 X15.884 Y4.944 F300
M106 S0
M106 S255
G1 X15.717 Y4.944 F300
M106 S0
M106 S255
G1 X15.568 Y4.944 F300
M106 S0
M106 S255
G1 X15.439 Y4.944 F300
M106 S0
M106 S255
G1 X15.334 Y4.944 F300
M106 S0
M106 S255
G1 X15.256 Y4.944 F300
M106 S0
M106 S255
G1 X15.209 Y4.944 F300
M106 S0
M106 S255
G1 X15.194 Y4.944 F300
M106 S0
M106 S255
G1 X15.194 Y4.947 F300
M106 S0
M106 S255
G1 X15.194 Y4.972 F300
M106 S0
M106 S255
G1 X15.194 Y5.015 F300
M106 S0
M106 S255
G1 X15.194 Y5.14 F300
M106 S0
M106 S255
G1 X15.194 Y5.287 F300
M106 S0
M106 S255
G1 X15.194 Y5.422 F300
M106 S0
M106 S255
G1 X15.194 Y5.473 F300
M106 S0
M106 S255
G1 X15.194 Y5.508 F300
M106 S0
M106 S255
G1 X15.194 Y5.522 F300
M106 S0
M106 S255
G1 X15.215 Y5.523 F300
M106 S0
M106 S255
G1 X15.283 Y5.523 F300
M106 S0
M106 S255
G1 X15.387 Y5.523 F300
M106 S0
M106 S255
G1 X15.518 Y5.523 F300
M106 S0
M106 S255
G1 X15.668 Y5.523 F300
M106 S0
M106 S255
G1 X15.983 Y5.523 F300
M106 S0
M106 S255
G1 X16.13 Y5.523 F300
M106 S0
M106 S255
G1 X16.257 Y5.523 F300
M106 S0
M106 S255
G1 X16.355 Y5.523 F300
M106 S0
M106 S255
G1 X16.415 Y5.523 F300
M106 S0
M106 S255
G1 X16.427 Y5.523 F300
M106 S0
M106 S255
G1 X16.429 Y5.531 F300
M106 S0
M106 S255
G1 X16.429 Y5.587 F300
M106 S0
M106 S255
G1 X16.429 Y5.693 F300
M106 S0
M106 S255
G1 X16.429 Y5.843 F300
M106 S0
M106 S255
G1 X16.429 Y6.033 F300
M106 S0
M106 S255
G1 X16.429 Y6.257 F300
M106 S0
M106 S255
G1 X16.429 Y6.511 F300
M106 S0
M106 S255
G1 X16.429 Y6.79 F300
M106 S0
M106 S255
G1 X16.429 Y7.088 F300
M106 S0
M106 S255
G1 X16.429 Y7.726 F300
M106 S0
M106 S255
G1 X16.429 Y8.385 F300
M106 S0
M106 S255
G1 X16.429 Y9.027 F300
M106 S0
M106 S255
G1 X16.429 Y9.328 F300
M106 S0
M106 S255
G1 X16.429 Y9.611 F300
M106 S0
M106 S255
G1 X16.429 Y9.87 F300
M106 S0
M106 S255
G1 X16.429 Y10.1 F300
M106 S0
M106 S255
G1 X16.429 Y10.296 F300
M106 S0
M106 S255
G1 X16.429 Y10.454 F300
M106 S0
M106 S255
G1 X16.429 Y10.568 F300
M106 S0
M106 S255
G1 X16.429 Y10.634 F300
M106 S0
M106 S255
G1 X16.429 Y10.647 F300
M106 S0
M106 S255
G1 X16.415 Y10.643 F300
M106 S0
M106 S255
G1 X16.363 Y10.624 F300
M106 S0
M106 S255
G1 X16.259 Y10.588 F300
M106 S0
M106 S255
G1 X16.046 Y10.527 F300
M106 S0
M106 S255
G1 X15.826 Y10.479 F300
M106 S0
M106 S255
G1 X15.599 Y10.445 F300
M106 S0
M106 S255
G1 X15.366 Y10.425 F300
M106 S0
M106 S255
G1 X15.127 Y10.418 F300
M106 S0
M106 S255
G1 X15.127 Y10.418 F300
M106 S0
G0 X10.53 Y9.241 F6000
M106 S255
G1 X10.53 Y9.241 F300
M106 S0
M106 S255
G1 X10.537 Y8.944 F300
M106 S0
M106 S255
G1 X10.56 Y8.686 F300
M106 S0
M106 S255
G1 X10.597 Y8.467 F300
M106 S0
M106 S255
G1 X10.66 Y8.263 F300
M106 S0
M106 S255
G1 X10.756 Y8.06 F300
M106 S0
M106 S255
G1 X10.91 Y7.829 F300
M106 S0
M106 S255
G1 X11.177 Y7.599 F300
M106 S0
M106 S255
G1 X11.5 Y7.48 F300
M106 S0
M106 S255
G1 X11.871 Y7.472 F300
M106 S0
M106 S255
G1 X12.215 Y7.574 F300
M106 S0
M106 S255
G1 X12.509 Y7.787 F300
M106 S0
M106 S255
G1 X12.748 Y8.1 F300
M106 S0
M106 S255
G1 X12.903 Y8.463 F300
M106 S0
M106 S255
G1 X12.972 Y8.871 F300
M106 S0
M106 S255
G1 X12.975 Y9.075 F300
M106 S0
M106 S255
G1 X12.972 Y9.168 F300
M106 S0
M106 S255
G1 X12.967 Y9.242 F300
M106 S0
M106 S255
G1 X12.97 Y9.251 F300
M106 S0
M106 S255
G1 X12.98 Y9.251 F300
M106 S0
M106 S255
G1 X12.985 Y9.251 F300
M106 S0
M106 S255
G1 X12.967 Y9.454 F300
M106 S0
M106 S255
G1 X12.938 Y9.652 F300
M106 S0
M106 S255
G1 X12.899 Y9.845 F300
M106 S0
M106 S255
G1 X12.847 Y10.04 F300
M106 S0
M106 S255
G1 X12.779 Y10.243 F300
M106 S0
M106 S255
G1 X12.696 Y10.451 F300
M106 S0
M106 S255
G1 X12.588 Y10.638 F300
M106 S0
M106 S255
G1 X12.452 Y10.795 F300
M106 S0
M106 S255
G1 X12.289 Y10.921 F300
M106 S0
M106 S255
G1 X12.104 Y11.005 F300
M106 S0
M106 S255
G1 X11.9 Y11.046 F300
M106 S0
M106 S255
G1 X11.609 Y11.036 F300
M106 S0
M106 S255
G1 X11.306 Y10.945 F300
M106 S0
M106 S255
G1 X11.054 Y10.769 F300
M106 S0
M106 S255
G1 X10.853 Y10.525 F300
M106 S0
M106 S255
G1 X10.701 Y10.265 F300
M106 S0
M106 S255
G1 X10.599 Y9.991 F300
M106 S0
M106 S255
G1 X10.558 Y9.787 F300
M106 S0
M106 S255
G1 X10.537 Y9.543 F300
M106 S0
M106 S255
G1 X10.53 Y9.241 F300
M106 S0
G0 X9.729 Y9.241 F6000
M106 S255
G1 X9.729 Y9.241 F300
M106 S0
M106 S255
G1 X9.813 Y9.944 F300
M106 S0
M106 S255
G1 X10.062 Y10.561 F300
M106 S0
M106 S255
G1 X10.471 Y11.085 F300
M106 S0
M106 S255
G1 X10.897 Y11.41 F300
M106 S0
M106 S255
G1 X11.37 Y11.595 F300
M106 S0
M106 S255
G1 X11.838 Y11.643 F300
M106 S0
M106 S255
G1 X12.073 Y11.62 F300
M106 S0
M106 S255
G1 X12.303 Y11.563 F300
M106 S0
M106 S255
G1 X12.526 Y11.471 F300
M106 S0
M106 S255
G1 X12.747 Y11.337 F300
M106 S0
M106 S255
G1 X12.969 Y11.156 F300
M106 S0
M106 S255
G1 X13.189 Y10.927 F300
M106 S0
M106 S255
G1 X13.386 Y10.619 F300
M106 S0
M106 S255
G1 X13.553 Y10.221 F300
M106 S0
M106 S255
G1 X13.69 Y9.737 F300
M106 S0
M106 S255
G1 X13.783 Y9.181 F300
M106 S0
M106 S255
G1 X13.829 Y8.556 F300
M106 S0
M106 S255
G1 X13.811 Y7.706 F300
M106 S0
M106 S255
G1 X13.635 Y6.789 F300
M106 S0
M106 S255
G1 X13.287 Y5.997 F300
M106 S0
M106 S255
G1 X12.786 Y5.348 F300
M106 S0
M106 S255
G1 X12.203 Y4.926 F300
M106 S0
M106 S255
G1 X11.546 Y4.738 F300
M106 S0
M106 S255
G1 X11.0 Y4.753 F300
M106 S0
M106 S255
G1 X10.544 Y4.88 F300
M106 S0
M106 S255
G1 X10.111 Y5.115 F300
M106 S0
M106 S255
G1 X10.074 Y5.275 F300
M106 S0
M106 S255
G1 X10.223 Y5.536 F300
M106 S0
M106 S255
G1 X10.323 Y5.712 F300
M106 S0
M106 S255
G1 X10.336 Y5.706 F300
M106 S0
M106 S255
G1 X10.364 Y5.686 F300
M106 S0
M106 S255
G1 X10.406 Y5.657 F300
M106 S0
M106 S255
G1 X10.452 Y5.625 F300
M106 S0
M106 S255
G1 X10.485 Y5.601 F300
M106 S0
M106 S255
G1 X10.507 Y5.585 F300
M106 S0
M106 S255
G1 X10.529 Y5.569 F300
M106 S0
M106 S255
G1 X10.562 Y5.549 F300
M106 S0
M106 S255
G1 X10.606 Y5.524 F300
M106 S0
M106 S255
G1 X10.651 Y5.5 F300
M106 S0
M106 S255
G1 X10.688 Y5.48 F300
M106 S0
M106 S255
G1 X10.72 Y5.464 F300
M106 S0
M106 S255
G1 X10.756 Y5.448 F300
M106 S0
M106 S255
G1 X10.801 Y5.43 F300
M106 S0
M106 S255
G1 X10.854 Y5.411 F300
M106 S0
M106 S255
G1 X10.907 Y5.393 F300
M106 S0
M106 S255
G1 X10.96 Y5.38 F300
M106 S0
M106 S255
G1 X11.012 Y5.369 F300
M106 S0
M106 S255
G1 X11.067 Y5.36 F300
M106 S0
M106 S255
G1 X11.126 Y5.353 F300
M106 S0
M106 S255
G1 X11.189 Y5.346 F300
M106 S0
M106 S255
G1 X11.254 Y5.342 F300
M106 S0
M106 S255
G1 X11.321 Y5.34 F300
M106 S0
M106 S255
G1 X11.604 Y5.366 F300
M106 S0
M106 S255
G1 X12.009 Y5.529 F300
M106 S0
M106 S255
G1 X12.36 Y5.839 F300
M106 S0
M106 S255
G1 X12.652 Y6.285 F300
M106 S0
M106 S255
G1 X12.858 Y6.834 F300
M106 S0
M106 S255
G1 X12.978 Y7.483 F300
M106 S0
M106 S255
G1 X12.625 Y7.306 F300
M106 S0
M106 S255
G1 X12.066 Y6.982 F300
M106 S0
M106 S255
G1 X11.439 Y6.852 F300
M106 S0
M106 S255
G1 X10.978 Y6.897 F300
M106 S0
M106 S255
G1 X10.607 Y7.086 F300
M106 S0
M106 S255
G1 X10.287 Y7.416 F300
M106 S0
M106 S255
G1 X9.98 Y7.951 F300
M106 S0
M106 S255
G1 X9.792 Y8.563 F300
M106 S0
M106 S255
G1 X9.729 Y9.241 F300
M106 S0
G0 X4.781 Y10.023 F6000
M106 S255
G1 X4.781 Y10.023 F300
M106 S0
M106 S255
G1 X4.902 Y10.37 F300
M106 S0
M106 S255
G1 X5.048 Y10.676 F300
M106 S0
M106 S255
G1 X5.218 Y10.94 F300
M106 S0
M106 S255
G1 X5.413 Y11.162 F300
M106 S0
M106 S255
G1 X5.632 Y11.342 F300
M106 S0
M106 S255
G1 X5.875 Y11.481 F300
M106 S0
M106 S255
G1 X6.143 Y11.578 F300
M106 S0
M106 S255
G1 X6.435 Y11.634 F300
M106 S0
M106 S255
G1 X6.59 Y11.646 F300
M106 S0
M106 S255
G1 X6.67 Y11.648 F300
M106 S0
M106 S255
G1 X6.732 Y11.648 F300
M106 S0
M106 S255
G1 X6.941 Y11.637 F300
M106 S0
M106 S255
G1 X7.332 Y11.567 F300
M106 S0
M106 S255
G1 X7.685 Y11.433 F300
M106 S0
M106 S255
G1 X8.001 Y11.235 F300
M106 S0
M106 S255
G1 X8.279 Y10.973 F300
M106 S0
M106 S255
G1 X8.505 Y10.672 F300
M106 S0
M106 S255
G1 X8.671 Y10.347 F300
M106 S0
M106 S255
G1 X8.776 Y9.996 F300
M106 S0
M106 S255
G1 X8.821 Y9.62 F300
M106 S0
M106 S255
G1 X8.823 Y9.524 F300
M106 S0
M106 S255
G1 X8.822 Y9.485 F300
M106 S0
M106 S255
G1 X8.82 Y9.408 F300
M106 S0
M106 S255
G1 X8.786 Y9.115 F300
M106 S0
M106 S255
G1 X8.713 Y8.847 F300
M106 S0
M106 S255
G1 X8.578 Y8.579 F300
M106 S0
M106 S255
G1 X8.37 Y8.296 F300
M106 S0
M106 S255
G1 X8.136 Y8.028 F300
M106 S0
M106 S255
G1 X7.928 Y7.811 F300
M106 S0
M106 S255
G1 X7.829 Y7.716 F300
M106 S0
M106 S255
G1 X7.705 Y7.6 F300
M106 S0
M106 S255
G1 X7.55 Y7.46 F300
M106 S0
M106 S255
G1 X7.365 Y7.293 F300
M106 S0
M106 S255
G1 X7.16 Y7.111 F300
M106 S0
M106 S255
G1 X7.081 Y7.039 F300
M106 S0
M106 S255
G1 X6.974 Y6.94 F300
M106 S0
M106 S255
G1 X6.84 Y6.815 F300
M106 S0
M106 S255
G1 X6.679 Y6.664 F300
M106 S0
M106 S255
G1 X6.491 Y6.487 F300
M106 S0
M106 S255
G1 X6.275 Y6.283 F300
M106 S0
M106 S255
G1 X6.033 Y6.053 F300
M106 S0
M106 S255
G1 X5.763 Y5.796 F300
M106 S0
M106 S255
G1 X5.617 Y5.658 F300
M106 S0
M106 S255
G1 X5.581 Y5.624 F300
M106 S0
M106 S255
G1 X5.583 Y5.624 F300
M106 S0
M106 S255
G1 X5.599 Y5.624 F300
M106 S0
M106 S255
G1 X5.671 Y5.624 F300
M106 S0
M106 S255
G1 X5.794 Y5.624 F300
M106 S0
M106 S255
G1 X5.96 Y5.625 F300
M106 S0
M106 S255
G1 X6.161 Y5.626 F300
M106 S0
M106 S255
G1 X6.391 Y5.626 F300
M106 S0
M106 S255
G1 X6.643 Y5.627 F300
M106 S0
M106 S255
G1 X7.725 Y5.63 F300
M106 S0
M106 S255
G1 X8.213 Y5.632 F300
M106 S0
M106 S255
G1 X8.419 Y5.632 F300
M106 S0
M106 S255
G1 X8.589 Y5.633 F300
M106 S0
M106 S255
G1 X8.718 Y5.633 F300
M106 S0
M106 S255
G1 X8.798 Y5.633 F300
M106 S0
M106 S255
G1 X8.823 Y5.633 F300
M106 S0
M106 S255
G1 X8.823 Y5.626 F300
M106 S0
M106 S255
G1 X8.823 Y5.577 F300
M106 S0
M106 S255
G1 X8.823 Y5.494 F300
M106 S0
M106 S255
G1 X8.823 Y5.272 F300
M106 S0
M106 S255
G1 X8.823 Y5.058 F300
M106 S0
M106 S255
G1 X8.823 Y4.983 F300
M106 S0
M106 S255
G1 X8.823 Y4.946 F300
M106 S0
M106 S255
G1 X8.815 Y4.944 F300
M106 S0
M106 S255
G1 X8.747 Y4.944 F300
M106 S0
M106 S255
G1 X8.615 Y4.944 F300
M106 S0
M106 S255
G1 X8.429 Y4.944 F300
M106 S0
M106 S255
G1 X8.196 Y4.944 F300
M106 S0
M106 S255
G1 X7.925 Y4.944 F300
M106 S0
M106 S255
G1 X7.305 Y4.944 F300
M106 S0
M106 S255
G1 X6.637 Y4.944 F300
M106 S0
M106 S255
G1 X5.99 Y4.944 F300
M106 S0
M106 S255
G1 X5.697 Y4.944 F300
M106 S0
M106 S255
G1 X5.434 Y4.944 F300
M106 S0
M106 S255
G1 X5.212 Y4.944 F300
M106 S0
M106 S255
G1 X5.037 Y4.944 F300
M106 S0
M106 S255
G1 X4.92 Y4.944 F300
M106 S0
M106 S255
G1 X4.869 Y4.944 F300
M106 S0
M106 S255
G1 X4.868 Y4.962 F300
M106 S0
M106 S255
G1 X4.868 Y5.019 F300
M106 S0
M106 S255
G1 X4.868 Y5.103 F300
M106 S0
M106 S255
G1 X4.868 Y5.312 F300
M106 S0
M106 S255
G1 X4.868 Y5.499 F300
M106 S0
M106 S255
G1 X4.868 Y5.557 F300
M106 S0
M106 S255
G1 X4.868 Y5.577 F300
M106 S0
M106 S255
G1 X4.883 Y5.592 F300
M106 S0
M106 S255
G1 X4.919 Y5.628 F300
M106 S0
M106 S255
G1 X4.975 Y5.683 F300
M106 S0
M106 S255
G1 X5.046 Y5.754 F300
M106 S0
M106 S255
G1 X5.225 Y5.932 F300
M106 S0
M106 S255
G1 X5.434 Y6.14 F300
M106 S0
M106 S255
G1 X5.651 Y6.355 F300
M106 S0
M106 S255
G1 X5.854 Y6.556 F300
M106 S0
M106 S255
G1 X6.019 Y6.721 F300
M106 S0
M106 S255
G1 X6.081 Y6.782 F300
M106 S0
M106 S255
G1 X6.125 Y6.826 F300
M106 S0
M106 S255
G1 X6.148 Y6.849 F300
M106 S0
M106 S255
G1 X6.156 Y6.857 F300
M106 S0
M106 S255
G1 X6.177 Y6.877 F300
M106 S0
M106 S255
G1 X6.233 Y6.931 F300
M106 S0
M106 S255
G1 X6.308 Y7.001 F300
M106 S0
M106 S255
G1 X6.402 Y7.088 F300
M106 S0
M106 S255
G1 X6.515 Y7.191 F300
M106 S0
M106 S255
G1 X6.621 Y7.288 F300
M106 S0
M106 S255
G1 X6.708 Y7.369 F300
M106 S0
M106 S255
G1 X6.778 Y7.435 F300
M106 S0
M106 S255
G1 X6.83 Y7.485 F300
M106 S0
M106 S255
G1 X6.93 Y7.583 F300
M106 S0
M106 S255
G1 X7.08 Y7.733 F300
M106 S0
M106 S255
G1 X7.256 Y7.913 F300
M106 S0
M106 S255
G1 X7.383 Y8.058 F300
M106 S0
M106 S255
G1 X7.466 Y8.17 F300
M106 S0
M106 S255
G1 X7.564 Y8.305 F300
M106 S0
M106 S255
G1 X7.686 Y8.471 F300
M106 S0
M106 S255
G1 X7.786 Y8.632 F300
M106 S0
M106 S255
G1 X7.847 Y8.774 F300
M106 S0
M106 S255
G1 X7.936 Y9.081 F300
M106 S0
M106 S255
G1 X7.992 Y9.435 F300
M106 S0
M106 S255
G1 X7.993 Y9.48 F300
M106 S0
M106 S255
G1 X7.993 Y9.514 F300
M106 S0
M106 S255
G1 X7.991 Y9.585 F300
M106 S0
M106 S255
G1 X7.958 Y9.855 F300
M106 S0
M106 S255
G1 X7.883 Y10.104 F300
M106 S0
M106 S255
G1 X7.768 Y10.333 F300
M106 S0
M106 S255
G1 X7.611 Y10.542 F300
M106 S0
M106 S255
G1 X7.421 Y10.721 F300
M106 S0
M106 S255
G1 X7.208 Y10.856 F300
M106 S0
M106 S255
G1 X6.972 Y10.946 F300
M106 S0
M106 S255
G1 X6.713 Y10.991 F300
M106 S0
M106 S255
G1 X6.575 Y10.997 F300
M106 S0
M106 S255
G1 X6.497 Y10.995 F300
M106 S0
M106 S255
G1 X6.214 Y10.949 F300
M106 S0
M106 S255
G1 X5.961 Y10.84 F300
M106 S0
M106 S255
G1 X5.752 Y10.687 F300
M106 S0
M106 S255
G1 X5.596 Y10.505 F300
M106 S0
M106 S255
G1 X5.481 Y10.305 F300
M106 S0
M106 S255
G1 X5.314 Y9.908 F300
M106 S0
M106 S255
G1 X5.263 Y9.735 F300
M106 S0
M106 S255
G1 X5.246 Y9.659 F300
M106 S0
M106 S255
G1 X5.24 Y9.631 F300
M106 S0
M106 S255
G1 X5.217 Y9.527 F300
M106 S0
M106 S255
G1 X5.207 Y9.486 F300
M106 S0
M106 S255
G1 X5.205 Y9.478 F300
M106 S0
M106 S255
G1 X5.195 Y9.491 F300
M106 S0
M106 S255
G1 X5.158 Y9.538 F300
M106 S0
M106 S255
G1 X5.102 Y9.609 F300
M106 S0
M106 S255
G1 X4.963 Y9.788 F300
M106 S0
M106 S255
G1 X4.836 Y9.951 F300
M106 S0
M106 S255
G1 X4.796 Y10.003 F300
M106 S0
M106 S255
G1 X4.781 Y10.023 F300
M106 S0
M106 S255
G1 X4.781 Y10.023 F300
M106 S0
G0 X86.244 Y16.797 F6000
M106 S255
G1 X86.244 Y16.797 F300
M106 S0
M106 S255
G1 X86.244 Y16.806 F300
M106 S0
M106 S255
G1 X86.244 Y16.832 F300
M106 S0
M106 S255
G1 X86.244 Y16.875 F300
M106 S0
M106 S255
G1 X86.244 Y16.933 F300
M106 S0
M106 S255
G1 X86.244 Y17.007 F300
M106 S0
M106 S255
G1 X86.244 Y17.094 F300
M106 S0
M106 S255
G1 X86.244 Y17.196 F300
M106 S0
M106 S255
G1 X86.244 Y17.31 F300
M106 S0
M106 S255
G1 X86.244 Y17.574 F300
M106 S0
M106 S255
G1 X86.244 Y17.88 F300
M106 S0
M106 S255
G1 X86.244 Y18.223 F300
M106 S0
M106 S255
G1 X86.244 Y18.597 F300
M106 S0
M106 S255
G1 X86.244 Y18.995 F300
M106 S0
M106 S255
G1 X86.244 Y19.413 F300
M106 S0
M106 S255
G1 X86.244 Y20.28 F300
M106 S0
M106 S255
G1 X86.244 Y21.152 F300
M106 S0
M106 S255
G1 X86.244 Y21.575 F300
M106 S0
M106 S255
G1 X86.244 Y21.981 F300
M106 S0
M106 S255
G1 X86.244 Y22.365 F300
M106 S0
M106 S255
G1 X86.244 Y22.72 F300
M106 S0
M106 S255
G1 X86.244 Y23.041 F300
M106 S0
M106 S255
G1 X86.244 Y23.322 F300
M106 S0
M106 S255
G1 X86.244 Y23.446 F300
M106 S0
M106 S255
G1 X86.244 Y23.557 F300
M106 S0
M106 S255
G1 X86.244 Y23.655 F300
M106 S0
M106 S255
G1 X86.244 Y23.74 F300
M106 S0
M106 S255
G1 X86.244 Y23.81 F300
M106 S0
M106 S255
G1 X86.244 Y23.864 F300
M106 S0
M106 S255
G1 X86.244 Y23.903 F300
M106 S0
M106 S255
G1 X86.244 Y23.925 F300
M106 S0
M106 S255
G1 X86.253 Y23.93 F300
M106 S0
M106 S255
G1 X86.288 Y23.93 F300
M106 S0
M106 S255
G1 X86.343 Y23.93 F300
M106 S0
M106 S255
G1 X86.415 Y23.93 F300
M106 S0
M106 S255
G1 X86.764 Y23.93 F300
M106 S0
M106 S255
G1 X86.843 Y23.93 F300
M106 S0
M106 S255
G1 X86.908 Y23.93 F300
M106 S0
M106 S255
G1 X86.955 Y23.93 F300
M106 S0
M106 S255
G1 X86.979 Y23.93 F300
M106 S0
M106 S255
G1 X86.982 Y23.929 F300
M106 S0
M106 S255
G1 X86.982 Y23.905 F300
M106 S0
M106 S255
G1 X86.982 Y23.851 F300
M106 S0
M106 S255
G1 X86.982 Y23.769 F300
M106 S0
M106 S255
G1 X86.982 Y23.662 F300
M106 S0
M106 S255
G1 X86.982 Y23.533 F300
M106 S0
M106 S255
G1 X86.982 Y23.384 F300
M106 S0
M106 S255
G1 X86.982 Y23.22 F300
M106 S0
M106 S255
G1 X86.982 Y22.851 F300
M106 S0
M106 S255
G1 X86.982 Y22.451 F300
M106 S0
M106 S255
G1 X86.982 Y22.039 F300
M106 S0
M106 S255
G1 X86.982 Y21.639 F300
M106 S0
M106 S255
G1 X86.982 Y21.273 F300
M106 S0
M106 S255
G1 X86.982 Y21.11 F300
M106 S0
M106 S255
G1 X86.982 Y20.963 F300
M106 S0
M106 S255
G1 X86.982 Y20.836 F300
M106 S0
M106 S255
G1 X86.982 Y20.731 F300
M106 S0
M106 S255
G1 X86.982 Y20.652 F300
M106 S0
M106 S255
G1 X86.982 Y20.6 F300
M106 S0
M106 S255
G1 X86.982 Y20.579 F300
M106 S0
M106 S255
G1 X86.987 Y20.585 F300
M106 S0
M106 S255
G1 X86.999 Y20.599 F300
M106 S0
M106 S255
G1 X87.024 Y20.628 F300
M106 S0
M106 S255
G1 X87.124 Y20.735 F300
M106 S0
M106 S255
G1 X87.334 Y20.922 F300
M106 S0
M106 S255
G1 X87.557 Y21.07 F300
M106 S0
M106 S255
G1 X87.792 Y21.181 F300
M106 S0
M106 S255
G1 X88.041 Y21.254 F300
M106 S0
M106 S255
G1 X88.302 Y21.289 F300
M106 S0
M106 S255
G1 X88.369 Y21.292 F300
M106 S0
M106 S255
G1 X88.403 Y21.292 F300
M106 S0
M106 S255
G1 X88.419 Y21.292 F300
M106 S0
M106 S255
G1 X88.48 Y21.291 F300
M106 S0
M106 S255
G1 X88.597 Y21.284 F300
M106 S0
M106 S255
G1 X88.813 Y21.251 F300
M106 S0
M106 S255
G1 X89.006 Y21.192 F300
M106 S0
M106 S255
G1 X89.174 Y21.112 F300
M106 S0
M106 S255
G1 X89.313 Y21.022 F300
M106 S0
M106 S255
G1 X89.423 Y20.922 F300
M106 S0
M106 S255
G1 X89.508 Y20.81 F300
M106 S0
M106 S255
G1 X89.579 Y20.68 F300
M106 S0
M106 S255
G1 X89.639 Y20.531 F300
M106 S0
M106 S255
G1 X89.686 Y20.371 F300
M106 S0
M106 S255
G1 X89.72 Y20.226 F300
M106 S0
M106 S255
G1 X89.741 Y20.097 F300
M106 S0
M106 S255
G1 X89.751 Y19.979 F300
M106 S0
M106 S255
G1 X89.757 Y19.85 F300
M106 S0
M106 S255
G1 X89.759 Y19.708 F300
M106 S0
M106 S255
G1 X89.76 Y19.638 F300
M106 S0
M106 S255
G1 X89.76 Y19.609 F300
M106 S0
M106 S255
G1 X89.76 Y19.554 F300
M106 S0
M106 S255
G1 X89.76 Y19.477 F300
M106 S0
M106 S255
G1 X89.76 Y19.38 F300
M106 S0
M106 S255
G1 X89.76 Y19.265 F300
M106 S0
M106 S255
G1 X89.76 Y19.134 F300
M106 S0
M106 S255
G1 X89.76 Y18.835 F300
M106 S0
M106 S255
G1 X89.76 Y18.502 F300
M106 S0
M106 S255
G1 X89.76 Y18.153 F300
M106 S0
M106 S255
G1 X89.76 Y17.808 F300
M106 S0
M106 S255
G1 X89.76 Y17.486 F300
M106 S0
M106 S255
G1 X89.76 Y17.339 F300
M106 S0
M106 S255
G1 X89.76 Y17.205 F300
M106 S0
M106 S255
G1 X89.76 Y17.086 F300
M106 S0
M106 S255
G1 X89.76 Y16.984 F300
M106 S0
M106 S255
G1 X89.76 Y16.902 F300
M106 S0
M106 S255
G1 X89.76 Y16.842 F300
M106 S0
M106 S255
G1 X89.76 Y16.806 F300
M106 S0
M106 S255
G1 X89.76 Y16.797 F300
M106 S0
M106 S255
G1 X89.742 Y16.797 F300
M106 S0
M106 S255
G1 X89.699 Y16.797 F300
M106 S0
M106 S255
G1 X89.636 Y16.797 F300
M106 S0
M106 S255
G1 X89.557 Y16.797 F300
M106 S0
M106 S255
G1 X89.374 Y16.797 F300
M106 S0
M106 S255
G1 X89.191 Y16.797 F300
M106 S0
M106 S255
G1 X89.112 Y16.797 F300
M106 S0
M106 S255
G1 X89.049 Y16.797 F300
M106 S0
M106 S255
G1 X89.006 Y16.797 F300
M106 S0
M106 S255
G1 X88.988 Y16.797 F300
M106 S0
M106 S255
G1 X88.988 Y16.806 F300
M106 S0
M106 S255
G1 X88.988 Y16.84 F300
M106 S0
M106 S255
G1 X88.988 Y16.899 F300
M106 S0
M106 S255
G1 X88.988 Y16.979 F300
M106 S0
M106 S255
G1 X88.988 Y17.077 F300
M106 S0
M106 S255
G1 X88.988 Y17.193 F300
M106 S0
M106 S255
G1 X88.988 Y17.324 F300
M106 S0
M106 S255
G1 X88.988 Y17.467 F300
M106 S0
M106 S255
G1 X88.988 Y17.78 F300
M106 S0
M106 S255
G1 X88.988 Y18.115 F300
M106 S0
M106 S255
G1 X88.988 Y18.454 F300
M106 S0
M106 S255
G1 X88.988 Y18.778 F300
M106 S0
M106 S255
G1 X88.988 Y19.069 F300
M106 S0
M106 S255
G1 X88.988 Y19.196 F300
M106 S0
M106 S255
G1 X88.988 Y19.308 F300
M106 S0
M106 S255
G1 X88.988 Y19.403 F300
M106 S0
M106 S255
G1 X88.988 Y19.478 F300
M106 S0
M106 S255
G1 X88.988 Y19.53 F300
M106 S0
M106 S255
G1 X88.988 Y19.559 F300
M106 S0
M106 S255
G1 X88.988 Y19.609 F300
M106 S0
M106 S255
G1 X88.987 Y19.706 F300
M106 S0
M106 S255
G1 X88.985 Y19.787 F300
M106 S0
M106 S255
G1 X88.981 Y19.856 F300
M106 S0
M106 S255
G1 X88.969 Y19.937 F300
M106 S0
M106 S255
G1 X88.946 Y20.036 F300
M106 S0
M106 S255
G1 X88.913 Y20.151 F300
M106 S0
M106 S255
G1 X88.871 Y20.258 F300
M106 S0
M106 S255
G1 X88.82 Y20.348 F300
M106 S0
M106 S255
G1 X88.76 Y20.423 F300
M106 S0
M106 S255
G1 X88.681 Y20.49 F300
M106 S0
M106 S255
G1 X88.581 Y20.552 F300
M106 S0
M106 S255
G1 X88.461 Y20.608 F300
M106 S0
M106 S255
G1 X88.32 Y20.65 F300
M106 S0
M106 S255
G1 X88.161 Y20.674 F300
M106 S0
M106 S255
G1 X88.074 Y20.679 F300
M106 S0
M106 S255
G1 X88.029 Y20.68 F300
M106 S0
M106 S255
G1 X87.996 Y20.679 F300
M106 S0
M106 S255
G1 X87.954 Y20.678 F300
M106 S0
M106 S255
G1 X87.795 Y20.657 F300
M106 S0
M106 S255
G1 X87.652 Y20.612 F300
M106 S0
M106 S255
G1 X87.524 Y20.543 F300
M106 S0
M106 S255
G1 X87.411 Y20.451 F300
M106 S0
M106 S255
G1 X87.314 Y20.335 F300
M106 S0
M106 S255
G1 X87.232 Y20.195 F300
M106 S0
M106 S255
G1 X87.164 Y20.042 F300
M106 S0
M106 S255
G1 X87.109 Y19.878 F300
M106 S0
M106 S255
G1 X87.066 Y19.705 F300
M106 S0
M106 S255
G1 X87.036 Y19.522 F300
M106 S0
M106 S255
G1 X87.02 Y19.328 F300
M106 S0
M106 S255
G1 X87.016 Y19.228 F300
M106 S0
M106 S255
G1 X87.015 Y19.176 F300
M106 S0
M106 S255
G1 X87.015 Y19.163 F300
M106 S0
M106 S255
G1 X87.015 Y19.157 F300
M106 S0
M106 S255
G1 X87.015 Y19.129 F300
M106 S0
M106 S255
G1 X87.015 Y19.08 F300
M106 S0
M106 S255
G1 X87.015 Y19.012 F300
M106 S0
M106 S255
G1 X87.015 Y18.928 F300
M106 S0
M106 S255
G1 X87.015 Y18.83 F300
M106 S0
M106 S255
G1 X87.015 Y18.719 F300
M106 S0
M106 S255
G1 X87.015 Y18.467 F300
M106 S0
M106 S255
G1 X87.015 Y17.897 F300
M106 S0
M106 S255
G1 X87.015 Y17.612 F300
M106 S0
M106 S255
G1 X87.015 Y17.346 F300
M106 S0
M106 S255
G1 X87.015 Y17.116 F300
M106 S0
M106 S255
G1 X87.015 Y17.02 F300
M106 S0
M106 S255
G1 X87.015 Y16.938 F300
M106 S0
M106 S255
G1 X87.015 Y16.873 F300
M106 S0
M106 S255
G1 X87.015 Y16.827 F300
M106 S0
M106 S255
G1 X87.015 Y16.801 F300
M106 S0
M106 S255
G1 X87.015 Y16.797 F300
M106 S0
M106 S255
G1 X86.995 Y16.797 F300
M106 S0
M106 S255
G1 X86.95 Y16.797 F300
M106 S0
M106 S255
G1 X86.884 Y16.797 F300
M106 S0
M106 S255
G1 X86.804 Y16.797 F300
M106 S0
M106 S255
G1 X86.438 Y16.797 F300
M106 S0
M106 S255
G1 X86.361 Y16.797 F300
M106 S0
M106 S255
G1 X86.299 Y16.797 F300
M106 S0
M106 S255
G1 X86.258 Y16.797 F300
M106 S0
M106 S255
G1 X86.244 Y16.797 F300
M106 S0
M106 S255
G1 X86.244 Y16.797 F300
M106 S0
G0 X78.671 Y18.999 F6000
M106 S255
G1 X78.671 Y18.999 F300
M106 S0
M106 S255
G1 X78.743 Y19.613 F300
M106 S0
M106 S255
G1 X78.958 Y20.178 F300
M106 S0
M106 S255
G1 X79.317 Y20.694 F300
M106 S0
M106 S255
G1 X79.789 Y21.084 F300
M106 S0
M106 S255
G1 X80.358 Y21.301 F300
M106 S0
M106 S255
G1 X80.926 Y21.349 F300
M106 S0
M106 S255
G1 X81.219 Y21.333 F300
M106 S0
M106 S255
G1 X81.475 Y21.295 F300
M106 S0
M106 S255
G1 X81.698 Y21.235 F300
M106 S0
M106 S255
G1 X81.944 Y21.137 F300
M106 S0
M106 S255
G1 X82.225 Y21.0 F300
M106 S0
M106 S255
G1 X82.371 Y20.864 F300
M106 S0
M106 S255
G1 X82.316 Y20.569 F300
M106 S0
M106 S255
G1 X82.265 Y20.295 F300
M106 S0
M106 S255
G1 X82.061 Y20.385 F300
M106 S0
M106 S255
G1 X81.787 Y20.534 F300
M106 S0
M106 S255
G1 X81.568 Y20.627 F300
M106 S0
M106 S255
G1 X81.365 Y20.676 F300
M106 S0
M106 S255
G1 X81.132 Y20.706 F300
M106 S0
M106 S255
G1 X80.871 Y20.718 F300
M106 S0
M106 S255
G1 X80.457 Y20.671 F300
M106 S0
M106 S255
G1 X80.094 Y20.501 F300
M106 S0
M106 S255
G1 X79.805 Y20.209 F300
M106 S0
M106 S255
G1 X79.597 Y19.831 F300
M106 S0
M106 S255
G1 X79.477 Y19.407 F300
M106 S0
M106 S255
G1 X79.444 Y18.935 F300
M106 S0
M106 S255
G1 X79.502 Y18.464 F300
M106 S0
M106 S255
G1 X79.654 Y18.056 F300
M106 S0
M106 S255
G1 X79.898 Y17.713 F300
M106 S0
M106 S255
G1 X80.207 Y17.469 F300
M106 S0
M106 S255
G1 X80.572 Y17.34 F300
M106 S0
M106 S255
G1 X81.029 Y17.327 F300
M106 S0
M106 S255
G1 X81.568 Y17.439 F300
M106 S0
M106 S255
G1 X82.109 Y17.68 F300
M106 S0
M106 S255
G1 X82.384 Y17.796 F300
M106 S0
M106 S255
G1 X82.406 Y17.497 F300
M106 S0
M106 S255
G1 X82.426 Y17.219 F300
M106 S0
M106 S255
G1 X82.087 Y16.995 F300
M106 S0
M106 S255
G1 X81.53 Y16.783 F300
M106 S0
M106 S255
G1 X80.961 Y16.691 F300
M106 S0
M106 S255
G1 X80.364 Y16.732 F300
M106 S0
M106 S255
G1 X79.82 Y16.937 F300
M106 S0
M106 S255
G1 X79.345 Y17.305 F300
M106 S0
M106 S255
G1 X78.971 Y17.801 F300
M106 S0
M106 S255
G1 X78.746 Y18.366 F300
M106 S0
M106 S255
G1 X78.671 Y18.999 F300
M106 S0
G0 X75.748 Y16.797 F6000
M106 S255
G1 X75.748 Y16.797 F300
M106 S0
M106 S255
G1 X75.748 Y16.83 F300
M106 S0
M106 S255
G1 X75.748 Y16.925 F300
M106 S0
M106 S255
G1 X75.748 Y17.075 F300
M106 S0
M106 S255
G1 X75.748 Y17.273 F300
M106 S0
M106 S255
G1 X75.748 Y17.511 F300
M106 S0
M106 S255
G1 X75.748 Y17.784 F300
M106 S0
M106 S255
G1 X75.748 Y18.083 F300
M106 S0
M106 S255
G1 X75.748 Y18.402 F300
M106 S0
M106 S255
G1 X75.748 Y19.738 F300
M106 S0
M106 S255
G1 X75.748 Y20.052 F300
M106 S0
M106 S255
G1 X75.748 Y20.344 F300
M106 S0
M106 S255
G1 X75.748 Y20.607 F300
M106 S0
M106 S255
G1 X75.748 Y20.834 F300
M106 S0
M106 S255
G1 X75.748 Y21.017 F300
M106 S0
M106 S255
G1 X75.748 Y21.151 F300
M106 S0
M106 S255
G1 X75.748 Y21.228 F300
M106 S0
M106 S255
G1 X75.749 Y21.244 F300
M106 S0
M106 S255
G1 X75.775 Y21.244 F300
M106 S0
M106 S255
G1 X75.833 Y21.244 F300
M106 S0
M106 S255
G1 X76.013 Y21.244 F300
M106 S0
M106 S255
G1 X76.22 Y21.244 F300
M106 S0
M106 S255
G1 X76.312 Y21.244 F300
M106 S0
M106 S255
G1 X76.384 Y21.244 F300
M106 S0
M106 S255
G1 X76.428 Y21.244 F300
M106 S0
M106 S255
G1 X76.438 Y21.241 F300
M106 S0
M106 S255
G1 X76.438 Y21.201 F300
M106 S0
M106 S255
G1 X76.438 Y21.121 F300
M106 S0
M106 S255
G1 X76.438 Y20.885 F300
M106 S0
M106 S255
G1 X76.438 Y20.621 F300
M106 S0
M106 S255
G1 X76.438 Y20.506 F300
M106 S0
M106 S255
G1 X76.438 Y20.419 F300
M106 S0
M106 S255
G1 X76.438 Y20.368 F300
M106 S0
M106 S255
G1 X76.438 Y20.361 F300
M106 S0
M106 S255
G1 X76.45 Y20.378 F300
M106 S0
M106 S255
G1 X76.501 Y20.453 F300
M106 S0
M106 S255
G1 X76.747 Y20.74 F300
M106 S0
M106 S255
G1 X76.83 Y20.812 F300
M106 S0
M106 S255
G1 X76.933 Y20.885 F300
M106 S0
M106 S255
G1 X77.054 Y20.961 F300
M106 S0
M106 S255
G1 X77.195 Y21.038 F300
M106 S0
M106 S255
G1 X77.523 Y21.182 F300
M106 S0
M106 S255
G1 X77.879 Y21.268 F300
M106 S0
M106 S255
G1 X78.066 Y21.288 F300
M106 S0
M106 S255
G1 X78.162 Y21.292 F300
M106 S0
M106 S255
G1 X78.17 Y21.276 F300
M106 S0
M106 S255
G1 X78.17 Y21.227 F300
M106 S0
M106 S255
G1 X78.17 Y21.154 F300
M106 S0
M106 S255
G1 X78.17 Y20.967 F300
M106 S0
M106 S255
G1 X78.17 Y20.779 F300
M106 S0
M106 S255
G1 X78.17 Y20.706 F300
M106 S0
M106 S255
G1 X78.17 Y20.657 F300
M106 S0
M106 S255
G1 X78.166 Y20.641 F300
M106 S0
M106 S255
G1 X78.114 Y20.638 F300
M106 S0
M106 S255
G1 X78.01 Y20.628 F300
M106 S0
M106 S255
G1 X77.801 Y20.588 F300
M106 S0
M106 S255
G1 X77.591 Y20.524 F300
M106 S0
M106 S255
G1 X77.375 Y20.429 F300
M106 S0
M106 S255
G1 X77.151 Y20.301 F300
M106 S0
M106 S255
G1 X76.935 Y20.129 F300
M106 S0
M106 S255
G1 X76.754 Y19.894 F300
M106 S0
M106 S255
G1 X76.61 Y19.596 F300
M106 S0
M106 S255
G1 X76.52 Y19.253 F300
M106 S0
M106 S255
G1 X76.487 Y18.869 F300
M106 S0
M106 S255
G1 X76.486 Y18.835 F300
M106 S0
M106 S255
G1 X76.486 Y18.809 F300
M106 S0
M106 S255
G1 X76.486 Y18.755 F300
M106 S0
M106 S255
G1 X76.486 Y18.677 F300
M106 S0
M106 S255
G1 X76.486 Y18.463 F300
M106 S0
M106 S255
G1 X76.486 Y18.192 F300
M106 S0
M106 S255
G1 X76.486 Y17.58 F300
M106 S0
M106 S255
G1 X76.486 Y17.291 F300
M106 S0
M106 S255
G1 X76.486 Y17.047 F300
M106 S0
M106 S255
G1 X76.486 Y16.95 F300
M106 S0
M106 S255
G1 X76.486 Y16.874 F300
M106 S0
M106 S255
G1 X76.486 Y16.823 F300
M106 S0
M106 S255
G1 X76.486 Y16.798 F300
M106 S0
M106 S255
G1 X76.471 Y16.797 F300
M106 S0
M106 S255
G1 X76.418 Y16.797 F300
M106 S0
M106 S255
G1 X76.337 Y16.797 F300
M106 S0
M106 S255
G1 X76.237 Y16.797 F300
M106 S0
M106 S255
G1 X76.015 Y16.797 F300
M106 S0
M106 S255
G1 X75.827 Y16.797 F300
M106 S0
M106 S255
G1 X75.77 Y16.797 F300
M106 S0
M106 S255
G1 X75.748 Y16.797 F300
M106 S0
M106 S255
G1 X75.748 Y16.797 F300
M106 S0
G0 X71.625 Y17.934 F6000
M106 S255
G1 X71.625 Y17.934 F300
M106 S0
M106 S255
G1 X71.658 Y17.75 F300
M106 S0
M106 S255
G1 X71.76 Y17.59 F300
M106 S0
M106 S255
G1 X71.928 Y17.453 F300
M106 S0
M106 S255
G1 X72.142 Y17.356 F300
M106 S0
M106 S255
G1 X72.39 Y17.306 F300
M106 S0
M106 S255
G1 X72.677 Y17.303 F300
M106 S0
M106 S255
G1 X72.963 Y17.348 F300
M106 S0
M106 S255
G1 X73.227 Y17.44 F300
M106 S0
M106 S255
G1 X73.454 Y17.583 F300
M106 S0
M106 S255
G1 X73.596 Y17.79 F300
M106 S0
M106 S255
G1 X73.65 Y18.062 F300
M106 S0
M106 S255
G1 X73.65 Y18.25 F300
M106 S0
M106 S255
G1 X73.65 Y18.578 F300
M106 S0
M106 S255
G1 X73.626 Y18.731 F300
M106 S0
M106 S255
G1 X73.405 Y18.725 F300
M106 S0
M106 S255
G1 X73.18 Y18.708 F300
M106 S0
M106 S255
G1 X72.953 Y18.682 F300
M106 S0
M106 S255
G1 X72.721 Y18.644 F300
M106 S0
M106 S255
G1 X72.483 Y18.596 F300
M106 S0
M106 S255
G1 X72.247 Y18.535 F300
M106 S0
M106 S255
G1 X72.04 Y18.453 F300
M106 S0
M106 S255
G1 X71.867 Y18.349 F300
M106 S0
M106 S255
G1 X71.732 Y18.224 F300
M106 S0
M106 S255
G1 X71.652 Y18.086 F300
M106 S0
M106 S255
G1 X71.625 Y17.934 F300
M106 S0
G0 X70.916 Y17.911 F6000
M106 S255
G1 X70.916 Y17.911 F300
M106 S0
M106 S255
G1 X70.943 Y18.131 F300
M106 S0
M106 S255
G1 X71.024 Y18.333 F300
M106 S0
M106 S255
G1 X71.159 Y18.516 F300
M106 S0
M106 S255
G1 X71.341 Y18.678 F300
M106 S0
M106 S255
G1 X71.557 Y18.812 F300
M106 S0
M106 S255
G1 X71.806 Y18.92 F300
M106 S0
M106 S255
G1 X72.358 Y19.071 F300
M106 S0
M106 S255
G1 X72.897 Y19.168 F300
M106 S0
M106 S255
G1 X73.434 Y19.214 F300
M106 S0
M106 S255
G1 X73.569 Y19.218 F300
M106 S0
M106 S255
G1 X73.637 Y19.218 F300
M106 S0
M106 S255
G1 X73.65 Y19.222 F300
M106 S0
M106 S255
G1 X73.65 Y19.324 F300
M106 S0
M106 S255
G1 X73.65 Y19.474 F300
M106 S0
M106 S255
G1 X73.65 Y19.529 F300
M106 S0
M106 S255
G1 X73.65 Y19.551 F300
M106 S0
M106 S255
G1 X73.617 Y19.912 F300
M106 S0
M106 S255
G1 X73.541 Y20.203 F300
M106 S0
M106 S255
G1 X73.423 Y20.426 F300
M106 S0
M106 S255
G1 X73.263 Y20.591 F300
M106 S0
M106 S255
G1 X73.076 Y20.7 F300
M106 S0
M106 S255
G1 X72.863 Y20.752 F300
M106 S0
M106 S255
G1 X72.806 Y20.756 F300
M106 S0
M106 S255
G1 X72.723 Y20.756 F300
M106 S0
M106 S255
G1 X72.487 Y20.739 F300
M106 S0
M106 S255
G1 X72.021 Y20.631 F300
M106 S0
M106 S255
G1 X71.564 Y20.426 F300
M106 S0
M106 S255
G1 X71.339 Y20.286 F300
M106 S0
M106 S255
G1 X71.294 Y20.255 F300
M106 S0
M106 S255
G1 X71.294 Y20.259 F300
M106 S0
M106 S255
G1 X71.292 Y20.284 F300
M106 S0
M106 S255
G1 X71.283 Y20.383 F300
M106 S0
M106 S255
G1 X71.271 Y20.524 F300
M106 S0
M106 S255
G1 X71.246 Y20.813 F300
M106 S0
M106 S255
G1 X71.239 Y20.9 F300
M106 S0
M106 S255
G1 X71.237 Y20.915 F300
M106 S0
M106 S255
G1 X71.272 Y20.936 F300
M106 S0
M106 S255
G1 X71.33 Y20.969 F300
M106 S0
M106 S255
G1 X71.801 Y21.18 F300
M106 S0
M106 S255
G1 X72.285 Y21.308 F300
M106 S0
M106 S255
G1 X72.78 Y21.35 F300
M106 S0
M106 S255
G1 X73.184 Y21.306 F300
M106 S0
M106 S255
G1 X73.546 Y21.175 F300
M106 S0
M106 S255
G1 X73.864 Y20.956 F300
M106 S0
M106 S255
G1 X74.127 Y20.665 F300
M106 S0
M106 S255
G1 X74.307 Y20.336 F300
M106 S0
M106 S255
G1 X74.406 Y19.969 F300
M106 S0
M106 S255
G1 X74.418 Y19.871 F300
M106 S0
M106 S255
G1 X74.421 Y19.821 F300
M106 S0
M106 S255
G1 X74.422 Y19.803 F300
M106 S0
M106 S255
G1 X74.422 Y19.711 F300
M106 S0
M106 S255
G1 X74.422 Y19.533 F300
M106 S0
M106 S255
G1 X74.422 Y19.286 F300
M106 S0
M106 S255
G1 X74.422 Y18.988 F300
M106 S0
M106 S255
G1 X74.422 Y18.304 F300
M106 S0
M106 S255
G1 X74.422 Y17.621 F300
M106 S0
M106 S255
G1 X74.422 Y17.322 F300
M106 S0
M106 S255
G1 X74.422 Y17.075 F300
M106 S0
M106 S255
G1 X74.422 Y16.897 F300
M106 S0
M106 S255
G1 X74.422 Y16.806 F300
M106 S0
M106 S255
G1 X74.39 Y16.797 F300
M106 S0
M106 S255
G1 X74.278 Y16.797 F300
M106 S0
M106 S255
G1 X74.118 Y16.797 F300
M106 S0
M106 S255
G1 X73.791 Y16.797 F300
M106 S0
M106 S255
G1 X73.693 Y16.797 F300
M106 S0
M106 S255
G1 X73.675 Y16.801 F300
M106 S0
M106 S255
G1 X73.675 Y16.84 F300
M106 S0
M106 S255
G1 X73.675 Y16.907 F300
M106 S0
M106 S255
G1 X73.675 Y17.064 F300
M106 S0
M106 S255
G1 X73.675 Y17.121 F300
M106 S0
M106 S255
G1 X73.675 Y17.144 F300
M106 S0
M106 S255
G1 X73.585 Y17.076 F300
M106 S0
M106 S255
G1 X73.509 Y17.027 F300
M106 S0
M106 S255
G1 X73.401 Y16.97 F300
M106 S0
M106 S255
G1 X73.242 Y16.906 F300
M106 S0
M106 S255
G1 X73.03 Y16.836 F300
M106 S0
M106 S255
G1 X72.497 Y16.716 F300
M106 S0
M106 S255
G1 X72.21 Y16.69 F300
M106 S0
M106 S255
G1 X71.896 Y16.692 F300
M106 S0
M106 S255
G1 X71.596 Y16.763 F300
M106 S0
M106 S255
G1 X71.351 Y16.911 F300
M106 S0
M106 S255
G1 X71.161 Y17.137 F300
M106 S0
M106 S255
G1 X71.025 Y17.39 F300
M106 S0
M106 S255
G1 X70.943 Y17.648 F300
M106 S0
M106 S255
G1 X70.916 Y17.911 F300
M106 S0
M106 S255
G1 X70.916 Y17.911 F300
M106 S0
G0 X63.43 Y16.797 F6000
M106 S255
G1 X63.43 Y16.797 F300
M106 S0
M106 S255
G1 X63.43 Y16.812 F300
M106 S0
M106 S255
G1 X63.43 Y16.856 F300
M106 S0
M106 S255
G1 X63.43 Y16.928 F300
M106 S0
M106 S255
G1 X63.43 Y17.024 F300
M106 S0
M106 S255
G1 X63.43 Y17.142 F300
M106 S0
M106 S255
G1 X63.43 Y17.281 F300
M106 S0
M106 S255
G1 X63.43 Y17.613 F300
M106 S0
M106 S255
G1 X63.43 Y18.0 F300
M106 S0
M106 S255
G1 X63.43 Y18.428 F300
M106 S0
M106 S255
G1 X63.43 Y19.332 F300
M106 S0
M106 S255
G1 X63.43 Y19.776 F300
M106 S0
M106 S255
G1 X63.43 Y20.19 F300
M106 S0
M106 S255
G1 X63.43 Y20.559 F300
M106 S0
M106 S255
G1 X63.43 Y20.865 F300
M106 S0
M106 S255
G1 X63.43 Y20.989 F300
M106 S0
M106 S255
G1 X63.43 Y21.091 F300
M106 S0
M106 S255
G1 X63.43 Y21.169 F300
M106 S0
M106 S255
G1 X63.43 Y21.22 F300
M106 S0
M106 S255
G1 X63.43 Y21.243 F300
M106 S0
M106 S255
G1 X63.432 Y21.244 F300
M106 S0
M106 S255
G1 X63.448 Y21.244 F300
M106 S0
M106 S255
G1 X63.527 Y21.244 F300
M106 S0
M106 S255
G1 X63.65 Y21.244 F300
M106 S0
M106 S255
G1 X63.937 Y21.244 F300
M106 S0
M106 S255
G1 X64.058 Y21.244 F300
M106 S0
M106 S255
G1 X64.134 Y21.244 F300
M106 S0
M106 S255
G1 X64.149 Y21.239 F300
M106 S0
M106 S255
G1 X64.149 Y21.179 F300
M106 S0
M106 S255
G1 X64.149 Y21.07 F300
M106 S0
M106 S255
G1 X64.149 Y20.933 F300
M106 S0
M106 S255
G1 X64.149 Y20.663 F300
M106 S0
M106 S255
G1 X64.149 Y20.572 F300
M106 S0
M106 S255
G1 X64.149 Y20.548 F300
M106 S0
M106 S255
G1 X64.149 Y20.542 F300
M106 S0
M106 S255
G1 X64.149 Y20.54 F300
M106 S0
M106 S255
G1 X64.158 Y20.552 F300
M106 S0
M106 S255
G1 X64.321 Y20.742 F300
M106 S0
M106 S255
G1 X64.495 Y20.904 F300
M106 S0
M106 S255
G1 X64.68 Y21.037 F300
M106 S0
M106 S255
G1 X64.876 Y21.143 F300
M106 S0
M106 S255
G1 X65.083 Y21.221 F300
M106 S0
M106 S255
G1 X65.301 Y21.27 F300
M106 S0
M106 S255
G1 X65.53 Y21.291 F300
M106 S0
M106 S255
G1 X65.779 Y21.284 F300
M106 S0
M106 S255
G1 X66.011 Y21.246 F300
M106 S0
M106 S255
G1 X66.217 Y21.178 F300
M106 S0
M106 S255
G1 X66.399 Y21.08 F300
M106 S0
M106 S255
G1 X66.556 Y20.952 F300
M106 S0
M106 S255
G1 X66.688 Y20.793 F300
M106 S0
M106 S255
G1 X66.795 Y20.604 F300
M106 S0
M106 S255
G1 X66.839 Y20.498 F300
M106 S0
M106 S255
G1 X66.844 Y20.485 F300
M106 S0
M106 S255
G1 X66.854 Y20.494 F300
M106 S0
M106 S255
G1 X66.875 Y20.522 F300
M106 S0
M106 S255
G1 X66.917 Y20.575 F300
M106 S0
M106 S255
G1 X67.092 Y20.768 F300
M106 S0
M106 S255
G1 X67.277 Y20.931 F300
M106 S0
M106 S255
G1 X67.474 Y21.064 F300
M106 S0
M106 S255
G1 X67.681 Y21.166 F300
M106 S0
M106 S255
G1 X67.899 Y21.238 F300
M106 S0
M106 S255
G1 X68.128 Y21.28 F300
M106 S0
M106 S255
G1 X68.247 Y21.29 F300
M106 S0
M106 S255
G1 X68.307 Y21.292 F300
M106 S0
M106 S255
G1 X68.352 Y21.292 F300
M106 S0
M106 S255
G1 X68.547 Y21.282 F300
M106 S0
M106 S255
G1 X68.727 Y21.253 F300
M106 S0
M106 S255
G1 X68.891 Y21.206 F300
M106 S0
M106 S255
G1 X69.039 Y21.142 F300
M106 S0
M106 S255
G1 X69.167 Y21.069 F300
M106 S0
M106 S255
G1 X69.275 Y20.99 F300
M106 S0
M106 S255
G1 X69.362 Y20.905 F300
M106 S0
M106 S255
G1 X69.433 Y20.812 F300
M106 S0
M106 S255
G1 X69.547 Y20.585 F300
M106 S0
M106 S255
G1 X69.626 Y20.319 F300
M106 S0
M106 S255
G1 X69.667 Y20.096 F300
M106 S0
M106 S255
G1 X69.677 Y19.904 F300
M106 S0
M106 S255
G1 X69.681 Y19.672 F300
M106 S0
M106 S255
G1 X69.681 Y19.642 F300
M106 S0
M106 S255
G1 X69.681 Y19.598 F300
M106 S0
M106 S255
G1 X69.681 Y19.486 F300
M106 S0
M106 S255
G1 X69.681 Y19.316 F300
M106 S0
M106 S255
G1 X69.681 Y19.101 F300
M106 S0
M106 S255
G1 X69.681 Y18.85 F300
M106 S0
M106 S255
G1 X69.681 Y18.286 F300
M106 S0
M106 S255
G1 X69.681 Y17.713 F300
M106 S0
M106 S255
G1 X69.681 Y17.45 F300
M106 S0
M106 S255
G1 X69.681 Y17.217 F300
M106 S0
M106 S255
G1 X69.681 Y17.025 F300
M106 S0
M106 S255
G1 X69.681 Y16.885 F300
M106 S0
M106 S255
G1 X69.681 Y16.808 F300
M106 S0
M106 S255
G1 X69.679 Y16.797 F300
M106 S0
M106 S255
G1 X69.623 Y16.797 F300
M106 S0
M106 S255
G1 X69.51 Y16.797 F300
M106 S0
M106 S255
G1 X69.205 Y16.797 F300
M106 S0
M106 S255
G1 X69.062 Y16.797 F300
M106 S0
M106 S255
G1 X68.955 Y16.797 F300
M106 S0
M106 S255
G1 X68.91 Y16.797 F300
M106 S0
M106 S255
G1 X68.909 Y16.823 F300
M106 S0
M106 S255
G1 X68.909 Y16.916 F300
M106 S0
M106 S255
G1 X68.909 Y17.067 F300
M106 S0
M106 S255
G1 X68.909 Y17.266 F300
M106 S0
M106 S255
G1 X68.909 Y17.502 F300
M106 S0
M106 S255
G1 X68.909 Y17.765 F300
M106 S0
M106 S255
G1 X68.909 Y18.326 F300
M106 S0
M106 S255
G1 X68.909 Y18.865 F300
M106 S0
M106 S255
G1 X68.909 Y19.1 F300
M106 S0
M106 S255
G1 X68.909 Y19.298 F300
M106 S0
M106 S255
G1 X68.909 Y19.448 F300
M106 S0
M106 S255
G1 X68.909 Y19.539 F300
M106 S0
M106 S255
G1 X68.909 Y19.564 F300
M106 S0
M106 S255
G1 X68.909 Y19.567 F300
M106 S0
M106 S255
G1 X68.909 Y19.573 F300
M106 S0
M106 S255
G1 X68.909 Y19.605 F300
M106 S0
M106 S255
G1 X68.907 Y19.657 F300
M106 S0
M106 S255
G1 X68.895 Y19.751 F300
M106 S0
M106 S255
G1 X68.872 Y19.876 F300
M106 S0
M106 S255
G1 X68.794 Y20.113 F300
M106 S0
M106 S255
G1 X68.727 Y20.246 F300
M106 S0
M106 S255
G1 X68.64 Y20.374 F300
M106 S0
M106 S255
G1 X68.536 Y20.482 F300
M106 S0
M106 S255
G1 X68.401 Y20.571 F300
M106 S0
M106 S255
G1 X68.233 Y20.641 F300
M106 S0
M106 S255
G1 X68.039 Y20.676 F300
M106 S0
M106 S255
G1 X67.986 Y20.679 F300
M106 S0
M106 S255
G1 X67.96 Y20.68 F300
M106 S0
M106 S255
G1 X67.898 Y20.678 F300
M106 S0
M106 S255
G1 X67.764 Y20.663 F300
M106 S0
M106 S255
G1 X67.64 Y20.632 F300
M106 S0
M106 S255
G1 X67.527 Y20.584 F300
M106 S0
M106 S255
G1 X67.425 Y20.519 F300
M106 S0
M106 S255
G1 X67.333 Y20.438 F300
M106 S0
M106 S255
G1 X67.252 Y20.341 F300
M106 S0
M106 S255
G1 X67.121 Y20.101 F300
M106 S0
M106 S255
G1 X67.027 Y19.83 F300
M106 S0
M106 S255
G1 X66.969 Y19.531 F300
M106 S0
M106 S255
G1 X66.947 Y19.203 F300
M106 S0
M106 S255
G1 X66.946 Y19.164 F300
M106 S0
M106 S255
G1 X66.946 Y19.155 F300
M106 S0
M106 S255
G1 X66.946 Y19.091 F300
M106 S0
M106 S255
G1 X66.946 Y18.974 F300
M106 S0
M106 S255
G1 X66.946 Y18.815 F300
M106 S0
M106 S255
G1 X66.946 Y18.621 F300
M106 S0
M106 S255
G1 X66.946 Y18.402 F300
M106 S0
M106 S255
G1 X66.946 Y17.925 F300
M106 S0
M106 S255
G1 X66.946 Y17.456 F300
M106 S0
M106 S255
G1 X66.946 Y17.248 F300
M106 S0
M106 S255
G1 X66.946 Y17.069 F300
M106 S0
M106 S255
G1 X66.946 Y16.928 F300
M106 S0
M106 S255
G1 X66.946 Y16.834 F300
M106 S0
M106 S255
G1 X66.946 Y16.797 F300
M106 S0
M106 S255
G1 X66.938 Y16.797 F300
M106 S0
M106 S255
G1 X66.867 Y16.797 F300
M106 S0
M106 S255
G1 X66.744 Y16.797 F300
M106 S0
M106 S255
G1 X66.436 Y16.797 F300
M106 S0
M106 S255
G1 X66.299 Y16.797 F300
M106 S0
M106 S255
G1 X66.204 Y16.797 F300
M106 S0
M106 S255
G1 X66.18 Y16.797 F300
M106 S0
M106 S255
G1 X66.175 Y16.8 F300
M106 S0
M106 S255
G1 X66.175 Y16.857 F300
M106 S0
M106 S255
G1 X66.175 Y16.979 F300
M106 S0
M106 S255
G1 X66.175 Y17.153 F300
M106 S0
M106 S255
G1 X66.175 Y17.37 F300
M106 S0
M106 S255
G1 X66.175 Y17.62 F300
M106 S0
M106 S255
G1 X66.175 Y17.89 F300
M106 S0
M106 S255
G1 X66.175 Y18.454 F300
M106 S0
M106 S255
G1 X66.175 Y18.726 F300
M106 S0
M106 S255
G1 X66.175 Y18.977 F300
M106 S0
M106 S255
G1 X66.175 Y19.196 F300
M106 S0
M106 S255
G1 X66.175 Y19.373 F300
M106 S0
M106 S255
G1 X66.175 Y19.498 F300
M106 S0
M106 S255
G1 X66.175 Y19.559 F300
M106 S0
M106 S255
G1 X66.174 Y19.643 F300
M106 S0
M106 S255
G1 X66.171 Y19.787 F300
M106 S0
M106 S255
G1 X66.161 Y19.908 F300
M106 S0
M106 S255
G1 X66.123 Y20.073 F300
M106 S0
M106 S255
G1 X66.058 Y20.258 F300
M106 S0
M106 S255
G1 X65.968 Y20.4 F300
M106 S0
M106 S255
G1 X65.837 Y20.511 F300
M106 S0
M106 S255
G1 X65.647 Y20.608 F300
M106 S0
M106 S255
G1 X65.403 Y20.668 F300
M106 S0
M106 S255
