;GCode generated by Numa's program v0.0
G0 X127.53 Y43.433 F6000
M106 S255
G1 X127.53 Y43.433 F80
M106 S0
M106 S255
G1 X132.647 Y47.272 F80
M106 S0
M106 S255
G1 X128.872 Y53.458 F80
M106 S0
M106 S255
G1 X113.96 Y52.151 F80
M106 S0
M106 S255
G1 X107.85 Y40.957 F80
M106 S0
M106 S255
G1 X127.53 Y43.433 F80
M106 S0
G0 X124.809 Y34.264 F6000
M106 S255
G1 X124.809 Y34.264 F80
M106 S0
M106 S255
G1 X126.875 Y41.979 F80
M106 S0
M106 S255
G1 X107.578 Y39.552 F80
M106 S0
M106 S255
G1 X113.388 Y25.218 F80
M106 S0
M106 S255
G1 X124.809 Y34.264 F80
M106 S0
G0 X112.857 Y61.693 F6000
M106 S255
G1 X112.857 Y61.693 F80
M106 S0
M106 S255
G1 X99.513 Y52.99 F80
M106 S0
M106 S255
G1 X106.581 Y41.473 F80
M106 S0
M106 S255
G1 X112.857 Y52.971 F80
M106 S0
M106 S255
G1 X112.857 Y61.693 F80
M106 S0
G0 X104.759 Y39.605 F6000
M106 S255
G1 X104.759 Y39.605 F80
M106 S0
M106 S255
G1 X96.947 Y33.912 F80
M106 S0
M106 S255
G1 X89.596 Y41.011 F80
M106 S0
M106 S255
G1 X104.759 Y39.605 F80
M106 S0
G0 X106.312 Y39.053 F6000
M106 S255
G1 X106.312 Y39.053 F80
M106 S0
M106 S255
G1 X98.152 Y33.106 F80
M106 S0
M106 S255
G1 X111.749 Y25.638 F80
M106 S0
M106 S255
G1 X106.312 Y39.053 F80
M106 S0
G0 X111.186 Y62.228 F6000
M106 S255
G1 X111.186 Y62.228 F80
M106 S0
M106 S255
G1 X98.642 Y54.047 F80
M106 S0
M106 S255
G1 X89.533 Y61.85 F80
M106 S0
M106 S255
G1 X111.186 Y62.228 F80
M106 S0
G0 X108.35 Y67.553 F6000
M106 S255
G1 X108.35 Y67.553 F80
M106 S0
M106 S255
G1 X93.025 Y63.272 F80
M106 S0
M106 S255
G1 X112.005 Y63.603 F80
M106 S0
M106 S255
G1 X108.35 Y67.553 F80
M106 S0
G0 X113.699 Y63.776 F6000
M106 S255
G1 X113.699 Y63.776 F80
M106 S0
M106 S255
G1 X117.376 Y65.494 F80
M106 S0
M106 S255
G1 X110.594 Y67.131 F80
M106 S0
M106 S255
G1 X113.699 Y63.776 F80
M106 S0
G0 X115.356 Y63.049 F6000
M106 S255
G1 X115.356 Y63.049 F80
M106 S0
M106 S255
G1 X119.163 Y64.828 F80
M106 S0
M106 S255
G1 X121.574 Y60.93 F80
M106 S0
M106 S255
G1 X115.356 Y63.049 F80
M106 S0
G0 X114.217 Y54.121 F6000
M106 S255
G1 X114.217 Y54.121 F80
M106 S0
M106 S255
G1 X114.217 Y61.999 F80
M106 S0
M106 S255
G1 X121.678 Y59.458 F80
M106 S0
M106 S255
G1 X114.217 Y54.121 F80
M106 S0
G0 X115.958 Y53.692 F6000
M106 S255
G1 X115.958 Y53.692 F80
M106 S0
M106 S255
G1 X123.101 Y58.802 F80
M106 S0
M106 S255
G1 X127.62 Y54.714 F80
M106 S0
M106 S255
G1 X115.958 Y53.692 F80
M106 S0
G0 X82.741 Y49.271 F6000
M106 S255
G1 X82.741 Y49.271 F80
M106 S0
M106 S255
G1 X82.791 Y53.574 F80
M106 S0
M106 S255
G1 X87.147 Y53.626 F80
M106 S0
M106 S255
G1 X87.148 Y49.123 F80
M106 S0
M106 S255
G1 X82.741 Y49.271 F80
M106 S0
G0 X78.55 Y47.064 F6000
M106 S255
G1 X78.55 Y47.064 F80
M106 S0
M106 S255
G1 X69.225 Y44.803 F80
M106 S0
M106 S255
G1 X68.929 Y40.552 F80
M106 S0
M106 S255
G1 X78.55 Y47.064 F80
M106 S0
G0 X76.057 Y40.806 F6000
M106 S255
G1 X76.057 Y40.806 F80
M106 S0
M106 S255
G1 X79.581 Y46.12 F80
M106 S0
M106 S255
G1 X70.839 Y40.201 F80
M106 S0
M106 S255
G1 X76.057 Y40.806 F80
M106 S0
G0 X79.097 Y42.928 F6000
M106 S255
G1 X79.097 Y42.928 F80
M106 S0
M106 S255
G1 X82.41 Y47.921 F80
M106 S0
M106 S255
G1 X85.824 Y47.806 F80
M106 S0
M106 S255
G1 X79.097 Y42.928 F80
M106 S0
G0 X79.681 Y58.043 F6000
M106 S255
G1 X79.681 Y58.043 F80
M106 S0
M106 S255
G1 X82.422 Y54.931 F80
M106 S0
M106 S255
G1 X85.248 Y54.964 F80
M106 S0
M106 S255
G1 X79.681 Y58.043 F80
M106 S0
G0 X76.243 Y59.89 F6000
M106 S255
G1 X76.243 Y59.89 F80
M106 S0
M106 S255
G1 X71.721 Y60.4 F80
M106 S0
M106 S255
G1 X79.21 Y56.519 F80
M106 S0
M106 S255
G1 X76.243 Y59.89 F80
M106 S0
G0 X87.71 Y42.553 F6000
M106 S255
G1 X87.71 Y42.553 F80
M106 S0
M106 S255
G1 X79.109 Y41.256 F80
M106 S0
M106 S255
G1 X88.509 Y48.073 F80
M106 S0
M106 S255
G1 X88.509 Y54.715 F80
M106 S0
M106 S255
G1 X78.593 Y60.2 F80
M106 S0
M106 S255
G1 X87.531 Y61.773 F80
M106 S0
M106 S255
G1 X98.063 Y52.751 F80
M106 S0
M106 S255
G1 X105.325 Y40.919 F80
M106 S0
M106 S255
G1 X87.71 Y42.553 F80
M106 S0
G0 X78.836 Y55.181 F6000
M106 S255
G1 X78.836 Y55.181 F80
M106 S0
M106 S255
G1 X69.348 Y55.909 F80
M106 S0
M106 S255
G1 X68.935 Y60.311 F80
M106 S0
M106 S255
G1 X78.836 Y55.181 F80
M106 S0
G0 X66.504 Y54.433 F6000
M106 S255
G1 X66.504 Y54.433 F80
M106 S0
M106 S255
G1 X62.516 Y51.383 F80
M106 S0
M106 S255
G1 X59.332 Y53.918 F80
M106 S0
M106 S255
G1 X66.504 Y54.433 F80
M106 S0
G0 X67.982 Y55.903 F6000
M106 S255
G1 X67.982 Y55.903 F80
M106 S0
M106 S255
G1 X67.536 Y60.663 F80
M106 S0
M106 S255
G1 X62.683 Y59.628 F80
M106 S0
M106 S255
G1 X59.08 Y55.264 F80
M106 S0
M106 S255
G1 X67.982 Y55.903 F80
M106 S0
G0 X67.459 Y62.942 F6000
M106 S255
G1 X67.459 Y62.942 F80
M106 S0
M106 S255
G1 X67.451 Y67.438 F80
M106 S0
M106 S255
G1 X64.717 Y72.668 F80
M106 S0
M106 S255
G1 X55.867 Y76.74 F80
M106 S0
M106 S255
G1 X60.723 Y68.552 F80
M106 S0
M106 S255
G1 X67.459 Y62.942 F80
M106 S0
G0 X62.605 Y61.003 F6000
M106 S255
G1 X62.605 Y61.003 F80
M106 S0
M106 S255
G1 X58.802 Y66.35 F80
M106 S0
M106 S255
G1 X56.758 Y72.57 F80
M106 S0
M106 S255
G1 X59.672 Y67.656 F80
M106 S0
M106 S255
G1 X66.63 Y61.861 F80
M106 S0
M106 S255
G1 X62.605 Y61.003 F80
M106 S0
G0 X48.487 Y71.616 F6000
M106 S255
G1 X48.487 Y71.616 F80
M106 S0
M106 S255
G1 X57.645 Y55.662 F80
M106 S0
M106 S255
G1 X61.367 Y60.171 F80
M106 S0
M106 S255
G1 X48.487 Y71.616 F80
M106 S0
G0 X40.138 Y70.916 F6000
M106 S255
G1 X40.138 Y70.916 F80
M106 S0
M106 S255
G1 X33.004 Y73.124 F80
M106 S0
M106 S255
G1 X22.662 Y73.371 F80
M106 S0
M106 S255
G1 X32.558 Y77.741 F80
M106 S0
M106 S255
G1 X40.138 Y70.916 F80
M106 S0
G0 X54.802 Y57.881 F6000
M106 S255
G1 X54.802 Y57.881 F80
M106 S0
M106 S255
G1 X45.368 Y74.316 F80
M106 S0
M106 S255
G1 X35.289 Y77.113 F80
M106 S0
M106 S255
G1 X43.391 Y69.816 F80
M106 S0
M106 S255
G1 X47.637 Y64.39 F80
M106 S0
M106 S255
G1 X54.802 Y57.881 F80
M106 S0
G0 X44.306 Y63.825 F6000
M106 S255
G1 X44.306 Y63.825 F80
M106 S0
M106 S255
G1 X46.816 Y63.297 F80
M106 S0
M106 S255
G1 X50.969 Y59.525 F80
M106 S0
M106 S255
G1 X44.306 Y63.825 F80
M106 S0
G0 X37.138 Y62.823 F6000
M106 S255
G1 X37.138 Y62.823 F80
M106 S0
M106 S255
G1 X39.425 Y64.941 F80
M106 S0
M106 S255
G1 X34.888 Y63.782 F80
M106 S0
M106 S255
G1 X37.138 Y62.823 F80
M106 S0
G0 X36.033 Y61.828 F6000
M106 S255
G1 X36.033 Y61.828 F80
M106 S0
M106 S255
G1 X30.936 Y55.578 F80
M106 S0
M106 S255
G1 X33.953 Y62.766 F80
M106 S0
M106 S255
G1 X36.033 Y61.828 F80
M106 S0
G0 X51.923 Y57.289 F6000
M106 S255
G1 X51.923 Y57.289 F80
M106 S0
M106 S255
G1 X38.553 Y62.266 F80
M106 S0
M106 S255
G1 X40.917 Y64.394 F80
M106 S0
M106 S255
G1 X51.923 Y57.289 F80
M106 S0
G0 X29.909 Y70.161 F6000
M106 S255
G1 X29.909 Y70.161 F80
M106 S0
M106 S255
G1 X28.709 Y66.89 F80
M106 S0
M106 S255
G1 X28.679 Y69.604 F80
M106 S0
M106 S255
G1 X29.909 Y70.161 F80
M106 S0
G0 X28.33 Y70.883 F6000
M106 S255
G1 X28.33 Y70.883 F80
M106 S0
M106 S255
G1 X20.725 Y69.706 F80
M106 S0
M106 S255
G1 X18.643 Y69.135 F80
M106 S0
M106 S255
G1 X20.028 Y72.073 F80
M106 S0
M106 S255
G1 X30.187 Y71.83 F80
M106 S0
M106 S255
G1 X28.33 Y70.883 F80
M106 S0
G0 X17.904 Y67.522 F6000
M106 S255
G1 X17.904 Y67.522 F80
M106 S0
M106 S255
G1 X17.046 Y61.401 F80
M106 S0
M106 S255
G1 X19.932 Y68.078 F80
M106 S0
M106 S255
G1 X17.904 Y67.522 F80
M106 S0
G0 X28.33 Y30.157 F6000
M106 S255
G1 X28.33 Y30.157 F80
M106 S0
M106 S255
G1 X20.725 Y31.334 F80
M106 S0
M106 S255
G1 X18.643 Y31.905 F80
M106 S0
M106 S255
G1 X20.028 Y28.968 F80
M106 S0
M106 S255
G1 X30.187 Y29.21 F80
M106 S0
M106 S255
G1 X28.33 Y30.157 F80
M106 S0
G0 X40.138 Y30.125 F6000
M106 S255
G1 X40.138 Y30.125 F80
M106 S0
M106 S255
G1 X33.004 Y27.916 F80
M106 S0
M106 S255
G1 X22.662 Y27.669 F80
M106 S0
M106 S255
G1 X32.558 Y23.299 F80
M106 S0
M106 S255
G1 X40.138 Y30.125 F80
M106 S0
G0 X51.923 Y43.751 F6000
M106 S255
G1 X51.923 Y43.751 F80
M106 S0
M106 S255
G1 X38.553 Y38.774 F80
M106 S0
M106 S255
G1 X40.917 Y36.647 F80
M106 S0
M106 S255
G1 X51.923 Y43.751 F80
M106 S0
G0 X44.306 Y37.215 F6000
M106 S255
G1 X44.306 Y37.215 F80
M106 S0
M106 S255
G1 X46.816 Y37.743 F80
M106 S0
M106 S255
G1 X50.969 Y41.515 F80
M106 S0
M106 S255
G1 X44.306 Y37.215 F80
M106 S0
G0 X54.802 Y43.159 F6000
M106 S255
G1 X54.802 Y43.159 F80
M106 S0
M106 S255
G1 X45.368 Y26.724 F80
M106 S0
M106 S255
G1 X35.289 Y23.927 F80
M106 S0
M106 S255
G1 X43.391 Y31.224 F80
M106 S0
M106 S255
G1 X47.637 Y36.65 F80
M106 S0
M106 S255
G1 X54.802 Y43.159 F80
M106 S0
G0 X58.224 Y47.98 F6000
M106 S255
G1 X58.224 Y47.98 F80
M106 S0
M106 S255
G1 X58.224 Y53.06 F80
M106 S0
M106 S255
G1 X61.415 Y50.52 F80
M106 S0
M106 S255
G1 X58.224 Y47.98 F80
M106 S0
G0 X66.452 Y46.267 F6000
M106 S255
G1 X66.452 Y46.267 F80
M106 S0
M106 S255
G1 X62.493 Y49.639 F80
M106 S0
M106 S255
G1 X59.258 Y47.063 F80
M106 S0
M106 S255
G1 X66.452 Y46.267 F80
M106 S0
G0 X67.857 Y44.743 F6000
M106 S255
G1 X67.857 Y44.743 F80
M106 S0
M106 S255
G1 X67.532 Y40.079 F80
M106 S0
M106 S255
G1 X62.696 Y41.396 F80
M106 S0
M106 S255
G1 X59.137 Y45.708 F80
M106 S0
M106 S255
G1 X67.857 Y44.743 F80
M106 S0
G0 X48.487 Y29.424 F6000
M106 S255
G1 X48.487 Y29.424 F80
M106 S0
M106 S255
G1 X57.645 Y45.378 F80
M106 S0
M106 S255
G1 X61.367 Y40.869 F80
M106 S0
M106 S255
G1 X48.487 Y29.424 F80
M106 S0
G0 X62.589 Y40.015 F6000
M106 S255
G1 X62.589 Y40.015 F80
M106 S0
M106 S255
G1 X58.802 Y34.69 F80
M106 S0
M106 S255
G1 X56.758 Y28.47 F80
M106 S0
M106 S255
G1 X59.677 Y33.392 F80
M106 S0
M106 S255
G1 X66.671 Y38.904 F80
M106 S0
M106 S255
G1 X62.589 Y40.015 F80
M106 S0
G0 X67.468 Y37.799 F6000
M106 S255
G1 X67.468 Y37.799 F80
M106 S0
M106 S255
G1 X67.451 Y33.603 F80
M106 S0
M106 S255
G1 X64.717 Y28.372 F80
M106 S0
M106 S255
G1 X55.867 Y24.301 F80
M106 S0
M106 S255
G1 X60.718 Y32.48 F80
M106 S0
M106 S255
G1 X67.468 Y37.799 F80
M106 S0
G0 X68.758 Y46.09 F6000
M106 S255
G1 X68.758 Y46.09 F80
M106 S0
M106 S255
G1 X63.59 Y50.492 F80
M106 S0
M106 S255
G1 X68.931 Y54.576 F80
M106 S0
M106 S255
G1 X81.43 Y53.617 F80
M106 S0
M106 S255
G1 X81.379 Y49.15 F80
M106 S0
M106 S255
G1 X68.758 Y46.09 F80
M106 S0
G0 X36.033 Y39.212 F6000
M106 S255
G1 X36.033 Y39.212 F80
M106 S0
M106 S255
G1 X30.936 Y45.462 F80
M106 S0
M106 S255
G1 X33.953 Y38.275 F80
M106 S0
M106 S255
G1 X36.033 Y39.212 F80
M106 S0
G0 X37.138 Y38.217 F6000
M106 S255
G1 X37.138 Y38.217 F80
M106 S0
M106 S255
G1 X39.425 Y36.099 F80
M106 S0
M106 S255
G1 X34.888 Y37.258 F80
M106 S0
M106 S255
G1 X37.138 Y38.217 F80
M106 S0
G0 X29.909 Y30.879 F6000
M106 S255
G1 X29.909 Y30.879 F80
M106 S0
M106 S255
G1 X28.709 Y34.15 F80
M106 S0
M106 S255
G1 X28.679 Y31.436 F80
M106 S0
M106 S255
G1 X29.909 Y30.879 F80
M106 S0
G0 X17.904 Y33.518 F6000
M106 S255
G1 X17.904 Y33.518 F80
M106 S0
M106 S255
G1 X17.046 Y39.639 F80
M106 S0
M106 S255
G1 X19.932 Y32.962 F80
M106 S0
M106 S255
G1 X17.904 Y33.518 F80
M106 S0
G0 X11.808 Y124.131 F6000
M106 S255
G1 X11.808 Y124.131 F80
M106 S0
M106 S255
G1 X20.842 Y115.022 F80
M106 S0
G0 X11.808 Y127.958 F6000
M106 S255
G1 X11.808 Y127.958 F80
M106 S0
M106 S255
G1 X24.637 Y115.022 F80
M106 S0
G0 X11.808 Y175.869 F6000
M106 S255
G1 X11.808 Y175.869 F80
M106 S0
M106 S255
G1 X20.842 Y184.978 F80
M106 S0
G0 X11.808 Y172.042 F6000
M106 S255
G1 X11.808 Y172.042 F80
M106 S0
M106 S255
G1 X24.637 Y184.978 F80
M106 S0
G0 X62.341 Y124.131 F6000
M106 S255
G1 X62.341 Y124.131 F80
M106 S0
M106 S255
G1 X53.307 Y115.022 F80
M106 S0
G0 X62.341 Y127.958 F6000
M106 S255
G1 X62.341 Y127.958 F80
M106 S0
M106 S255
G1 X49.512 Y115.022 F80
M106 S0
G0 X62.341 Y175.869 F6000
M106 S255
G1 X62.341 Y175.869 F80
M106 S0
M106 S255
G1 X53.307 Y184.978 F80
M106 S0
G0 X62.341 Y172.042 F6000
M106 S255
G1 X62.341 Y172.042 F80
M106 S0
M106 S255
G1 X49.512 Y184.978 F80
M106 S0
M106 S0
