;GCode generated by Numa's program v0.0
G0 X84.081 Y111.657 F6000
M106 S255
G1 X84.081 Y111.657 F300
M106 S0
M106 S255
G1 X83.827 Y111.572 F300
M106 S0
M106 S255
G1 X83.742 Y111.487 F300
M106 S0
M106 S255
G1 X83.657 Y111.232 F300
M106 S0
M106 S255
G1 X83.657 Y111.147 F300
M106 S0
M106 S255
G1 X83.742 Y110.892 F300
M106 S0
M106 S255
G1 X83.827 Y110.808 F300
M106 S0
M106 S255
G1 X84.081 Y110.723 F300
M106 S0
M106 S255
G1 X84.994 Y110.723 F300
M106 S0
M106 S255
G1 X85.249 Y110.808 F300
M106 S0
M106 S255
G1 X85.334 Y110.892 F300
M106 S0
M106 S255
G1 X85.419 Y111.147 F300
M106 S0
M106 S255
G1 X85.419 Y111.232 F300
M106 S0
M106 S255
G1 X85.334 Y111.487 F300
M106 S0
M106 S255
G1 X85.249 Y111.572 F300
M106 S0
M106 S255
G1 X84.994 Y111.657 F300
M106 S0
G0 X85.419 Y112.358 F6000
M106 S255
G1 X85.419 Y112.358 F300
M106 S0
M106 S255
G1 X83.657 Y112.358 F300
M106 S0
G0 X84.4 Y112.358 F6000
M106 S255
G1 X84.4 Y112.358 F300
M106 S0
M106 S255
G1 X84.23 Y112.442 F300
M106 S0
M106 S255
G1 X84.145 Y112.549 F300
M106 S0
M106 S255
G1 X84.06 Y112.697 F300
M106 S0
M106 S255
G1 X84.06 Y112.867 F300
M106 S0
M106 S255
G1 X84.145 Y113.037 F300
M106 S0
M106 S255
G1 X84.23 Y113.122 F300
M106 S0
M106 S255
G1 X84.4 Y113.207 F300
M106 S0
M106 S255
G1 X85.419 Y113.207 F300
M106 S0
G0 X84.57 Y113.907 F6000
M106 S255
G1 X84.57 Y113.907 F300
M106 S0
M106 S255
G1 X84.57 Y114.948 F300
M106 S0
M106 S255
G1 X84.336 Y114.842 F300
M106 S0
M106 S255
G1 X84.145 Y114.672 F300
M106 S0
M106 S255
G1 X84.06 Y114.523 F300
M106 S0
M106 S255
G1 X84.06 Y114.332 F300
M106 S0
M106 S255
G1 X84.145 Y114.184 F300
M106 S0
M106 S255
G1 X84.336 Y114.014 F300
M106 S0
M106 S255
G1 X84.57 Y113.907 F300
M106 S0
M106 S255
G1 X84.931 Y113.907 F300
M106 S0
M106 S255
G1 X85.164 Y114.014 F300
M106 S0
M106 S255
G1 X85.334 Y114.184 F300
M106 S0
M106 S255
G1 X85.419 Y114.332 F300
M106 S0
M106 S255
G1 X85.419 Y114.523 F300
M106 S0
M106 S255
G1 X85.334 Y114.672 F300
M106 S0
M106 S255
G1 X85.164 Y114.842 F300
M106 S0
G0 X85.419 Y115.649 F6000
M106 S255
G1 X85.419 Y115.649 F300
M106 S0
M106 S255
G1 X84.06 Y115.649 F300
M106 S0
G0 X84.57 Y115.649 F6000
M106 S255
G1 X84.57 Y115.649 F300
M106 S0
M106 S255
G1 X84.23 Y115.734 F300
M106 S0
M106 S255
G1 X84.06 Y115.882 F300
M106 S0
M106 S255
G1 X84.06 Y116.073 F300
M106 S0
M106 S255
G1 X84.315 Y116.307 F300
M106 S0
G0 X84.23 Y117.942 F6000
M106 S255
G1 X84.23 Y117.942 F300
M106 S0
M106 S255
G1 X84.145 Y117.772 F300
M106 S0
M106 S255
G1 X84.06 Y117.602 F300
M106 S0
M106 S255
G1 X84.06 Y117.432 F300
M106 S0
M106 S255
G1 X84.145 Y117.262 F300
M106 S0
M106 S255
G1 X84.23 Y117.177 F300
M106 S0
M106 S255
G1 X84.4 Y117.114 F300
M106 S0
M106 S255
G1 X84.549 Y117.177 F300
M106 S0
M106 S255
G1 X84.633 Y117.262 F300
M106 S0
M106 S255
G1 X84.846 Y117.857 F300
M106 S0
M106 S255
G1 X84.931 Y117.942 F300
M106 S0
M106 S255
G1 X85.079 Y118.027 F300
M106 S0
M106 S255
G1 X85.249 Y117.942 F300
M106 S0
M106 S255
G1 X85.334 Y117.857 F300
M106 S0
M106 S255
G1 X85.419 Y117.623 F300
M106 S0
M106 S255
G1 X85.419 Y117.432 F300
M106 S0
M106 S255
G1 X85.334 Y117.199 F300
M106 S0
M106 S255
G1 X85.249 Y117.114 F300
M106 S0
M106 S255
G1 X85.079 Y117.029 F300
M106 S0
G0 X85.419 Y119.598 F6000
M106 S255
G1 X85.419 Y119.598 F300
M106 S0
M106 S255
G1 X83.657 Y119.598 F300
M106 S0
M106 S255
G1 X83.657 Y120.171 F300
M106 S0
M106 S255
G1 X83.742 Y120.426 F300
M106 S0
M106 S255
G1 X83.827 Y120.511 F300
M106 S0
M106 S255
G1 X83.996 Y120.596 F300
M106 S0
M106 S255
G1 X84.166 Y120.596 F300
M106 S0
M106 S255
G1 X84.336 Y120.511 F300
M106 S0
M106 S255
G1 X84.421 Y120.426 F300
M106 S0
M106 S255
G1 X84.506 Y120.171 F300
M106 S0
M106 S255
G1 X84.506 Y119.598 F300
M106 S0
G0 X84.506 Y120.171 F6000
M106 S255
G1 X84.506 Y120.171 F300
M106 S0
M106 S255
G1 X84.591 Y120.426 F300
M106 S0
M106 S255
G1 X84.676 Y120.511 F300
M106 S0
M106 S255
G1 X84.846 Y120.596 F300
M106 S0
M106 S255
G1 X85.079 Y120.596 F300
M106 S0
M106 S255
G1 X85.249 Y120.511 F300
M106 S0
M106 S255
G1 X85.334 Y120.426 F300
M106 S0
M106 S255
G1 X85.419 Y120.171 F300
M106 S0
M106 S255
G1 X85.419 Y119.598 F300
M106 S0
G0 X84.57 Y121.318 F6000
M106 S255
G1 X84.57 Y121.318 F300
M106 S0
M106 S255
G1 X84.57 Y122.337 F300
M106 S0
M106 S255
G1 X84.336 Y122.252 F300
M106 S0
M106 S255
G1 X84.145 Y122.061 F300
M106 S0
M106 S255
G1 X84.06 Y121.912 F300
M106 S0
M106 S255
G1 X84.06 Y121.742 F300
M106 S0
M106 S255
G1 X84.145 Y121.573 F300
M106 S0
M106 S255
G1 X84.336 Y121.403 F300
M106 S0
M106 S255
G1 X84.57 Y121.318 F300
M106 S0
M106 S255
G1 X84.931 Y121.318 F300
M106 S0
M106 S255
G1 X85.164 Y121.403 F300
M106 S0
M106 S255
G1 X85.334 Y121.573 F300
M106 S0
M106 S255
G1 X85.419 Y121.742 F300
M106 S0
M106 S255
G1 X85.419 Y121.912 F300
M106 S0
M106 S255
G1 X85.334 Y122.061 F300
M106 S0
M106 S255
G1 X85.164 Y122.252 F300
M106 S0
G0 X85.419 Y123.038 F6000
M106 S255
G1 X85.419 Y123.038 F300
M106 S0
M106 S255
G1 X84.06 Y123.038 F300
M106 S0
G0 X84.336 Y123.038 F6000
M106 S255
G1 X84.336 Y123.038 F300
M106 S0
M106 S255
G1 X84.145 Y123.207 F300
M106 S0
M106 S255
G1 X84.06 Y123.377 F300
M106 S0
M106 S255
G1 X84.06 Y123.547 F300
M106 S0
M106 S255
G1 X84.145 Y123.717 F300
M106 S0
M106 S255
G1 X84.23 Y123.802 F300
M106 S0
M106 S255
G1 X84.4 Y123.887 F300
M106 S0
M106 S255
G1 X85.419 Y123.887 F300
M106 S0
G0 X84.57 Y125.458 F6000
M106 S255
G1 X84.57 Y125.458 F300
M106 S0
M106 S255
G1 X84.57 Y126.477 F300
M106 S0
M106 S255
G1 X84.336 Y126.392 F300
M106 S0
M106 S255
G1 X84.145 Y126.223 F300
M106 S0
M106 S255
G1 X84.06 Y126.053 F300
M106 S0
M106 S255
G1 X84.06 Y125.883 F300
M106 S0
M106 S255
G1 X84.145 Y125.713 F300
M106 S0
M106 S255
G1 X84.336 Y125.543 F300
M106 S0
M106 S255
G1 X84.57 Y125.458 F300
M106 S0
M106 S255
G1 X84.931 Y125.458 F300
M106 S0
M106 S255
G1 X85.164 Y125.543 F300
M106 S0
M106 S255
G1 X85.334 Y125.713 F300
M106 S0
M106 S255
G1 X85.419 Y125.883 F300
M106 S0
M106 S255
G1 X85.419 Y126.053 F300
M106 S0
M106 S255
G1 X85.334 Y126.223 F300
M106 S0
M106 S255
G1 X85.164 Y126.392 F300
M106 S0
G0 X84.145 Y127.178 F6000
M106 S255
G1 X84.145 Y127.178 F300
M106 S0
M106 S255
G1 X84.145 Y127.857 F300
M106 S0
G0 X83.657 Y127.518 F6000
M106 S255
G1 X83.657 Y127.518 F300
M106 S0
M106 S255
G1 X85.334 Y127.518 F300
M106 S0
M106 S255
G1 X85.419 Y127.603 F300
M106 S0
M106 S255
G1 X85.355 Y127.772 F300
M106 S0
M106 S255
G1 X85.27 Y127.857 F300
M106 S0
G0 X83.657 Y129.429 F6000
M106 S255
G1 X83.657 Y129.429 F300
M106 S0
M106 S255
G1 X85.419 Y129.429 F300
M106 S0
M106 S255
G1 X85.419 Y130.278 F300
M106 S0
G0 X84.655 Y131.998 F6000
M106 S255
G1 X84.655 Y131.998 F300
M106 S0
M106 S255
G1 X84.57 Y131.764 F300
M106 S0
M106 S255
G1 X84.57 Y131.403 F300
M106 S0
M106 S255
G1 X84.655 Y131.149 F300
M106 S0
M106 S255
G1 X84.74 Y131.064 F300
M106 S0
M106 S255
G1 X84.931 Y130.979 F300
M106 S0
M106 S255
G1 X85.058 Y130.979 F300
M106 S0
M106 S255
G1 X85.249 Y131.064 F300
M106 S0
M106 S255
G1 X85.334 Y131.149 F300
M106 S0
M106 S255
G1 X85.419 Y131.403 F300
M106 S0
M106 S255
G1 X85.419 Y131.764 F300
M106 S0
M106 S255
G1 X85.334 Y131.998 F300
M106 S0
G0 X84.06 Y131.467 F6000
M106 S255
G1 X84.06 Y131.467 F300
M106 S0
M106 S255
G1 X84.06 Y131.828 F300
M106 S0
M106 S255
G1 X84.145 Y131.913 F300
M106 S0
M106 S255
G1 X84.336 Y131.998 F300
M106 S0
M106 S255
G1 X85.419 Y131.998 F300
M106 S0
G0 X84.06 Y132.698 F6000
M106 S255
G1 X84.06 Y132.698 F300
M106 S0
M106 S255
G1 X84.994 Y132.698 F300
M106 S0
M106 S255
G1 X85.249 Y132.805 F300
M106 S0
M106 S255
G1 X85.334 Y132.89 F300
M106 S0
M106 S255
G1 X85.419 Y133.038 F300
M106 S0
M106 S255
G1 X85.419 Y133.229 F300
M106 S0
M106 S255
G1 X85.334 Y133.378 F300
M106 S0
M106 S255
G1 X85.249 Y133.463 F300
M106 S0
M106 S255
G1 X85.079 Y133.548 F300
M106 S0
G0 X84.06 Y133.548 F6000
M106 S255
G1 X84.06 Y133.548 F300
M106 S0
M106 S255
G1 X85.419 Y133.548 F300
M106 S0
G0 X85.419 Y134.27 F6000
M106 S255
G1 X85.419 Y134.27 F300
M106 S0
M106 S255
G1 X84.06 Y134.27 F300
M106 S0
G0 X84.57 Y134.27 F6000
M106 S255
G1 X84.57 Y134.27 F300
M106 S0
M106 S255
G1 X84.23 Y134.355 F300
M106 S0
M106 S255
G1 X84.06 Y134.503 F300
M106 S0
M106 S255
G1 X84.06 Y134.694 F300
M106 S0
M106 S255
G1 X84.315 Y134.928 F300
M106 S0
G0 X84.655 Y136.669 F6000
M106 S255
G1 X84.655 Y136.669 F300
M106 S0
M106 S255
G1 X84.57 Y136.414 F300
M106 S0
M106 S255
G1 X84.57 Y136.053 F300
M106 S0
M106 S255
G1 X84.655 Y135.82 F300
M106 S0
M106 S255
G1 X84.74 Y135.735 F300
M106 S0
M106 S255
G1 X84.931 Y135.629 F300
M106 S0
M106 S255
G1 X85.058 Y135.629 F300
M106 S0
M106 S255
G1 X85.249 Y135.735 F300
M106 S0
M106 S255
G1 X85.334 Y135.82 F300
M106 S0
M106 S255
G1 X85.419 Y136.053 F300
M106 S0
M106 S255
G1 X85.419 Y136.414 F300
M106 S0
M106 S255
G1 X85.334 Y136.669 F300
M106 S0
G0 X84.06 Y136.138 F6000
M106 S255
G1 X84.06 Y136.138 F300
M106 S0
M106 S255
G1 X84.06 Y136.478 F300
M106 S0
M106 S255
G1 X84.145 Y136.563 F300
M106 S0
M106 S255
G1 X84.336 Y136.669 F300
M106 S0
M106 S255
G1 X85.419 Y136.669 F300
M106 S0
G0 X85.27 Y137.37 F6000
M106 S255
G1 X85.27 Y137.37 F300
M106 S0
M106 S255
G1 X85.27 Y137.37 F300
M106 S0
M106 S255
G1 X85.27 Y137.37 F300
M106 S0
M106 S255
G1 X85.249 Y137.37 F300
M106 S0
G0 X85.334 Y137.455 F6000
M106 S255
G1 X85.334 Y137.455 F300
M106 S0
M106 S255
G1 X85.419 Y137.37 F300
M106 S0
G0 X85.398 Y137.348 F6000
M106 S255
G1 X85.398 Y137.348 F300
M106 S0
M106 S255
G1 X85.313 Y137.433 F300
M106 S0
G0 X85.292 Y137.433 F6000
M106 S255
G1 X85.292 Y137.433 F300
M106 S0
M106 S255
G1 X85.398 Y137.327 F300
M106 S0
G0 X85.377 Y137.306 F6000
M106 S255
G1 X85.377 Y137.306 F300
M106 S0
M106 S255
G1 X85.27 Y137.412 F300
M106 S0
G0 X85.27 Y137.412 F6000
M106 S255
G1 X85.27 Y137.412 F300
M106 S0
M106 S255
G1 X85.355 Y137.306 F300
M106 S0
G0 X85.355 Y137.306 F6000
M106 S255
G1 X85.355 Y137.306 F300
M106 S0
M106 S255
G1 X85.27 Y137.391 F300
M106 S0
G0 X85.249 Y137.37 F6000
M106 S255
G1 X85.249 Y137.37 F300
M106 S0
M106 S255
G1 X85.334 Y137.285 F300
M106 S0
M106 S255
G1 X85.419 Y137.37 F300
M106 S0
G0 X85.398 Y137.391 F6000
M106 S255
G1 X85.398 Y137.391 F300
M106 S0
M106 S255
G1 X85.313 Y137.306 F300
M106 S0
G0 X85.292 Y137.306 F6000
M106 S255
G1 X85.292 Y137.306 F300
M106 S0
M106 S255
G1 X85.398 Y137.412 F300
M106 S0
G0 X85.377 Y137.412 F6000
M106 S255
G1 X85.377 Y137.412 F300
M106 S0
M106 S255
G1 X85.27 Y137.306 F300
M106 S0
G0 X85.27 Y137.327 F6000
M106 S255
G1 X85.27 Y137.327 F300
M106 S0
M106 S255
G1 X85.355 Y137.433 F300
M106 S0
G0 X85.355 Y137.433 F6000
M106 S255
G1 X85.355 Y137.433 F300
M106 S0
M106 S255
G1 X85.27 Y137.348 F300
M106 S0
G0 X85.249 Y137.37 F6000
M106 S255
G1 X85.249 Y137.37 F300
M106 S0
M106 S255
G1 X85.334 Y137.455 F300
M106 S0
M106 S255
G1 X85.334 Y137.285 F300
M106 S0
G0 X85.313 Y137.306 F6000
M106 S255
G1 X85.313 Y137.306 F300
M106 S0
M106 S255
G1 X85.313 Y137.433 F300
M106 S0
G0 X85.292 Y137.433 F6000
M106 S255
G1 X85.292 Y137.433 F300
M106 S0
M106 S255
G1 X85.292 Y137.306 F300
M106 S0
G0 X85.27 Y137.306 F6000
M106 S255
G1 X85.27 Y137.306 F300
M106 S0
M106 S255
G1 X85.27 Y137.412 F300
M106 S0
G0 X85.27 Y137.412 F6000
M106 S255
G1 X85.27 Y137.412 F300
M106 S0
M106 S255
G1 X85.27 Y137.327 F300
M106 S0
G0 X85.398 Y137.327 F6000
M106 S255
G1 X85.398 Y137.327 F300
M106 S0
M106 S255
G1 X85.398 Y137.412 F300
M106 S0
G0 X85.377 Y137.412 F6000
M106 S255
G1 X85.377 Y137.412 F300
M106 S0
M106 S255
G1 X85.377 Y137.306 F300
M106 S0
G0 X85.355 Y137.306 F6000
M106 S255
G1 X85.355 Y137.306 F300
M106 S0
M106 S255
G1 X85.355 Y137.433 F300
M106 S0
G0 X85.355 Y137.433 F6000
M106 S255
G1 X85.355 Y137.433 F300
M106 S0
M106 S255
G1 X85.355 Y137.306 F300
M106 S0
G0 X85.355 Y137.306 F6000
M106 S255
G1 X85.355 Y137.306 F300
M106 S0
M106 S255
G1 X85.292 Y137.306 F300
M106 S0
G0 X85.27 Y137.306 F6000
M106 S255
G1 X85.27 Y137.306 F300
M106 S0
M106 S255
G1 X85.377 Y137.306 F300
M106 S0
G0 X85.398 Y137.327 F6000
M106 S255
G1 X85.398 Y137.327 F300
M106 S0
M106 S255
G1 X85.27 Y137.327 F300
M106 S0
G0 X85.27 Y137.348 F6000
M106 S255
G1 X85.27 Y137.348 F300
M106 S0
M106 S255
G1 X85.398 Y137.348 F300
M106 S0
G0 X85.419 Y137.37 F6000
M106 S255
G1 X85.419 Y137.37 F300
M106 S0
M106 S255
G1 X85.249 Y137.37 F300
M106 S0
G0 X85.27 Y137.391 F6000
M106 S255
G1 X85.27 Y137.391 F300
M106 S0
M106 S255
G1 X85.398 Y137.391 F300
M106 S0
G0 X85.398 Y137.412 F6000
M106 S255
G1 X85.398 Y137.412 F300
M106 S0
M106 S255
G1 X85.27 Y137.412 F300
M106 S0
G0 X85.27 Y137.412 F6000
M106 S255
G1 X85.27 Y137.412 F300
M106 S0
M106 S255
G1 X85.377 Y137.412 F300
M106 S0
G0 X85.355 Y137.433 F6000
M106 S255
G1 X85.355 Y137.433 F300
M106 S0
M106 S255
G1 X85.292 Y137.433 F300
M106 S0
G0 X85.334 Y137.455 F6000
M106 S255
G1 X85.334 Y137.455 F300
M106 S0
M106 S255
G1 X85.419 Y137.455 F300
M106 S0
M106 S255
G1 X85.78 Y137.285 F300
M106 S0
G0 X89.687 Y123.802 F6000
M106 S255
G1 X89.687 Y123.802 F300
M106 S0
M106 S255
G1 X89.687 Y123.802 F300
M106 S0
M106 S255
G1 X89.687 Y123.802 F300
M106 S0
M106 S255
G1 X89.687 Y123.802 F300
M106 S0
M106 S255
G1 X89.687 Y123.802 F300
M106 S0
M106 S255
G1 X89.666 Y123.802 F300
M106 S0
G0 X89.729 Y123.866 F6000
M106 S255
G1 X89.729 Y123.866 F300
M106 S0
M106 S255
G1 X89.814 Y123.802 F300
M106 S0
G0 X89.793 Y123.781 F6000
M106 S255
G1 X89.793 Y123.781 F300
M106 S0
M106 S255
G1 X89.708 Y123.844 F300
M106 S0
G0 X89.708 Y123.844 F6000
M106 S255
G1 X89.708 Y123.844 F300
M106 S0
M106 S255
G1 X89.793 Y123.76 F300
M106 S0
G0 X89.772 Y123.738 F6000
M106 S255
G1 X89.772 Y123.738 F300
M106 S0
M106 S255
G1 X89.687 Y123.844 F300
M106 S0
G0 X89.687 Y123.823 F6000
M106 S255
G1 X89.687 Y123.823 F300
M106 S0
M106 S255
G1 X89.751 Y123.738 F300
M106 S0
G0 X89.729 Y123.738 F6000
M106 S255
G1 X89.729 Y123.738 F300
M106 S0
M106 S255
G1 X89.666 Y123.802 F300
M106 S0
M106 S255
G1 X89.729 Y123.866 F300
M106 S0
G0 X89.751 Y123.844 F6000
M106 S255
G1 X89.751 Y123.844 F300
M106 S0
M106 S255
G1 X89.687 Y123.781 F300
M106 S0
G0 X89.687 Y123.76 F6000
M106 S255
G1 X89.687 Y123.76 F300
M106 S0
M106 S255
G1 X89.772 Y123.844 F300
M106 S0
G0 X89.793 Y123.844 F6000
M106 S255
G1 X89.793 Y123.844 F300
M106 S0
M106 S255
G1 X89.708 Y123.738 F300
M106 S0
G0 X89.708 Y123.738 F6000
M106 S255
G1 X89.708 Y123.738 F300
M106 S0
M106 S255
G1 X89.793 Y123.823 F300
M106 S0
G0 X89.814 Y123.802 F6000
M106 S255
G1 X89.814 Y123.802 F300
M106 S0
M106 S255
G1 X89.729 Y123.738 F300
M106 S0
M106 S255
G1 X89.729 Y123.866 F300
M106 S0
G0 X89.708 Y123.844 F6000
M106 S255
G1 X89.708 Y123.844 F300
M106 S0
M106 S255
G1 X89.708 Y123.738 F300
M106 S0
G0 X89.708 Y123.738 F6000
M106 S255
G1 X89.708 Y123.738 F300
M106 S0
M106 S255
G1 X89.708 Y123.844 F300
M106 S0
G0 X89.687 Y123.844 F6000
M106 S255
G1 X89.687 Y123.844 F300
M106 S0
M106 S255
G1 X89.687 Y123.76 F300
M106 S0
G0 X89.793 Y123.76 F6000
M106 S255
G1 X89.793 Y123.76 F300
M106 S0
M106 S255
G1 X89.793 Y123.844 F300
M106 S0
G0 X89.772 Y123.844 F6000
M106 S255
G1 X89.772 Y123.844 F300
M106 S0
M106 S255
G1 X89.772 Y123.738 F300
M106 S0
G0 X89.751 Y123.738 F6000
M106 S255
G1 X89.751 Y123.738 F300
M106 S0
M106 S255
G1 X89.751 Y123.844 F300
M106 S0
G0 X89.772 Y123.844 F6000
M106 S255
G1 X89.772 Y123.844 F300
M106 S0
M106 S255
G1 X89.708 Y123.844 F300
M106 S0
G0 X89.687 Y123.844 F6000
M106 S255
G1 X89.687 Y123.844 F300
M106 S0
M106 S255
G1 X89.793 Y123.844 F300
M106 S0
G0 X89.793 Y123.823 F6000
M106 S255
G1 X89.793 Y123.823 F300
M106 S0
M106 S255
G1 X89.687 Y123.823 F300
M106 S0
G0 X89.666 Y123.802 F6000
M106 S255
G1 X89.666 Y123.802 F300
M106 S0
M106 S255
G1 X89.814 Y123.802 F300
M106 S0
G0 X89.793 Y123.781 F6000
M106 S255
G1 X89.793 Y123.781 F300
M106 S0
M106 S255
G1 X89.687 Y123.781 F300
M106 S0
G0 X89.687 Y123.76 F6000
M106 S255
G1 X89.687 Y123.76 F300
M106 S0
M106 S255
G1 X89.793 Y123.76 F300
M106 S0
G0 X89.772 Y123.738 F6000
M106 S255
G1 X89.772 Y123.738 F300
M106 S0
M106 S255
G1 X89.708 Y123.738 F300
M106 S0
G0 X90.239 Y123.781 F6000
M106 S255
G1 X90.239 Y123.781 F300
M106 S0
M106 S255
G1 X91.279 Y123.781 F300
M106 S0
M106 S255
G1 X91.598 Y123.42 F300
M106 S0
M106 S255
G1 X91.683 Y123.271 F300
M106 S0
M106 S255
G1 X91.683 Y123.186 F300
M106 S0
M106 S255
G1 X91.598 Y123.016 F300
M106 S0
M106 S255
G1 X91.513 Y122.931 F300
M106 S0
G0 X90.557 Y124.481 F6000
M106 S255
G1 X90.557 Y124.481 F300
M106 S0
M106 S255
G1 X90.557 Y125.522 F300
M106 S0
M106 S255
G1 X90.324 Y125.416 F300
M106 S0
M106 S255
G1 X90.133 Y125.246 F300
M106 S0
M106 S255
G1 X90.048 Y125.097 F300
M106 S0
M106 S255
G1 X90.048 Y124.906 F300
M106 S0
M106 S255
G1 X90.133 Y124.757 F300
M106 S0
M106 S255
G1 X90.324 Y124.566 F300
M106 S0
M106 S255
G1 X90.557 Y124.481 F300
M106 S0
M106 S255
G1 X90.918 Y124.481 F300
M106 S0
M106 S255
G1 X91.173 Y124.566 F300
M106 S0
M106 S255
G1 X91.322 Y124.757 F300
M106 S0
M106 S255
G1 X91.407 Y124.906 F300
M106 S0
M106 S255
G1 X91.407 Y125.097 F300
M106 S0
M106 S255
G1 X91.322 Y125.246 F300
M106 S0
M106 S255
G1 X91.173 Y125.416 F300
M106 S0
G0 X90.239 Y128.006 F6000
M106 S255
G1 X90.239 Y128.006 F300
M106 S0
M106 S255
G1 X90.133 Y127.815 F300
M106 S0
M106 S255
G1 X90.048 Y127.666 F300
M106 S0
M106 S255
G1 X90.048 Y127.496 F300
M106 S0
M106 S255
G1 X90.133 Y127.327 F300
M106 S0
M106 S255
G1 X90.239 Y127.242 F300
M106 S0
M106 S255
G1 X90.388 Y127.178 F300
M106 S0
M106 S255
G1 X90.536 Y127.242 F300
M106 S0
M106 S255
G1 X90.642 Y127.327 F300
M106 S0
M106 S255
G1 X90.833 Y127.921 F300
M106 S0
M106 S255
G1 X90.918 Y128.006 F300
M106 S0
M106 S255
G1 X91.067 Y128.091 F300
M106 S0
M106 S255
G1 X91.237 Y128.006 F300
M106 S0
M106 S255
G1 X91.322 Y127.921 F300
M106 S0
M106 S255
G1 X91.407 Y127.688 F300
M106 S0
M106 S255
G1 X91.407 Y127.496 F300
M106 S0
M106 S255
G1 X91.322 Y127.263 F300
M106 S0
M106 S255
G1 X91.237 Y127.178 F300
M106 S0
M106 S255
G1 X91.067 Y127.093 F300
M106 S0
G0 X90.048 Y128.792 F6000
M106 S255
G1 X90.048 Y128.792 F300
M106 S0
M106 S255
G1 X90.982 Y128.792 F300
M106 S0
M106 S255
G1 X91.237 Y128.877 F300
M106 S0
M106 S255
G1 X91.322 Y128.962 F300
M106 S0
M106 S255
G1 X91.407 Y129.131 F300
M106 S0
M106 S255
G1 X91.407 Y129.301 F300
M106 S0
M106 S255
G1 X91.322 Y129.471 F300
M106 S0
M106 S255
G1 X91.237 Y129.556 F300
M106 S0
M106 S255
G1 X91.067 Y129.641 F300
M106 S0
G0 X90.048 Y129.641 F6000
M106 S255
G1 X90.048 Y129.641 F300
M106 S0
M106 S255
G1 X91.407 Y129.641 F300
M106 S0
G0 X91.407 Y130.427 F6000
M106 S255
G1 X91.407 Y130.427 F300
M106 S0
M106 S255
G1 X90.218 Y130.427 F300
M106 S0
G0 X89.687 Y130.427 F6000
M106 S255
G1 X89.687 Y130.427 F300
M106 S0
M106 S255
G1 X89.687 Y130.427 F300
M106 S0
M106 S255
G1 X89.687 Y130.427 F300
M106 S0
M106 S255
G1 X89.687 Y130.427 F300
M106 S0
M106 S255
G1 X89.687 Y130.427 F300
M106 S0
M106 S255
G1 X89.666 Y130.427 F300
M106 S0
G0 X89.729 Y130.512 F6000
M106 S255
G1 X89.729 Y130.512 F300
M106 S0
M106 S255
G1 X89.814 Y130.427 F300
M106 S0
G0 X89.793 Y130.427 F6000
M106 S255
G1 X89.793 Y130.427 F300
M106 S0
M106 S255
G1 X89.708 Y130.49 F300
M106 S0
G0 X89.708 Y130.49 F6000
M106 S255
G1 X89.708 Y130.49 F300
M106 S0
M106 S255
G1 X89.793 Y130.405 F300
M106 S0
G0 X89.772 Y130.384 F6000
M106 S255
G1 X89.772 Y130.384 F300
M106 S0
M106 S255
G1 X89.687 Y130.469 F300
M106 S0
G0 X89.687 Y130.448 F6000
M106 S255
G1 X89.687 Y130.448 F300
M106 S0
M106 S255
G1 X89.751 Y130.384 F300
M106 S0
G0 X89.729 Y130.363 F6000
M106 S255
G1 X89.729 Y130.363 F300
M106 S0
M106 S255
G1 X89.666 Y130.427 F300
M106 S0
M106 S255
G1 X89.729 Y130.512 F300
M106 S0
G0 X89.751 Y130.49 F6000
M106 S255
G1 X89.751 Y130.49 F300
M106 S0
M106 S255
G1 X89.687 Y130.427 F300
M106 S0
G0 X89.687 Y130.405 F6000
M106 S255
G1 X89.687 Y130.405 F300
M106 S0
M106 S255
G1 X89.772 Y130.49 F300
M106 S0
G0 X89.793 Y130.469 F6000
M106 S255
G1 X89.793 Y130.469 F300
M106 S0
M106 S255
G1 X89.708 Y130.384 F300
M106 S0
G0 X89.708 Y130.384 F6000
M106 S255
G1 X89.708 Y130.384 F300
M106 S0
M106 S255
G1 X89.793 Y130.448 F300
M106 S0
G0 X89.814 Y130.427 F6000
M106 S255
G1 X89.814 Y130.427 F300
M106 S0
M106 S255
G1 X89.729 Y130.363 F300
M106 S0
M106 S255
G1 X89.729 Y130.512 F300
M106 S0
G0 X89.708 Y130.49 F6000
M106 S255
G1 X89.708 Y130.49 F300
M106 S0
M106 S255
G1 X89.708 Y130.384 F300
M106 S0
G0 X89.708 Y130.384 F6000
M106 S255
G1 X89.708 Y130.384 F300
M106 S0
M106 S255
G1 X89.708 Y130.49 F300
M106 S0
G0 X89.687 Y130.469 F6000
M106 S255
G1 X89.687 Y130.469 F300
M106 S0
M106 S255
G1 X89.687 Y130.405 F300
M106 S0
G0 X89.793 Y130.405 F6000
M106 S255
G1 X89.793 Y130.405 F300
M106 S0
M106 S255
G1 X89.793 Y130.469 F300
M106 S0
G0 X89.772 Y130.49 F6000
M106 S255
G1 X89.772 Y130.49 F300
M106 S0
M106 S255
G1 X89.772 Y130.384 F300
M106 S0
G0 X89.751 Y130.384 F6000
M106 S255
G1 X89.751 Y130.384 F300
M106 S0
M106 S255
G1 X89.751 Y130.49 F300
M106 S0
G0 X89.772 Y130.49 F6000
M106 S255
G1 X89.772 Y130.49 F300
M106 S0
M106 S255
G1 X89.708 Y130.49 F300
M106 S0
G0 X89.687 Y130.469 F6000
M106 S255
G1 X89.687 Y130.469 F300
M106 S0
M106 S255
G1 X89.793 Y130.469 F300
M106 S0
G0 X89.793 Y130.448 F6000
M106 S255
G1 X89.793 Y130.448 F300
M106 S0
M106 S255
G1 X89.687 Y130.448 F300
M106 S0
G0 X89.666 Y130.427 F6000
M106 S255
G1 X89.666 Y130.427 F300
M106 S0
M106 S255
G1 X89.814 Y130.427 F300
M106 S0
G0 X89.793 Y130.427 F6000
M106 S255
G1 X89.793 Y130.427 F300
M106 S0
M106 S255
G1 X89.687 Y130.427 F300
M106 S0
G0 X89.687 Y130.405 F6000
M106 S255
G1 X89.687 Y130.405 F300
M106 S0
M106 S255
G1 X89.793 Y130.405 F300
M106 S0
G0 X89.772 Y130.384 F6000
M106 S255
G1 X89.772 Y130.384 F300
M106 S0
M106 S255
G1 X89.708 Y130.384 F300
M106 S0
G0 X90.239 Y132.146 F6000
M106 S255
G1 X90.239 Y132.146 F300
M106 S0
M106 S255
G1 X90.133 Y131.977 F300
M106 S0
M106 S255
G1 X90.048 Y131.807 F300
M106 S0
M106 S255
G1 X90.048 Y131.637 F300
M106 S0
M106 S255
G1 X90.133 Y131.467 F300
M106 S0
M106 S255
G1 X90.239 Y131.382 F300
M106 S0
M106 S255
G1 X90.388 Y131.318 F300
M106 S0
M106 S255
G1 X90.536 Y131.382 F300
M106 S0
M106 S255
G1 X90.642 Y131.467 F300
M106 S0
M106 S255
G1 X90.833 Y132.062 F300
M106 S0
M106 S255
G1 X90.918 Y132.146 F300
M106 S0
M106 S255
G1 X91.067 Y132.231 F300
M106 S0
M106 S255
G1 X91.237 Y132.146 F300
M106 S0
M106 S255
G1 X91.322 Y132.062 F300
M106 S0
M106 S255
G1 X91.407 Y131.828 F300
M106 S0
M106 S255
G1 X91.407 Y131.637 F300
M106 S0
M106 S255
G1 X91.322 Y131.403 F300
M106 S0
M106 S255
G1 X91.237 Y131.318 F300
M106 S0
M106 S255
G1 X91.067 Y131.233 F300
M106 S0
G0 X91.831 Y133.803 F6000
M106 S255
G1 X91.831 Y133.803 F300
M106 S0
M106 S255
G1 X90.048 Y133.803 F300
M106 S0
M106 S255
G1 X90.048 Y134.227 F300
M106 S0
M106 S255
G1 X90.133 Y134.397 F300
M106 S0
M106 S255
G1 X90.303 Y134.567 F300
M106 S0
M106 S255
G1 X90.536 Y134.652 F300
M106 S0
M106 S255
G1 X90.918 Y134.652 F300
M106 S0
M106 S255
G1 X91.173 Y134.567 F300
M106 S0
M106 S255
G1 X91.322 Y134.397 F300
M106 S0
M106 S255
G1 X91.407 Y134.227 F300
M106 S0
M106 S255
G1 X91.407 Y133.803 F300
M106 S0
G0 X90.642 Y136.372 F6000
M106 S255
G1 X90.642 Y136.372 F300
M106 S0
M106 S255
G1 X90.557 Y136.138 F300
M106 S0
M106 S255
G1 X90.557 Y135.777 F300
M106 S0
M106 S255
G1 X90.642 Y135.544 F300
M106 S0
M106 S255
G1 X90.748 Y135.438 F300
M106 S0
M106 S255
G1 X90.918 Y135.353 F300
M106 S0
M106 S255
G1 X91.067 Y135.353 F300
M106 S0
M106 S255
G1 X91.237 Y135.438 F300
M106 S0
M106 S255
G1 X91.322 Y135.544 F300
M106 S0
M106 S255
G1 X91.407 Y135.777 F300
M106 S0
M106 S255
G1 X91.407 Y136.138 F300
M106 S0
M106 S255
G1 X91.322 Y136.372 F300
M106 S0
G0 X90.048 Y135.862 F6000
M106 S255
G1 X90.048 Y135.862 F300
M106 S0
M106 S255
G1 X90.048 Y136.202 F300
M106 S0
M106 S255
G1 X90.133 Y136.287 F300
M106 S0
M106 S255
G1 X90.324 Y136.372 F300
M106 S0
M106 S255
G1 X91.407 Y136.372 F300
M106 S0
G0 X91.407 Y137.094 F6000
M106 S255
G1 X91.407 Y137.094 F300
M106 S0
M106 S255
G1 X90.048 Y137.094 F300
M106 S0
G0 X90.557 Y137.094 F6000
M106 S255
G1 X90.557 Y137.094 F300
M106 S0
M106 S255
G1 X90.218 Y137.179 F300
M106 S0
M106 S255
G1 X90.048 Y137.327 F300
M106 S0
M106 S255
G1 X90.048 Y137.518 F300
M106 S0
M106 S255
G1 X90.303 Y137.752 F300
M106 S0
G0 X90.133 Y138.474 F6000
M106 S255
G1 X90.133 Y138.474 F300
M106 S0
M106 S255
G1 X90.133 Y139.132 F300
M106 S0
G0 X89.644 Y138.792 F6000
M106 S255
G1 X89.644 Y138.792 F300
M106 S0
M106 S255
G1 X91.322 Y138.792 F300
M106 S0
M106 S255
G1 X91.407 Y138.877 F300
M106 S0
M106 S255
G1 X91.343 Y139.047 F300
M106 S0
M106 S255
G1 X91.258 Y139.132 F300
M106 S0
G0 X91.407 Y139.939 F6000
M106 S255
G1 X91.407 Y139.939 F300
M106 S0
M106 S255
G1 X90.218 Y139.939 F300
M106 S0
G0 X89.687 Y139.939 F6000
M106 S255
G1 X89.687 Y139.939 F300
M106 S0
M106 S255
G1 X89.687 Y139.939 F300
M106 S0
M106 S255
G1 X89.687 Y139.939 F300
M106 S0
M106 S255
G1 X89.687 Y139.939 F300
M106 S0
M106 S255
G1 X89.687 Y139.939 F300
M106 S0
M106 S255
G1 X89.666 Y139.939 F300
M106 S0
G0 X89.729 Y140.003 F6000
M106 S255
G1 X89.729 Y140.003 F300
M106 S0
M106 S255
G1 X89.814 Y139.939 F300
M106 S0
G0 X89.793 Y139.918 F6000
M106 S255
G1 X89.793 Y139.918 F300
M106 S0
M106 S255
G1 X89.708 Y139.981 F300
M106 S0
G0 X89.708 Y139.981 F6000
M106 S255
G1 X89.708 Y139.981 F300
M106 S0
M106 S255
G1 X89.793 Y139.896 F300
M106 S0
G0 X89.772 Y139.875 F6000
M106 S255
G1 X89.772 Y139.875 F300
M106 S0
M106 S255
G1 X89.687 Y139.96 F300
M106 S0
G0 X89.687 Y139.939 F6000
M106 S255
G1 X89.687 Y139.939 F300
M106 S0
M106 S255
G1 X89.751 Y139.875 F300
M106 S0
G0 X89.729 Y139.854 F6000
M106 S255
G1 X89.729 Y139.854 F300
M106 S0
M106 S255
G1 X89.666 Y139.939 F300
M106 S0
M106 S255
G1 X89.729 Y140.003 F300
M106 S0
G0 X89.751 Y139.981 F6000
M106 S255
G1 X89.751 Y139.981 F300
M106 S0
M106 S255
G1 X89.687 Y139.918 F300
M106 S0
G0 X89.687 Y139.896 F6000
M106 S255
G1 X89.687 Y139.896 F300
M106 S0
M106 S255
G1 X89.772 Y139.981 F300
M106 S0
G0 X89.793 Y139.96 F6000
M106 S255
G1 X89.793 Y139.96 F300
M106 S0
M106 S255
G1 X89.708 Y139.875 F300
M106 S0
G0 X89.708 Y139.875 F6000
M106 S255
G1 X89.708 Y139.875 F300
M106 S0
M106 S255
G1 X89.793 Y139.939 F300
M106 S0
G0 X89.814 Y139.939 F6000
M106 S255
G1 X89.814 Y139.939 F300
M106 S0
M106 S255
G1 X89.729 Y139.854 F300
M106 S0
M106 S255
G1 X89.729 Y140.003 F300
M106 S0
G0 X89.708 Y139.981 F6000
M106 S255
G1 X89.708 Y139.981 F300
M106 S0
M106 S255
G1 X89.708 Y139.875 F300
M106 S0
G0 X89.708 Y139.875 F6000
M106 S255
G1 X89.708 Y139.875 F300
M106 S0
M106 S255
G1 X89.708 Y139.981 F300
M106 S0
G0 X89.687 Y139.96 F6000
M106 S255
G1 X89.687 Y139.96 F300
M106 S0
M106 S255
G1 X89.687 Y139.896 F300
M106 S0
G0 X89.793 Y139.896 F6000
M106 S255
G1 X89.793 Y139.896 F300
M106 S0
M106 S255
G1 X89.793 Y139.96 F300
M106 S0
G0 X89.772 Y139.981 F6000
M106 S255
G1 X89.772 Y139.981 F300
M106 S0
M106 S255
G1 X89.772 Y139.875 F300
M106 S0
G0 X89.751 Y139.875 F6000
M106 S255
G1 X89.751 Y139.875 F300
M106 S0
M106 S255
G1 X89.751 Y139.981 F300
M106 S0
G0 X89.772 Y139.981 F6000
M106 S255
G1 X89.772 Y139.981 F300
M106 S0
M106 S255
G1 X89.708 Y139.981 F300
M106 S0
G0 X89.687 Y139.96 F6000
M106 S255
G1 X89.687 Y139.96 F300
M106 S0
M106 S255
G1 X89.793 Y139.96 F300
M106 S0
G0 X89.793 Y139.939 F6000
M106 S255
G1 X89.793 Y139.939 F300
M106 S0
M106 S255
G1 X89.687 Y139.939 F300
M106 S0
G0 X89.666 Y139.939 F6000
M106 S255
G1 X89.666 Y139.939 F300
M106 S0
M106 S255
G1 X89.814 Y139.939 F300
M106 S0
G0 X89.793 Y139.918 F6000
M106 S255
G1 X89.793 Y139.918 F300
M106 S0
M106 S255
G1 X89.687 Y139.918 F300
M106 S0
G0 X89.687 Y139.896 F6000
M106 S255
G1 X89.687 Y139.896 F300
M106 S0
M106 S255
G1 X89.793 Y139.896 F300
M106 S0
G0 X89.772 Y139.875 F6000
M106 S255
G1 X89.772 Y139.875 F300
M106 S0
M106 S255
G1 X89.708 Y139.875 F300
M106 S0
G0 X90.557 Y140.724 F6000
M106 S255
G1 X90.557 Y140.724 F300
M106 S0
M106 S255
G1 X90.557 Y141.744 F300
M106 S0
M106 S255
G1 X90.324 Y141.659 F300
M106 S0
M106 S255
G1 X90.133 Y141.489 F300
M106 S0
M106 S255
G1 X90.048 Y141.319 F300
M106 S0
M106 S255
G1 X90.048 Y141.149 F300
M106 S0
M106 S255
G1 X90.133 Y140.979 F300
M106 S0
M106 S255
G1 X90.324 Y140.809 F300
M106 S0
M106 S255
G1 X90.557 Y140.724 F300
M106 S0
M106 S255
G1 X90.918 Y140.724 F300
M106 S0
M106 S255
G1 X91.173 Y140.809 F300
M106 S0
M106 S255
G1 X91.322 Y140.979 F300
M106 S0
M106 S255
G1 X91.407 Y141.149 F300
M106 S0
M106 S255
G1 X91.407 Y141.319 F300
M106 S0
M106 S255
G1 X91.322 Y141.489 F300
M106 S0
M106 S255
G1 X91.173 Y141.659 F300
M106 S0
G0 X90.557 Y143.315 F6000
M106 S255
G1 X90.557 Y143.315 F300
M106 S0
M106 S255
G1 X90.557 Y144.334 F300
M106 S0
M106 S255
G1 X90.324 Y144.249 F300
M106 S0
M106 S255
G1 X90.133 Y144.079 F300
M106 S0
M106 S255
G1 X90.048 Y143.909 F300
M106 S0
M106 S255
G1 X90.048 Y143.74 F300
M106 S0
M106 S255
G1 X90.133 Y143.591 F300
M106 S0
M106 S255
G1 X90.324 Y143.4 F300
M106 S0
M106 S255
G1 X90.557 Y143.315 F300
M106 S0
M106 S255
G1 X90.918 Y143.315 F300
M106 S0
M106 S255
G1 X91.173 Y143.4 F300
M106 S0
M106 S255
G1 X91.322 Y143.591 F300
M106 S0
M106 S255
G1 X91.407 Y143.74 F300
M106 S0
M106 S255
G1 X91.407 Y143.909 F300
M106 S0
M106 S255
G1 X91.322 Y144.079 F300
M106 S0
M106 S255
G1 X91.173 Y144.249 F300
M106 S0
G0 X91.407 Y145.056 F6000
M106 S255
G1 X91.407 Y145.056 F300
M106 S0
M106 S255
G1 X90.048 Y145.056 F300
M106 S0
G0 X90.324 Y145.056 F6000
M106 S255
G1 X90.324 Y145.056 F300
M106 S0
M106 S255
G1 X90.133 Y145.226 F300
M106 S0
M106 S255
G1 X90.048 Y145.374 F300
M106 S0
M106 S255
G1 X90.048 Y145.566 F300
M106 S0
M106 S255
G1 X90.133 Y145.714 F300
M106 S0
M106 S255
G1 X90.218 Y145.799 F300
M106 S0
M106 S255
G1 X90.388 Y145.884 F300
M106 S0
M106 S255
G1 X91.407 Y145.884 F300
M106 S0
G0 X90.048 Y147.455 F6000
M106 S255
G1 X90.048 Y147.455 F300
M106 S0
M106 S255
G1 X91.407 Y147.88 F300
M106 S0
M106 S255
G1 X90.048 Y148.305 F300
M106 S0
G0 X90.642 Y150.046 F6000
M106 S255
G1 X90.642 Y150.046 F300
M106 S0
M106 S255
G1 X90.557 Y149.791 F300
M106 S0
M106 S255
G1 X90.557 Y149.43 F300
M106 S0
M106 S255
G1 X90.642 Y149.196 F300
M106 S0
M106 S255
G1 X90.748 Y149.111 F300
M106 S0
M106 S255
G1 X90.918 Y149.005 F300
M106 S0
M106 S255
G1 X91.067 Y149.005 F300
M106 S0
M106 S255
G1 X91.237 Y149.111 F300
M106 S0
M106 S255
G1 X91.322 Y149.196 F300
M106 S0
M106 S255
G1 X91.407 Y149.43 F300
M106 S0
M106 S255
G1 X91.407 Y149.791 F300
M106 S0
M106 S255
G1 X91.322 Y150.046 F300
M106 S0
G0 X90.048 Y149.515 F6000
M106 S255
G1 X90.048 Y149.515 F300
M106 S0
M106 S255
G1 X90.048 Y149.855 F300
M106 S0
M106 S255
G1 X90.133 Y149.961 F300
M106 S0
M106 S255
G1 X90.324 Y150.046 F300
M106 S0
M106 S255
G1 X91.407 Y150.046 F300
M106 S0
G0 X90.154 Y151.596 F6000
M106 S255
G1 X90.154 Y151.596 F300
M106 S0
M106 S255
G1 X90.048 Y151.341 F300
M106 S0
M106 S255
G1 X90.048 Y151.171 F300
M106 S0
M106 S255
G1 X90.133 Y151.001 F300
M106 S0
M106 S255
G1 X90.324 Y150.831 F300
M106 S0
M106 S255
G1 X90.557 Y150.746 F300
M106 S0
M106 S255
G1 X90.918 Y150.746 F300
M106 S0
M106 S255
G1 X91.173 Y150.831 F300
M106 S0
M106 S255
G1 X91.322 Y151.001 F300
M106 S0
M106 S255
G1 X91.407 Y151.171 F300
M106 S0
M106 S255
G1 X91.407 Y151.341 F300
M106 S0
M106 S255
G1 X91.322 Y151.511 F300
M106 S0
M106 S255
G1 X91.173 Y151.681 F300
M106 S0
M106 S255
G1 X91.003 Y151.766 F300
M106 S0
G0 X90.642 Y153.507 F6000
M106 S255
G1 X90.642 Y153.507 F300
M106 S0
M106 S255
G1 X90.557 Y153.252 F300
M106 S0
M106 S255
G1 X90.557 Y152.891 F300
M106 S0
M106 S255
G1 X90.642 Y152.657 F300
M106 S0
M106 S255
G1 X90.748 Y152.572 F300
M106 S0
M106 S255
G1 X90.918 Y152.466 F300
M106 S0
M106 S255
G1 X91.067 Y152.466 F300
M106 S0
M106 S255
G1 X91.237 Y152.572 F300
M106 S0
M106 S255
G1 X91.322 Y152.657 F300
M106 S0
M106 S255
G1 X91.407 Y152.891 F300
M106 S0
M106 S255
G1 X91.407 Y153.252 F300
M106 S0
M106 S255
G1 X91.322 Y153.507 F300
M106 S0
G0 X90.048 Y152.976 F6000
M106 S255
G1 X90.048 Y152.976 F300
M106 S0
M106 S255
G1 X90.048 Y153.316 F300
M106 S0
M106 S255
G1 X90.133 Y153.4 F300
M106 S0
M106 S255
G1 X90.324 Y153.507 F300
M106 S0
M106 S255
G1 X91.407 Y153.507 F300
M106 S0
G0 X91.407 Y154.207 F6000
M106 S255
G1 X91.407 Y154.207 F300
M106 S0
M106 S255
G1 X90.048 Y154.207 F300
M106 S0
G0 X90.324 Y154.207 F6000
M106 S255
G1 X90.324 Y154.207 F300
M106 S0
M106 S255
G1 X90.133 Y154.377 F300
M106 S0
M106 S255
G1 X90.048 Y154.547 F300
M106 S0
M106 S255
G1 X90.048 Y154.717 F300
M106 S0
M106 S255
G1 X90.133 Y154.866 F300
M106 S0
M106 S255
G1 X90.218 Y154.972 F300
M106 S0
M106 S255
G1 X90.388 Y155.057 F300
M106 S0
M106 S255
G1 X91.407 Y155.057 F300
M106 S0
G0 X90.154 Y156.607 F6000
M106 S255
G1 X90.154 Y156.607 F300
M106 S0
M106 S255
G1 X90.048 Y156.352 F300
M106 S0
M106 S255
G1 X90.048 Y156.182 F300
M106 S0
M106 S255
G1 X90.133 Y156.012 F300
M106 S0
M106 S255
G1 X90.324 Y155.842 F300
M106 S0
M106 S255
G1 X90.557 Y155.757 F300
M106 S0
M106 S255
G1 X90.918 Y155.757 F300
M106 S0
M106 S255
G1 X91.173 Y155.842 F300
M106 S0
M106 S255
G1 X91.322 Y156.012 F300
M106 S0
M106 S255
G1 X91.407 Y156.182 F300
M106 S0
M106 S255
G1 X91.407 Y156.352 F300
M106 S0
M106 S255
G1 X91.322 Y156.522 F300
M106 S0
M106 S255
G1 X91.173 Y156.692 F300
M106 S0
M106 S255
G1 X91.003 Y156.776 F300
M106 S0
G0 X90.557 Y157.477 F6000
M106 S255
G1 X90.557 Y157.477 F300
M106 S0
M106 S255
G1 X90.557 Y158.518 F300
M106 S0
M106 S255
G1 X90.324 Y158.411 F300
M106 S0
M106 S255
G1 X90.133 Y158.242 F300
M106 S0
M106 S255
G1 X90.048 Y158.093 F300
M106 S0
M106 S255
G1 X90.048 Y157.902 F300
M106 S0
M106 S255
G1 X90.133 Y157.753 F300
M106 S0
M106 S255
G1 X90.324 Y157.583 F300
M106 S0
M106 S255
G1 X90.557 Y157.477 F300
M106 S0
M106 S255
G1 X90.918 Y157.477 F300
M106 S0
M106 S255
G1 X91.173 Y157.583 F300
M106 S0
M106 S255
G1 X91.322 Y157.753 F300
M106 S0
M106 S255
G1 X91.407 Y157.902 F300
M106 S0
M106 S255
G1 X91.407 Y158.093 F300
M106 S0
M106 S255
G1 X91.322 Y158.242 F300
M106 S0
M106 S255
G1 X91.173 Y158.411 F300
M106 S0
G0 X90.239 Y160.131 F6000
M106 S255
G1 X90.239 Y160.131 F300
M106 S0
M106 S255
G1 X90.133 Y159.961 F300
M106 S0
M106 S255
G1 X90.048 Y159.792 F300
M106 S0
M106 S255
G1 X90.048 Y159.622 F300
M106 S0
M106 S255
G1 X90.133 Y159.452 F300
M106 S0
M106 S255
G1 X90.239 Y159.367 F300
M106 S0
M106 S255
G1 X90.388 Y159.303 F300
M106 S0
M106 S255
G1 X90.536 Y159.367 F300
M106 S0
M106 S255
G1 X90.642 Y159.452 F300
M106 S0
M106 S255
G1 X90.833 Y160.046 F300
M106 S0
M106 S255
G1 X90.918 Y160.131 F300
M106 S0
M106 S255
G1 X91.067 Y160.216 F300
M106 S0
M106 S255
G1 X91.237 Y160.131 F300
M106 S0
M106 S255
G1 X91.322 Y160.046 F300
M106 S0
M106 S255
G1 X91.407 Y159.813 F300
M106 S0
M106 S255
G1 X91.407 Y159.622 F300
M106 S0
M106 S255
G1 X91.322 Y159.388 F300
M106 S0
M106 S255
G1 X91.237 Y159.303 F300
M106 S0
M106 S255
G1 X91.067 Y159.218 F300
M106 S0
G0 X90.154 Y162.637 F6000
M106 S255
G1 X90.154 Y162.637 F300
M106 S0
M106 S255
G1 X90.048 Y162.382 F300
M106 S0
M106 S255
G1 X90.048 Y162.212 F300
M106 S0
M106 S255
G1 X90.133 Y162.063 F300
M106 S0
M106 S255
G1 X90.324 Y161.872 F300
M106 S0
M106 S255
G1 X90.557 Y161.787 F300
M106 S0
M106 S255
G1 X90.918 Y161.787 F300
M106 S0
M106 S255
G1 X91.173 Y161.872 F300
M106 S0
M106 S255
G1 X91.322 Y162.063 F300
M106 S0
M106 S255
G1 X91.407 Y162.212 F300
M106 S0
M106 S255
G1 X91.407 Y162.382 F300
M106 S0
M106 S255
G1 X91.322 Y162.552 F300
M106 S0
M106 S255
G1 X91.173 Y162.722 F300
M106 S0
M106 S255
G1 X91.003 Y162.807 F300
M106 S0
G0 X91.407 Y163.528 F6000
M106 S255
G1 X91.407 Y163.528 F300
M106 S0
M106 S255
G1 X89.644 Y163.528 F300
M106 S0
G0 X90.388 Y163.528 F6000
M106 S255
G1 X90.388 Y163.528 F300
M106 S0
M106 S255
G1 X90.239 Y163.613 F300
M106 S0
M106 S255
G1 X90.133 Y163.698 F300
M106 S0
M106 S255
G1 X90.048 Y163.847 F300
M106 S0
M106 S255
G1 X90.048 Y164.038 F300
M106 S0
M106 S255
G1 X90.133 Y164.187 F300
M106 S0
M106 S255
G1 X90.239 Y164.272 F300
M106 S0
M106 S255
G1 X90.388 Y164.378 F300
M106 S0
M106 S255
G1 X91.407 Y164.378 F300
M106 S0
G0 X90.557 Y165.078 F6000
M106 S255
G1 X90.557 Y165.078 F300
M106 S0
M106 S255
G1 X90.557 Y166.098 F300
M106 S0
M106 S255
G1 X90.324 Y166.013 F300
M106 S0
M106 S255
G1 X90.133 Y165.822 F300
M106 S0
M106 S255
G1 X90.048 Y165.673 F300
M106 S0
M106 S255
G1 X90.048 Y165.503 F300
M106 S0
M106 S255
G1 X90.133 Y165.333 F300
M106 S0
M106 S255
G1 X90.324 Y165.163 F300
M106 S0
M106 S255
G1 X90.557 Y165.078 F300
M106 S0
M106 S255
G1 X90.918 Y165.078 F300
M106 S0
M106 S255
G1 X91.173 Y165.163 F300
M106 S0
M106 S255
G1 X91.322 Y165.333 F300
M106 S0
M106 S255
G1 X91.407 Y165.503 F300
M106 S0
M106 S255
G1 X91.407 Y165.673 F300
M106 S0
M106 S255
G1 X91.322 Y165.822 F300
M106 S0
M106 S255
G1 X91.173 Y166.013 F300
M106 S0
G0 X90.048 Y166.798 F6000
M106 S255
G1 X90.048 Y166.798 F300
M106 S0
M106 S255
G1 X90.048 Y167.733 F300
M106 S0
M106 S255
G1 X91.407 Y166.798 F300
M106 S0
M106 S255
G1 X91.407 Y167.733 F300
M106 S0
G0 X91.407 Y169.304 F6000
M106 S255
G1 X91.407 Y169.304 F300
M106 S0
M106 S255
G1 X89.644 Y169.304 F300
M106 S0
M106 S255
G1 X91.407 Y170.238 F300
M106 S0
M106 S255
G1 X89.644 Y170.238 F300
M106 S0
G0 X90.048 Y170.939 F6000
M106 S255
G1 X90.048 Y170.939 F300
M106 S0
M106 S255
G1 X90.982 Y170.939 F300
M106 S0
M106 S255
G1 X91.237 Y171.045 F300
M106 S0
M106 S255
G1 X91.322 Y171.13 F300
M106 S0
M106 S255
G1 X91.407 Y171.278 F300
M106 S0
M106 S255
G1 X91.407 Y171.47 F300
M106 S0
M106 S255
G1 X91.322 Y171.618 F300
M106 S0
M106 S255
G1 X91.237 Y171.703 F300
M106 S0
M106 S255
G1 X91.067 Y171.788 F300
M106 S0
G0 X90.048 Y171.788 F6000
M106 S255
G1 X90.048 Y171.788 F300
M106 S0
M106 S255
G1 X91.407 Y171.788 F300
M106 S0
G0 X91.407 Y172.51 F6000
M106 S255
G1 X91.407 Y172.51 F300
M106 S0
M106 S255
G1 X90.048 Y172.51 F300
M106 S0
G0 X90.303 Y172.51 F6000
M106 S255
G1 X90.303 Y172.51 F300
M106 S0
M106 S255
G1 X90.133 Y172.659 F300
M106 S0
M106 S255
G1 X90.048 Y172.828 F300
M106 S0
M106 S255
G1 X90.133 Y173.02 F300
M106 S0
M106 S255
G1 X90.239 Y173.104 F300
M106 S0
M106 S255
G1 X90.388 Y173.168 F300
M106 S0
M106 S255
G1 X91.407 Y173.168 F300
M106 S0
G0 X90.388 Y173.168 F6000
M106 S255
G1 X90.388 Y173.168 F300
M106 S0
M106 S255
G1 X90.239 Y173.253 F300
M106 S0
M106 S255
G1 X90.133 Y173.338 F300
M106 S0
M106 S255
G1 X90.048 Y173.508 F300
M106 S0
M106 S255
G1 X90.133 Y173.678 F300
M106 S0
M106 S255
G1 X90.239 Y173.763 F300
M106 S0
M106 S255
G1 X90.388 Y173.848 F300
M106 S0
M106 S255
G1 X91.407 Y173.848 F300
M106 S0
G0 X90.642 Y175.567 F6000
M106 S255
G1 X90.642 Y175.567 F300
M106 S0
M106 S255
G1 X90.557 Y175.334 F300
M106 S0
M106 S255
G1 X90.557 Y174.973 F300
M106 S0
M106 S255
G1 X90.642 Y174.718 F300
M106 S0
M106 S255
G1 X90.748 Y174.633 F300
M106 S0
M106 S255
G1 X90.918 Y174.548 F300
M106 S0
M106 S255
G1 X91.067 Y174.548 F300
M106 S0
M106 S255
G1 X91.237 Y174.633 F300
M106 S0
M106 S255
G1 X91.322 Y174.718 F300
M106 S0
M106 S255
G1 X91.407 Y174.973 F300
M106 S0
M106 S255
G1 X91.407 Y175.334 F300
M106 S0
M106 S255
G1 X91.322 Y175.567 F300
M106 S0
G0 X90.048 Y175.037 F6000
M106 S255
G1 X90.048 Y175.037 F300
M106 S0
M106 S255
G1 X90.048 Y175.398 F300
M106 S0
M106 S255
G1 X90.133 Y175.483 F300
M106 S0
M106 S255
G1 X90.324 Y175.567 F300
M106 S0
M106 S255
G1 X91.407 Y175.567 F300
M106 S0
G0 X91.343 Y176.374 F6000
M106 S255
G1 X91.343 Y176.374 F300
M106 S0
M106 S255
G1 X91.343 Y176.374 F300
M106 S0
M106 S255
G1 X91.343 Y176.374 F300
M106 S0
M106 S255
G1 X91.322 Y176.374 F300
M106 S0
G0 X91.407 Y176.459 F6000
M106 S255
G1 X91.407 Y176.459 F300
M106 S0
M106 S255
G1 X91.492 Y176.374 F300
M106 S0
G0 X91.47 Y176.353 F6000
M106 S255
G1 X91.47 Y176.353 F300
M106 S0
M106 S255
G1 X91.385 Y176.438 F300
M106 S0
G0 X91.364 Y176.438 F6000
M106 S255
G1 X91.364 Y176.438 F300
M106 S0
M106 S255
G1 X91.47 Y176.332 F300
M106 S0
G0 X91.47 Y176.311 F6000
M106 S255
G1 X91.47 Y176.311 F300
M106 S0
M106 S255
G1 X91.364 Y176.417 F300
M106 S0
G0 X91.343 Y176.396 F6000
M106 S255
G1 X91.343 Y176.396 F300
M106 S0
M106 S255
G1 X91.449 Y176.289 F300
M106 S0
G0 X91.428 Y176.289 F6000
M106 S255
G1 X91.428 Y176.289 F300
M106 S0
M106 S255
G1 X91.343 Y176.374 F300
M106 S0
G0 X91.322 Y176.374 F6000
M106 S255
G1 X91.322 Y176.374 F300
M106 S0
M106 S255
G1 X91.407 Y176.268 F300
M106 S0
M106 S255
G1 X91.492 Y176.374 F300
M106 S0
G0 X91.47 Y176.374 F6000
M106 S255
G1 X91.47 Y176.374 F300
M106 S0
M106 S255
G1 X91.385 Y176.289 F300
M106 S0
G0 X91.364 Y176.289 F6000
M106 S255
G1 X91.364 Y176.289 F300
M106 S0
M106 S255
G1 X91.47 Y176.396 F300
M106 S0
G0 X91.47 Y176.417 F6000
M106 S255
G1 X91.47 Y176.417 F300
M106 S0
M106 S255
G1 X91.364 Y176.311 F300
M106 S0
G0 X91.343 Y176.332 F6000
M106 S255
G1 X91.343 Y176.332 F300
M106 S0
M106 S255
G1 X91.449 Y176.438 F300
M106 S0
G0 X91.428 Y176.438 F6000
M106 S255
G1 X91.428 Y176.438 F300
M106 S0
M106 S255
G1 X91.343 Y176.353 F300
M106 S0
G0 X91.322 Y176.374 F6000
M106 S255
G1 X91.322 Y176.374 F300
M106 S0
M106 S255
G1 X91.407 Y176.459 F300
M106 S0
M106 S255
G1 X91.407 Y176.268 F300
M106 S0
G0 X91.385 Y176.289 F6000
M106 S255
G1 X91.385 Y176.289 F300
M106 S0
M106 S255
G1 X91.385 Y176.438 F300
M106 S0
G0 X91.364 Y176.438 F6000
M106 S255
G1 X91.364 Y176.438 F300
M106 S0
M106 S255
G1 X91.364 Y176.289 F300
M106 S0
G0 X91.364 Y176.311 F6000
M106 S255
G1 X91.364 Y176.311 F300
M106 S0
M106 S255
G1 X91.364 Y176.417 F300
M106 S0
G0 X91.343 Y176.396 F6000
M106 S255
G1 X91.343 Y176.396 F300
M106 S0
M106 S255
G1 X91.343 Y176.332 F300
M106 S0
G0 X91.47 Y176.332 F6000
M106 S255
G1 X91.47 Y176.332 F300
M106 S0
M106 S255
G1 X91.47 Y176.396 F300
M106 S0
G0 X91.47 Y176.417 F6000
M106 S255
G1 X91.47 Y176.417 F300
M106 S0
M106 S255
G1 X91.47 Y176.311 F300
M106 S0
G0 X91.449 Y176.289 F6000
M106 S255
G1 X91.449 Y176.289 F300
M106 S0
M106 S255
G1 X91.449 Y176.438 F300
M106 S0
G0 X91.428 Y176.438 F6000
M106 S255
G1 X91.428 Y176.438 F300
M106 S0
M106 S255
G1 X91.428 Y176.289 F300
M106 S0
G0 X91.449 Y176.289 F6000
M106 S255
G1 X91.449 Y176.289 F300
M106 S0
M106 S255
G1 X91.364 Y176.289 F300
M106 S0
G0 X91.364 Y176.311 F6000
M106 S255
G1 X91.364 Y176.311 F300
M106 S0
M106 S255
G1 X91.47 Y176.311 F300
M106 S0
G0 X91.47 Y176.332 F6000
M106 S255
G1 X91.47 Y176.332 F300
M106 S0
M106 S255
G1 X91.343 Y176.332 F300
M106 S0
G0 X91.343 Y176.353 F6000
M106 S255
G1 X91.343 Y176.353 F300
M106 S0
M106 S255
G1 X91.47 Y176.353 F300
M106 S0
G0 X91.492 Y176.374 F6000
M106 S255
G1 X91.492 Y176.374 F300
M106 S0
M106 S255
G1 X91.322 Y176.374 F300
M106 S0
G0 X91.343 Y176.374 F6000
M106 S255
G1 X91.343 Y176.374 F300
M106 S0
M106 S255
G1 X91.47 Y176.374 F300
M106 S0
G0 X91.47 Y176.396 F6000
M106 S255
G1 X91.47 Y176.396 F300
M106 S0
M106 S255
G1 X91.343 Y176.396 F300
M106 S0
G0 X91.364 Y176.417 F6000
M106 S255
G1 X91.364 Y176.417 F300
M106 S0
M106 S255
G1 X91.47 Y176.417 F300
M106 S0
G0 X91.449 Y176.438 F6000
M106 S255
G1 X91.449 Y176.438 F300
M106 S0
M106 S255
G1 X91.364 Y176.438 F300
M106 S0
G0 X94.401 Y111.147 F6000
M106 S255
G1 X94.401 Y111.147 F300
M106 S0
M106 S255
G1 X92.638 Y111.147 F300
M106 S0
M106 S255
G1 X92.638 Y111.721 F300
M106 S0
M106 S255
G1 X92.723 Y111.975 F300
M106 S0
M106 S255
G1 X92.829 Y112.06 F300
M106 S0
M106 S255
G1 X92.978 Y112.145 F300
M106 S0
M106 S255
G1 X93.233 Y112.145 F300
M106 S0
M106 S255
G1 X93.381 Y112.06 F300
M106 S0
M106 S255
G1 X93.466 Y111.975 F300
M106 S0
M106 S255
G1 X93.551 Y111.721 F300
M106 S0
M106 S255
G1 X93.551 Y111.147 F300
M106 S0
G0 X93.551 Y112.867 F6000
M106 S255
G1 X93.551 Y112.867 F300
M106 S0
M106 S255
G1 X93.551 Y113.886 F300
M106 S0
M106 S255
G1 X93.318 Y113.801 F300
M106 S0
M106 S255
G1 X93.127 Y113.61 F300
M106 S0
M106 S255
G1 X93.042 Y113.462 F300
M106 S0
M106 S255
G1 X93.042 Y113.292 F300
M106 S0
M106 S255
G1 X93.127 Y113.122 F300
M106 S0
M106 S255
G1 X93.318 Y112.952 F300
M106 S0
M106 S255
G1 X93.551 Y112.867 F300
M106 S0
M106 S255
G1 X93.912 Y112.867 F300
M106 S0
M106 S255
G1 X94.167 Y112.952 F300
M106 S0
M106 S255
G1 X94.316 Y113.122 F300
M106 S0
M106 S255
G1 X94.401 Y113.292 F300
M106 S0
M106 S255
G1 X94.401 Y113.462 F300
M106 S0
M106 S255
G1 X94.316 Y113.61 F300
M106 S0
M106 S255
G1 X94.167 Y113.801 F300
M106 S0
G0 X93.042 Y114.587 F6000
M106 S255
G1 X93.042 Y114.587 F300
M106 S0
M106 S255
G1 X93.976 Y114.587 F300
M106 S0
M106 S255
G1 X94.231 Y114.672 F300
M106 S0
M106 S255
G1 X94.316 Y114.757 F300
M106 S0
M106 S255
G1 X94.401 Y114.927 F300
M106 S0
M106 S255
G1 X94.401 Y115.097 F300
M106 S0
M106 S255
G1 X94.316 Y115.266 F300
M106 S0
M106 S255
G1 X94.231 Y115.351 F300
M106 S0
M106 S255
G1 X94.061 Y115.436 F300
M106 S0
G0 X93.042 Y115.436 F6000
M106 S255
G1 X93.042 Y115.436 F300
M106 S0
M106 S255
G1 X94.401 Y115.436 F300
M106 S0
G0 X93.127 Y116.137 F6000
M106 S255
G1 X93.127 Y116.137 F300
M106 S0
M106 S255
G1 X93.127 Y116.816 F300
M106 S0
G0 X92.638 Y116.477 F6000
M106 S255
G1 X92.638 Y116.477 F300
M106 S0
M106 S255
G1 X94.316 Y116.477 F300
M106 S0
M106 S255
G1 X94.401 Y116.562 F300
M106 S0
M106 S255
G1 X94.337 Y116.731 F300
M106 S0
M106 S255
G1 X94.252 Y116.816 F300
M106 S0
G0 X93.572 Y117.793 F6000
M106 S255
G1 X93.572 Y117.793 F300
M106 S0
M106 S255
G1 X93.572 Y118.494 F300
M106 S0
G0 X93.806 Y119.216 F6000
M106 S255
G1 X93.806 Y119.216 F300
M106 S0
M106 S255
G1 X93.806 Y120.107 F300
M106 S0
M106 S255
G1 X93.509 Y120.405 F300
M106 S0
M106 S255
G1 X93.211 Y120.107 F300
M106 S0
M106 S255
G1 X93.211 Y119.513 F300
M106 S0
M106 S255
G1 X93.509 Y119.216 F300
M106 S0
M106 S255
G1 X94.103 Y119.216 F300
M106 S0
M106 S255
G1 X94.401 Y119.513 F300
M106 S0
M106 S255
G1 X94.401 Y120.107 F300
M106 S0
G0 X92.914 Y120.107 F6000
M106 S255
G1 X92.914 Y120.107 F300
M106 S0
M106 S255
G1 X92.617 Y119.81 F300
M106 S0
M106 S255
G1 X92.914 Y119.513 F300
M106 S0
G0 X93.127 Y121.02 F6000
M106 S255
G1 X93.127 Y121.02 F300
M106 S0
M106 S255
G1 X93.127 Y121.679 F300
M106 S0
G0 X92.638 Y121.339 F6000
M106 S255
G1 X92.638 Y121.339 F300
M106 S0
M106 S255
G1 X94.316 Y121.339 F300
M106 S0
M106 S255
G1 X94.401 Y121.445 F300
M106 S0
M106 S255
G1 X94.337 Y121.594 F300
M106 S0
M106 S255
G1 X94.252 Y121.679 F300
M106 S0
G0 X94.401 Y122.379 F6000
M106 S255
G1 X94.401 Y122.379 F300
M106 S0
M106 S255
G1 X93.042 Y122.379 F300
M106 S0
G0 X93.551 Y122.379 F6000
M106 S255
G1 X93.551 Y122.379 F300
M106 S0
M106 S255
G1 X93.211 Y122.486 F300
M106 S0
M106 S255
G1 X93.042 Y122.634 F300
M106 S0
M106 S255
G1 X93.042 Y122.804 F300
M106 S0
M106 S255
G1 X93.296 Y123.059 F300
M106 S0
G0 X93.551 Y123.76 F6000
M106 S255
G1 X93.551 Y123.76 F300
M106 S0
M106 S255
G1 X93.551 Y124.779 F300
M106 S0
M106 S255
G1 X93.318 Y124.694 F300
M106 S0
M106 S255
G1 X93.127 Y124.524 F300
M106 S0
M106 S255
G1 X93.042 Y124.375 F300
M106 S0
M106 S255
G1 X93.042 Y124.184 F300
M106 S0
M106 S255
G1 X93.127 Y124.036 F300
M106 S0
M106 S255
G1 X93.318 Y123.844 F300
M106 S0
M106 S255
G1 X93.551 Y123.76 F300
M106 S0
M106 S255
G1 X93.912 Y123.76 F300
M106 S0
M106 S255
G1 X94.167 Y123.844 F300
M106 S0
M106 S255
G1 X94.316 Y124.036 F300
M106 S0
M106 S255
G1 X94.401 Y124.184 F300
M106 S0
M106 S255
G1 X94.401 Y124.375 F300
M106 S0
M106 S255
G1 X94.316 Y124.524 F300
M106 S0
M106 S255
G1 X94.167 Y124.694 F300
M106 S0
G0 X94.825 Y127.199 F6000
M106 S255
G1 X94.825 Y127.199 F300
M106 S0
M106 S255
G1 X93.042 Y127.199 F300
M106 S0
M106 S255
G1 X93.042 Y126.775 F300
M106 S0
M106 S255
G1 X93.127 Y126.605 F300
M106 S0
M106 S255
G1 X93.296 Y126.456 F300
M106 S0
M106 S255
G1 X93.551 Y126.35 F300
M106 S0
M106 S255
G1 X93.912 Y126.35 F300
M106 S0
M106 S255
G1 X94.167 Y126.456 F300
M106 S0
M106 S255
G1 X94.316 Y126.605 F300
M106 S0
M106 S255
G1 X94.401 Y126.775 F300
M106 S0
M106 S255
G1 X94.401 Y127.199 F300
M106 S0
G0 X93.042 Y127.921 F6000
M106 S255
G1 X93.042 Y127.921 F300
M106 S0
M106 S255
G1 X93.976 Y127.921 F300
M106 S0
M106 S255
G1 X94.231 Y128.006 F300
M106 S0
M106 S255
G1 X94.316 Y128.091 F300
M106 S0
M106 S255
G1 X94.401 Y128.24 F300
M106 S0
M106 S255
G1 X94.401 Y128.431 F300
M106 S0
M106 S255
G1 X94.316 Y128.579 F300
M106 S0
M106 S255
G1 X94.231 Y128.664 F300
M106 S0
M106 S255
G1 X94.061 Y128.749 F300
M106 S0
G0 X93.042 Y128.749 F6000
M106 S255
G1 X93.042 Y128.749 F300
M106 S0
M106 S255
G1 X94.401 Y128.749 F300
M106 S0
G0 X92.872 Y129.747 F6000
M106 S255
G1 X92.872 Y129.747 F300
M106 S0
M106 S255
G1 X92.872 Y129.747 F300
M106 S0
M106 S255
G1 X92.872 Y129.747 F300
M106 S0
M106 S255
G1 X92.872 Y129.747 F300
M106 S0
M106 S255
G1 X92.872 Y129.747 F300
M106 S0
M106 S255
G1 X92.872 Y129.747 F300
M106 S0
M106 S255
G1 X92.872 Y129.747 F300
M106 S0
M106 S255
G1 X92.872 Y129.747 F300
M106 S0
M106 S255
G1 X92.851 Y129.747 F300
M106 S0
G0 X92.893 Y129.79 F6000
M106 S255
G1 X92.893 Y129.79 F300
M106 S0
M106 S255
G1 X92.935 Y129.747 F300
M106 S0
G0 X92.935 Y129.747 F6000
M106 S255
G1 X92.935 Y129.747 F300
M106 S0
M106 S255
G1 X92.893 Y129.79 F300
M106 S0
G0 X92.872 Y129.79 F6000
M106 S255
G1 X92.872 Y129.79 F300
M106 S0
M106 S255
G1 X92.935 Y129.726 F300
M106 S0
G0 X92.935 Y129.705 F6000
M106 S255
G1 X92.935 Y129.705 F300
M106 S0
M106 S255
G1 X92.851 Y129.79 F300
M106 S0
G0 X92.851 Y129.768 F6000
M106 S255
G1 X92.851 Y129.768 F300
M106 S0
M106 S255
G1 X92.914 Y129.705 F300
M106 S0
G0 X92.893 Y129.705 F6000
M106 S255
G1 X92.893 Y129.705 F300
M106 S0
M106 S255
G1 X92.851 Y129.747 F300
M106 S0
G0 X92.829 Y129.747 F6000
M106 S255
G1 X92.829 Y129.747 F300
M106 S0
M106 S255
G1 X92.893 Y129.683 F300
M106 S0
M106 S255
G1 X92.935 Y129.747 F300
M106 S0
G0 X92.935 Y129.747 F6000
M106 S255
G1 X92.935 Y129.747 F300
M106 S0
M106 S255
G1 X92.893 Y129.705 F300
M106 S0
G0 X92.872 Y129.705 F6000
M106 S255
G1 X92.872 Y129.705 F300
M106 S0
M106 S255
G1 X92.935 Y129.768 F300
M106 S0
G0 X92.935 Y129.79 F6000
M106 S255
G1 X92.935 Y129.79 F300
M106 S0
M106 S255
G1 X92.851 Y129.705 F300
M106 S0
G0 X92.851 Y129.726 F6000
M106 S255
G1 X92.851 Y129.726 F300
M106 S0
M106 S255
G1 X92.914 Y129.79 F300
M106 S0
G0 X92.893 Y129.79 F6000
M106 S255
G1 X92.893 Y129.79 F300
M106 S0
M106 S255
G1 X92.851 Y129.747 F300
M106 S0
G0 X92.829 Y129.747 F6000
M106 S255
G1 X92.829 Y129.747 F300
M106 S0
M106 S255
G1 X92.893 Y129.79 F300
M106 S0
M106 S255
G1 X92.893 Y129.683 F300
M106 S0
G0 X92.872 Y129.705 F6000
M106 S255
G1 X92.872 Y129.705 F300
M106 S0
M106 S255
G1 X92.872 Y129.79 F300
M106 S0
G0 X92.851 Y129.79 F6000
M106 S255
G1 X92.851 Y129.79 F300
M106 S0
M106 S255
G1 X92.851 Y129.705 F300
M106 S0
G0 X92.935 Y129.705 F6000
M106 S255
G1 X92.935 Y129.705 F300
M106 S0
M106 S255
G1 X92.935 Y129.79 F300
M106 S0
G0 X92.914 Y129.79 F6000
M106 S255
G1 X92.914 Y129.79 F300
M106 S0
M106 S255
G1 X92.914 Y129.705 F300
M106 S0
G0 X92.935 Y129.705 F6000
M106 S255
G1 X92.935 Y129.705 F300
M106 S0
M106 S255
G1 X92.851 Y129.705 F300
M106 S0
G0 X92.851 Y129.726 F6000
M106 S255
G1 X92.851 Y129.726 F300
M106 S0
M106 S255
G1 X92.935 Y129.726 F300
M106 S0
G0 X92.935 Y129.747 F6000
M106 S255
G1 X92.935 Y129.747 F300
M106 S0
M106 S255
G1 X92.829 Y129.747 F300
M106 S0
G0 X92.851 Y129.768 F6000
M106 S255
G1 X92.851 Y129.768 F300
M106 S0
M106 S255
G1 X92.935 Y129.768 F300
M106 S0
G0 X92.935 Y129.79 F6000
M106 S255
G1 X92.935 Y129.79 F300
M106 S0
M106 S255
G1 X92.851 Y129.79 F300
M106 S0
G0 X92.893 Y129.79 F6000
M106 S255
G1 X92.893 Y129.79 F300
M106 S0
M106 S255
G1 X92.935 Y129.79 F300
M106 S0
M106 S255
G1 X93.063 Y129.768 F300
M106 S0
M106 S255
G1 X93.127 Y129.683 F300
M106 S0
G0 X94.401 Y130.788 F6000
M106 S255
G1 X94.401 Y130.788 F300
M106 S0
M106 S255
G1 X93.211 Y130.788 F300
M106 S0
G0 X92.681 Y130.788 F6000
M106 S255
G1 X92.681 Y130.788 F300
M106 S0
M106 S255
G1 X92.681 Y130.788 F300
M106 S0
M106 S255
G1 X92.681 Y130.788 F300
M106 S0
M106 S255
G1 X92.681 Y130.788 F300
M106 S0
M106 S255
G1 X92.681 Y130.788 F300
M106 S0
M106 S255
G1 X92.659 Y130.788 F300
M106 S0
G0 X92.723 Y130.851 F6000
M106 S255
G1 X92.723 Y130.851 F300
M106 S0
M106 S255
G1 X92.808 Y130.788 F300
M106 S0
G0 X92.787 Y130.766 F6000
M106 S255
G1 X92.787 Y130.766 F300
M106 S0
M106 S255
G1 X92.723 Y130.851 F300
M106 S0
G0 X92.702 Y130.851 F6000
M106 S255
G1 X92.702 Y130.851 F300
M106 S0
M106 S255
G1 X92.787 Y130.745 F300
M106 S0
G0 X92.766 Y130.745 F6000
M106 S255
G1 X92.766 Y130.745 F300
M106 S0
M106 S255
G1 X92.681 Y130.83 F300
M106 S0
G0 X92.681 Y130.809 F6000
M106 S255
G1 X92.681 Y130.809 F300
M106 S0
M106 S255
G1 X92.744 Y130.745 F300
M106 S0
G0 X92.723 Y130.724 F6000
M106 S255
G1 X92.723 Y130.724 F300
M106 S0
M106 S255
G1 X92.659 Y130.788 F300
M106 S0
M106 S255
G1 X92.723 Y130.851 F300
M106 S0
G0 X92.744 Y130.851 F6000
M106 S255
G1 X92.744 Y130.851 F300
M106 S0
M106 S255
G1 X92.681 Y130.766 F300
M106 S0
G0 X92.681 Y130.745 F6000
M106 S255
G1 X92.681 Y130.745 F300
M106 S0
M106 S255
G1 X92.766 Y130.851 F300
M106 S0
G0 X92.787 Y130.83 F6000
M106 S255
G1 X92.787 Y130.83 F300
M106 S0
M106 S255
G1 X92.702 Y130.745 F300
M106 S0
G0 X92.723 Y130.745 F6000
M106 S255
G1 X92.723 Y130.745 F300
M106 S0
M106 S255
G1 X92.787 Y130.809 F300
M106 S0
G0 X92.808 Y130.788 F6000
M106 S255
G1 X92.808 Y130.788 F300
M106 S0
M106 S255
G1 X92.723 Y130.724 F300
M106 S0
M106 S255
G1 X92.723 Y130.851 F300
M106 S0
G0 X92.723 Y130.851 F6000
M106 S255
G1 X92.723 Y130.851 F300
M106 S0
M106 S255
G1 X92.723 Y130.745 F300
M106 S0
G0 X92.702 Y130.745 F6000
M106 S255
G1 X92.702 Y130.745 F300
M106 S0
M106 S255
G1 X92.702 Y130.851 F300
M106 S0
G0 X92.681 Y130.83 F6000
M106 S255
G1 X92.681 Y130.83 F300
M106 S0
M106 S255
G1 X92.681 Y130.745 F300
M106 S0
G0 X92.787 Y130.745 F6000
M106 S255
G1 X92.787 Y130.745 F300
M106 S0
M106 S255
G1 X92.787 Y130.83 F300
M106 S0
G0 X92.766 Y130.851 F6000
M106 S255
G1 X92.766 Y130.851 F300
M106 S0
M106 S255
G1 X92.766 Y130.745 F300
M106 S0
G0 X92.744 Y130.745 F6000
M106 S255
G1 X92.744 Y130.745 F300
M106 S0
M106 S255
G1 X92.744 Y130.851 F300
M106 S0
G0 X92.766 Y130.851 F6000
M106 S255
G1 X92.766 Y130.851 F300
M106 S0
M106 S255
G1 X92.702 Y130.851 F300
M106 S0
G0 X92.681 Y130.83 F6000
M106 S255
G1 X92.681 Y130.83 F300
M106 S0
M106 S255
G1 X92.787 Y130.83 F300
M106 S0
G0 X92.787 Y130.809 F6000
M106 S255
G1 X92.787 Y130.809 F300
M106 S0
M106 S255
G1 X92.681 Y130.809 F300
M106 S0
G0 X92.659 Y130.788 F6000
M106 S255
G1 X92.659 Y130.788 F300
M106 S0
M106 S255
G1 X92.808 Y130.788 F300
M106 S0
G0 X92.787 Y130.766 F6000
M106 S255
G1 X92.787 Y130.766 F300
M106 S0
M106 S255
G1 X92.681 Y130.766 F300
M106 S0
G0 X92.681 Y130.745 F6000
M106 S255
G1 X92.681 Y130.745 F300
M106 S0
M106 S255
G1 X92.787 Y130.745 F300
M106 S0
G0 X92.766 Y130.745 F6000
M106 S255
G1 X92.766 Y130.745 F300
M106 S0
M106 S255
G1 X92.702 Y130.745 F300
M106 S0
G0 X92.638 Y131.573 F6000
M106 S255
G1 X92.638 Y131.573 F300
M106 S0
M106 S255
G1 X93.976 Y131.573 F300
M106 S0
M106 S255
G1 X94.231 Y131.658 F300
M106 S0
M106 S255
G1 X94.316 Y131.743 F300
M106 S0
M106 S255
G1 X94.401 Y131.913 F300
M106 S0
M106 S255
G1 X94.401 Y131.998 F300
M106 S0
M106 S255
G1 X94.316 Y132.083 F300
M106 S0
M106 S255
G1 X94.061 Y132.168 F300
M106 S0
G0 X93.127 Y133.739 F6000
M106 S255
G1 X93.127 Y133.739 F300
M106 S0
M106 S255
G1 X93.127 Y134.397 F300
M106 S0
G0 X92.638 Y134.333 F6000
M106 S255
G1 X92.638 Y134.333 F300
M106 S0
M106 S255
G1 X92.723 Y134.142 F300
M106 S0
M106 S255
G1 X92.893 Y134.079 F300
M106 S0
M106 S255
G1 X94.401 Y134.079 F300
M106 S0
G0 X93.657 Y136.138 F6000
M106 S255
G1 X93.657 Y136.138 F300
M106 S0
M106 S255
G1 X93.551 Y135.883 F300
M106 S0
M106 S255
G1 X93.551 Y135.544 F300
M106 S0
M106 S255
G1 X93.657 Y135.289 F300
M106 S0
M106 S255
G1 X93.742 Y135.204 F300
M106 S0
M106 S255
G1 X93.912 Y135.119 F300
M106 S0
M106 S255
G1 X94.061 Y135.119 F300
M106 S0
M106 S255
G1 X94.231 Y135.204 F300
M106 S0
M106 S255
G1 X94.316 Y135.289 F300
M106 S0
M106 S255
G1 X94.401 Y135.544 F300
M106 S0
M106 S255
G1 X94.401 Y135.883 F300
M106 S0
M106 S255
G1 X94.316 Y136.138 F300
M106 S0
G0 X93.042 Y135.607 F6000
M106 S255
G1 X93.042 Y135.607 F300
M106 S0
M106 S255
G1 X93.042 Y135.968 F300
M106 S0
M106 S255
G1 X93.127 Y136.053 F300
M106 S0
M106 S255
G1 X93.318 Y136.138 F300
M106 S0
M106 S255
G1 X94.401 Y136.138 F300
M106 S0
G0 X94.401 Y136.924 F6000
M106 S255
G1 X94.401 Y136.924 F300
M106 S0
M106 S255
G1 X93.211 Y136.924 F300
M106 S0
G0 X92.681 Y136.924 F6000
M106 S255
G1 X92.681 Y136.924 F300
M106 S0
M106 S255
G1 X92.681 Y136.924 F300
M106 S0
M106 S255
G1 X92.681 Y136.924 F300
M106 S0
M106 S255
G1 X92.681 Y136.924 F300
M106 S0
M106 S255
G1 X92.681 Y136.924 F300
M106 S0
M106 S255
G1 X92.659 Y136.924 F300
M106 S0
G0 X92.723 Y137.009 F6000
M106 S255
G1 X92.723 Y137.009 F300
M106 S0
M106 S255
G1 X92.808 Y136.924 F300
M106 S0
G0 X92.787 Y136.903 F6000
M106 S255
G1 X92.787 Y136.903 F300
M106 S0
M106 S255
G1 X92.723 Y136.988 F300
M106 S0
G0 X92.702 Y136.988 F6000
M106 S255
G1 X92.702 Y136.988 F300
M106 S0
M106 S255
G1 X92.787 Y136.903 F300
M106 S0
G0 X92.766 Y136.881 F6000
M106 S255
G1 X92.766 Y136.881 F300
M106 S0
M106 S255
G1 X92.681 Y136.966 F300
M106 S0
G0 X92.681 Y136.945 F6000
M106 S255
G1 X92.681 Y136.945 F300
M106 S0
M106 S255
G1 X92.744 Y136.881 F300
M106 S0
G0 X92.723 Y136.86 F6000
M106 S255
G1 X92.723 Y136.86 F300
M106 S0
M106 S255
G1 X92.659 Y136.924 F300
M106 S0
M106 S255
G1 X92.723 Y137.009 F300
M106 S0
G0 X92.744 Y136.988 F6000
M106 S255
G1 X92.744 Y136.988 F300
M106 S0
M106 S255
G1 X92.681 Y136.903 F300
M106 S0
G0 X92.681 Y136.903 F6000
M106 S255
G1 X92.681 Y136.903 F300
M106 S0
M106 S255
G1 X92.766 Y136.988 F300
M106 S0
G0 X92.787 Y136.966 F6000
M106 S255
G1 X92.787 Y136.966 F300
M106 S0
M106 S255
G1 X92.702 Y136.881 F300
M106 S0
G0 X92.723 Y136.881 F6000
M106 S255
G1 X92.723 Y136.881 F300
M106 S0
M106 S255
G1 X92.787 Y136.945 F300
M106 S0
G0 X92.808 Y136.924 F6000
M106 S255
G1 X92.808 Y136.924 F300
M106 S0
M106 S255
G1 X92.723 Y136.86 F300
M106 S0
M106 S255
G1 X92.723 Y137.009 F300
M106 S0
G0 X92.723 Y136.988 F6000
M106 S255
G1 X92.723 Y136.988 F300
M106 S0
M106 S255
G1 X92.723 Y136.881 F300
M106 S0
G0 X92.702 Y136.881 F6000
M106 S255
G1 X92.702 Y136.881 F300
M106 S0
M106 S255
G1 X92.702 Y136.988 F300
M106 S0
G0 X92.681 Y136.966 F6000
M106 S255
G1 X92.681 Y136.966 F300
M106 S0
M106 S255
G1 X92.681 Y136.903 F300
M106 S0
G0 X92.787 Y136.903 F6000
M106 S255
G1 X92.787 Y136.903 F300
M106 S0
M106 S255
G1 X92.787 Y136.966 F300
M106 S0
G0 X92.766 Y136.988 F6000
M106 S255
G1 X92.766 Y136.988 F300
M106 S0
M106 S255
G1 X92.766 Y136.881 F300
M106 S0
G0 X92.744 Y136.881 F6000
M106 S255
G1 X92.744 Y136.881 F300
M106 S0
M106 S255
G1 X92.744 Y136.988 F300
M106 S0
G0 X92.766 Y136.988 F6000
M106 S255
G1 X92.766 Y136.988 F300
M106 S0
M106 S255
G1 X92.702 Y136.988 F300
M106 S0
G0 X92.681 Y136.966 F6000
M106 S255
G1 X92.681 Y136.966 F300
M106 S0
M106 S255
G1 X92.787 Y136.966 F300
M106 S0
G0 X92.787 Y136.945 F6000
M106 S255
G1 X92.787 Y136.945 F300
M106 S0
M106 S255
G1 X92.681 Y136.945 F300
M106 S0
G0 X92.659 Y136.924 F6000
M106 S255
G1 X92.659 Y136.924 F300
M106 S0
M106 S255
G1 X92.808 Y136.924 F300
M106 S0
G0 X92.787 Y136.903 F6000
M106 S255
G1 X92.787 Y136.903 F300
M106 S0
M106 S255
G1 X92.681 Y136.903 F300
M106 S0
G0 X92.681 Y136.903 F6000
M106 S255
G1 X92.681 Y136.903 F300
M106 S0
M106 S255
G1 X92.787 Y136.903 F300
M106 S0
G0 X92.766 Y136.881 F6000
M106 S255
G1 X92.766 Y136.881 F300
M106 S0
M106 S255
G1 X92.702 Y136.881 F300
M106 S0
G0 X93.127 Y137.731 F6000
M106 S255
G1 X93.127 Y137.731 F300
M106 S0
M106 S255
G1 X93.127 Y138.389 F300
M106 S0
G0 X92.638 Y138.049 F6000
M106 S255
G1 X92.638 Y138.049 F300
M106 S0
M106 S255
G1 X94.316 Y138.049 F300
M106 S0
M106 S255
G1 X94.401 Y138.155 F300
M106 S0
M106 S255
G1 X94.337 Y138.304 F300
M106 S0
M106 S255
G1 X94.252 Y138.389 F300
M106 S0
G0 X94.401 Y139.96 F6000
M106 S255
G1 X94.401 Y139.96 F300
M106 S0
M106 S255
G1 X92.638 Y139.96 F300
M106 S0
G0 X93.127 Y139.96 F6000
M106 S255
G1 X93.127 Y139.96 F300
M106 S0
M106 S255
G1 X93.042 Y140.215 F300
M106 S0
M106 S255
G1 X93.042 Y140.47 F300
M106 S0
M106 S255
G1 X93.127 Y140.64 F300
M106 S0
M106 S255
G1 X93.318 Y140.809 F300
M106 S0
M106 S255
G1 X93.551 Y140.894 F300
M106 S0
M106 S255
G1 X93.912 Y140.894 F300
M106 S0
M106 S255
G1 X94.167 Y140.809 F300
M106 S0
M106 S255
G1 X94.316 Y140.64 F300
M106 S0
M106 S255
G1 X94.401 Y140.47 F300
M106 S0
M106 S255
G1 X94.401 Y140.215 F300
M106 S0
M106 S255
G1 X94.316 Y139.96 F300
M106 S0
G0 X93.551 Y141.595 F6000
M106 S255
G1 X93.551 Y141.595 F300
M106 S0
M106 S255
G1 X93.551 Y142.635 F300
M106 S0
M106 S255
G1 X93.318 Y142.529 F300
M106 S0
M106 S255
G1 X93.127 Y142.359 F300
M106 S0
M106 S255
G1 X93.042 Y142.211 F300
M106 S0
M106 S255
G1 X93.042 Y142.02 F300
M106 S0
M106 S255
G1 X93.127 Y141.871 F300
M106 S0
M106 S255
G1 X93.318 Y141.701 F300
M106 S0
M106 S255
G1 X93.551 Y141.595 F300
M106 S0
M106 S255
G1 X93.912 Y141.595 F300
M106 S0
M106 S255
G1 X94.167 Y141.701 F300
M106 S0
M106 S255
G1 X94.316 Y141.871 F300
M106 S0
M106 S255
G1 X94.401 Y142.02 F300
M106 S0
M106 S255
G1 X94.401 Y142.211 F300
M106 S0
M106 S255
G1 X94.316 Y142.359 F300
M106 S0
M106 S255
G1 X94.167 Y142.529 F300
M106 S0
G0 X93.657 Y144.355 F6000
M106 S255
G1 X93.657 Y144.355 F300
M106 S0
M106 S255
G1 X93.551 Y144.1 F300
M106 S0
M106 S255
G1 X93.551 Y143.761 F300
M106 S0
M106 S255
G1 X93.657 Y143.506 F300
M106 S0
M106 S255
G1 X93.742 Y143.421 F300
M106 S0
M106 S255
G1 X93.912 Y143.336 F300
M106 S0
M106 S255
G1 X94.061 Y143.336 F300
M106 S0
M106 S255
G1 X94.231 Y143.421 F300
M106 S0
M106 S255
G1 X94.316 Y143.506 F300
M106 S0
M106 S255
G1 X94.401 Y143.761 F300
M106 S0
M106 S255
G1 X94.401 Y144.1 F300
M106 S0
M106 S255
G1 X94.316 Y144.355 F300
M106 S0
G0 X93.042 Y143.824 F6000
M106 S255
G1 X93.042 Y143.824 F300
M106 S0
M106 S255
G1 X93.042 Y144.185 F300
M106 S0
M106 S255
G1 X93.127 Y144.27 F300
M106 S0
M106 S255
G1 X93.318 Y144.355 F300
M106 S0
M106 S255
G1 X94.401 Y144.355 F300
M106 S0
G0 X93.042 Y145.056 F6000
M106 S255
G1 X93.042 Y145.056 F300
M106 S0
M106 S255
G1 X93.976 Y145.056 F300
M106 S0
M106 S255
G1 X94.231 Y145.141 F300
M106 S0
M106 S255
G1 X94.316 Y145.247 F300
M106 S0
M106 S255
G1 X94.401 Y145.396 F300
M106 S0
M106 S255
G1 X94.401 Y145.566 F300
M106 S0
M106 S255
G1 X94.316 Y145.735 F300
M106 S0
M106 S255
G1 X94.231 Y145.82 F300
M106 S0
M106 S255
G1 X94.061 Y145.905 F300
M106 S0
G0 X93.042 Y145.905 F6000
M106 S255
G1 X93.042 Y145.905 F300
M106 S0
M106 S255
G1 X94.401 Y145.905 F300
M106 S0
G0 X93.127 Y148.411 F6000
M106 S255
G1 X93.127 Y148.411 F300
M106 S0
M106 S255
G1 X93.042 Y148.177 F300
M106 S0
M106 S255
G1 X93.042 Y147.901 F300
M106 S0
M106 S255
G1 X93.127 Y147.753 F300
M106 S0
M106 S255
G1 X93.318 Y147.561 F300
M106 S0
M106 S255
G1 X93.551 Y147.477 F300
M106 S0
M106 S255
G1 X93.912 Y147.477 F300
M106 S0
M106 S255
G1 X94.167 Y147.561 F300
M106 S0
M106 S255
G1 X94.316 Y147.753 F300
M106 S0
M106 S255
G1 X94.401 Y147.901 F300
M106 S0
M106 S255
G1 X94.401 Y148.177 F300
M106 S0
M106 S255
G1 X94.316 Y148.411 F300
M106 S0
G0 X92.638 Y148.411 F6000
M106 S255
G1 X92.638 Y148.411 F300
M106 S0
M106 S255
G1 X94.401 Y148.411 F300
M106 S0
G0 X93.551 Y149.111 F6000
M106 S255
G1 X93.551 Y149.111 F300
M106 S0
M106 S255
G1 X93.551 Y150.152 F300
M106 S0
M106 S255
G1 X93.318 Y150.067 F300
M106 S0
M106 S255
G1 X93.127 Y149.876 F300
M106 S0
M106 S255
G1 X93.042 Y149.727 F300
M106 S0
M106 S255
G1 X93.042 Y149.536 F300
M106 S0
M106 S255
G1 X93.127 Y149.387 F300
M106 S0
M106 S255
G1 X93.318 Y149.218 F300
M106 S0
M106 S255
G1 X93.551 Y149.111 F300
M106 S0
M106 S255
G1 X93.912 Y149.111 F300
M106 S0
M106 S255
G1 X94.167 Y149.218 F300
M106 S0
M106 S255
G1 X94.316 Y149.387 F300
M106 S0
M106 S255
G1 X94.401 Y149.536 F300
M106 S0
M106 S255
G1 X94.401 Y149.727 F300
M106 S0
M106 S255
G1 X94.316 Y149.876 F300
M106 S0
M106 S255
G1 X94.167 Y150.067 F300
M106 S0
G0 X94.401 Y150.853 F6000
M106 S255
G1 X94.401 Y150.853 F300
M106 S0
M106 S255
G1 X92.638 Y150.853 F300
M106 S0
G0 X93.381 Y150.853 F6000
M106 S255
G1 X93.381 Y150.853 F300
M106 S0
M106 S255
G1 X93.233 Y150.937 F300
M106 S0
M106 S255
G1 X93.127 Y151.022 F300
M106 S0
M106 S255
G1 X93.042 Y151.192 F300
M106 S0
M106 S255
G1 X93.042 Y151.362 F300
M106 S0
M106 S255
G1 X93.127 Y151.532 F300
M106 S0
M106 S255
G1 X93.233 Y151.617 F300
M106 S0
M106 S255
G1 X93.381 Y151.702 F300
M106 S0
M106 S255
G1 X94.401 Y151.702 F300
M106 S0
G0 X94.401 Y152.827 F6000
M106 S255
G1 X94.401 Y152.827 F300
M106 S0
M106 S255
G1 X94.337 Y152.679 F300
M106 S0
M106 S255
G1 X94.167 Y152.487 F300
M106 S0
M106 S255
G1 X93.912 Y152.403 F300
M106 S0
M106 S255
G1 X93.551 Y152.403 F300
M106 S0
M106 S255
G1 X93.296 Y152.487 F300
M106 S0
M106 S255
G1 X93.127 Y152.679 F300
M106 S0
M106 S255
G1 X93.042 Y152.827 F300
M106 S0
M106 S255
G1 X93.042 Y152.997 F300
M106 S0
M106 S255
G1 X93.127 Y153.167 F300
M106 S0
M106 S255
G1 X93.296 Y153.337 F300
M106 S0
M106 S255
G1 X93.551 Y153.422 F300
M106 S0
M106 S255
G1 X93.912 Y153.422 F300
M106 S0
M106 S255
G1 X94.167 Y153.337 F300
M106 S0
M106 S255
G1 X94.337 Y153.167 F300
M106 S0
M106 S255
G1 X94.401 Y152.997 F300
M106 S0
M106 S255
G1 X94.401 Y152.827 F300
M106 S0
M106 S255
G1 X94.401 Y152.827 F300
M106 S0
G0 X94.401 Y154.122 F6000
M106 S255
G1 X94.401 Y154.122 F300
M106 S0
M106 S255
G1 X93.042 Y154.122 F300
M106 S0
G0 X93.551 Y154.122 F6000
M106 S255
G1 X93.551 Y154.122 F300
M106 S0
M106 S255
G1 X93.211 Y154.229 F300
M106 S0
M106 S255
G1 X93.042 Y154.377 F300
M106 S0
M106 S255
G1 X93.042 Y154.547 F300
M106 S0
M106 S255
G1 X93.296 Y154.802 F300
M106 S0
G0 X93.233 Y156.437 F6000
M106 S255
G1 X93.233 Y156.437 F300
M106 S0
M106 S255
G1 X93.127 Y156.246 F300
M106 S0
M106 S255
G1 X93.042 Y156.097 F300
M106 S0
M106 S255
G1 X93.042 Y155.906 F300
M106 S0
M106 S255
G1 X93.127 Y155.757 F300
M106 S0
M106 S255
G1 X93.233 Y155.672 F300
M106 S0
M106 S255
G1 X93.381 Y155.587 F300
M106 S0
M106 S255
G1 X93.551 Y155.672 F300
M106 S0
M106 S255
G1 X93.636 Y155.757 F300
M106 S0
M106 S255
G1 X93.827 Y156.331 F300
M106 S0
M106 S255
G1 X93.912 Y156.437 F300
M106 S0
M106 S255
G1 X94.061 Y156.522 F300
M106 S0
M106 S255
G1 X94.231 Y156.437 F300
M106 S0
M106 S255
G1 X94.316 Y156.331 F300
M106 S0
M106 S255
G1 X94.401 Y156.118 F300
M106 S0
M106 S255
G1 X94.401 Y155.906 F300
M106 S0
M106 S255
G1 X94.316 Y155.694 F300
M106 S0
M106 S255
G1 X94.231 Y155.587 F300
M106 S0
M106 S255
G1 X94.061 Y155.502 F300
M106 S0
G0 X94.252 Y157.222 F6000
M106 S255
G1 X94.252 Y157.222 F300
M106 S0
M106 S255
G1 X94.252 Y157.222 F300
M106 S0
M106 S255
G1 X94.252 Y157.222 F300
M106 S0
M106 S255
G1 X94.231 Y157.222 F300
M106 S0
G0 X94.316 Y157.307 F6000
M106 S255
G1 X94.316 Y157.307 F300
M106 S0
M106 S255
G1 X94.401 Y157.222 F300
M106 S0
G0 X94.379 Y157.201 F6000
M106 S255
G1 X94.379 Y157.201 F300
M106 S0
M106 S255
G1 X94.294 Y157.286 F300
M106 S0
G0 X94.273 Y157.286 F6000
M106 S255
G1 X94.273 Y157.286 F300
M106 S0
M106 S255
G1 X94.379 Y157.18 F300
M106 S0
G0 X94.379 Y157.159 F6000
M106 S255
G1 X94.379 Y157.159 F300
M106 S0
M106 S255
G1 X94.273 Y157.265 F300
M106 S0
G0 X94.252 Y157.265 F6000
M106 S255
G1 X94.252 Y157.265 F300
M106 S0
M106 S255
G1 X94.358 Y157.159 F300
M106 S0
G0 X94.337 Y157.159 F6000
M106 S255
G1 X94.337 Y157.159 F300
M106 S0
M106 S255
G1 X94.252 Y157.244 F300
M106 S0
G0 X94.231 Y157.222 F6000
M106 S255
G1 X94.231 Y157.222 F300
M106 S0
M106 S255
G1 X94.316 Y157.137 F300
M106 S0
M106 S255
G1 X94.401 Y157.222 F300
M106 S0
G0 X94.379 Y157.244 F6000
M106 S255
G1 X94.379 Y157.244 F300
M106 S0
M106 S255
G1 X94.294 Y157.159 F300
M106 S0
G0 X94.273 Y157.159 F6000
M106 S255
G1 X94.273 Y157.159 F300
M106 S0
M106 S255
G1 X94.379 Y157.265 F300
M106 S0
G0 X94.379 Y157.265 F6000
M106 S255
G1 X94.379 Y157.265 F300
M106 S0
M106 S255
G1 X94.273 Y157.159 F300
M106 S0
G0 X94.252 Y157.18 F6000
M106 S255
G1 X94.252 Y157.18 F300
M106 S0
M106 S255
G1 X94.358 Y157.286 F300
M106 S0
G0 X94.337 Y157.286 F6000
M106 S255
G1 X94.337 Y157.286 F300
M106 S0
M106 S255
G1 X94.252 Y157.201 F300
M106 S0
G0 X94.231 Y157.222 F6000
M106 S255
G1 X94.231 Y157.222 F300
M106 S0
M106 S255
G1 X94.316 Y157.307 F300
M106 S0
M106 S255
G1 X94.316 Y157.137 F300
M106 S0
G0 X94.294 Y157.159 F6000
M106 S255
G1 X94.294 Y157.159 F300
M106 S0
M106 S255
G1 X94.294 Y157.286 F300
M106 S0
G0 X94.273 Y157.286 F6000
M106 S255
G1 X94.273 Y157.286 F300
M106 S0
M106 S255
G1 X94.273 Y157.159 F300
M106 S0
G0 X94.273 Y157.159 F6000
M106 S255
G1 X94.273 Y157.159 F300
M106 S0
M106 S255
G1 X94.273 Y157.265 F300
M106 S0
G0 X94.252 Y157.265 F6000
M106 S255
G1 X94.252 Y157.265 F300
M106 S0
M106 S255
G1 X94.252 Y157.18 F300
M106 S0
G0 X94.379 Y157.18 F6000
M106 S255
G1 X94.379 Y157.18 F300
M106 S0
M106 S255
G1 X94.379 Y157.265 F300
M106 S0
G0 X94.379 Y157.265 F6000
M106 S255
G1 X94.379 Y157.265 F300
M106 S0
M106 S255
G1 X94.379 Y157.159 F300
M106 S0
G0 X94.358 Y157.159 F6000
M106 S255
G1 X94.358 Y157.159 F300
M106 S0
M106 S255
G1 X94.358 Y157.286 F300
M106 S0
G0 X94.337 Y157.286 F6000
M106 S255
G1 X94.337 Y157.286 F300
M106 S0
M106 S255
G1 X94.337 Y157.159 F300
M106 S0
G0 X94.358 Y157.159 F6000
M106 S255
G1 X94.358 Y157.159 F300
M106 S0
M106 S255
G1 X94.273 Y157.159 F300
M106 S0
G0 X94.273 Y157.159 F6000
M106 S255
G1 X94.273 Y157.159 F300
M106 S0
M106 S255
G1 X94.379 Y157.159 F300
M106 S0
G0 X94.379 Y157.18 F6000
M106 S255
G1 X94.379 Y157.18 F300
M106 S0
M106 S255
G1 X94.252 Y157.18 F300
M106 S0
G0 X94.252 Y157.201 F6000
M106 S255
G1 X94.252 Y157.201 F300
M106 S0
M106 S255
G1 X94.379 Y157.201 F300
M106 S0
G0 X94.401 Y157.222 F6000
M106 S255
G1 X94.401 Y157.222 F300
M106 S0
M106 S255
G1 X94.231 Y157.222 F300
M106 S0
G0 X94.252 Y157.244 F6000
M106 S255
G1 X94.252 Y157.244 F300
M106 S0
M106 S255
G1 X94.379 Y157.244 F300
M106 S0
G0 X94.379 Y157.265 F6000
M106 S255
G1 X94.379 Y157.265 F300
M106 S0
M106 S255
G1 X94.252 Y157.265 F300
M106 S0
G0 X94.273 Y157.265 F6000
M106 S255
G1 X94.273 Y157.265 F300
M106 S0
M106 S255
G1 X94.379 Y157.265 F300
M106 S0
G0 X94.358 Y157.286 F6000
M106 S255
G1 X94.358 Y157.286 F300
M106 S0
M106 S255
G1 X94.273 Y157.286 F300
M106 S0
G0 X94.316 Y157.307 F6000
M106 S255
G1 X94.316 Y157.307 F300
M106 S0
M106 S255
G1 X94.401 Y157.307 F300
M106 S0
M106 S255
G1 X94.761 Y157.137 F300
M106 S0
G0 X94.401 Y158.709 F6000
M106 S255
G1 X94.401 Y158.709 F300
M106 S0
M106 S255
G1 X93.042 Y158.709 F300
M106 S0
G0 X93.296 Y158.709 F6000
M106 S255
G1 X93.296 Y158.709 F300
M106 S0
M106 S255
G1 X93.127 Y158.857 F300
M106 S0
M106 S255
G1 X93.042 Y159.048 F300
M106 S0
M106 S255
G1 X93.127 Y159.218 F300
M106 S0
M106 S255
G1 X93.233 Y159.303 F300
M106 S0
M106 S255
G1 X93.381 Y159.367 F300
M106 S0
M106 S255
G1 X94.401 Y159.367 F300
M106 S0
G0 X93.381 Y159.367 F6000
M106 S255
G1 X93.381 Y159.367 F300
M106 S0
M106 S255
G1 X93.233 Y159.452 F300
M106 S0
M106 S255
G1 X93.127 Y159.537 F300
M106 S0
M106 S255
G1 X93.042 Y159.707 F300
M106 S0
M106 S255
G1 X93.127 Y159.876 F300
M106 S0
M106 S255
G1 X93.233 Y159.983 F300
M106 S0
M106 S255
G1 X93.381 Y160.046 F300
M106 S0
M106 S255
G1 X94.401 Y160.046 F300
M106 S0
G0 X93.657 Y161.766 F6000
M106 S255
G1 X93.657 Y161.766 F300
M106 S0
M106 S255
G1 X93.551 Y161.533 F300
M106 S0
M106 S255
G1 X93.551 Y161.172 F300
M106 S0
M106 S255
G1 X93.657 Y160.917 F300
M106 S0
M106 S255
G1 X93.742 Y160.832 F300
M106 S0
M106 S255
G1 X93.912 Y160.747 F300
M106 S0
M106 S255
G1 X94.061 Y160.747 F300
M106 S0
M106 S255
G1 X94.231 Y160.832 F300
M106 S0
M106 S255
G1 X94.316 Y160.917 F300
M106 S0
M106 S255
G1 X94.401 Y161.172 F300
M106 S0
M106 S255
G1 X94.401 Y161.533 F300
M106 S0
M106 S255
G1 X94.316 Y161.766 F300
M106 S0
G0 X93.042 Y161.235 F6000
M106 S255
G1 X93.042 Y161.235 F300
M106 S0
M106 S255
G1 X93.042 Y161.596 F300
M106 S0
M106 S255
G1 X93.127 Y161.681 F300
M106 S0
M106 S255
G1 X93.318 Y161.766 F300
M106 S0
M106 S255
G1 X94.401 Y161.766 F300
M106 S0
G0 X94.401 Y162.573 F6000
M106 S255
G1 X94.401 Y162.573 F300
M106 S0
M106 S255
G1 X93.211 Y162.573 F300
M106 S0
G0 X92.681 Y162.573 F6000
M106 S255
G1 X92.681 Y162.573 F300
M106 S0
M106 S255
G1 X92.681 Y162.573 F300
M106 S0
M106 S255
G1 X92.681 Y162.573 F300
M106 S0
M106 S255
G1 X92.681 Y162.573 F300
M106 S0
M106 S255
G1 X92.681 Y162.573 F300
M106 S0
M106 S255
G1 X92.659 Y162.573 F300
M106 S0
G0 X92.723 Y162.637 F6000
M106 S255
G1 X92.723 Y162.637 F300
M106 S0
M106 S255
G1 X92.808 Y162.573 F300
M106 S0
G0 X92.787 Y162.552 F6000
M106 S255
G1 X92.787 Y162.552 F300
M106 S0
M106 S255
G1 X92.723 Y162.615 F300
M106 S0
G0 X92.702 Y162.615 F6000
M106 S255
G1 X92.702 Y162.615 F300
M106 S0
M106 S255
G1 X92.787 Y162.531 F300
M106 S0
G0 X92.766 Y162.509 F6000
M106 S255
G1 X92.766 Y162.509 F300
M106 S0
M106 S255
G1 X92.681 Y162.594 F300
M106 S0
G0 X92.681 Y162.594 F6000
M106 S255
G1 X92.681 Y162.594 F300
M106 S0
M106 S255
G1 X92.744 Y162.509 F300
M106 S0
G0 X92.723 Y162.488 F6000
M106 S255
G1 X92.723 Y162.488 F300
M106 S0
M106 S255
G1 X92.659 Y162.573 F300
M106 S0
M106 S255
G1 X92.723 Y162.637 F300
M106 S0
G0 X92.744 Y162.615 F6000
M106 S255
G1 X92.744 Y162.615 F300
M106 S0
M106 S255
G1 X92.681 Y162.552 F300
M106 S0
G0 X92.681 Y162.531 F6000
M106 S255
G1 X92.681 Y162.531 F300
M106 S0
M106 S255
G1 X92.766 Y162.615 F300
M106 S0
G0 X92.787 Y162.594 F6000
M106 S255
G1 X92.787 Y162.594 F300
M106 S0
M106 S255
G1 X92.702 Y162.509 F300
M106 S0
G0 X92.723 Y162.509 F6000
M106 S255
G1 X92.723 Y162.509 F300
M106 S0
M106 S255
G1 X92.787 Y162.594 F300
M106 S0
G0 X92.808 Y162.573 F6000
M106 S255
G1 X92.808 Y162.573 F300
M106 S0
M106 S255
G1 X92.723 Y162.488 F300
M106 S0
M106 S255
G1 X92.723 Y162.637 F300
M106 S0
G0 X92.723 Y162.615 F6000
M106 S255
G1 X92.723 Y162.615 F300
M106 S0
M106 S255
G1 X92.723 Y162.509 F300
M106 S0
G0 X92.702 Y162.509 F6000
M106 S255
G1 X92.702 Y162.509 F300
M106 S0
M106 S255
G1 X92.702 Y162.615 F300
M106 S0
G0 X92.681 Y162.594 F6000
M106 S255
G1 X92.681 Y162.594 F300
M106 S0
M106 S255
G1 X92.681 Y162.531 F300
M106 S0
G0 X92.787 Y162.531 F6000
M106 S255
G1 X92.787 Y162.531 F300
M106 S0
M106 S255
G1 X92.787 Y162.594 F300
M106 S0
G0 X92.766 Y162.615 F6000
M106 S255
G1 X92.766 Y162.615 F300
M106 S0
M106 S255
G1 X92.766 Y162.509 F300
M106 S0
G0 X92.744 Y162.509 F6000
M106 S255
G1 X92.744 Y162.509 F300
M106 S0
M106 S255
G1 X92.744 Y162.615 F300
M106 S0
G0 X92.766 Y162.615 F6000
M106 S255
G1 X92.766 Y162.615 F300
M106 S0
M106 S255
G1 X92.702 Y162.615 F300
M106 S0
G0 X92.681 Y162.594 F6000
M106 S255
G1 X92.681 Y162.594 F300
M106 S0
M106 S255
G1 X92.787 Y162.594 F300
M106 S0
G0 X92.787 Y162.594 F6000
M106 S255
G1 X92.787 Y162.594 F300
M106 S0
M106 S255
G1 X92.681 Y162.594 F300
M106 S0
G0 X92.659 Y162.573 F6000
M106 S255
G1 X92.659 Y162.573 F300
M106 S0
M106 S255
G1 X92.808 Y162.573 F300
M106 S0
G0 X92.787 Y162.552 F6000
M106 S255
G1 X92.787 Y162.552 F300
M106 S0
M106 S255
G1 X92.681 Y162.552 F300
M106 S0
G0 X92.681 Y162.531 F6000
M106 S255
G1 X92.681 Y162.531 F300
M106 S0
M106 S255
G1 X92.787 Y162.531 F300
M106 S0
G0 X92.766 Y162.509 F6000
M106 S255
G1 X92.766 Y162.509 F300
M106 S0
M106 S255
G1 X92.702 Y162.509 F300
M106 S0
G0 X93.233 Y164.272 F6000
M106 S255
G1 X93.233 Y164.272 F300
M106 S0
M106 S255
G1 X93.127 Y164.102 F300
M106 S0
M106 S255
G1 X93.042 Y163.953 F300
M106 S0
M106 S255
G1 X93.042 Y163.762 F300
M106 S0
M106 S255
G1 X93.127 Y163.613 F300
M106 S0
M106 S255
G1 X93.233 Y163.528 F300
M106 S0
M106 S255
G1 X93.381 Y163.444 F300
M106 S0
M106 S255
G1 X93.551 Y163.528 F300
M106 S0
M106 S255
G1 X93.636 Y163.613 F300
M106 S0
M106 S255
G1 X93.827 Y164.187 F300
M106 S0
M106 S255
G1 X93.912 Y164.272 F300
M106 S0
M106 S255
G1 X94.061 Y164.378 F300
M106 S0
M106 S255
G1 X94.231 Y164.272 F300
M106 S0
M106 S255
G1 X94.316 Y164.187 F300
M106 S0
M106 S255
G1 X94.401 Y163.953 F300
M106 S0
M106 S255
G1 X94.401 Y163.762 F300
M106 S0
M106 S255
G1 X94.316 Y163.528 F300
M106 S0
M106 S255
G1 X94.231 Y163.444 F300
M106 S0
M106 S255
G1 X94.061 Y163.359 F300
M106 S0
G0 X92.681 Y166.798 F6000
M106 S255
G1 X92.681 Y166.798 F300
M106 S0
M106 S255
G1 X92.681 Y166.798 F300
M106 S0
M106 S255
G1 X92.681 Y166.798 F300
M106 S0
M106 S255
G1 X92.681 Y166.798 F300
M106 S0
M106 S255
G1 X92.681 Y166.798 F300
M106 S0
M106 S255
G1 X92.659 Y166.798 F300
M106 S0
G0 X92.723 Y166.883 F6000
M106 S255
G1 X92.723 Y166.883 F300
M106 S0
M106 S255
G1 X92.808 Y166.798 F300
M106 S0
G0 X92.787 Y166.777 F6000
M106 S255
G1 X92.787 Y166.777 F300
M106 S0
M106 S255
G1 X92.723 Y166.862 F300
M106 S0
G0 X92.702 Y166.862 F6000
M106 S255
G1 X92.702 Y166.862 F300
M106 S0
M106 S255
G1 X92.787 Y166.777 F300
M106 S0
G0 X92.766 Y166.756 F6000
M106 S255
G1 X92.766 Y166.756 F300
M106 S0
M106 S255
G1 X92.681 Y166.841 F300
M106 S0
G0 X92.681 Y166.82 F6000
M106 S255
G1 X92.681 Y166.82 F300
M106 S0
M106 S255
G1 X92.744 Y166.756 F300
M106 S0
G0 X92.723 Y166.735 F6000
M106 S255
G1 X92.723 Y166.735 F300
M106 S0
M106 S255
G1 X92.659 Y166.798 F300
M106 S0
M106 S255
G1 X92.723 Y166.883 F300
M106 S0
G0 X92.744 Y166.862 F6000
M106 S255
G1 X92.744 Y166.862 F300
M106 S0
M106 S255
G1 X92.681 Y166.777 F300
M106 S0
G0 X92.681 Y166.777 F6000
M106 S255
G1 X92.681 Y166.777 F300
M106 S0
M106 S255
G1 X92.766 Y166.862 F300
M106 S0
G0 X92.787 Y166.841 F6000
M106 S255
G1 X92.787 Y166.841 F300
M106 S0
M106 S255
G1 X92.702 Y166.756 F300
M106 S0
G0 X92.723 Y166.756 F6000
M106 S255
G1 X92.723 Y166.756 F300
M106 S0
M106 S255
G1 X92.787 Y166.82 F300
M106 S0
G0 X92.808 Y166.798 F6000
M106 S255
G1 X92.808 Y166.798 F300
M106 S0
M106 S255
G1 X92.723 Y166.735 F300
M106 S0
M106 S255
G1 X92.723 Y166.883 F300
M106 S0
G0 X92.723 Y166.862 F6000
M106 S255
G1 X92.723 Y166.862 F300
M106 S0
M106 S255
G1 X92.723 Y166.756 F300
M106 S0
G0 X92.702 Y166.756 F6000
M106 S255
G1 X92.702 Y166.756 F300
M106 S0
M106 S255
G1 X92.702 Y166.862 F300
M106 S0
G0 X92.681 Y166.841 F6000
M106 S255
G1 X92.681 Y166.841 F300
M106 S0
M106 S255
G1 X92.681 Y166.777 F300
M106 S0
G0 X92.787 Y166.777 F6000
M106 S255
G1 X92.787 Y166.777 F300
M106 S0
M106 S255
G1 X92.787 Y166.841 F300
M106 S0
G0 X92.766 Y166.862 F6000
M106 S255
G1 X92.766 Y166.862 F300
M106 S0
M106 S255
G1 X92.766 Y166.756 F300
M106 S0
G0 X92.744 Y166.756 F6000
M106 S255
G1 X92.744 Y166.756 F300
M106 S0
M106 S255
G1 X92.744 Y166.862 F300
M106 S0
G0 X92.766 Y166.862 F6000
M106 S255
G1 X92.766 Y166.862 F300
M106 S0
M106 S255
G1 X92.702 Y166.862 F300
M106 S0
G0 X92.681 Y166.841 F6000
M106 S255
G1 X92.681 Y166.841 F300
M106 S0
M106 S255
G1 X92.787 Y166.841 F300
M106 S0
G0 X92.787 Y166.82 F6000
M106 S255
G1 X92.787 Y166.82 F300
M106 S0
M106 S255
G1 X92.681 Y166.82 F300
M106 S0
G0 X92.659 Y166.798 F6000
M106 S255
G1 X92.659 Y166.798 F300
M106 S0
M106 S255
G1 X92.808 Y166.798 F300
M106 S0
G0 X92.787 Y166.777 F6000
M106 S255
G1 X92.787 Y166.777 F300
M106 S0
M106 S255
G1 X92.681 Y166.777 F300
M106 S0
G0 X92.681 Y166.777 F6000
M106 S255
G1 X92.681 Y166.777 F300
M106 S0
M106 S255
G1 X92.787 Y166.777 F300
M106 S0
G0 X92.766 Y166.756 F6000
M106 S255
G1 X92.766 Y166.756 F300
M106 S0
M106 S255
G1 X92.702 Y166.756 F300
M106 S0
G0 X93.233 Y166.777 F6000
M106 S255
G1 X93.233 Y166.777 F300
M106 S0
M106 S255
G1 X94.273 Y166.777 F300
M106 S0
M106 S255
G1 X94.592 Y166.437 F300
M106 S0
M106 S255
G1 X94.677 Y166.268 F300
M106 S0
M106 S255
G1 X94.677 Y166.183 F300
M106 S0
M106 S255
G1 X94.592 Y166.034 F300
M106 S0
M106 S255
G1 X94.507 Y165.928 F300
M106 S0
G0 X92.872 Y167.775 F6000
M106 S255
G1 X92.872 Y167.775 F300
M106 S0
M106 S255
G1 X92.872 Y167.775 F300
M106 S0
M106 S255
G1 X92.872 Y167.775 F300
M106 S0
M106 S255
G1 X92.872 Y167.775 F300
M106 S0
M106 S255
G1 X92.872 Y167.775 F300
M106 S0
M106 S255
G1 X92.872 Y167.775 F300
M106 S0
M106 S255
G1 X92.872 Y167.775 F300
M106 S0
M106 S255
G1 X92.872 Y167.775 F300
M106 S0
M106 S255
G1 X92.851 Y167.775 F300
M106 S0
G0 X92.893 Y167.817 F6000
M106 S255
G1 X92.893 Y167.817 F300
M106 S0
M106 S255
G1 X92.935 Y167.775 F300
M106 S0
G0 X92.935 Y167.775 F6000
M106 S255
G1 X92.935 Y167.775 F300
M106 S0
M106 S255
G1 X92.893 Y167.817 F300
M106 S0
G0 X92.872 Y167.817 F6000
M106 S255
G1 X92.872 Y167.817 F300
M106 S0
M106 S255
G1 X92.935 Y167.754 F300
M106 S0
G0 X92.935 Y167.733 F6000
M106 S255
G1 X92.935 Y167.733 F300
M106 S0
M106 S255
G1 X92.851 Y167.817 F300
M106 S0
G0 X92.851 Y167.796 F6000
M106 S255
G1 X92.851 Y167.796 F300
M106 S0
M106 S255
G1 X92.914 Y167.733 F300
M106 S0
G0 X92.893 Y167.733 F6000
M106 S255
G1 X92.893 Y167.733 F300
M106 S0
M106 S255
G1 X92.851 Y167.775 F300
M106 S0
G0 X92.829 Y167.775 F6000
M106 S255
G1 X92.829 Y167.775 F300
M106 S0
M106 S255
G1 X92.893 Y167.711 F300
M106 S0
M106 S255
G1 X92.935 Y167.775 F300
M106 S0
G0 X92.935 Y167.775 F6000
M106 S255
G1 X92.935 Y167.775 F300
M106 S0
M106 S255
G1 X92.893 Y167.733 F300
M106 S0
G0 X92.872 Y167.733 F6000
M106 S255
G1 X92.872 Y167.733 F300
M106 S0
M106 S255
G1 X92.935 Y167.796 F300
M106 S0
G0 X92.935 Y167.817 F6000
M106 S255
G1 X92.935 Y167.817 F300
M106 S0
M106 S255
G1 X92.851 Y167.733 F300
M106 S0
G0 X92.851 Y167.754 F6000
M106 S255
G1 X92.851 Y167.754 F300
M106 S0
M106 S255
G1 X92.914 Y167.817 F300
M106 S0
G0 X92.893 Y167.817 F6000
M106 S255
G1 X92.893 Y167.817 F300
M106 S0
M106 S255
G1 X92.851 Y167.775 F300
M106 S0
G0 X92.829 Y167.775 F6000
M106 S255
G1 X92.829 Y167.775 F300
M106 S0
M106 S255
G1 X92.893 Y167.817 F300
M106 S0
M106 S255
G1 X92.893 Y167.711 F300
M106 S0
G0 X92.872 Y167.733 F6000
M106 S255
G1 X92.872 Y167.733 F300
M106 S0
M106 S255
G1 X92.872 Y167.817 F300
M106 S0
G0 X92.851 Y167.817 F6000
M106 S255
G1 X92.851 Y167.817 F300
M106 S0
M106 S255
G1 X92.851 Y167.733 F300
M106 S0
G0 X92.935 Y167.733 F6000
M106 S255
G1 X92.935 Y167.733 F300
M106 S0
M106 S255
G1 X92.935 Y167.817 F300
M106 S0
G0 X92.914 Y167.817 F6000
M106 S255
G1 X92.914 Y167.817 F300
M106 S0
M106 S255
G1 X92.914 Y167.733 F300
M106 S0
G0 X92.935 Y167.733 F6000
M106 S255
G1 X92.935 Y167.733 F300
M106 S0
M106 S255
G1 X92.851 Y167.733 F300
M106 S0
G0 X92.851 Y167.754 F6000
M106 S255
G1 X92.851 Y167.754 F300
M106 S0
M106 S255
G1 X92.935 Y167.754 F300
M106 S0
G0 X92.935 Y167.775 F6000
M106 S255
G1 X92.935 Y167.775 F300
M106 S0
M106 S255
G1 X92.829 Y167.775 F300
M106 S0
G0 X92.851 Y167.796 F6000
M106 S255
G1 X92.851 Y167.796 F300
M106 S0
M106 S255
G1 X92.935 Y167.796 F300
M106 S0
G0 X92.935 Y167.817 F6000
M106 S255
G1 X92.935 Y167.817 F300
M106 S0
M106 S255
G1 X92.851 Y167.817 F300
M106 S0
G0 X92.893 Y167.817 F6000
M106 S255
G1 X92.893 Y167.817 F300
M106 S0
M106 S255
G1 X92.935 Y167.817 F300
M106 S0
M106 S255
G1 X93.063 Y167.796 F300
M106 S0
M106 S255
G1 X93.127 Y167.711 F300
M106 S0
G0 X93.657 Y169.75 F6000
M106 S255
G1 X93.657 Y169.75 F300
M106 S0
M106 S255
G1 X93.551 Y169.495 F300
M106 S0
M106 S255
G1 X93.551 Y169.155 F300
M106 S0
M106 S255
G1 X93.657 Y168.9 F300
M106 S0
M106 S255
G1 X93.742 Y168.815 F300
M106 S0
M106 S255
G1 X93.912 Y168.731 F300
M106 S0
M106 S255
G1 X94.061 Y168.731 F300
M106 S0
M106 S255
G1 X94.231 Y168.815 F300
M106 S0
M106 S255
G1 X94.316 Y168.9 F300
M106 S0
M106 S255
G1 X94.401 Y169.155 F300
M106 S0
M106 S255
G1 X94.401 Y169.495 F300
M106 S0
M106 S255
G1 X94.316 Y169.75 F300
M106 S0
G0 X93.042 Y169.219 F6000
M106 S255
G1 X93.042 Y169.219 F300
M106 S0
M106 S255
G1 X93.042 Y169.58 F300
M106 S0
M106 S255
G1 X93.127 Y169.665 F300
M106 S0
M106 S255
G1 X93.318 Y169.75 F300
M106 S0
M106 S255
G1 X94.401 Y169.75 F300
M106 S0
G0 X94.401 Y170.535 F6000
M106 S255
G1 X94.401 Y170.535 F300
M106 S0
M106 S255
G1 X93.211 Y170.535 F300
M106 S0
G0 X92.681 Y170.535 F6000
M106 S255
G1 X92.681 Y170.535 F300
M106 S0
M106 S255
G1 X92.681 Y170.535 F300
M106 S0
M106 S255
G1 X92.681 Y170.535 F300
M106 S0
M106 S255
G1 X92.681 Y170.535 F300
M106 S0
M106 S255
G1 X92.681 Y170.535 F300
M106 S0
M106 S255
G1 X92.659 Y170.535 F300
M106 S0
G0 X92.723 Y170.62 F6000
M106 S255
G1 X92.723 Y170.62 F300
M106 S0
M106 S255
G1 X92.808 Y170.535 F300
M106 S0
G0 X92.787 Y170.535 F6000
M106 S255
G1 X92.787 Y170.535 F300
M106 S0
M106 S255
G1 X92.723 Y170.599 F300
M106 S0
G0 X92.702 Y170.599 F6000
M106 S255
G1 X92.702 Y170.599 F300
M106 S0
M106 S255
G1 X92.787 Y170.514 F300
M106 S0
G0 X92.766 Y170.493 F6000
M106 S255
G1 X92.766 Y170.493 F300
M106 S0
M106 S255
G1 X92.681 Y170.578 F300
M106 S0
G0 X92.681 Y170.557 F6000
M106 S255
G1 X92.681 Y170.557 F300
M106 S0
M106 S255
G1 X92.744 Y170.493 F300
M106 S0
G0 X92.723 Y170.472 F6000
M106 S255
G1 X92.723 Y170.472 F300
M106 S0
M106 S255
G1 X92.659 Y170.535 F300
M106 S0
M106 S255
G1 X92.723 Y170.62 F300
M106 S0
G0 X92.744 Y170.599 F6000
M106 S255
G1 X92.744 Y170.599 F300
M106 S0
M106 S255
G1 X92.681 Y170.535 F300
M106 S0
G0 X92.681 Y170.514 F6000
M106 S255
G1 X92.681 Y170.514 F300
M106 S0
M106 S255
G1 X92.766 Y170.599 F300
M106 S0
G0 X92.787 Y170.578 F6000
M106 S255
G1 X92.787 Y170.578 F300
M106 S0
M106 S255
G1 X92.702 Y170.493 F300
M106 S0
G0 X92.723 Y170.493 F6000
M106 S255
G1 X92.723 Y170.493 F300
M106 S0
M106 S255
G1 X92.787 Y170.557 F300
M106 S0
G0 X92.808 Y170.535 F6000
M106 S255
G1 X92.808 Y170.535 F300
M106 S0
M106 S255
G1 X92.723 Y170.472 F300
M106 S0
M106 S255
G1 X92.723 Y170.62 F300
M106 S0
G0 X92.723 Y170.599 F6000
M106 S255
G1 X92.723 Y170.599 F300
M106 S0
M106 S255
G1 X92.723 Y170.493 F300
M106 S0
G0 X92.702 Y170.493 F6000
M106 S255
G1 X92.702 Y170.493 F300
M106 S0
M106 S255
G1 X92.702 Y170.599 F300
M106 S0
G0 X92.681 Y170.578 F6000
M106 S255
G1 X92.681 Y170.578 F300
M106 S0
M106 S255
G1 X92.681 Y170.514 F300
M106 S0
G0 X92.787 Y170.514 F6000
M106 S255
G1 X92.787 Y170.514 F300
M106 S0
M106 S255
G1 X92.787 Y170.578 F300
M106 S0
G0 X92.766 Y170.599 F6000
M106 S255
G1 X92.766 Y170.599 F300
M106 S0
M106 S255
G1 X92.766 Y170.493 F300
M106 S0
G0 X92.744 Y170.493 F6000
M106 S255
G1 X92.744 Y170.493 F300
M106 S0
M106 S255
G1 X92.744 Y170.599 F300
M106 S0
G0 X92.766 Y170.599 F6000
M106 S255
G1 X92.766 Y170.599 F300
M106 S0
M106 S255
G1 X92.702 Y170.599 F300
M106 S0
G0 X92.681 Y170.578 F6000
M106 S255
G1 X92.681 Y170.578 F300
M106 S0
M106 S255
G1 X92.787 Y170.578 F300
M106 S0
G0 X92.787 Y170.557 F6000
M106 S255
G1 X92.787 Y170.557 F300
M106 S0
M106 S255
G1 X92.681 Y170.557 F300
M106 S0
G0 X92.659 Y170.535 F6000
M106 S255
G1 X92.659 Y170.535 F300
M106 S0
M106 S255
G1 X92.808 Y170.535 F300
M106 S0
G0 X92.787 Y170.535 F6000
M106 S255
G1 X92.787 Y170.535 F300
M106 S0
M106 S255
G1 X92.681 Y170.535 F300
M106 S0
G0 X92.681 Y170.514 F6000
M106 S255
G1 X92.681 Y170.514 F300
M106 S0
M106 S255
G1 X92.787 Y170.514 F300
M106 S0
G0 X92.766 Y170.493 F6000
M106 S255
G1 X92.766 Y170.493 F300
M106 S0
M106 S255
G1 X92.702 Y170.493 F300
M106 S0
G0 X94.825 Y172.191 F6000
M106 S255
G1 X94.825 Y172.191 F300
M106 S0
M106 S255
G1 X93.042 Y172.191 F300
M106 S0
M106 S255
G1 X93.042 Y172.616 F300
M106 S0
M106 S255
G1 X93.127 Y172.807 F300
M106 S0
M106 S255
G1 X93.296 Y172.956 F300
M106 S0
M106 S255
G1 X93.551 Y173.041 F300
M106 S0
M106 S255
G1 X93.912 Y173.041 F300
M106 S0
M106 S255
G1 X94.167 Y172.956 F300
M106 S0
M106 S255
G1 X94.316 Y172.807 F300
M106 S0
M106 S255
G1 X94.401 Y172.616 F300
M106 S0
M106 S255
G1 X94.401 Y172.191 F300
M106 S0
G0 X93.657 Y174.782 F6000
M106 S255
G1 X93.657 Y174.782 F300
M106 S0
M106 S255
G1 X93.551 Y174.527 F300
M106 S0
M106 S255
G1 X93.551 Y174.187 F300
M106 S0
M106 S255
G1 X93.657 Y173.933 F300
M106 S0
M106 S255
G1 X93.742 Y173.848 F300
M106 S0
M106 S255
G1 X93.912 Y173.763 F300
M106 S0
M106 S255
G1 X94.061 Y173.763 F300
M106 S0
M106 S255
G1 X94.231 Y173.848 F300
M106 S0
M106 S255
G1 X94.316 Y173.933 F300
M106 S0
M106 S255
G1 X94.401 Y174.187 F300
M106 S0
M106 S255
G1 X94.401 Y174.527 F300
M106 S0
M106 S255
G1 X94.316 Y174.782 F300
M106 S0
G0 X93.042 Y174.251 F6000
M106 S255
G1 X93.042 Y174.251 F300
M106 S0
M106 S255
G1 X93.042 Y174.612 F300
M106 S0
M106 S255
G1 X93.127 Y174.697 F300
M106 S0
M106 S255
G1 X93.318 Y174.782 F300
M106 S0
M106 S255
G1 X94.401 Y174.782 F300
M106 S0
G0 X93.233 Y176.396 F6000
M106 S255
G1 X93.233 Y176.396 F300
M106 S0
M106 S255
G1 X93.127 Y176.226 F300
M106 S0
M106 S255
G1 X93.042 Y176.056 F300
M106 S0
M106 S255
G1 X93.042 Y175.886 F300
M106 S0
M106 S255
G1 X93.127 Y175.737 F300
M106 S0
M106 S255
G1 X93.233 Y175.652 F300
M106 S0
M106 S255
G1 X93.381 Y175.567 F300
M106 S0
M106 S255
G1 X93.551 Y175.652 F300
M106 S0
M106 S255
G1 X93.636 Y175.737 F300
M106 S0
M106 S255
G1 X93.827 Y176.311 F300
M106 S0
M106 S255
G1 X93.912 Y176.396 F300
M106 S0
M106 S255
G1 X94.061 Y176.48 F300
M106 S0
M106 S255
G1 X94.231 Y176.396 F300
M106 S0
M106 S255
G1 X94.316 Y176.311 F300
M106 S0
M106 S255
G1 X94.401 Y176.077 F300
M106 S0
M106 S255
G1 X94.401 Y175.886 F300
M106 S0
M106 S255
G1 X94.316 Y175.652 F300
M106 S0
M106 S255
G1 X94.231 Y175.567 F300
M106 S0
M106 S255
G1 X94.061 Y175.483 F300
M106 S0
G0 X92.638 Y178.052 F6000
M106 S255
G1 X92.638 Y178.052 F300
M106 S0
M106 S255
G1 X93.976 Y178.052 F300
M106 S0
M106 S255
G1 X94.231 Y178.137 F300
M106 S0
M106 S255
G1 X94.316 Y178.222 F300
M106 S0
M106 S255
G1 X94.401 Y178.391 F300
M106 S0
M106 S255
G1 X94.401 Y178.476 F300
M106 S0
M106 S255
G1 X94.316 Y178.561 F300
M106 S0
M106 S255
G1 X94.061 Y178.646 F300
M106 S0
G0 X93.551 Y179.347 F6000
M106 S255
G1 X93.551 Y179.347 F300
M106 S0
M106 S255
G1 X93.551 Y180.366 F300
M106 S0
M106 S255
G1 X93.318 Y180.281 F300
M106 S0
M106 S255
G1 X93.127 Y180.111 F300
M106 S0
M106 S255
G1 X93.042 Y179.941 F300
M106 S0
M106 S255
G1 X93.042 Y179.772 F300
M106 S0
M106 S255
G1 X93.127 Y179.623 F300
M106 S0
M106 S255
G1 X93.318 Y179.432 F300
M106 S0
M106 S255
G1 X93.551 Y179.347 F300
M106 S0
M106 S255
G1 X93.912 Y179.347 F300
M106 S0
M106 S255
G1 X94.167 Y179.432 F300
M106 S0
M106 S255
G1 X94.316 Y179.623 F300
M106 S0
M106 S255
G1 X94.401 Y179.772 F300
M106 S0
M106 S255
G1 X94.401 Y179.941 F300
M106 S0
M106 S255
G1 X94.316 Y180.111 F300
M106 S0
M106 S255
G1 X94.167 Y180.281 F300
M106 S0
G0 X93.127 Y182.872 F6000
M106 S255
G1 X93.127 Y182.872 F300
M106 S0
M106 S255
G1 X93.042 Y182.638 F300
M106 S0
M106 S255
G1 X93.042 Y182.362 F300
M106 S0
M106 S255
G1 X93.127 Y182.213 F300
M106 S0
M106 S255
G1 X93.318 Y182.022 F300
M106 S0
M106 S255
G1 X93.551 Y181.937 F300
M106 S0
M106 S255
G1 X93.912 Y181.937 F300
M106 S0
M106 S255
G1 X94.167 Y182.022 F300
M106 S0
M106 S255
G1 X94.316 Y182.213 F300
M106 S0
M106 S255
G1 X94.401 Y182.362 F300
M106 S0
M106 S255
G1 X94.401 Y182.638 F300
M106 S0
M106 S255
G1 X94.316 Y182.872 F300
M106 S0
G0 X92.638 Y182.872 F6000
M106 S255
G1 X92.638 Y182.872 F300
M106 S0
M106 S255
G1 X94.401 Y182.872 F300
M106 S0
G0 X94.401 Y183.593 F6000
M106 S255
G1 X94.401 Y183.593 F300
M106 S0
M106 S255
G1 X93.042 Y183.593 F300
M106 S0
G0 X93.551 Y183.593 F6000
M106 S255
G1 X93.551 Y183.593 F300
M106 S0
M106 S255
G1 X93.211 Y183.678 F300
M106 S0
M106 S255
G1 X93.042 Y183.827 F300
M106 S0
M106 S255
G1 X93.042 Y183.997 F300
M106 S0
M106 S255
G1 X93.296 Y184.252 F300
M106 S0
G0 X94.401 Y185.377 F6000
M106 S255
G1 X94.401 Y185.377 F300
M106 S0
M106 S255
G1 X94.337 Y185.228 F300
M106 S0
M106 S255
G1 X94.167 Y185.037 F300
M106 S0
M106 S255
G1 X93.912 Y184.952 F300
M106 S0
M106 S255
G1 X93.551 Y184.952 F300
M106 S0
M106 S255
G1 X93.296 Y185.037 F300
M106 S0
M106 S255
G1 X93.127 Y185.228 F300
M106 S0
M106 S255
G1 X93.042 Y185.377 F300
M106 S0
M106 S255
G1 X93.042 Y185.568 F300
M106 S0
M106 S255
G1 X93.127 Y185.717 F300
M106 S0
M106 S255
G1 X93.296 Y185.887 F300
M106 S0
M106 S255
G1 X93.551 Y185.993 F300
M106 S0
M106 S255
G1 X93.912 Y185.993 F300
M106 S0
M106 S255
G1 X94.167 Y185.887 F300
M106 S0
M106 S255
G1 X94.337 Y185.717 F300
M106 S0
M106 S255
G1 X94.401 Y185.568 F300
M106 S0
M106 S255
G1 X94.401 Y185.377 F300
M106 S0
M106 S255
G1 X94.401 Y185.377 F300
M106 S0
G0 X94.401 Y186.778 F6000
M106 S255
G1 X94.401 Y186.778 F300
M106 S0
M106 S255
G1 X93.211 Y186.778 F300
M106 S0
G0 X92.681 Y186.778 F6000
M106 S255
G1 X92.681 Y186.778 F300
M106 S0
M106 S255
G1 X92.681 Y186.778 F300
M106 S0
M106 S255
G1 X92.681 Y186.778 F300
M106 S0
M106 S255
G1 X92.681 Y186.778 F300
M106 S0
M106 S255
G1 X92.681 Y186.778 F300
M106 S0
M106 S255
G1 X92.659 Y186.778 F300
M106 S0
G0 X92.723 Y186.842 F6000
M106 S255
G1 X92.723 Y186.842 F300
M106 S0
M106 S255
G1 X92.808 Y186.778 F300
M106 S0
G0 X92.787 Y186.757 F6000
M106 S255
G1 X92.787 Y186.757 F300
M106 S0
M106 S255
G1 X92.723 Y186.821 F300
M106 S0
G0 X92.702 Y186.821 F6000
M106 S255
G1 X92.702 Y186.821 F300
M106 S0
M106 S255
G1 X92.787 Y186.736 F300
M106 S0
G0 X92.766 Y186.715 F6000
M106 S255
G1 X92.766 Y186.715 F300
M106 S0
M106 S255
G1 X92.681 Y186.821 F300
M106 S0
G0 X92.681 Y186.8 F6000
M106 S255
G1 X92.681 Y186.8 F300
M106 S0
M106 S255
G1 X92.744 Y186.715 F300
M106 S0
G0 X92.723 Y186.715 F6000
M106 S255
G1 X92.723 Y186.715 F300
M106 S0
M106 S255
G1 X92.659 Y186.778 F300
M106 S0
M106 S255
G1 X92.723 Y186.842 F300
M106 S0
G0 X92.744 Y186.821 F6000
M106 S255
G1 X92.744 Y186.821 F300
M106 S0
M106 S255
G1 X92.681 Y186.757 F300
M106 S0
G0 X92.681 Y186.736 F6000
M106 S255
G1 X92.681 Y186.736 F300
M106 S0
M106 S255
G1 X92.766 Y186.821 F300
M106 S0
G0 X92.787 Y186.821 F6000
M106 S255
G1 X92.787 Y186.821 F300
M106 S0
M106 S255
G1 X92.702 Y186.715 F300
M106 S0
G0 X92.723 Y186.715 F6000
M106 S255
G1 X92.723 Y186.715 F300
M106 S0
M106 S255
G1 X92.787 Y186.8 F300
M106 S0
G0 X92.808 Y186.778 F6000
M106 S255
G1 X92.808 Y186.778 F300
M106 S0
M106 S255
G1 X92.723 Y186.715 F300
M106 S0
M106 S255
G1 X92.723 Y186.842 F300
M106 S0
G0 X92.723 Y186.821 F6000
M106 S255
G1 X92.723 Y186.821 F300
M106 S0
M106 S255
G1 X92.723 Y186.715 F300
M106 S0
G0 X92.702 Y186.715 F6000
M106 S255
G1 X92.702 Y186.715 F300
M106 S0
M106 S255
G1 X92.702 Y186.821 F300
M106 S0
G0 X92.681 Y186.821 F6000
M106 S255
G1 X92.681 Y186.821 F300
M106 S0
M106 S255
G1 X92.681 Y186.736 F300
M106 S0
G0 X92.787 Y186.736 F6000
M106 S255
G1 X92.787 Y186.736 F300
M106 S0
M106 S255
G1 X92.787 Y186.821 F300
M106 S0
G0 X92.766 Y186.821 F6000
M106 S255
G1 X92.766 Y186.821 F300
M106 S0
M106 S255
G1 X92.766 Y186.715 F300
M106 S0
G0 X92.744 Y186.715 F6000
M106 S255
G1 X92.744 Y186.715 F300
M106 S0
M106 S255
G1 X92.744 Y186.821 F300
M106 S0
G0 X92.766 Y186.821 F6000
M106 S255
G1 X92.766 Y186.821 F300
M106 S0
M106 S255
G1 X92.702 Y186.821 F300
M106 S0
G0 X92.681 Y186.821 F6000
M106 S255
G1 X92.681 Y186.821 F300
M106 S0
M106 S255
G1 X92.787 Y186.821 F300
M106 S0
G0 X92.787 Y186.8 F6000
M106 S255
G1 X92.787 Y186.8 F300
M106 S0
M106 S255
G1 X92.681 Y186.8 F300
M106 S0
G0 X92.659 Y186.778 F6000
M106 S255
G1 X92.659 Y186.778 F300
M106 S0
M106 S255
G1 X92.808 Y186.778 F300
M106 S0
G0 X92.787 Y186.757 F6000
M106 S255
G1 X92.787 Y186.757 F300
M106 S0
M106 S255
G1 X92.681 Y186.757 F300
M106 S0
G0 X92.681 Y186.736 F6000
M106 S255
G1 X92.681 Y186.736 F300
M106 S0
M106 S255
G1 X92.787 Y186.736 F300
M106 S0
G0 X92.766 Y186.715 F6000
M106 S255
G1 X92.766 Y186.715 F300
M106 S0
M106 S255
G1 X92.702 Y186.715 F300
M106 S0
G0 X93.127 Y187.564 F6000
M106 S255
G1 X93.127 Y187.564 F300
M106 S0
M106 S255
G1 X93.127 Y188.243 F300
M106 S0
G0 X92.638 Y187.904 F6000
M106 S255
G1 X92.638 Y187.904 F300
M106 S0
M106 S255
G1 X94.316 Y187.904 F300
M106 S0
M106 S255
G1 X94.401 Y187.989 F300
M106 S0
M106 S255
G1 X94.337 Y188.158 F300
M106 S0
M106 S255
G1 X94.252 Y188.243 F300
M106 S0
G0 X96.142 Y114.268 F6000
M106 S255
G1 X96.142 Y114.268 F300
M106 S0
M106 S255
G1 X96.035 Y114.035 F300
M106 S0
M106 S255
G1 X96.035 Y113.759 F300
M106 S0
M106 S255
G1 X96.142 Y113.61 F300
M106 S0
M106 S255
G1 X96.311 Y113.419 F300
M106 S0
M106 S255
G1 X96.545 Y113.334 F300
M106 S0
M106 S255
G1 X96.906 Y113.334 F300
M106 S0
M106 S255
G1 X97.161 Y113.419 F300
M106 S0
M106 S255
G1 X97.309 Y113.61 F300
M106 S0
M106 S255
G1 X97.394 Y113.759 F300
M106 S0
M106 S255
G1 X97.394 Y114.035 F300
M106 S0
M106 S255
G1 X97.309 Y114.268 F300
M106 S0
G0 X95.632 Y114.268 F6000
M106 S255
G1 X95.632 Y114.268 F300
M106 S0
M106 S255
G1 X97.394 Y114.268 F300
M106 S0
G0 X96.545 Y114.969 F6000
M106 S255
G1 X96.545 Y114.969 F300
M106 S0
M106 S255
G1 X96.545 Y116.01 F300
M106 S0
M106 S255
G1 X96.311 Y115.903 F300
M106 S0
M106 S255
G1 X96.142 Y115.734 F300
M106 S0
M106 S255
G1 X96.035 Y115.585 F300
M106 S0
M106 S255
G1 X96.035 Y115.394 F300
M106 S0
M106 S255
G1 X96.142 Y115.245 F300
M106 S0
M106 S255
G1 X96.311 Y115.075 F300
M106 S0
M106 S255
G1 X96.545 Y114.969 F300
M106 S0
M106 S255
G1 X96.906 Y114.969 F300
M106 S0
M106 S255
G1 X97.161 Y115.075 F300
M106 S0
M106 S255
G1 X97.309 Y115.245 F300
M106 S0
M106 S255
G1 X97.394 Y115.394 F300
M106 S0
M106 S255
G1 X97.394 Y115.585 F300
M106 S0
M106 S255
G1 X97.309 Y115.734 F300
M106 S0
M106 S255
G1 X97.161 Y115.903 F300
M106 S0
G0 X96.227 Y118.494 F6000
M106 S255
G1 X96.227 Y118.494 F300
M106 S0
M106 S255
G1 X96.142 Y118.303 F300
M106 S0
M106 S255
G1 X96.035 Y118.154 F300
M106 S0
M106 S255
G1 X96.035 Y117.984 F300
M106 S0
M106 S255
G1 X96.142 Y117.814 F300
M106 S0
M106 S255
G1 X96.227 Y117.729 F300
M106 S0
M106 S255
G1 X96.375 Y117.666 F300
M106 S0
M106 S255
G1 X96.545 Y117.729 F300
M106 S0
M106 S255
G1 X96.63 Y117.814 F300
M106 S0
M106 S255
G1 X96.821 Y118.409 F300
M106 S0
M106 S255
G1 X96.906 Y118.494 F300
M106 S0
M106 S255
G1 X97.076 Y118.579 F300
M106 S0
M106 S255
G1 X97.224 Y118.494 F300
M106 S0
M106 S255
G1 X97.309 Y118.409 F300
M106 S0
M106 S255
G1 X97.394 Y118.175 F300
M106 S0
M106 S255
G1 X97.394 Y117.984 F300
M106 S0
M106 S255
G1 X97.309 Y117.751 F300
M106 S0
M106 S255
G1 X97.224 Y117.666 F300
M106 S0
M106 S255
G1 X97.076 Y117.581 F300
M106 S0
G0 X97.394 Y119.704 F6000
M106 S255
G1 X97.394 Y119.704 F300
M106 S0
M106 S255
G1 X97.331 Y119.555 F300
M106 S0
M106 S255
G1 X97.182 Y119.364 F300
M106 S0
M106 S255
G1 X96.906 Y119.279 F300
M106 S0
M106 S255
G1 X96.545 Y119.279 F300
M106 S0
M106 S255
G1 X96.29 Y119.364 F300
M106 S0
M106 S255
G1 X96.142 Y119.555 F300
M106 S0
M106 S255
G1 X96.035 Y119.704 F300
M106 S0
M106 S255
G1 X96.035 Y119.874 F300
M106 S0
M106 S255
G1 X96.142 Y120.044 F300
M106 S0
M106 S255
G1 X96.29 Y120.214 F300
M106 S0
M106 S255
G1 X96.545 Y120.299 F300
M106 S0
M106 S255
G1 X96.906 Y120.299 F300
M106 S0
M106 S255
G1 X97.182 Y120.214 F300
M106 S0
M106 S255
G1 X97.331 Y120.044 F300
M106 S0
M106 S255
G1 X97.394 Y119.874 F300
M106 S0
M106 S255
G1 X97.394 Y119.704 F300
M106 S0
M106 S255
G1 X97.394 Y119.704 F300
M106 S0
G0 X97.394 Y121.02 F6000
M106 S255
G1 X97.394 Y121.02 F300
M106 S0
M106 S255
G1 X96.035 Y121.02 F300
M106 S0
G0 X96.545 Y121.02 F6000
M106 S255
G1 X96.545 Y121.02 F300
M106 S0
M106 S255
G1 X96.205 Y121.105 F300
M106 S0
M106 S255
G1 X96.035 Y121.254 F300
M106 S0
M106 S255
G1 X96.035 Y121.445 F300
M106 S0
M106 S255
G1 X96.29 Y121.679 F300
M106 S0
G0 X96.142 Y122.379 F6000
M106 S255
G1 X96.142 Y122.379 F300
M106 S0
M106 S255
G1 X96.142 Y123.059 F300
M106 S0
G0 X95.632 Y122.719 F6000
M106 S255
G1 X95.632 Y122.719 F300
M106 S0
M106 S255
G1 X97.309 Y122.719 F300
M106 S0
M106 S255
G1 X97.394 Y122.804 F300
M106 S0
M106 S255
G1 X97.331 Y122.974 F300
M106 S0
M106 S255
G1 X97.246 Y123.059 F300
M106 S0
G0 X97.394 Y123.844 F6000
M106 S255
G1 X97.394 Y123.844 F300
M106 S0
M106 S255
G1 X96.205 Y123.844 F300
M106 S0
G0 X95.674 Y123.844 F6000
M106 S255
G1 X95.674 Y123.844 F300
M106 S0
M106 S255
G1 X95.674 Y123.844 F300
M106 S0
M106 S255
G1 X95.674 Y123.844 F300
M106 S0
M106 S255
G1 X95.674 Y123.844 F300
M106 S0
M106 S255
G1 X95.674 Y123.844 F300
M106 S0
M106 S255
G1 X95.653 Y123.844 F300
M106 S0
G0 X95.717 Y123.929 F6000
M106 S255
G1 X95.717 Y123.929 F300
M106 S0
M106 S255
G1 X95.802 Y123.844 F300
M106 S0
G0 X95.781 Y123.844 F6000
M106 S255
G1 X95.781 Y123.844 F300
M106 S0
M106 S255
G1 X95.717 Y123.908 F300
M106 S0
G0 X95.696 Y123.908 F6000
M106 S255
G1 X95.696 Y123.908 F300
M106 S0
M106 S255
G1 X95.781 Y123.823 F300
M106 S0
G0 X95.759 Y123.802 F6000
M106 S255
G1 X95.759 Y123.802 F300
M106 S0
M106 S255
G1 X95.674 Y123.887 F300
M106 S0
G0 X95.674 Y123.866 F6000
M106 S255
G1 X95.674 Y123.866 F300
M106 S0
M106 S255
G1 X95.738 Y123.802 F300
M106 S0
G0 X95.717 Y123.781 F6000
M106 S255
G1 X95.717 Y123.781 F300
M106 S0
M106 S255
G1 X95.653 Y123.844 F300
M106 S0
M106 S255
G1 X95.717 Y123.929 F300
M106 S0
G0 X95.738 Y123.908 F6000
M106 S255
G1 X95.738 Y123.908 F300
M106 S0
M106 S255
G1 X95.674 Y123.844 F300
M106 S0
G0 X95.674 Y123.823 F6000
M106 S255
G1 X95.674 Y123.823 F300
M106 S0
M106 S255
G1 X95.759 Y123.908 F300
M106 S0
G0 X95.781 Y123.887 F6000
M106 S255
G1 X95.781 Y123.887 F300
M106 S0
M106 S255
G1 X95.696 Y123.802 F300
M106 S0
G0 X95.717 Y123.802 F6000
M106 S255
G1 X95.717 Y123.802 F300
M106 S0
M106 S255
G1 X95.781 Y123.866 F300
M106 S0
G0 X95.802 Y123.844 F6000
M106 S255
G1 X95.802 Y123.844 F300
M106 S0
M106 S255
G1 X95.717 Y123.781 F300
M106 S0
M106 S255
G1 X95.717 Y123.929 F300
M106 S0
G0 X95.717 Y123.908 F6000
M106 S255
G1 X95.717 Y123.908 F300
M106 S0
M106 S255
G1 X95.717 Y123.802 F300
M106 S0
G0 X95.696 Y123.802 F6000
M106 S255
G1 X95.696 Y123.802 F300
M106 S0
M106 S255
G1 X95.696 Y123.908 F300
M106 S0
G0 X95.674 Y123.887 F6000
M106 S255
G1 X95.674 Y123.887 F300
M106 S0
M106 S255
G1 X95.674 Y123.823 F300
M106 S0
G0 X95.781 Y123.823 F6000
M106 S255
G1 X95.781 Y123.823 F300
M106 S0
M106 S255
G1 X95.781 Y123.887 F300
M106 S0
G0 X95.759 Y123.908 F6000
M106 S255
G1 X95.759 Y123.908 F300
M106 S0
M106 S255
G1 X95.759 Y123.802 F300
M106 S0
G0 X95.738 Y123.802 F6000
M106 S255
G1 X95.738 Y123.802 F300
M106 S0
M106 S255
G1 X95.738 Y123.908 F300
M106 S0
G0 X95.759 Y123.908 F6000
M106 S255
G1 X95.759 Y123.908 F300
M106 S0
M106 S255
G1 X95.696 Y123.908 F300
M106 S0
G0 X95.674 Y123.887 F6000
M106 S255
G1 X95.674 Y123.887 F300
M106 S0
M106 S255
G1 X95.781 Y123.887 F300
M106 S0
G0 X95.781 Y123.866 F6000
M106 S255
G1 X95.781 Y123.866 F300
M106 S0
M106 S255
G1 X95.674 Y123.866 F300
