;GCode generated by Numa's program v0.0
G0 X14.303 Y15.583 F6000
M106 S255
G1 X14.303 Y15.583 F250
M106 S0
M106 S255
G1 X14.383 Y15.905 F250
M106 S0
M106 S255
G1 X14.537 Y15.917 F250
M106 S0
M106 S255
G1 X14.694 Y15.933 F250
M106 S0
M106 S255
G1 X14.853 Y15.951 F250
M106 S0
M106 S255
G1 X15.014 Y15.973 F250
M106 S0
M106 S255
G1 X15.178 Y15.999 F250
M106 S0
M106 S255
G1 X15.344 Y16.027 F250
M106 S0
M106 S255
G1 X15.512 Y16.059 F250
M106 S0
M106 S255
G1 X15.683 Y16.094 F250
M106 S0
M106 S255
G1 X15.856 Y16.132 F250
M106 S0
M106 S255
G1 X16.032 Y16.173 F250
M106 S0
M106 S255
G1 X15.987 Y16.038 F250
M106 S0
M106 S255
G1 X15.943 Y15.908 F250
M106 S0
M106 S255
G1 X15.903 Y15.783 F250
M106 S0
M106 S255
G1 X15.865 Y15.664 F250
M106 S0
M106 S255
G1 X15.829 Y15.55 F250
M106 S0
M106 S255
G1 X15.797 Y15.441 F250
M106 S0
M106 S255
G1 X15.766 Y15.338 F250
M106 S0
M106 S255
G1 X15.738 Y15.24 F250
M106 S0
M106 S255
G1 X15.713 Y15.147 F250
M106 S0
M106 S255
G1 X15.69 Y15.06 F250
M106 S0
M106 S255
G1 X15.328 Y13.566 F250
M106 S0
M106 S255
G1 X15.56 Y13.572 F250
M106 S0
M106 S255
G1 X15.779 Y13.589 F250
M106 S0
M106 S255
G1 X15.987 Y13.619 F250
M106 S0
M106 S255
G1 X16.184 Y13.661 F250
M106 S0
M106 S255
G1 X16.368 Y13.714 F250
M106 S0
M106 S255
G1 X16.541 Y13.779 F250
M106 S0
M106 S255
G1 X16.702 Y13.856 F250
M106 S0
M106 S255
G1 X16.851 Y13.945 F250
M106 S0
M106 S255
G1 X16.989 Y14.046 F250
M106 S0
M106 S255
G1 X17.115 Y14.159 F250
M106 S0
M106 S255
G1 X17.229 Y14.28 F250
M106 S0
M106 S255
G1 X17.331 Y14.405 F250
M106 S0
M106 S255
G1 X17.421 Y14.535 F250
M106 S0
M106 S255
G1 X17.499 Y14.669 F250
M106 S0
M106 S255
G1 X17.565 Y14.808 F250
M106 S0
M106 S255
G1 X17.619 Y14.951 F250
M106 S0
M106 S255
G1 X17.66 Y15.099 F250
M106 S0
M106 S255
G1 X17.69 Y15.252 F250
M106 S0
M106 S255
G1 X17.708 Y15.408 F250
M106 S0
M106 S255
G1 X17.714 Y15.57 F250
M106 S0
M106 S255
G1 X17.71 Y15.681 F250
M106 S0
M106 S255
G1 X17.697 Y15.789 F250
M106 S0
M106 S255
G1 X17.676 Y15.892 F250
M106 S0
M106 S255
G1 X17.645 Y15.99 F250
M106 S0
M106 S255
G1 X17.606 Y16.084 F250
M106 S0
M106 S255
G1 X17.559 Y16.174 F250
M106 S0
M106 S255
G1 X17.503 Y16.259 F250
M106 S0
M106 S255
G1 X17.438 Y16.34 F250
M106 S0
M106 S255
G1 X17.364 Y16.416 F250
M106 S0
M106 S255
G1 X17.282 Y16.488 F250
M106 S0
M106 S255
G1 X17.191 Y16.554 F250
M106 S0
M106 S255
G1 X17.092 Y16.613 F250
M106 S0
M106 S255
G1 X16.984 Y16.666 F250
M106 S0
M106 S255
G1 X16.868 Y16.711 F250
M106 S0
M106 S255
G1 X16.743 Y16.749 F250
M106 S0
M106 S255
G1 X16.61 Y16.781 F250
M106 S0
M106 S255
G1 X16.468 Y16.805 F250
M106 S0
M106 S255
G1 X16.318 Y16.823 F250
M106 S0
M106 S255
G1 X16.159 Y16.833 F250
M106 S0
M106 S255
G1 X15.992 Y16.836 F250
M106 S0
M106 S255
G1 X15.75 Y16.831 F250
M106 S0
M106 S255
G1 X15.511 Y16.813 F250
M106 S0
M106 S255
G1 X15.274 Y16.785 F250
M106 S0
M106 S255
G1 X15.04 Y16.744 F250
M106 S0
M106 S255
G1 X14.807 Y16.692 F250
M106 S0
M106 S255
G1 X14.577 Y16.629 F250
M106 S0
M106 S255
G1 X14.349 Y16.554 F250
M106 S0
M106 S255
G1 X14.124 Y16.468 F250
M106 S0
M106 S255
G1 X13.901 Y16.37 F250
M106 S0
M106 S255
G1 X13.68 Y16.26 F250
M106 S0
M106 S255
G1 X13.465 Y16.141 F250
M106 S0
M106 S255
G1 X13.259 Y16.015 F250
M106 S0
M106 S255
G1 X13.064 Y15.883 F250
M106 S0
M106 S255
G1 X12.878 Y15.743 F250
M106 S0
M106 S255
G1 X12.702 Y15.596 F250
M106 S0
M106 S255
G1 X12.536 Y15.442 F250
M106 S0
M106 S255
G1 X12.379 Y15.281 F250
M106 S0
M106 S255
G1 X12.232 Y15.113 F250
M106 S0
M106 S255
G1 X12.095 Y14.938 F250
M106 S0
M106 S255
G1 X11.967 Y14.755 F250
M106 S0
M106 S255
G1 X11.851 Y14.57 F250
M106 S0
M106 S255
G1 X11.746 Y14.384 F250
M106 S0
M106 S255
G1 X11.654 Y14.198 F250
M106 S0
M106 S255
G1 X11.575 Y14.012 F250
M106 S0
M106 S255
G1 X11.507 Y13.826 F250
M106 S0
M106 S255
G1 X11.452 Y13.64 F250
M106 S0
M106 S255
G1 X11.409 Y13.454 F250
M106 S0
M106 S255
G1 X11.378 Y13.268 F250
M106 S0
M106 S255
G1 X11.36 Y13.082 F250
M106 S0
M106 S255
G1 X11.354 Y12.895 F250
M106 S0
M106 S255
G1 X11.355 Y12.845 F250
M106 S0
M106 S255
G1 X11.357 Y12.795 F250
M106 S0
M106 S255
G1 X11.36 Y12.746 F250
M106 S0
M106 S255
G1 X11.365 Y12.698 F250
M106 S0
M106 S255
G1 X11.371 Y12.65 F250
M106 S0
M106 S255
G1 X11.379 Y12.603 F250
M106 S0
M106 S255
G1 X11.388 Y12.557 F250
M106 S0
M106 S255
G1 X11.399 Y12.512 F250
M106 S0
M106 S255
G1 X11.411 Y12.467 F250
M106 S0
M106 S255
G1 X11.424 Y12.423 F250
M106 S0
M106 S255
G1 X11.439 Y12.38 F250
M106 S0
M106 S255
G1 X11.455 Y12.337 F250
M106 S0
M106 S255
G1 X11.472 Y12.296 F250
M106 S0
M106 S255
G1 X11.491 Y12.255 F250
M106 S0
M106 S255
G1 X11.511 Y12.214 F250
M106 S0
M106 S255
G1 X11.532 Y12.175 F250
M106 S0
M106 S255
G1 X11.554 Y12.136 F250
M106 S0
M106 S255
G1 X11.578 Y12.098 F250
M106 S0
M106 S255
G1 X11.603 Y12.061 F250
M106 S0
M106 S255
G1 X11.629 Y12.024 F250
M106 S0
M106 S255
G1 X11.647 Y12.002 F250
M106 S0
M106 S255
G1 X11.669 Y11.978 F250
M106 S0
M106 S255
G1 X11.694 Y11.953 F250
M106 S0
M106 S255
G1 X11.724 Y11.925 F250
M106 S0
M106 S255
G1 X11.758 Y11.897 F250
M106 S0
M106 S255
G1 X11.795 Y11.866 F250
M106 S0
M106 S255
G1 X11.837 Y11.835 F250
M106 S0
M106 S255
G1 X11.882 Y11.801 F250
M106 S0
M106 S255
G1 X11.931 Y11.766 F250
M106 S0
M106 S255
G1 X11.984 Y11.729 F250
M106 S0
M106 S255
G1 X12.043 Y11.687 F250
M106 S0
M106 S255
G1 X12.098 Y11.648 F250
M106 S0
M106 S255
G1 X12.148 Y11.61 F250
M106 S0
M106 S255
G1 X12.193 Y11.575 F250
M106 S0
M106 S255
G1 X12.234 Y11.542 F250
M106 S0
M106 S255
G1 X12.269 Y11.512 F250
M106 S0
M106 S255
G1 X12.301 Y11.483 F250
M106 S0
M106 S255
G1 X12.327 Y11.457 F250
M106 S0
M106 S255
G1 X12.349 Y11.433 F250
M106 S0
M106 S255
G1 X12.366 Y11.411 F250
M106 S0
M106 S255
G1 X12.38 Y11.39 F250
M106 S0
M106 S255
G1 X12.392 Y11.368 F250
M106 S0
M106 S255
G1 X12.404 Y11.345 F250
M106 S0
M106 S255
G1 X12.413 Y11.322 F250
M106 S0
M106 S255
G1 X12.421 Y11.298 F250
M106 S0
M106 S255
G1 X12.428 Y11.273 F250
M106 S0
M106 S255
G1 X12.433 Y11.247 F250
M106 S0
M106 S255
G1 X12.437 Y11.221 F250
M106 S0
M106 S255
G1 X12.439 Y11.194 F250
M106 S0
M106 S255
G1 X12.44 Y11.166 F250
M106 S0
M106 S255
G1 X12.439 Y11.138 F250
M106 S0
M106 S255
G1 X12.436 Y11.111 F250
M106 S0
M106 S255
G1 X12.43 Y11.085 F250
M106 S0
M106 S255
G1 X12.423 Y11.06 F250
M106 S0
M106 S255
G1 X12.414 Y11.035 F250
M106 S0
M106 S255
G1 X12.402 Y11.011 F250
M106 S0
M106 S255
G1 X12.389 Y10.987 F250
M106 S0
M106 S255
G1 X12.373 Y10.965 F250
M106 S0
M106 S255
G1 X12.356 Y10.943 F250
M106 S0
M106 S255
G1 X12.336 Y10.922 F250
M106 S0
M106 S255
G1 X12.315 Y10.902 F250
M106 S0
M106 S255
G1 X12.292 Y10.884 F250
M106 S0
M106 S255
G1 X12.27 Y10.869 F250
M106 S0
M106 S255
G1 X12.246 Y10.855 F250
M106 S0
M106 S255
G1 X12.221 Y10.844 F250
M106 S0
M106 S255
G1 X12.195 Y10.834 F250
M106 S0
M106 S255
G1 X12.169 Y10.827 F250
M106 S0
M106 S255
G1 X12.142 Y10.822 F250
M106 S0
M106 S255
G1 X12.114 Y10.819 F250
M106 S0
M106 S255
G1 X12.084 Y10.818 F250
M106 S0
M106 S255
G1 X12.008 Y10.823 F250
M106 S0
M106 S255
G1 X11.931 Y10.84 F250
M106 S0
M106 S255
G1 X11.854 Y10.868 F250
M106 S0
M106 S255
G1 X11.777 Y10.907 F250
M106 S0
M106 S255
G1 X11.7 Y10.957 F250
M106 S0
M106 S255
G1 X11.622 Y11.018 F250
M106 S0
M106 S255
G1 X11.545 Y11.09 F250
M106 S0
M106 S255
G1 X11.467 Y11.174 F250
M106 S0
M106 S255
G1 X11.389 Y11.268 F250
M106 S0
M106 S255
G1 X11.31 Y11.374 F250
M106 S0
M106 S255
G1 X11.236 Y11.488 F250
M106 S0
M106 S255
G1 X11.169 Y11.607 F250
M106 S0
M106 S255
G1 X11.11 Y11.731 F250
M106 S0
M106 S255
G1 X11.059 Y11.861 F250
M106 S0
M106 S255
G1 X11.016 Y11.996 F250
M106 S0
M106 S255
G1 X10.981 Y12.136 F250
M106 S0
M106 S255
G1 X10.954 Y12.281 F250
M106 S0
M106 S255
G1 X10.934 Y12.431 F250
M106 S0
M106 S255
G1 X10.922 Y12.587 F250
M106 S0
M106 S255
G1 X10.918 Y12.748 F250
M106 S0
M106 S255
G1 X10.925 Y12.972 F250
M106 S0
M106 S255
G1 X10.945 Y13.196 F250
M106 S0
M106 S255
G1 X10.979 Y13.417 F250
M106 S0
M106 S255
G1 X11.026 Y13.638 F250
M106 S0
M106 S255
G1 X11.087 Y13.856 F250
M106 S0
M106 S255
G1 X11.161 Y14.074 F250
M106 S0
M106 S255
G1 X11.248 Y14.29 F250
M106 S0
M106 S255
G1 X11.349 Y14.505 F250
M106 S0
M106 S255
G1 X11.464 Y14.718 F250
M106 S0
M106 S255
G1 X11.592 Y14.93 F250
M106 S0
M106 S255
G1 X11.732 Y15.137 F250
M106 S0
M106 S255
G1 X11.884 Y15.335 F250
M106 S0
M106 S255
G1 X12.046 Y15.525 F250
M106 S0
M106 S255
G1 X12.22 Y15.707 F250
M106 S0
M106 S255
G1 X12.405 Y15.881 F250
M106 S0
M106 S255
G1 X12.602 Y16.046 F250
M106 S0
M106 S255
G1 X12.809 Y16.202 F250
M106 S0
M106 S255
G1 X13.028 Y16.351 F250
M106 S0
M106 S255
G1 X13.258 Y16.49 F250
M106 S0
M106 S255
G1 X13.499 Y16.622 F250
M106 S0
M106 S255
G1 X13.748 Y16.743 F250
M106 S0
M106 S255
G1 X14.002 Y16.851 F250
M106 S0
M106 S255
G1 X14.261 Y16.947 F250
M106 S0
M106 S255
G1 X14.525 Y17.029 F250
M106 S0
M106 S255
G1 X14.794 Y17.1 F250
M106 S0
M106 S255
G1 X15.068 Y17.157 F250
M106 S0
M106 S255
G1 X15.347 Y17.201 F250
M106 S0
M106 S255
G1 X15.631 Y17.233 F250
M106 S0
M106 S255
G1 X15.919 Y17.252 F250
M106 S0
M106 S255
G1 X16.213 Y17.259 F250
M106 S0
M106 S255
G1 X16.449 Y17.254 F250
M106 S0
M106 S255
G1 X16.673 Y17.24 F250
M106 S0
M106 S255
G1 X16.885 Y17.216 F250
M106 S0
M106 S255
G1 X17.086 Y17.183 F250
M106 S0
M106 S255
G1 X17.275 Y17.14 F250
M106 S0
M106 S255
G1 X17.452 Y17.087 F250
M106 S0
M106 S255
G1 X17.618 Y17.026 F250
M106 S0
M106 S255
G1 X17.772 Y16.954 F250
M106 S0
M106 S255
G1 X17.915 Y16.873 F250
M106 S0
M106 S255
G1 X18.046 Y16.783 F250
M106 S0
M106 S255
G1 X18.165 Y16.686 F250
M106 S0
M106 S255
G1 X18.272 Y16.584 F250
M106 S0
M106 S255
G1 X18.366 Y16.479 F250
M106 S0
M106 S255
G1 X18.447 Y16.369 F250
M106 S0
M106 S255
G1 X18.516 Y16.255 F250
M106 S0
M106 S255
G1 X18.573 Y16.137 F250
M106 S0
M106 S255
G1 X18.617 Y16.015 F250
M106 S0
M106 S255
G1 X18.648 Y15.888 F250
M106 S0
M106 S255
G1 X18.667 Y15.758 F250
M106 S0
M106 S255
G1 X18.673 Y15.623 F250
M106 S0
M106 S255
G1 X18.669 Y15.494 F250
M106 S0
M106 S255
G1 X18.656 Y15.368 F250
M106 S0
M106 S255
G1 X18.635 Y15.244 F250
M106 S0
M106 S255
G1 X18.605 Y15.122 F250
M106 S0
M106 S255
G1 X18.567 Y15.003 F250
M106 S0
M106 S255
G1 X18.521 Y14.885 F250
M106 S0
M106 S255
G1 X18.466 Y14.771 F250
M106 S0
M106 S255
G1 X18.403 Y14.658 F250
M106 S0
M106 S255
G1 X18.331 Y14.548 F250
M106 S0
M106 S255
G1 X18.251 Y14.44 F250
M106 S0
M106 S255
G1 X18.162 Y14.336 F250
M106 S0
M106 S255
G1 X18.064 Y14.237 F250
M106 S0
M106 S255
G1 X17.958 Y14.143 F250
M106 S0
M106 S255
G1 X17.843 Y14.053 F250
M106 S0
M106 S255
G1 X17.72 Y13.969 F250
M106 S0
M106 S255
G1 X17.587 Y13.889 F250
M106 S0
M106 S255
G1 X17.446 Y13.814 F250
M106 S0
M106 S255
G1 X17.296 Y13.744 F250
M106 S0
M106 S255
G1 X17.138 Y13.679 F250
M106 S0
M106 S255
G1 X16.971 Y13.619 F250
M106 S0
M106 S255
G1 X17.086 Y13.599 F250
M106 S0
M106 S255
G1 X17.197 Y13.577 F250
M106 S0
M106 S255
G1 X17.302 Y13.551 F250
M106 S0
M106 S255
G1 X17.403 Y13.523 F250
M106 S0
M106 S255
G1 X17.498 Y13.493 F250
M106 S0
M106 S255
G1 X17.589 Y13.46 F250
M106 S0
M106 S255
G1 X17.675 Y13.424 F250
M106 S0
M106 S255
G1 X17.755 Y13.386 F250
M106 S0
M106 S255
G1 X17.831 Y13.345 F250
M106 S0
M106 S255
G1 X17.902 Y13.301 F250
M106 S0
M106 S255
G1 X17.969 Y13.255 F250
M106 S0
M106 S255
G1 X18.033 Y13.206 F250
M106 S0
M106 S255
G1 X18.093 Y13.156 F250
M106 S0
M106 S255
G1 X18.15 Y13.103 F250
M106 S0
M106 S255
G1 X18.205 Y13.047 F250
M106 S0
M106 S255
G1 X18.256 Y12.989 F250
M106 S0
M106 S255
G1 X18.304 Y12.929 F250
M106 S0
M106 S255
G1 X18.348 Y12.867 F250
M106 S0
M106 S255
G1 X18.39 Y12.802 F250
M106 S0
M106 S255
G1 X18.428 Y12.735 F250
M106 S0
M106 S255
G1 X18.463 Y12.665 F250
M106 S0
M106 S255
G1 X18.495 Y12.594 F250
M106 S0
M106 S255
G1 X18.522 Y12.52 F250
M106 S0
M106 S255
G1 X18.546 Y12.445 F250
M106 S0
M106 S255
G1 X18.567 Y12.368 F250
M106 S0
M106 S255
G1 X18.583 Y12.288 F250
M106 S0
M106 S255
G1 X18.596 Y12.207 F250
M106 S0
M106 S255
G1 X18.605 Y12.123 F250
M106 S0
M106 S255
G1 X18.611 Y12.038 F250
M106 S0
M106 S255
G1 X18.613 Y11.95 F250
M106 S0
M106 S255
G1 X18.608 Y11.806 F250
M106 S0
M106 S255
G1 X18.596 Y11.664 F250
M106 S0
M106 S255
G1 X18.574 Y11.523 F250
M106 S0
M106 S255
G1 X18.545 Y11.384 F250
M106 S0
M106 S255
G1 X18.506 Y11.246 F250
M106 S0
M106 S255
G1 X18.459 Y11.11 F250
M106 S0
M106 S255
G1 X18.404 Y10.975 F250
M106 S0
M106 S255
G1 X18.34 Y10.842 F250
M106 S0
M106 S255
G1 X18.268 Y10.71 F250
M106 S0
M106 S255
G1 X18.187 Y10.58 F250
M106 S0
M106 S255
G1 X18.098 Y10.453 F250
M106 S0
M106 S255
G1 X18.001 Y10.33 F250
M106 S0
M106 S255
G1 X17.895 Y10.212 F250
M106 S0
M106 S255
G1 X17.782 Y10.098 F250
M106 S0
M106 S255
G1 X17.661 Y9.988 F250
M106 S0
M106 S255
G1 X17.532 Y9.883 F250
M106 S0
M106 S255
G1 X17.394 Y9.783 F250
M106 S0
M106 S255
G1 X17.249 Y9.686 F250
M106 S0
M106 S255
G1 X17.095 Y9.595 F250
M106 S0
M106 S255
G1 X16.934 Y9.507 F250
M106 S0
M106 S255
G1 X16.767 Y9.427 F250
M106 S0
M106 S255
G1 X16.6 Y9.354 F250
M106 S0
M106 S255
G1 X16.431 Y9.29 F250
M106 S0
M106 S255
G1 X16.26 Y9.235 F250
M106 S0
M106 S255
G1 X16.088 Y9.188 F250
M106 S0
M106 S255
G1 X15.915 Y9.15 F250
M106 S0
M106 S255
G1 X15.74 Y9.12 F250
M106 S0
M106 S255
G1 X15.564 Y9.099 F250
M106 S0
M106 S255
G1 X15.387 Y9.086 F250
M106 S0
M106 S255
G1 X15.208 Y9.082 F250
M106 S0
M106 S255
G1 X15.15 Y9.082 F250
M106 S0
M106 S255
G1 X15.079 Y9.084 F250
M106 S0
M106 S255
G1 X14.997 Y9.087 F250
M106 S0
M106 S255
G1 X14.903 Y9.09 F250
M106 S0
M106 S255
G1 X14.797 Y9.095 F250
M106 S0
M106 S255
G1 X14.679 Y9.101 F250
M106 S0
M106 S255
G1 X14.55 Y9.108 F250
M106 S0
M106 S255
G1 X14.408 Y9.116 F250
M106 S0
M106 S255
G1 X14.254 Y9.125 F250
M106 S0
M106 S255
G1 X14.088 Y9.135 F250
M106 S0
M106 S255
G1 X14.006 Y9.139 F250
M106 S0
M106 S255
G1 X13.923 Y9.143 F250
M106 S0
M106 S255
G1 X13.84 Y9.146 F250
M106 S0
M106 S255
G1 X13.755 Y9.148 F250
M106 S0
M106 S255
G1 X13.67 Y9.15 F250
M106 S0
M106 S255
G1 X13.583 Y9.152 F250
M106 S0
M106 S255
G1 X13.496 Y9.154 F250
M106 S0
M106 S255
G1 X13.409 Y9.155 F250
M106 S0
M106 S255
G1 X13.32 Y9.155 F250
M106 S0
M106 S255
G1 X13.231 Y9.155 F250
M106 S0
M106 S255
G1 X13.095 Y9.154 F250
M106 S0
M106 S255
G1 X12.963 Y9.151 F250
M106 S0
M106 S255
G1 X12.834 Y9.146 F250
M106 S0
M106 S255
G1 X12.708 Y9.138 F250
M106 S0
M106 S255
G1 X12.585 Y9.129 F250
M106 S0
M106 S255
G1 X12.466 Y9.117 F250
M106 S0
M106 S255
G1 X12.349 Y9.103 F250
M106 S0
M106 S255
G1 X12.235 Y9.087 F250
M106 S0
M106 S255
G1 X12.125 Y9.069 F250
M106 S0
M106 S255
G1 X12.017 Y9.048 F250
M106 S0
M106 S255
G1 X12.118 Y9.417 F250
M106 S0
M106 S255
G1 X12.255 Y9.428 F250
M106 S0
M106 S255
G1 X12.383 Y9.443 F250
M106 S0
M106 S255
G1 X12.504 Y9.464 F250
M106 S0
M106 S255
G1 X12.616 Y9.49 F250
M106 S0
M106 S255
G1 X12.72 Y9.522 F250
M106 S0
M106 S255
G1 X12.816 Y9.558 F250
M106 S0
M106 S255
G1 X12.905 Y9.6 F250
M106 S0
M106 S255
G1 X12.984 Y9.646 F250
M106 S0
M106 S255
G1 X13.056 Y9.698 F250
M106 S0
M106 S255
G1 X13.12 Y9.755 F250
M106 S0
M106 S255
G1 X13.179 Y9.822 F250
M106 S0
M106 S255
G1 X13.238 Y9.903 F250
M106 S0
M106 S255
G1 X13.296 Y9.999 F250
M106 S0
M106 S255
G1 X13.353 Y10.109 F250
M106 S0
M106 S255
G1 X13.409 Y10.234 F250
M106 S0
M106 S255
G1 X13.465 Y10.373 F250
M106 S0
M106 S255
G1 X13.519 Y10.526 F250
M106 S0
M106 S255
G1 X13.574 Y10.694 F250
M106 S0
M106 S255
G1 X13.627 Y10.876 F250
M106 S0
M106 S255
G1 X13.68 Y11.072 F250
M106 S0
M106 S255
G1 X14.672 Y14.966 F250
M106 S0
M106 S255
G1 X14.683 Y15.015 F250
M106 S0
M106 S255
G1 X14.693 Y15.061 F250
M106 S0
M106 S255
G1 X14.702 Y15.104 F250
M106 S0
M106 S255
G1 X14.71 Y15.146 F250
M106 S0
M106 S255
G1 X14.717 Y15.184 F250
M106 S0
M106 S255
G1 X14.722 Y15.221 F250
M106 S0
M106 S255
G1 X14.726 Y15.255 F250
M106 S0
M106 S255
G1 X14.729 Y15.286 F250
M106 S0
M106 S255
G1 X14.731 Y15.315 F250
M106 S0
M106 S255
G1 X14.732 Y15.342 F250
M106 S0
M106 S255
G1 X14.731 Y15.362 F250
M106 S0
M106 S255
G1 X14.729 Y15.381 F250
M106 S0
M106 S255
G1 X14.724 Y15.4 F250
M106 S0
M106 S255
G1 X14.718 Y15.418 F250
M106 S0
M106 S255
G1 X14.711 Y15.436 F250
M106 S0
M106 S255
G1 X14.702 Y15.454 F250
M106 S0
M106 S255
G1 X14.691 Y15.471 F250
M106 S0
M106 S255
G1 X14.678 Y15.488 F250
M106 S0
M106 S255
G1 X14.664 Y15.504 F250
M106 S0
M106 S255
G1 X14.648 Y15.519 F250
M106 S0
M106 S255
G1 X14.631 Y15.534 F250
M106 S0
M106 S255
G1 X14.613 Y15.547 F250
M106 S0
M106 S255
G1 X14.594 Y15.559 F250
M106 S0
M106 S255
G1 X14.574 Y15.569 F250
M106 S0
M106 S255
G1 X14.553 Y15.577 F250
M106 S0
M106 S255
G1 X14.532 Y15.584 F250
M106 S0
M106 S255
G1 X14.509 Y15.59 F250
M106 S0
M106 S255
G1 X14.486 Y15.593 F250
M106 S0
M106 S255
G1 X14.462 Y15.596 F250
M106 S0
M106 S255
G1 X14.437 Y15.597 F250
M106 S0
M106 S255
G1 X14.426 Y15.596 F250
M106 S0
M106 S255
G1 X14.414 Y15.596 F250
M106 S0
M106 S255
G1 X14.402 Y15.595 F250
M106 S0
M106 S255
G1 X14.39 Y15.594 F250
M106 S0
M106 S255
G1 X14.377 Y15.593 F250
M106 S0
M106 S255
G1 X14.363 Y15.592 F250
M106 S0
M106 S255
G1 X14.349 Y15.59 F250
M106 S0
M106 S255
G1 X14.334 Y15.588 F250
M106 S0
M106 S255
G1 X14.319 Y15.586 F250
M106 S0
M106 S255
G1 X14.303 Y15.583 F250
M106 S0
G0 X15.221 Y13.164 F6000
M106 S255
G1 X15.221 Y13.164 F250
M106 S0
M106 S255
G1 X14.879 Y11.816 F250
M106 S0
M106 S255
G1 X14.827 Y11.612 F250
M106 S0
M106 S255
G1 X14.776 Y11.417 F250
M106 S0
M106 S255
G1 X14.724 Y11.232 F250
M106 S0
M106 S255
G1 X14.673 Y11.057 F250
M106 S0
M106 S255
G1 X14.623 Y10.891 F250
M106 S0
M106 S255
G1 X14.573 Y10.735 F250
M106 S0
M106 S255
G1 X14.523 Y10.589 F250
M106 S0
M106 S255
G1 X14.474 Y10.452 F250
M106 S0
M106 S255
G1 X14.425 Y10.325 F250
M106 S0
M106 S255
G1 X14.377 Y10.208 F250
M106 S0
M106 S255
G1 X14.348 Y10.142 F250
M106 S0
M106 S255
G1 X14.317 Y10.078 F250
M106 S0
M106 S255
G1 X14.285 Y10.016 F250
M106 S0
M106 S255
G1 X14.251 Y9.956 F250
M106 S0
M106 S255
G1 X14.216 Y9.898 F250
M106 S0
M106 S255
G1 X14.179 Y9.842 F250
M106 S0
M106 S255
G1 X14.14 Y9.788 F250
M106 S0
M106 S255
G1 X14.1 Y9.736 F250
M106 S0
M106 S255
G1 X14.058 Y9.686 F250
M106 S0
M106 S255
G1 X14.015 Y9.638 F250
M106 S0
M106 S255
G1 X14.134 Y9.61 F250
M106 S0
M106 S255
G1 X14.249 Y9.585 F250
M106 S0
M106 S255
G1 X14.362 Y9.563 F250
M106 S0
M106 S255
G1 X14.471 Y9.544 F250
M106 S0
M106 S255
G1 X14.576 Y9.527 F250
M106 S0
M106 S255
G1 X14.678 Y9.514 F250
M106 S0
M106 S255
G1 X14.777 Y9.504 F250
M106 S0
M106 S255
G1 X14.873 Y9.497 F250
M106 S0
M106 S255
G1 X14.965 Y9.492 F250
M106 S0
M106 S255
G1 X15.054 Y9.491 F250
M106 S0
M106 S255
G1 X15.282 Y9.498 F250
M106 S0
M106 S255
G1 X15.5 Y9.52 F250
M106 S0
M106 S255
G1 X15.706 Y9.556 F250
M106 S0
M106 S255
G1 X15.9 Y9.606 F250
M106 S0
M106 S255
G1 X16.083 Y9.672 F250
M106 S0
M106 S255
G1 X16.255 Y9.751 F250
M106 S0
M106 S255
G1 X16.415 Y9.845 F250
M106 S0
M106 S255
G1 X16.564 Y9.954 F250
M106 S0
M106 S255
G1 X16.701 Y10.077 F250
M106 S0
M106 S255
G1 X16.826 Y10.214 F250
M106 S0
M106 S255
G1 X16.94 Y10.361 F250
M106 S0
M106 S255
G1 X17.042 Y10.511 F250
M106 S0
M106 S255
G1 X17.132 Y10.664 F250
M106 S0
M106 S255
G1 X17.21 Y10.82 F250
M106 S0
M106 S255
G1 X17.276 Y10.98 F250
M106 S0
M106 S255
G1 X17.33 Y11.143 F250
M106 S0
M106 S255
G1 X17.372 Y11.31 F250
M106 S0
M106 S255
G1 X17.402 Y11.48 F250
M106 S0
M106 S255
G1 X17.42 Y11.653 F250
M106 S0
M106 S255
G1 X17.426 Y11.83 F250
M106 S0
M106 S255
G1 X17.424 Y11.917 F250
M106 S0
M106 S255
G1 X17.417 Y12.002 F250
M106 S0
M106 S255
G1 X17.406 Y12.084 F250
M106 S0
M106 S255
G1 X17.39 Y12.164 F250
M106 S0
M106 S255
G1 X17.37 Y12.241 F250
M106 S0
M106 S255
G1 X17.345 Y12.316 F250
M106 S0
M106 S255
G1 X17.316 Y12.388 F250
M106 S0
M106 S255
G1 X17.283 Y12.458 F250
M106 S0
M106 S255
G1 X17.244 Y12.526 F250
M106 S0
M106 S255
G1 X17.202 Y12.59 F250
M106 S0
M106 S255
G1 X17.155 Y12.652 F250
M106 S0
M106 S255
G1 X17.106 Y12.71 F250
M106 S0
M106 S255
G1 X17.054 Y12.764 F250
M106 S0
M106 S255
G1 X17.0 Y12.815 F250
M106 S0
M106 S255
G1 X16.942 Y12.861 F250
M106 S0
M106 S255
G1 X16.882 Y12.904 F250
M106 S0
M106 S255
G1 X16.818 Y12.943 F250
M106 S0
M106 S255
G1 X16.752 Y12.978 F250
M106 S0
M106 S255
G1 X16.684 Y13.009 F250
M106 S0
M106 S255
G1 X16.612 Y13.036 F250
M106 S0
M106 S255
G1 X16.532 Y13.06 F250
M106 S0
M106 S255
G1 X16.439 Y13.082 F250
M106 S0
M106 S255
G1 X16.333 Y13.101 F250
M106 S0
M106 S255
G1 X16.214 Y13.118 F250
M106 S0
M106 S255
G1 X16.082 Y13.132 F250
M106 S0
M106 S255
G1 X15.936 Y13.143 F250
M106 S0
M106 S255
G1 X15.777 Y13.152 F250
M106 S0
M106 S255
G1 X15.605 Y13.158 F250
M106 S0
M106 S255
G1 X15.42 Y13.162 F250
M106 S0
M106 S255
G1 X15.221 Y13.164 F250
M106 S0
G0 X24.263 Y17.178 F6000
M106 S255
G1 X24.263 Y17.178 F250
M106 S0
M106 S255
G1 X24.43 Y17.174 F250
M106 S0
M106 S255
G1 X24.594 Y17.163 F250
M106 S0
M106 S255
G1 X24.755 Y17.143 F250
M106 S0
M106 S255
G1 X24.912 Y17.116 F250
M106 S0
M106 S255
G1 X25.066 Y17.08 F250
M106 S0
M106 S255
G1 X25.217 Y17.037 F250
M106 S0
M106 S255
G1 X25.365 Y16.986 F250
M106 S0
M106 S255
G1 X25.509 Y16.927 F250
M106 S0
M106 S255
G1 X25.65 Y16.861 F250
M106 S0
M106 S255
G1 X25.788 Y16.786 F250
M106 S0
M106 S255
G1 X25.921 Y16.704 F250
M106 S0
M106 S255
G1 X26.047 Y16.616 F250
M106 S0
M106 S255
G1 X26.168 Y16.521 F250
M106 S0
M106 S255
G1 X26.283 Y16.419 F250
M106 S0
M106 S255
G1 X26.392 Y16.31 F250
M106 S0
M106 S255
G1 X26.494 Y16.195 F250
M106 S0
M106 S255
G1 X26.591 Y16.073 F250
M106 S0
M106 S255
G1 X26.681 Y15.944 F250
M106 S0
M106 S255
G1 X26.765 Y15.809 F250
M106 S0
M106 S255
G1 X26.843 Y15.667 F250
M106 S0
M106 S255
G1 X26.914 Y15.519 F250
M106 S0
M106 S255
G1 X26.978 Y15.366 F250
M106 S0
M106 S255
G1 X27.035 Y15.209 F250
M106 S0
M106 S255
G1 X27.083 Y15.047 F250
M106 S0
M106 S255
G1 X27.125 Y14.88 F250
M106 S0
M106 S255
G1 X27.158 Y14.709 F250
M106 S0
M106 S255
G1 X27.185 Y14.532 F250
M106 S0
M106 S255
G1 X27.203 Y14.351 F250
M106 S0
M106 S255
G1 X27.215 Y14.165 F250
M106 S0
M106 S255
G1 X27.218 Y13.975 F250
M106 S0
M106 S255
G1 X27.212 Y13.723 F250
M106 S0
M106 S255
G1 X27.191 Y13.471 F250
M106 S0
M106 S255
G1 X27.158 Y13.22 F250
M106 S0
M106 S255
G1 X27.11 Y12.97 F250
M106 S0
M106 S255
G1 X27.049 Y12.72 F250
M106 S0
M106 S255
G1 X26.975 Y12.47 F250
M106 S0
M106 S255
G1 X26.887 Y12.22 F250
M106 S0
M106 S255
G1 X26.785 Y11.971 F250
M106 S0
M106 S255
G1 X26.67 Y11.723 F250
M106 S0
M106 S255
G1 X26.542 Y11.475 F250
M106 S0
M106 S255
G1 X26.403 Y11.233 F250
M106 S0
M106 S255
G1 X26.259 Y11.003 F250
M106 S0
M106 S255
G1 X26.108 Y10.785 F250
M106 S0
M106 S255
G1 X25.952 Y10.58 F250
M106 S0
M106 S255
G1 X25.789 Y10.387 F250
M106 S0
M106 S255
G1 X25.621 Y10.206 F250
M106 S0
M106 S255
G1 X25.446 Y10.037 F250
M106 S0
M106 S255
G1 X25.265 Y9.881 F250
M106 S0
M106 S255
G1 X25.079 Y9.737 F250
M106 S0
M106 S255
G1 X24.886 Y9.605 F250
M106 S0
M106 S255
G1 X24.688 Y9.485 F250
M106 S0
M106 S255
G1 X24.486 Y9.378 F250
M106 S0
M106 S255
G1 X24.28 Y9.283 F250
M106 S0
M106 S255
G1 X24.069 Y9.201 F250
M106 S0
M106 S255
G1 X23.854 Y9.132 F250
M106 S0
M106 S255
G1 X23.635 Y9.075 F250
M106 S0
M106 S255
G1 X23.411 Y9.031 F250
M106 S0
M106 S255
G1 X23.183 Y9.0 F250
M106 S0
M106 S255
G1 X22.951 Y8.981 F250
M106 S0
M106 S255
G1 X22.714 Y8.975 F250
M106 S0
M106 S255
G1 X22.445 Y8.983 F250
M106 S0
M106 S255
G1 X22.186 Y9.009 F250
M106 S0
M106 S255
G1 X21.937 Y9.052 F250
M106 S0
M106 S255
G1 X21.699 Y9.112 F250
M106 S0
M106 S255
G1 X21.472 Y9.189 F250
M106 S0
M106 S255
G1 X21.255 Y9.283 F250
M106 S0
M106 S255
G1 X21.049 Y9.395 F250
M106 S0
M106 S255
G1 X20.853 Y9.524 F250
M106 S0
M106 S255
G1 X20.667 Y9.669 F250
M106 S0
M106 S255
G1 X20.493 Y9.832 F250
M106 S0
M106 S255
G1 X20.332 Y10.009 F250
M106 S0
M106 S255
G1 X20.187 Y10.197 F250
M106 S0
M106 S255
G1 X20.06 Y10.396 F250
M106 S0
M106 S255
G1 X19.95 Y10.606 F250
M106 S0
M106 S255
G1 X19.857 Y10.826 F250
M106 S0
M106 S255
G1 X19.78 Y11.057 F250
M106 S0
M106 S255
G1 X19.721 Y11.3 F250
M106 S0
M106 S255
G1 X19.679 Y11.553 F250
M106 S0
M106 S255
G1 X19.653 Y11.816 F250
M106 S0
M106 S255
G1 X19.645 Y12.091 F250
M106 S0
M106 S255
G1 X19.652 Y12.358 F250
M106 S0
M106 S255
G1 X19.672 Y12.624 F250
M106 S0
M106 S255
G1 X19.706 Y12.887 F250
M106 S0
M106 S255
G1 X19.753 Y13.149 F250
M106 S0
M106 S255
G1 X19.814 Y13.409 F250
M106 S0
M106 S255
G1 X19.888 Y13.667 F250
M106 S0
M106 S255
G1 X19.976 Y13.923 F250
M106 S0
M106 S255
G1 X20.078 Y14.178 F250
M106 S0
M106 S255
G1 X20.193 Y14.431 F250
M106 S0
M106 S255
G1 X20.322 Y14.682 F250
M106 S0
M106 S255
G1 X20.46 Y14.925 F250
M106 S0
M106 S255
G1 X20.605 Y15.157 F250
M106 S0
M106 S255
G1 X20.756 Y15.375 F250
M106 S0
M106 S255
G1 X20.913 Y15.581 F250
M106 S0
M106 S255
G1 X21.076 Y15.775 F250
M106 S0
M106 S255
G1 X21.245 Y15.956 F250
M106 S0
M106 S255
G1 X21.421 Y16.125 F250
M106 S0
M106 S255
G1 X21.602 Y16.281 F250
M106 S0
M106 S255
G1 X21.79 Y16.424 F250
M106 S0
M106 S255
G1 X21.984 Y16.555 F250
M106 S0
M106 S255
G1 X22.184 Y16.673 F250
M106 S0
M106 S255
G1 X22.39 Y16.779 F250
M106 S0
M106 S255
G1 X22.603 Y16.873 F250
M106 S0
M106 S255
G1 X22.821 Y16.954 F250
M106 S0
M106 S255
G1 X23.046 Y17.022 F250
M106 S0
M106 S255
G1 X23.277 Y17.079 F250
M106 S0
M106 S255
G1 X23.514 Y17.122 F250
M106 S0
M106 S255
G1 X23.758 Y17.153 F250
M106 S0
M106 S255
G1 X24.007 Y17.172 F250
M106 S0
M106 S255
G1 X24.263 Y17.178 F250
M106 S0
G0 X23.773 Y16.696 F6000
M106 S255
G1 X23.773 Y16.696 F250
M106 S0
M106 S255
G1 X23.619 Y16.691 F250
M106 S0
M106 S255
G1 X23.467 Y16.677 F250
M106 S0
M106 S255
G1 X23.318 Y16.654 F250
M106 S0
M106 S255
G1 X23.171 Y16.622 F250
M106 S0
M106 S255
G1 X23.027 Y16.581 F250
M106 S0
M106 S255
G1 X22.885 Y16.53 F250
M106 S0
M106 S255
G1 X22.746 Y16.471 F250
M106 S0
M106 S255
G1 X22.609 Y16.402 F250
M106 S0
M106 S255
G1 X22.474 Y16.324 F250
M106 S0
M106 S255
G1 X22.342 Y16.237 F250
M106 S0
M106 S255
G1 X22.214 Y16.14 F250
M106 S0
M106 S255
G1 X22.091 Y16.032 F250
M106 S0
M106 S255
G1 X21.972 Y15.915 F250
M106 S0
M106 S255
G1 X21.858 Y15.787 F250
M106 S0
M106 S255
G1 X21.748 Y15.648 F250
M106 S0
M106 S255
G1 X21.644 Y15.5 F250
M106 S0
M106 S255
G1 X21.544 Y15.341 F250
M106 S0
M106 S255
G1 X21.449 Y15.172 F250
M106 S0
M106 S255
G1 X21.359 Y14.992 F250
M106 S0
M106 S255
G1 X21.273 Y14.802 F250
M106 S0
M106 S255
G1 X21.195 Y14.604 F250
M106 S0
M106 S255
G1 X21.124 Y14.4 F250
M106 S0
M106 S255
G1 X21.062 Y14.189 F250
M106 S0
M106 S255
G1 X21.008 Y13.972 F250
M106 S0
M106 S255
G1 X20.962 Y13.749 F250
M106 S0
M106 S255
G1 X20.924 Y13.52 F250
M106 S0
M106 S255
G1 X20.895 Y13.284 F250
M106 S0
M106 S255
G1 X20.875 Y13.042 F250
M106 S0
M106 S255
G1 X20.862 Y12.794 F250
M106 S0
M106 S255
G1 X20.858 Y12.54 F250
M106 S0
M106 S255
G1 X20.864 Y12.252 F250
M106 S0
M106 S255
G1 X20.884 Y11.977 F250
M106 S0
M106 S255
G1 X20.916 Y11.716 F250
M106 S0
M106 S255
G1 X20.962 Y11.468 F250
M106 S0
M106 S255
G1 X21.02 Y11.234 F250
M106 S0
M106 S255
G1 X21.092 Y11.013 F250
M106 S0
M106 S255
G1 X21.176 Y10.806 F250
M106 S0
M106 S255
G1 X21.274 Y10.612 F250
M106 S0
M106 S255
G1 X21.385 Y10.432 F250
M106 S0
M106 S255
G1 X21.508 Y10.265 F250
M106 S0
M106 S255
G1 X21.641 Y10.113 F250
M106 S0
M106 S255
G1 X21.781 Y9.976 F250
M106 S0
M106 S255
G1 X21.927 Y9.856 F250
M106 S0
M106 S255
G1 X22.08 Y9.752 F250
M106 S0
M106 S255
G1 X22.239 Y9.664 F250
M106 S0
M106 S255
G1 X22.404 Y9.592 F250
M106 S0
M106 S255
G1 X22.576 Y9.536 F250
M106 S0
M106 S255
G1 X22.754 Y9.496 F250
M106 S0
M106 S255
G1 X22.939 Y9.472 F250
M106 S0
M106 S255
G1 X23.13 Y9.464 F250
M106 S0
M106 S255
G1 X23.274 Y9.469 F250
M106 S0
M106 S255
G1 X23.416 Y9.483 F250
M106 S0
M106 S255
G1 X23.557 Y9.507 F250
M106 S0
M106 S255
G1 X23.697 Y9.54 F250
M106 S0
M106 S255
G1 X23.835 Y9.583 F250
M106 S0
M106 S255
G1 X23.971 Y9.635 F250
M106 S0
M106 S255
G1 X24.106 Y9.697 F250
M106 S0
M106 S255
G1 X24.239 Y9.768 F250
M106 S0
M106 S255
G1 X24.371 Y9.849 F250
M106 S0
M106 S255
G1 X24.501 Y9.94 F250
M106 S0
M106 S255
G1 X24.628 Y10.04 F250
M106 S0
M106 S255
G1 X24.75 Y10.152 F250
M106 S0
M106 S255
G1 X24.868 Y10.274 F250
M106 S0
M106 S255
G1 X24.982 Y10.408 F250
M106 S0
M106 S255
G1 X25.09 Y10.552 F250
M106 S0
M106 S255
G1 X25.195 Y10.707 F250
M106 S0
M106 S255
G1 X25.295 Y10.874 F250
M106 S0
M106 S255
G1 X25.39 Y11.051 F250
M106 S0
M106 S255
G1 X25.48 Y11.239 F250
M106 S0
M106 S255
G1 X25.566 Y11.438 F250
M106 S0
M106 S255
G1 X25.646 Y11.645 F250
M106 S0
M106 S255
G1 X25.717 Y11.859 F250
M106 S0
M106 S255
G1 X25.78 Y12.078 F250
M106 S0
M106 S255
G1 X25.834 Y12.304 F250
M106 S0
M106 S255
G1 X25.881 Y12.536 F250
M106 S0
M106 S255
G1 X25.918 Y12.774 F250
M106 S0
M106 S255
G1 X25.948 Y13.018 F250
M106 S0
M106 S255
G1 X25.968 Y13.268 F250
M106 S0
M106 S255
G1 X25.981 Y13.524 F250
M106 S0
M106 S255
G1 X25.985 Y13.787 F250
M106 S0
M106 S255
G1 X25.979 Y14.056 F250
M106 S0
M106 S255
G1 X25.96 Y14.312 F250
M106 S0
M106 S255
G1 X25.928 Y14.557 F250
M106 S0
M106 S255
G1 X25.883 Y14.789 F250
M106 S0
M106 S255
G1 X25.825 Y15.009 F250
M106 S0
M106 S255
G1 X25.755 Y15.217 F250
M106 S0
M106 S255
G1 X25.672 Y15.413 F250
M106 S0
M106 S255
G1 X25.576 Y15.597 F250
M106 S0
M106 S255
G1 X25.467 Y15.769 F250
M106 S0
M106 S255
G1 X25.345 Y15.928 F250
M106 S0
M106 S255
G1 X25.214 Y16.074 F250
M106 S0
M106 S255
G1 X25.077 Y16.205 F250
M106 S0
M106 S255
G1 X24.935 Y16.32 F250
M106 S0
M106 S255
G1 X24.786 Y16.419 F250
M106 S0
M106 S255
G1 X24.632 Y16.504 F250
M106 S0
M106 S255
G1 X24.472 Y16.573 F250
M106 S0
M106 S255
G1 X24.306 Y16.627 F250
M106 S0
M106 S255
G1 X24.134 Y16.665 F250
M106 S0
M106 S255
G1 X23.957 Y16.688 F250
M106 S0
M106 S255
G1 X23.773 Y16.696 F250
M106 S0
G0 X32.607 Y17.225 F6000
M106 S255
G1 X32.607 Y17.225 F250
M106 S0
M106 S255
G1 X32.795 Y16.441 F250
M106 S0
M106 S255
G1 X32.847 Y16.229 F250
M106 S0
M106 S255
G1 X32.899 Y16.023 F250
M106 S0
M106 S255
G1 X32.951 Y15.822 F250
M106 S0
M106 S255
G1 X33.003 Y15.626 F250
M106 S0
M106 S255
G1 X33.055 Y15.436 F250
M106 S0
M106 S255
G1 X33.106 Y15.251 F250
M106 S0
M106 S255
G1 X33.158 Y15.071 F250
M106 S0
M106 S255
G1 X33.209 Y14.897 F250
M106 S0
M106 S255
G1 X33.26 Y14.728 F250
M106 S0
M106 S255
G1 X33.311 Y14.564 F250
M106 S0
M106 S255
G1 X33.37 Y14.382 F250
M106 S0
M106 S255
G1 X33.445 Y14.158 F250
M106 S0
M106 S255
G1 X33.536 Y13.892 F250
M106 S0
M106 S255
G1 X33.642 Y13.583 F250
M106 S0
M106 S255
G1 X33.765 Y13.232 F250
M106 S0
M106 S255
G1 X33.904 Y12.839 F250
M106 S0
M106 S255
G1 X34.058 Y12.404 F250
M106 S0
M106 S255
G1 X34.229 Y11.926 F250
M106 S0
M106 S255
G1 X34.415 Y11.407 F250
M106 S0
M106 S255
G1 X34.618 Y10.845 F250
M106 S0
M106 S255
G1 X34.64 Y10.927 F250
M106 S0
M106 S255
G1 X34.666 Y11.028 F250
M106 S0
M106 S255
G1 X34.696 Y11.147 F250
M106 S0
M106 S255
G1 X34.731 Y11.283 F250
M106 S0
M106 S255
G1 X34.769 Y11.438 F250
M106 S0
M106 S255
G1 X34.811 Y11.61 F250
M106 S0
M106 S255
G1 X34.857 Y11.801 F250
M106 S0
M106 S255
G1 X34.908 Y12.009 F250
M106 S0
M106 S255
G1 X34.962 Y12.236 F250
M106 S0
M106 S255
G1 X35.02 Y12.48 F250
M106 S0
M106 S255
G1 X35.095 Y12.797 F250
M106 S0
M106 S255
G1 X35.165 Y13.09 F250
M106 S0
M106 S255
G1 X35.23 Y13.359 F250
M106 S0
M106 S255
G1 X35.289 Y13.603 F250
M106 S0
M106 S255
G1 X35.343 Y13.822 F250
M106 S0
M106 S255
G1 X35.392 Y14.017 F250
M106 S0
M106 S255
G1 X35.436 Y14.187 F250
M106 S0
M106 S255
G1 X35.475 Y14.333 F250
M106 S0
M106 S255
G1 X35.508 Y14.454 F250
M106 S0
M106 S255
G1 X35.536 Y14.551 F250
M106 S0
M106 S255
G1 X35.611 Y14.792 F250
M106 S0
M106 S255
G1 X35.685 Y15.021 F250
M106 S0
M106 S255
G1 X35.759 Y15.236 F250
M106 S0
M106 S255
G1 X35.832 Y15.438 F250
M106 S0
M106 S255
G1 X35.905 Y15.627 F250
M106 S0
M106 S255
G1 X35.977 Y15.802 F250
M106 S0
M106 S255
G1 X36.049 Y15.965 F250
M106 S0
M106 S255
G1 X36.12 Y16.114 F250
M106 S0
M106 S255
G1 X36.19 Y16.251 F250
M106 S0
M106 S255
G1 X36.26 Y16.374 F250
M106 S0
M106 S255
G1 X36.331 Y16.487 F250
M106 S0
M106 S255
G1 X36.403 Y16.594 F250
M106 S0
M106 S255
G1 X36.476 Y16.694 F250
M106 S0
M106 S255
G1 X36.552 Y16.788 F250
M106 S0
M106 S255
G1 X36.629 Y16.875 F250
M106 S0
M106 S255
G1 X36.707 Y16.955 F250
M106 S0
M106 S255
G1 X36.787 Y17.029 F250
M106 S0
M106 S255
G1 X36.869 Y17.097 F250
M106 S0
M106 S255
G1 X36.953 Y17.158 F250
M106 S0
M106 S255
G1 X37.038 Y17.212 F250
M106 S0
M106 S255
G1 X37.124 Y17.26 F250
M106 S0
M106 S255
G1 X37.214 Y17.303 F250
M106 S0
M106 S255
G1 X37.305 Y17.342 F250
M106 S0
M106 S255
G1 X37.399 Y17.375 F250
M106 S0
M106 S255
G1 X37.495 Y17.403 F250
M106 S0
M106 S255
G1 X37.593 Y17.426 F250
M106 S0
M106 S255
G1 X37.694 Y17.444 F250
M106 S0
M106 S255
G1 X37.797 Y17.456 F250
M106 S0
M106 S255
G1 X37.902 Y17.464 F250
M106 S0
M106 S255
G1 X38.009 Y17.466 F250
M106 S0
M106 S255
G1 X38.094 Y17.465 F250
M106 S0
M106 S255
G1 X38.175 Y17.46 F250
M106 S0
M106 S255
G1 X38.252 Y17.451 F250
M106 S0
M106 S255
G1 X38.325 Y17.44 F250
M106 S0
M106 S255
G1 X38.394 Y17.425 F250
M106 S0
M106 S255
G1 X38.459 Y17.406 F250
M106 S0
M106 S255
G1 X38.519 Y17.384 F250
M106 S0
M106 S255
G1 X38.576 Y17.359 F250
M106 S0
M106 S255
G1 X38.628 Y17.331 F250
M106 S0
M106 S255
G1 X38.676 Y17.299 F250
M106 S0
M106 S255
G1 X38.72 Y17.265 F250
M106 S0
M106 S255
G1 X38.76 Y17.229 F250
M106 S0
M106 S255
G1 X38.794 Y17.192 F250
M106 S0
M106 S255
G1 X38.824 Y17.154 F250
M106 S0
M106 S255
G1 X38.85 Y17.115 F250
M106 S0
M106 S255
G1 X38.871 Y17.074 F250
M106 S0
M106 S255
G1 X38.887 Y17.032 F250
M106 S0
M106 S255
G1 X38.898 Y16.988 F250
M106 S0
M106 S255
G1 X38.905 Y16.943 F250
M106 S0
M106 S255
G1 X38.908 Y16.897 F250
M106 S0
M106 S255
G1 X38.906 Y16.864 F250
M106 S0
M106 S255
G1 X38.903 Y16.831 F250
M106 S0
M106 S255
G1 X38.896 Y16.8 F250
M106 S0
M106 S255
G1 X38.888 Y16.769 F250
M106 S0
M106 S255
G1 X38.877 Y16.739 F250
M106 S0
M106 S255
G1 X38.863 Y16.71 F250
M106 S0
M106 S255
G1 X38.847 Y16.682 F250
M106 S0
M106 S255
G1 X38.828 Y16.654 F250
M106 S0
M106 S255
G1 X38.807 Y16.628 F250
M106 S0
M106 S255
G1 X38.784 Y16.602 F250
M106 S0
M106 S255
G1 X38.758 Y16.578 F250
M106 S0
M106 S255
G1 X38.732 Y16.556 F250
M106 S0
M106 S255
G1 X38.705 Y16.537 F250
M106 S0
M106 S255
G1 X38.677 Y16.52 F250
M106 S0
M106 S255
G1 X38.649 Y16.506 F250
M106 S0
M106 S255
G1 X38.619 Y16.495 F250
M106 S0
M106 S255
G1 X38.589 Y16.486 F250
M106 S0
M106 S255
G1 X38.557 Y16.48 F250
M106 S0
M106 S255
G1 X38.525 Y16.476 F250
M106 S0
M106 S255
G1 X38.492 Y16.475 F250
M106 S0
M106 S255
G1 X38.467 Y16.475 F250
M106 S0
M106 S255
G1 X38.442 Y16.477 F250
M106 S0
M106 S255
G1 X38.416 Y16.481 F250
M106 S0
M106 S255
G1 X38.389 Y16.485 F250
M106 S0
M106 S255
G1 X38.361 Y16.491 F250
M106 S0
M106 S255
G1 X38.333 Y16.499 F250
M106 S0
M106 S255
G1 X38.303 Y16.507 F250
M106 S0
M106 S255
G1 X38.273 Y16.517 F250
M106 S0
M106 S255
G1 X38.242 Y16.529 F250
M106 S0
M106 S255
G1 X38.21 Y16.542 F250
M106 S0
M106 S255
G1 X38.146 Y16.567 F250
M106 S0
M106 S255
G1 X38.087 Y16.591 F250
M106 S0
M106 S255
G1 X38.034 Y16.612 F250
M106 S0
M106 S255
G1 X37.985 Y16.631 F250
M106 S0
M106 S255
G1 X37.942 Y16.647 F250
M106 S0
M106 S255
G1 X37.905 Y16.661 F250
M106 S0
M106 S255
G1 X37.873 Y16.673 F250
M106 S0
M106 S255
G1 X37.846 Y16.683 F250
M106 S0
M106 S255
G1 X37.824 Y16.691 F250
M106 S0
M106 S255
G1 X37.808 Y16.696 F250
M106 S0
M106 S255
G1 X37.784 Y16.701 F250
M106 S0
M106 S255
G1 X37.759 Y16.705 F250
M106 S0
M106 S255
G1 X37.734 Y16.709 F250
M106 S0
M106 S255
G1 X37.709 Y16.713 F250
M106 S0
M106 S255
G1 X37.683 Y16.716 F250
M106 S0
M106 S255
G1 X37.656 Y16.718 F250
M106 S0
M106 S255
G1 X37.63 Y16.72 F250
M106 S0
M106 S255
G1 X37.602 Y16.721 F250
M106 S0
M106 S255
G1 X37.575 Y16.722 F250
M106 S0
M106 S255
G1 X37.547 Y16.723 F250
M106 S0
M106 S255
G1 X37.482 Y16.72 F250
M106 S0
M106 S255
G1 X37.419 Y16.714 F250
M106 S0
M106 S255
G1 X37.358 Y16.703 F250
M106 S0
M106 S255
G1 X37.299 Y16.687 F250
M106 S0
M106 S255
G1 X37.242 Y16.667 F250
M106 S0
M106 S255
G1 X37.187 Y16.643 F250
M106 S0
M106 S255
G1 X37.133 Y16.614 F250
M106 S0
M106 S255
G1 X37.082 Y16.581 F250
M106 S0
M106 S255
G1 X37.032 Y16.543 F250
M106 S0
M106 S255
G1 X36.984 Y16.501 F250
M106 S0
M106 S255
G1 X36.9 Y16.412 F250
M106 S0
M106 S255
G1 X36.814 Y16.299 F250
M106 S0
M106 S255
G1 X36.727 Y16.163 F250
M106 S0
M106 S255
G1 X36.638 Y16.003 F250
M106 S0
M106 S255
G1 X36.547 Y15.819 F250
M106 S0
M106 S255
G1 X36.455 Y15.613 F250
M106 S0
M106 S255
G1 X36.361 Y15.382 F250
M106 S0
M106 S255
G1 X36.265 Y15.129 F250
M106 S0
M106 S255
G1 X36.168 Y14.852 F250
M106 S0
M106 S255
G1 X36.069 Y14.551 F250
M106 S0
M106 S255
G1 X35.966 Y14.22 F250
M106 S0
M106 S255
G1 X35.858 Y13.851 F250
M106 S0
M106 S255
G1 X35.745 Y13.446 F250
M106 S0
M106 S255
G1 X35.626 Y13.002 F250
M106 S0
M106 S255
G1 X35.502 Y12.522 F250
M106 S0
M106 S255
G1 X35.372 Y12.004 F250
M106 S0
M106 S255
G1 X35.237 Y11.448 F250
M106 S0
M106 S255
G1 X35.096 Y10.855 F250
M106 S0
M106 S255
G1 X34.95 Y10.225 F250
M106 S0
M106 S255
G1 X34.799 Y9.558 F250
M106 S0
M106 S255
G1 X34.571 Y8.559 F250
M106 S0
M106 S255
G1 X34.423 Y8.886 F250
M106 S0
M106 S255
G1 X34.285 Y9.193 F250
M106 S0
M106 S255
G1 X34.157 Y9.48 F250
M106 S0
M106 S255
G1 X34.039 Y9.748 F250
M106 S0
M106 S255
G1 X33.931 Y9.997 F250
M106 S0
M106 S255
G1 X33.833 Y10.225 F250
M106 S0
M106 S255
G1 X33.744 Y10.435 F250
M106 S0
M106 S255
G1 X33.666 Y10.624 F250
M106 S0
M106 S255
G1 X33.597 Y10.795 F250
M106 S0
M106 S255
G1 X33.539 Y10.945 F250
M106 S0
M106 S255
G1 X33.465 Y11.139 F250
M106 S0
M106 S255
G1 X33.39 Y11.343 F250
M106 S0
M106 S255
G1 X33.313 Y11.557 F250
M106 S0
M106 S255
G1 X33.233 Y11.78 F250
M106 S0
M106 S255
G1 X33.152 Y12.014 F250
M106 S0
M106 S255
G1 X33.068 Y12.258 F250
M106 S0
M106 S255
G1 X32.983 Y12.511 F250
M106 S0
M106 S255
G1 X32.895 Y12.775 F250
M106 S0
M106 S255
G1 X32.806 Y13.048 F250
M106 S0
M106 S255
G1 X32.714 Y13.331 F250
M106 S0
M106 S255
G1 X31.977 Y15.65 F250
M106 S0
M106 S255
G1 X31.947 Y15.478 F250
M106 S0
M106 S255
G1 X31.909 Y15.284 F250
M106 S0
M106 S255
G1 X31.865 Y15.068 F250
M106 S0
M106 S255
G1 X31.813 Y14.83 F250
M106 S0
M106 S255
G1 X31.754 Y14.57 F250
M106 S0
M106 S255
G1 X31.687 Y14.288 F250
M106 S0
M106 S255
G1 X31.614 Y13.984 F250
M106 S0
M106 S255
G1 X31.533 Y13.658 F250
M106 S0
M106 S255
G1 X31.445 Y13.309 F250
M106 S0
M106 S255
G1 X31.351 Y12.939 F250
M106 S0
M106 S255
G1 X31.256 Y12.574 F250
M106 S0
M106 S255
G1 X31.169 Y12.241 F250
M106 S0
M106 S255
G1 X31.091 Y11.941 F250
M106 S0
M106 S255
G1 X31.02 Y11.673 F250
M106 S0
M106 S255
G1 X30.958 Y11.437 F250
M106 S0
M106 S255
G1 X30.903 Y11.234 F250
M106 S0
M106 S255
G1 X30.856 Y11.063 F250
M106 S0
M106 S255
G1 X30.818 Y10.924 F250
M106 S0
M106 S255
G1 X30.787 Y10.818 F250
M106 S0
M106 S255
G1 X30.764 Y10.744 F250
M106 S0
M106 S255
G1 X30.702 Y10.567 F250
M106 S0
M106 S255
G1 X30.639 Y10.399 F250
M106 S0
M106 S255
G1 X30.575 Y10.239 F250
M106 S0
M106 S255
G1 X30.51 Y10.088 F250
M106 S0
M106 S255
G1 X30.445 Y9.945 F250
M106 S0
M106 S255
G1 X30.378 Y9.81 F250
M106 S0
M106 S255
G1 X30.311 Y9.684 F250
M106 S0
M106 S255
G1 X30.243 Y9.566 F250
M106 S0
M106 S255
G1 X30.174 Y9.457 F250
M106 S0
M106 S255
G1 X30.104 Y9.357 F250
M106 S0
M106 S255
G1 X30.033 Y9.263 F250
M106 S0
M106 S255
G1 X29.96 Y9.174 F250
M106 S0
M106 S255
G1 X29.887 Y9.091 F250
M106 S0
M106 S255
G1 X29.812 Y9.012 F250
M106 S0
M106 S255
G1 X29.735 Y8.939 F250
M106 S0
M106 S255
G1 X29.658 Y8.872 F250
M106 S0
M106 S255
G1 X29.578 Y8.809 F250
M106 S0
M106 S255
G1 X29.498 Y8.752 F250
M106 S0
M106 S255
G1 X29.416 Y8.7 F250
M106 S0
M106 S255
G1 X29.333 Y8.653 F250
M106 S0
M106 S255
G1 X29.248 Y8.611 F250
M106 S0
M106 S255
G1 X29.162 Y8.573 F250
M106 S0
M106 S255
G1 X29.074 Y8.54 F250
M106 S0
M106 S255
G1 X28.985 Y8.511 F250
M106 S0
M106 S255
G1 X28.893 Y8.487 F250
M106 S0
M106 S255
G1 X28.8 Y8.467 F250
M106 S0
M106 S255
G1 X28.706 Y8.452 F250
M106 S0
M106 S255
G1 X28.609 Y8.44 F250
M106 S0
M106 S255
G1 X28.511 Y8.434 F250
M106 S0
M106 S255
G1 X28.412 Y8.432 F250
M106 S0
M106 S255
G1 X28.288 Y8.434 F250
M106 S0
M106 S255
G1 X28.169 Y8.443 F250
M106 S0
M106 S255
G1 X28.054 Y8.457 F250
M106 S0
M106 S255
G1 X27.944 Y8.477 F250
M106 S0
M106 S255
G1 X27.838 Y8.502 F250
M106 S0
M106 S255
G1 X27.738 Y8.533 F250
M106 S0
M106 S255
G1 X27.641 Y8.57 F250
M106 S0
M106 S255
G1 X27.549 Y8.612 F250
M106 S0
M106 S255
G1 X27.462 Y8.66 F250
M106 S0
M106 S255
G1 X27.379 Y8.713 F250
M106 S0
M106 S255
G1 X27.321 Y8.756 F250
M106 S0
M106 S255
G1 X27.268 Y8.801 F250
M106 S0
M106 S255
G1 X27.222 Y8.848 F250
M106 S0
M106 S255
G1 X27.182 Y8.898 F250
M106 S0
M106 S255
G1 X27.148 Y8.949 F250
M106 S0
M106 S255
G1 X27.12 Y9.003 F250
M106 S0
M106 S255
G1 X27.099 Y9.06 F250
M106 S0
M106 S255
G1 X27.083 Y9.118 F250
M106 S0
M106 S255
G1 X27.074 Y9.179 F250
M106 S0
M106 S255
G1 X27.071 Y9.243 F250
M106 S0
M106 S255
G1 X27.072 Y9.27 F250
M106 S0
M106 S255
G1 X27.076 Y9.298 F250
M106 S0
M106 S255
G1 X27.081 Y9.324 F250
M106 S0
M106 S255
G1 X27.089 Y9.35 F250
M106 S0
M106 S255
G1 X27.1 Y9.376 F250
M106 S0
M106 S255
G1 X27.112 Y9.401 F250
M106 S0
M106 S255
G1 X27.127 Y9.425 F250
M106 S0
M106 S255
G1 X27.144 Y9.449 F250
M106 S0
M106 S255
G1 X27.163 Y9.472 F250
M106 S0
M106 S255
G1 X27.185 Y9.494 F250
M106 S0
M106 S255
G1 X27.208 Y9.515 F250
M106 S0
M106 S255
G1 X27.232 Y9.534 F250
M106 S0
M106 S255
G1 X27.258 Y9.55 F250
M106 S0
M106 S255
G1 X27.284 Y9.565 F250
M106 S0
M106 S255
G1 X27.311 Y9.577 F250
M106 S0
M106 S255
G1 X27.339 Y9.587 F250
M106 S0
M106 S255
G1 X27.367 Y9.595 F250
M106 S0
M106 S255
G1 X27.397 Y9.6 F250
M106 S0
M106 S255
G1 X27.428 Y9.603 F250
M106 S0
M106 S255
G1 X27.46 Y9.605 F250
M106 S0
M106 S255
G1 X27.502 Y9.602 F250
M106 S0
M106 S255
G1 X27.544 Y9.596 F250
M106 S0
M106 S255
G1 X27.587 Y9.585 F250
M106 S0
M106 S255
G1 X27.631 Y9.569 F250
M106 S0
M106 S255
G1 X27.676 Y9.549 F250
M106 S0
M106 S255
G1 X27.721 Y9.525 F250
M106 S0
M106 S255
G1 X27.767 Y9.496 F250
M106 S0
M106 S255
G1 X27.814 Y9.463 F250
M106 S0
M106 S255
G1 X27.861 Y9.425 F250
M106 S0
M106 S255
G1 X27.909 Y9.383 F250
M106 S0
M106 S255
G1 X27.994 Y9.308 F250
M106 S0
M106 S255
G1 X28.077 Y9.241 F250
M106 S0
M106 S255
G1 X28.16 Y9.182 F250
M106 S0
M106 S255
G1 X28.24 Y9.13 F250
M106 S0
M106 S255
G1 X28.319 Y9.087 F250
M106 S0
M106 S255
G1 X28.397 Y9.051 F250
M106 S0
M106 S255
G1 X28.473 Y9.024 F250
M106 S0
M106 S255
G1 X28.548 Y9.004 F250
M106 S0
M106 S255
G1 X28.621 Y8.992 F250
M106 S0
M106 S255
G1 X28.693 Y8.988 F250
M106 S0
M106 S255
G1 X28.769 Y8.991 F250
M106 S0
M106 S255
G1 X28.845 Y9.002 F250
M106 S0
M106 S255
G1 X28.921 Y9.019 F250
M106 S0
M106 S255
G1 X28.997 Y9.043 F250
M106 S0
M106 S255
G1 X29.072 Y9.073 F250
M106 S0
M106 S255
G1 X29.147 Y9.111 F250
M106 S0
M106 S255
G1 X29.221 Y9.155 F250
M106 S0
M106 S255
G1 X29.296 Y9.207 F250
M106 S0
M106 S255
G1 X29.37 Y9.265 F250
M106 S0
M106 S255
G1 X29.444 Y9.33 F250
M106 S0
M106 S255
G1 X29.553 Y9.446 F250
M106 S0
M106 S255
G1 X29.662 Y9.585 F250
M106 S0
M106 S255
G1 X29.77 Y9.747 F250
M106 S0
M106 S255
G1 X29.877 Y9.931 F250
M106 S0
M106 S255
G1 X29.983 Y10.139 F250
M106 S0
M106 S255
G1 X30.089 Y10.37 F250
M106 S0
M106 S255
G1 X30.193 Y10.623 F250
M106 S0
M106 S255
G1 X30.297 Y10.9 F250
M106 S0
M106 S255
G1 X30.4 Y11.199 F250
M106 S0
M106 S255
G1 X30.503 Y11.521 F250
M106 S0
M106 S255
G1 X30.626 Y11.936 F250
M106 S0
M106 S255
G1 X30.747 Y12.372 F250
M106 S0
M106 S255
G1 X30.868 Y12.83 F250
M106 S0
M106 S255
G1 X30.988 Y13.309 F250
M106 S0
M106 S255
G1 X31.108 Y13.81 F250
M106 S0
M106 S255
G1 X31.226 Y14.333 F250
M106 S0
M106 S255
G1 X31.343 Y14.878 F250
M106 S0
M106 S255
G1 X31.459 Y15.444 F250
M106 S0
M106 S255
G1 X31.575 Y16.032 F250
M106 S0
M106 S255
G1 X31.689 Y16.642 F250
M106 S0
M106 S255
G1 X31.638 Y16.641 F250
M106 S0
M106 S255
G1 X31.578 Y16.637 F250
M106 S0
M106 S255
G1 X31.51 Y16.63 F250
M106 S0
M106 S255
G1 X31.433 Y16.621 F250
M106 S0
M106 S255
G1 X31.347 Y16.609 F250
M106 S0
M106 S255
G1 X31.253 Y16.594 F250
M106 S0
M106 S255
G1 X31.15 Y16.576 F250
M106 S0
M106 S255
G1 X31.039 Y16.556 F250
M106 S0
M106 S255
G1 X30.919 Y16.534 F250
M106 S0
M106 S255
G1 X30.791 Y16.508 F250
M106 S0
M106 S255
G1 X30.66 Y16.48 F250
M106 S0
M106 S255
G1 X30.534 Y16.45 F250
M106 S0
M106 S255
G1 X30.412 Y16.418 F250
M106 S0
M106 S255
G1 X30.295 Y16.383 F250
M106 S0
M106 S255
G1 X30.182 Y16.346 F250
M106 S0
M106 S255
G1 X30.073 Y16.307 F250
M106 S0
M106 S255
G1 X29.969 Y16.266 F250
M106 S0
M106 S255
G1 X29.869 Y16.223 F250
M106 S0
M106 S255
G1 X29.773 Y16.177 F250
M106 S0
M106 S255
G1 X29.682 Y16.129 F250
M106 S0
M106 S255
G1 X29.595 Y16.079 F250
M106 S0
M106 S255
G1 X29.512 Y16.026 F250
M106 S0
M106 S255
G1 X29.433 Y15.969 F250
M106 S0
M106 S255
G1 X29.358 Y15.91 F250
M106 S0
M106 S255
G1 X29.288 Y15.848 F250
M106 S0
M106 S255
G1 X29.222 Y15.783 F250
M106 S0
M106 S255
G1 X29.159 Y15.715 F250
M106 S0
M106 S255
G1 X29.101 Y15.644 F250
M106 S0
M106 S255
G1 X29.048 Y15.57 F250
M106 S0
M106 S255
G1 X28.998 Y15.493 F250
M106 S0
M106 S255
G1 X28.953 Y15.414 F250
M106 S0
M106 S255
G1 X28.912 Y15.334 F250
M106 S0
M106 S255
G1 X28.877 Y15.254 F250
M106 S0
M106 S255
G1 X28.846 Y15.173 F250
M106 S0
M106 S255
G1 X28.82 Y15.091 F250
M106 S0
M106 S255
G1 X28.798 Y15.009 F250
M106 S0
M106 S255
G1 X28.781 Y14.926 F250
M106 S0
M106 S255
G1 X28.77 Y14.842 F250
M106 S0
M106 S255
G1 X28.762 Y14.757 F250
M106 S0
M106 S255
G1 X28.76 Y14.672 F250
M106 S0
M106 S255
G1 X28.761 Y14.629 F250
M106 S0
M106 S255
G1 X28.762 Y14.586 F250
M106 S0
M106 S255
G1 X28.765 Y14.542 F250
M106 S0
M106 S255
G1 X28.77 Y14.499 F250
M106 S0
M106 S255
G1 X28.775 Y14.455 F250
M106 S0
M106 S255
G1 X28.782 Y14.412 F250
M106 S0
M106 S255
G1 X28.79 Y14.368 F250
M106 S0
M106 S255
G1 X28.799 Y14.324 F250
M106 S0
M106 S255
G1 X28.809 Y14.28 F250
M106 S0
M106 S255
G1 X28.82 Y14.236 F250
M106 S0
M106 S255
G1 X28.829 Y14.206 F250
M106 S0
M106 S255
G1 X28.84 Y14.174 F250
M106 S0
M106 S255
G1 X28.853 Y14.141 F250
M106 S0
M106 S255
G1 X28.868 Y14.107 F250
M106 S0
M106 S255
G1 X28.884 Y14.072 F250
M106 S0
M106 S255
G1 X28.902 Y14.035 F250
M106 S0
M106 S255
G1 X28.923 Y13.997 F250
M106 S0
M106 S255
G1 X28.945 Y13.957 F250
M106 S0
M106 S255
G1 X28.969 Y13.916 F250
M106 S0
M106 S255
G1 X28.995 Y13.874 F250
M106 S0
M106 S255
G1 X29.024 Y13.826 F250
M106 S0
M106 S255
G1 X29.05 Y13.78 F250
M106 S0
M106 S255
G1 X29.073 Y13.736 F250
M106 S0
M106 S255
G1 X29.093 Y13.695 F250
M106 S0
M106 S255
G1 X29.11 Y13.656 F250
M106 S0
M106 S255
G1 X29.124 Y13.62 F250
M106 S0
M106 S255
G1 X29.135 Y13.586 F250
M106 S0
M106 S255
G1 X29.143 Y13.554 F250
M106 S0
M106 S255
G1 X29.147 Y13.525 F250
M106 S0
M106 S255
G1 X29.149 Y13.499 F250
M106 S0
M106 S255
G1 X29.148 Y13.467 F250
M106 S0
M106 S255
G1 X29.144 Y13.436 F250
M106 S0
M106 S255
G1 X29.138 Y13.406 F250
M106 S0
M106 S255
G1 X29.13 Y13.377 F250
M106 S0
M106 S255
G1 X29.119 Y13.35 F250
M106 S0
M106 S255
G1 X29.107 Y13.323 F250
M106 S0
M106 S255
G1 X29.091 Y13.296 F250
M106 S0
M106 S255
G1 X29.074 Y13.271 F250
M106 S0
M106 S255
G1 X29.054 Y13.247 F250
M106 S0
M106 S255
G1 X29.032 Y13.224 F250
M106 S0
M106 S255
G1 X29.007 Y13.202 F250
M106 S0
M106 S255
G1 X28.982 Y13.183 F250
M106 S0
M106 S255
G1 X28.956 Y13.166 F250
M106 S0
M106 S255
G1 X28.929 Y13.151 F250
M106 S0
M106 S255
G1 X28.9 Y13.138 F250
M106 S0
M106 S255
G1 X28.87 Y13.128 F250
M106 S0
M106 S255
G1 X28.839 Y13.12 F250
M106 S0
M106 S255
G1 X28.807 Y13.114 F250
M106 S0
M106 S255
G1 X28.774 Y13.111 F250
M106 S0
M106 S255
G1 X28.74 Y13.11 F250
M106 S0
M106 S255
G1 X28.69 Y13.113 F250
M106 S0
M106 S255
G1 X28.641 Y13.121 F250
M106 S0
M106 S255
G1 X28.594 Y13.134 F250
M106 S0
M106 S255
G1 X28.548 Y13.152 F250
M106 S0
M106 S255
G1 X28.504 Y13.176 F250
M106 S0
M106 S255
G1 X28.461 Y13.205 F250
M106 S0
M106 S255
G1 X28.42 Y13.24 F250
M106 S0
M106 S255
G1 X28.38 Y13.279 F250
M106 S0
M106 S255
G1 X28.341 Y13.324 F250
M106 S0
M106 S255
G1 X28.304 Y13.375 F250
M106 S0
M106 S255
G1 X28.27 Y13.43 F250
M106 S0
M106 S255
G1 X28.239 Y13.492 F250
M106 S0
M106 S255
G1 X28.212 Y13.559 F250
M106 S0
M106 S255
G1 X28.188 Y13.631 F250
M106 S0
M106 S255
G1 X28.169 Y13.709 F250
M106 S0
M106 S255
G1 X28.152 Y13.792 F250
M106 S0
M106 S255
G1 X28.14 Y13.882 F250
M106 S0
M106 S255
G1 X28.131 Y13.976 F250
M106 S0
M106 S255
G1 X28.125 Y14.077 F250
M106 S0
M106 S255
G1 X28.123 Y14.182 F250
M106 S0
M106 S255
G1 X28.128 Y14.359 F250
M106 S0
M106 S255
G1 X28.141 Y14.531 F250
M106 S0
M106 S255
G1 X28.164 Y14.697 F250
M106 S0
M106 S255
G1 X28.196 Y14.858 F250
M106 S0
M106 S255
G1 X28.236 Y15.013 F250
M106 S0
M106 S255
G1 X28.286 Y15.164 F250
M106 S0
M106 S255
G1 X28.345 Y15.308 F250
M106 S0
M106 S255
G1 X28.413 Y15.448 F250
M106 S0
M106 S255
G1 X28.49 Y15.582 F250
M106 S0
M106 S255
G1 X28.576 Y15.71 F250
M106 S0
M106 S255
G1 X28.669 Y15.833 F250
M106 S0
M106 S255
G1 X28.769 Y15.95 F250
M106 S0
M106 S255
G1 X28.875 Y16.061 F250
M106 S0
M106 S255
G1 X28.986 Y16.165 F250
M106 S0
M106 S255
G1 X29.104 Y16.263 F250
M106 S0
M106 S255
G1 X29.228 Y16.355 F250
M106 S0
M106 S255
G1 X29.359 Y16.441 F250
M106 S0
M106 S255
G1 X29.495 Y16.521 F250
M106 S0
M106 S255
G1 X29.637 Y16.595 F250
M106 S0
M106 S255
G1 X29.786 Y16.662 F250
M106 S0
M106 S255
G1 X29.891 Y16.702 F250
M106 S0
M106 S255
G1 X30.014 Y16.742 F250
M106 S0
M106 S255
G1 X30.156 Y16.782 F250
M106 S0
M106 S255
G1 X30.315 Y16.821 F250
M106 S0
M106 S255
G1 X30.493 Y16.86 F250
M106 S0
M106 S255
G1 X30.688 Y16.899 F250
M106 S0
M106 S255
G1 X30.901 Y16.937 F250
M106 S0
M106 S255
G1 X31.132 Y16.975 F250
M106 S0
M106 S255
G1 X31.382 Y17.013 F250
M106 S0
M106 S255
G1 X31.649 Y17.051 F250
M106 S0
M106 S255
G1 X31.75 Y17.065 F250
M106 S0
M106 S255
G1 X31.85 Y17.079 F250
M106 S0
M106 S255
G1 X31.949 Y17.095 F250
M106 S0
M106 S255
G1 X32.047 Y17.111 F250
M106 S0
M106 S255
G1 X32.143 Y17.128 F250
M106 S0
M106 S255
G1 X32.238 Y17.146 F250
M106 S0
M106 S255
G1 X32.332 Y17.164 F250
M106 S0
M106 S255
G1 X32.425 Y17.184 F250
M106 S0
M106 S255
G1 X32.517 Y17.204 F250
M106 S0
M106 S255
G1 X32.607 Y17.225 F250
M106 S0
G0 X42.815 Y17.064 F6000
M106 S255
G1 X42.815 Y17.064 F250
M106 S0
M106 S255
G1 X42.717 Y16.839 F250
M106 S0
M106 S255
G1 X42.617 Y16.596 F250
M106 S0
M106 S255
G1 X42.516 Y16.336 F250
M106 S0
M106 S255
G1 X42.414 Y16.06 F250
M106 S0
M106 S255
G1 X42.311 Y15.766 F250
M106 S0
M106 S255
G1 X42.206 Y15.455 F250
M106 S0
M106 S255
G1 X42.1 Y15.127 F250
M106 S0
M106 S255
G1 X41.994 Y14.782 F250
M106 S0
M106 S255
G1 X41.885 Y14.42 F250
M106 S0
M106 S255
G1 X41.776 Y14.042 F250
M106 S0
M106 S255
G1 X40.777 Y10.55 F250
M106 S0
M106 S255
G1 X40.679 Y10.223 F250
M106 S0
M106 S255
G1 X40.572 Y9.915 F250
M106 S0
M106 S255
G1 X40.458 Y9.625 F250
M106 S0
M106 S255
G1 X40.337 Y9.353 F250
M106 S0
M106 S255
G1 X40.208 Y9.099 F250
M106 S0
M106 S255
G1 X40.071 Y8.862 F250
M106 S0
M106 S255
G1 X39.927 Y8.644 F250
M106 S0
M106 S255
G1 X39.776 Y8.443 F250
M106 S0
M106 S255
G1 X39.617 Y8.261 F250
M106 S0
M106 S255
G1 X39.45 Y8.097 F250
M106 S0
M106 S255
G1 X39.277 Y7.948 F250
M106 S0
M106 S255
G1 X39.101 Y7.814 F250
M106 S0
M106 S255
G1 X38.922 Y7.697 F250
M106 S0
M106 S255
G1 X38.739 Y7.595 F250
M106 S0
M106 S255
G1 X38.554 Y7.508 F250
M106 S0
M106 S255
G1 X38.365 Y7.438 F250
M106 S0
M106 S255
G1 X38.174 Y7.383 F250
M106 S0
M106 S255
G1 X37.979 Y7.344 F250
M106 S0
M106 S255
G1 X37.781 Y7.32 F250
M106 S0
M106 S255
G1 X37.58 Y7.312 F250
M106 S0
M106 S255
G1 X37.449 Y7.315 F250
M106 S0
M106 S255
G1 X37.323 Y7.324 F250
M106 S0
M106 S255
G1 X37.202 Y7.339 F250
M106 S0
M106 S255
G1 X37.086 Y7.361 F250
M106 S0
M106 S255
G1 X36.976 Y7.388 F250
M106 S0
M106 S255
G1 X36.87 Y7.421 F250
M106 S0
M106 S255
G1 X36.77 Y7.46 F250
M106 S0
M106 S255
G1 X36.675 Y7.505 F250
M106 S0
M106 S255
G1 X36.586 Y7.557 F250
M106 S0
M106 S255
G1 X36.501 Y7.614 F250
M106 S0
M106 S255
G1 X36.424 Y7.675 F250
M106 S0
M106 S255
G1 X36.354 Y7.737 F250
M106 S0
M106 S255
G1 X36.293 Y7.8 F250
M106 S0
M106 S255
G1 X36.24 Y7.865 F250
M106 S0
M106 S255
G1 X36.195 Y7.931 F250
M106 S0
M106 S255
G1 X36.158 Y7.998 F250
M106 S0
M106 S255
G1 X36.129 Y8.066 F250
M106 S0
M106 S255
G1 X36.109 Y8.135 F250
M106 S0
M106 S255
G1 X36.097 Y8.206 F250
M106 S0
M106 S255
G1 X36.092 Y8.277 F250
M106 S0
M106 S255
G1 X36.094 Y8.311 F250
M106 S0
M106 S255
G1 X36.097 Y8.343 F250
M106 S0
M106 S255
G1 X36.103 Y8.374 F250
M106 S0
M106 S255
G1 X36.112 Y8.405 F250
M106 S0
M106 S255
G1 X36.123 Y8.435 F250
M106 S0
M106 S255
G1 X36.136 Y8.464 F250
M106 S0
M106 S255
G1 X36.152 Y8.492 F250
M106 S0
M106 S255
G1 X36.17 Y8.52 F250
M106 S0
M106 S255
G1 X36.19 Y8.547 F250
M106 S0
M106 S255
G1 X36.213 Y8.572 F250
M106 S0
M106 S255
G1 X36.238 Y8.597 F250
M106 S0
M106 S255
G1 X36.263 Y8.618 F250
M106 S0
M106 S255
G1 X36.289 Y8.637 F250
M106 S0
M106 S255
G1 X36.315 Y8.654 F250
M106 S0
M106 S255
G1 X36.342 Y8.668 F250
M106 S0
M106 S255
G1 X36.37 Y8.679 F250
M106 S0
M106 S255
G1 X36.398 Y8.688 F250
M106 S0
M106 S255
G1 X36.428 Y8.695 F250
M106 S0
M106 S255
G1 X36.457 Y8.698 F250
M106 S0
M106 S255
G1 X36.488 Y8.7 F250
M106 S0
M106 S255
G1 X36.534 Y8.697 F250
M106 S0
M106 S255
G1 X36.58 Y8.689 F250
M106 S0
M106 S255
G1 X36.628 Y8.675 F250
M106 S0
M106 S255
G1 X36.676 Y8.656 F250
M106 S0
M106 S255
G1 X36.724 Y8.631 F250
M106 S0
M106 S255
G1 X36.773 Y8.601 F250
M106 S0
M106 S255
G1 X36.823 Y8.565 F250
M106 S0
M106 S255
G1 X36.874 Y8.524 F250
M106 S0
M106 S255
G1 X36.925 Y8.477 F250
M106 S0
M106 S255
G1 X36.977 Y8.425 F250
M106 S0
M106 S255
G1 X37.047 Y8.354 F250
M106 S0
M106 S255
G1 X37.113 Y8.288 F250
M106 S0
M106 S255
G1 X37.176 Y8.228 F250
M106 S0
M106 S255
G1 X37.237 Y8.173 F250
M106 S0
M106 S255
G1 X37.294 Y8.123 F250
M106 S0
M106 S255
G1 X37.348 Y8.079 F250
M106 S0
M106 S255
G1 X37.399 Y8.04 F250
M106 S0
M106 S255
G1 X37.447 Y8.007 F250
M106 S0
M106 S255
G1 X37.492 Y7.979 F250
M106 S0
M106 S255
G1 X37.534 Y7.956 F250
M106 S0
M106 S255
G1 X37.589 Y7.929 F250
M106 S0
M106 S255
G1 X37.644 Y7.905 F250
M106 S0
M106 S255
G1 X37.698 Y7.884 F250
M106 S0
M106 S255
G1 X37.75 Y7.866 F250
M106 S0
M106 S255
G1 X37.802 Y7.85 F250
M106 S0
M106 S255
G1 X37.852 Y7.838 F250
M106 S0
M106 S255
G1 X37.901 Y7.828 F250
M106 S0
M106 S255
G1 X37.95 Y7.821 F250
M106 S0
M106 S255
G1 X37.997 Y7.816 F250
M106 S0
M106 S255
G1 X38.043 Y7.815 F250
M106 S0
M106 S255
G1 X38.09 Y7.816 F250
M106 S0
M106 S255
G1 X38.137 Y7.819 F250
M106 S0
M106 S255
G1 X38.182 Y7.825 F250
M106 S0
M106 S255
G1 X38.225 Y7.832 F250
M106 S0
M106 S255
G1 X38.267 Y7.842 F250
M106 S0
M106 S255
G1 X38.308 Y7.854 F250
M106 S0
M106 S255
G1 X38.348 Y7.868 F250
M106 S0
M106 S255
G1 X38.386 Y7.884 F250
M106 S0
M106 S255
G1 X38.423 Y7.902 F250
M106 S0
M106 S255
G1 X38.458 Y7.922 F250
M106 S0
M106 S255
G1 X38.515 Y7.959 F250
M106 S0
M106 S255
G1 X38.571 Y8.0 F250
M106 S0
M106 S255
G1 X38.625 Y8.045 F250
M106 S0
M106 S255
G1 X38.677 Y8.093 F250
M106 S0
M106 S255
G1 X38.728 Y8.146 F250
M106 S0
M106 S255
G1 X38.778 Y8.203 F250
M106 S0
M106 S255
G1 X38.826 Y8.263 F250
M106 S0
M106 S255
G1 X38.872 Y8.328 F250
M106 S0
M106 S255
G1 X38.917 Y8.396 F250
M106 S0
M106 S255
G1 X38.961 Y8.468 F250
M106 S0
M106 S255
G1 X39.009 Y8.56 F250
M106 S0
M106 S255
G1 X39.065 Y8.687 F250
M106 S0
M106 S255
G1 X39.131 Y8.848 F250
M106 S0
M106 S255
G1 X39.206 Y9.043 F250
M106 S0
M106 S255
G1 X39.29 Y9.274 F250
M106 S0
M106 S255
G1 X39.383 Y9.539 F250
M106 S0
M106 S255
G1 X39.485 Y9.838 F250
M106 S0
M106 S255
G1 X39.596 Y10.173 F250
M106 S0
M106 S255
G1 X39.716 Y10.541 F250
M106 S0
M106 S255
G1 X39.846 Y10.945 F250
M106 S0
M106 S255
G1 X39.958 Y11.298 F250
M106 S0
M106 S255
G1 X40.07 Y11.653 F250
M106 S0
M106 S255
G1 X40.181 Y12.011 F250
M106 S0
M106 S255
G1 X40.291 Y12.371 F250
M106 S0
M106 S255
G1 X40.4 Y12.735 F250
M106 S0
M106 S255
G1 X40.509 Y13.101 F250
M106 S0
M106 S255
G1 X40.618 Y13.469 F250
M106 S0
M106 S255
G1 X40.725 Y13.84 F250
M106 S0
M106 S255
G1 X40.832 Y14.214 F250
M106 S0
M106 S255
G1 X40.938 Y14.591 F250
M106 S0
M106 S255
G1 X41.521 Y16.629 F250
M106 S0
M106 S255
G1 X41.2 Y16.642 F250
M106 S0
M106 S255
G1 X40.99 Y16.637 F250
M106 S0
M106 S255
G1 X40.788 Y16.622 F250
M106 S0
M106 S255
G1 X40.593 Y16.596 F250
M106 S0
M106 S255
G1 X40.406 Y16.56 F250
M106 S0
M106 S255
G1 X40.226 Y16.514 F250
M106 S0
M106 S255
G1 X40.054 Y16.458 F250
M106 S0
M106 S255
G1 X39.888 Y16.391 F250
M106 S0
M106 S255
G1 X39.731 Y16.314 F250
M106 S0
M106 S255
G1 X39.58 Y16.227 F250
M106 S0
M106 S255
G1 X39.437 Y16.129 F250
M106 S0
M106 S255
G1 X39.305 Y16.026 F250
M106 S0
M106 S255
G1 X39.186 Y15.922 F250
M106 S0
M106 S255
G1 X39.082 Y15.817 F250
M106 S0
M106 S255
G1 X38.991 Y15.71 F250
M106 S0
M106 S255
G1 X38.914 Y15.602 F250
M106 S0
M106 S255
G1 X38.851 Y15.494 F250
M106 S0
M106 S255
G1 X38.803 Y15.384 F250
M106 S0
M106 S255
G1 X38.768 Y15.273 F250
M106 S0
M106 S255
G1 X38.747 Y15.16 F250
M106 S0
M106 S255
G1 X38.74 Y15.047 F250
M106 S0
M106 S255
G1 X38.742 Y15.006 F250
M106 S0
M106 S255
G1 X38.747 Y14.964 F250
M106 S0
M106 S255
G1 X38.756 Y14.921 F250
M106 S0
M106 S255
G1 X38.768 Y14.876 F250
M106 S0
M106 S255
G1 X38.784 Y14.831 F250
M106 S0
M106 S255
G1 X38.803 Y14.784 F250
M106 S0
M106 S255
G1 X38.825 Y14.736 F250
M106 S0
M106 S255
G1 X38.851 Y14.687 F250
M106 S0
M106 S255
G1 X38.881 Y14.636 F250
M106 S0
M106 S255
G1 X38.914 Y14.584 F250
M106 S0
M106 S255
G1 X38.945 Y14.537 F250
M106 S0
M106 S255
G1 X38.972 Y14.492 F250
M106 S0
M106 S255
G1 X38.996 Y14.449 F250
M106 S0
M106 S255
G1 X39.017 Y14.408 F250
M106 S0
M106 S255
G1 X39.035 Y14.368 F250
M106 S0
M106 S255
G1 X39.049 Y14.331 F250
M106 S0
M106 S255
G1 X39.061 Y14.296 F250
M106 S0
M106 S255
G1 X39.069 Y14.263 F250
M106 S0
M106 S255
G1 X39.073 Y14.232 F250
M106 S0
M106 S255
G1 X39.075 Y14.202 F250
M106 S0
M106 S255
G1 X39.074 Y14.168 F250
M106 S0
M106 S255
G1 X39.07 Y14.134 F250
M106 S0
M106 S255
G1 X39.063 Y14.102 F250
M106 S0
M106 S255
G1 X39.054 Y14.07 F250
M106 S0
M106 S255
G1 X39.042 Y14.039 F250
M106 S0
M106 S255
G1 X39.028 Y14.009 F250
M106 S0
M106 S255
G1 X39.011 Y13.98 F250
M106 S0
M106 S255
G1 X38.991 Y13.951 F250
M106 S0
M106 S255
G1 X38.969 Y13.924 F250
M106 S0
M106 S255
G1 X38.944 Y13.897 F250
M106 S0
M106 S255
G1 X38.918 Y13.873 F250
M106 S0
M106 S255
G1 X38.89 Y13.85 F250
M106 S0
M106 S255
G1 X38.861 Y13.831 F250
M106 S0
M106 S255
G1 X38.832 Y13.814 F250
M106 S0
M106 S255
G1 X38.801 Y13.799 F250
M106 S0
M106 S255
G1 X38.769 Y13.788 F250
M106 S0
M106 S255
G1 X38.737 Y13.779 F250
M106 S0
M106 S255
G1 X38.703 Y13.772 F250
M106 S0
M106 S255
G1 X38.668 Y13.768 F250
M106 S0
M106 S255
G1 X38.633 Y13.767 F250
M106 S0
M106 S255
G1 X38.587 Y13.769 F250
M106 S0
M106 S255
G1 X38.542 Y13.775 F250
M106 S0
M106 S255
G1 X38.499 Y13.785 F250
M106 S0
M106 S255
G1 X38.458 Y13.8 F250
M106 S0
M106 S255
G1 X38.419 Y13.819 F250
M106 S0
M106 S255
G1 X38.381 Y13.842 F250
M106 S0
M106 S255
G1 X38.345 Y13.869 F250
M106 S0
M106 S255
G1 X38.311 Y13.9 F250
M106 S0
M106 S255
G1 X38.278 Y13.935 F250
M106 S0
M106 S255
G1 X38.247 Y13.975 F250
M106 S0
M106 S255
G1 X38.219 Y14.018 F250
M106 S0
M106 S255
G1 X38.193 Y14.065 F250
M106 S0
M106 S255
G1 X38.17 Y14.117 F250
M106 S0
M106 S255
G1 X38.151 Y14.172 F250
M106 S0
M106 S255
G1 X38.134 Y14.231 F250
M106 S0
M106 S255
G1 X38.121 Y14.294 F250
M106 S0
M106 S255
G1 X38.11 Y14.361 F250
M106 S0
M106 S255
G1 X38.103 Y14.431 F250
M106 S0
M106 S255
G1 X38.098 Y14.506 F250
M106 S0
M106 S255
G1 X38.097 Y14.584 F250
M106 S0
M106 S255
G1 X38.102 Y14.733 F250
M106 S0
M106 S255
G1 X38.118 Y14.88 F250
M106 S0
M106 S255
G1 X38.144 Y15.024 F250
M106 S0
M106 S255
G1 X38.182 Y15.165 F250
M106 S0
M106 S255
G1 X38.23 Y15.304 F250
M106 S0
M106 S255
G1 X38.288 Y15.441 F250
M106 S0
M106 S255
G1 X38.358 Y15.575 F250
M106 S0
M106 S255
G1 X38.438 Y15.706 F250
M106 S0
M106 S255
G1 X38.528 Y15.835 F250
M106 S0
M106 S255
G1 X38.629 Y15.962 F250
M106 S0
M106 S255
G1 X38.74 Y16.084 F250
M106 S0
M106 S255
G1 X38.857 Y16.199 F250
M106 S0
M106 S255
G1 X38.983 Y16.307 F250
M106 S0
M106 S255
G1 X39.115 Y16.409 F250
M106 S0
M106 S255
G1 X39.255 Y16.504 F250
M106 S0
M106 S255
G1 X39.403 Y16.592 F250
M106 S0
M106 S255
G1 X39.558 Y16.673 F250
M106 S0
M106 S255
G1 X39.72 Y16.748 F250
M106 S0
M106 S255
G1 X39.89 Y16.816 F250
M106 S0
M106 S255
G1 X40.067 Y16.877 F250
M106 S0
M106 S255
G1 X40.194 Y16.914 F250
M106 S0
M106 S255
G1 X40.333 Y16.947 F250
M106 S0
M106 S255
G1 X40.485 Y16.976 F250
M106 S0
M106 S255
G1 X40.649 Y17.001 F250
M106 S0
M106 S255
G1 X40.826 Y17.022 F250
M106 S0
M106 S255
G1 X41.015 Y17.04 F250
M106 S0
M106 S255
G1 X41.217 Y17.054 F250
M106 S0
M106 S255
G1 X41.431 Y17.063 F250
M106 S0
M106 S255
G1 X41.658 Y17.069 F250
M106 S0
M106 S255
G1 X41.897 Y17.071 F250
M106 S0
M106 S255
G1 X41.937 Y17.071 F250
M106 S0
M106 S255
G1 X41.989 Y17.071 F250
M106 S0
M106 S255
G1 X42.053 Y17.07 F250
M106 S0
M106 S255
G1 X42.127 Y17.07 F250
M106 S0
M106 S255
G1 X42.213 Y17.069 F250
M106 S0
M106 S255
G1 X42.311 Y17.069 F250
M106 S0
M106 S255
G1 X42.42 Y17.068 F250
M106 S0
M106 S255
G1 X42.54 Y17.067 F250
M106 S0
M106 S255
G1 X42.672 Y17.066 F250
M106 S0
M106 S255
G1 X42.815 Y17.064 F250
M106 S0
G0 X47.601 Y17.178 F6000
M106 S255
G1 X47.601 Y17.178 F250
M106 S0
M106 S255
G1 X47.768 Y17.174 F250
M106 S0
M106 S255
G1 X47.932 Y17.163 F250
M106 S0
M106 S255
G1 X48.092 Y17.143 F250
M106 S0
M106 S255
G1 X48.25 Y17.116 F250
M106 S0
M106 S255
G1 X48.404 Y17.08 F250
M106 S0
M106 S255
G1 X48.555 Y17.037 F250
M106 S0
M106 S255
G1 X48.702 Y16.986 F250
M106 S0
M106 S255
G1 X48.847 Y16.927 F250
M106 S0
M106 S255
G1 X48.988 Y16.861 F250
M106 S0
M106 S255
G1 X49.125 Y16.786 F250
M106 S0
M106 S255
G1 X49.258 Y16.704 F250
M106 S0
M106 S255
G1 X49.385 Y16.616 F250
M106 S0
M106 S255
G1 X49.506 Y16.521 F250
M106 S0
M106 S255
G1 X49.621 Y16.419 F250
M106 S0
M106 S255
G1 X49.729 Y16.31 F250
M106 S0
M106 S255
G1 X49.832 Y16.195 F250
M106 S0
M106 S255
G1 X49.928 Y16.073 F250
M106 S0
M106 S255
G1 X50.019 Y15.944 F250
M106 S0
M106 S255
G1 X50.103 Y15.809 F250
M106 S0
M106 S255
G1 X50.181 Y15.667 F250
M106 S0
M106 S255
G1 X50.252 Y15.519 F250
M106 S0
M106 S255
G1 X50.316 Y15.366 F250
M106 S0
M106 S255
G1 X50.372 Y15.209 F250
M106 S0
M106 S255
G1 X50.421 Y15.047 F250
M106 S0
M106 S255
G1 X50.462 Y14.88 F250
M106 S0
M106 S255
G1 X50.496 Y14.709 F250
M106 S0
M106 S255
G1 X50.523 Y14.532 F250
M106 S0
M106 S255
G1 X50.541 Y14.351 F250
M106 S0
M106 S255
G1 X50.553 Y14.165 F250
M106 S0
M106 S255
G1 X50.556 Y13.975 F250
M106 S0
M106 S255
G1 X50.55 Y13.723 F250
M106 S0
M106 S255
G1 X50.529 Y13.471 F250
M106 S0
M106 S255
G1 X50.495 Y13.22 F250
M106 S0
M106 S255
G1 X50.448 Y12.97 F250
M106 S0
M106 S255
G1 X50.387 Y12.72 F250
M106 S0
M106 S255
G1 X50.313 Y12.47 F250
M106 S0
M106 S255
G1 X50.225 Y12.22 F250
M106 S0
M106 S255
G1 X50.123 Y11.971 F250
M106 S0
M106 S255
G1 X50.008 Y11.723 F250
M106 S0
M106 S255
G1 X49.879 Y11.475 F250
M106 S0
M106 S255
G1 X49.741 Y11.233 F250
M106 S0
M106 S255
G1 X49.597 Y11.003 F250
M106 S0
M106 S255
G1 X49.446 Y10.785 F250
M106 S0
M106 S255
G1 X49.29 Y10.58 F250
M106 S0
M106 S255
G1 X49.127 Y10.387 F250
M106 S0
M106 S255
G1 X48.958 Y10.206 F250
M106 S0
M106 S255
G1 X48.784 Y10.037 F250
M106 S0
M106 S255
G1 X48.603 Y9.881 F250
M106 S0
M106 S255
G1 X48.417 Y9.737 F250
M106 S0
M106 S255
G1 X48.224 Y9.605 F250
M106 S0
M106 S255
G1 X48.026 Y9.485 F250
M106 S0
M106 S255
G1 X47.824 Y9.378 F250
M106 S0
M106 S255
G1 X47.617 Y9.283 F250
M106 S0
M106 S255
G1 X47.407 Y9.201 F250
M106 S0
M106 S255
G1 X47.192 Y9.132 F250
M106 S0
M106 S255
G1 X46.972 Y9.075 F250
M106 S0
M106 S255
G1 X46.749 Y9.031 F250
M106 S0
M106 S255
G1 X46.521 Y9.0 F250
M106 S0
M106 S255
G1 X46.289 Y8.981 F250
M106 S0
M106 S255
G1 X46.052 Y8.975 F250
M106 S0
M106 S255
G1 X45.783 Y8.983 F250
M106 S0
M106 S255
G1 X45.524 Y9.009 F250
M106 S0
M106 S255
G1 X45.275 Y9.052 F250
M106 S0
M106 S255
G1 X45.037 Y9.112 F250
M106 S0
M106 S255
G1 X44.81 Y9.189 F250
M106 S0
M106 S255
G1 X44.593 Y9.283 F250
M106 S0
M106 S255
G1 X44.386 Y9.395 F250
M106 S0
M106 S255
G1 X44.191 Y9.524 F250
M106 S0
M106 S255
G1 X44.005 Y9.669 F250
M106 S0
M106 S255
G1 X43.83 Y9.832 F250
M106 S0
M106 S255
G1 X43.669 Y10.009 F250
M106 S0
M106 S255
G1 X43.525 Y10.197 F250
M106 S0
M106 S255
G1 X43.398 Y10.396 F250
M106 S0
M106 S255
G1 X43.288 Y10.606 F250
M106 S0
M106 S255
G1 X43.195 Y10.826 F250
M106 S0
M106 S255
G1 X43.118 Y11.057 F250
M106 S0
M106 S255
G1 X43.059 Y11.3 F250
M106 S0
M106 S255
G1 X43.016 Y11.553 F250
M106 S0
M106 S255
G1 X42.991 Y11.816 F250
M106 S0
M106 S255
G1 X42.983 Y12.091 F250
M106 S0
M106 S255
G1 X42.989 Y12.358 F250
M106 S0
M106 S255
G1 X43.01 Y12.624 F250
M106 S0
M106 S255
G1 X43.043 Y12.887 F250
M106 S0
M106 S255
G1 X43.091 Y13.149 F250
M106 S0
M106 S255
G1 X43.152 Y13.409 F250
M106 S0
M106 S255
G1 X43.226 Y13.667 F250
M106 S0
M106 S255
G1 X43.314 Y13.923 F250
M106 S0
M106 S255
G1 X43.416 Y14.178 F250
M106 S0
M106 S255
G1 X43.531 Y14.431 F250
M106 S0
M106 S255
G1 X43.66 Y14.682 F250
M106 S0
M106 S255
G1 X43.798 Y14.925 F250
M106 S0
M106 S255
G1 X43.943 Y15.157 F250
M106 S0
M106 S255
G1 X44.093 Y15.375 F250
M106 S0
M106 S255
G1 X44.25 Y15.581 F250
M106 S0
M106 S255
G1 X44.414 Y15.775 F250
M106 S0
M106 S255
G1 X44.583 Y15.956 F250
M106 S0
M106 S255
G1 X44.758 Y16.125 F250
M106 S0
M106 S255
G1 X44.94 Y16.281 F250
M106 S0
M106 S255
G1 X45.128 Y16.424 F250
M106 S0
M106 S255
G1 X45.322 Y16.555 F250
M106 S0
M106 S255
G1 X45.522 Y16.673 F250
M106 S0
M106 S255
G1 X45.728 Y16.779 F250
M106 S0
M106 S255
G1 X45.941 Y16.873 F250
M106 S0
M106 S255
G1 X46.159 Y16.954 F250
M106 S0
M106 S255
G1 X46.384 Y17.022 F250
M106 S0
M106 S255
G1 X46.615 Y17.079 F250
M106 S0
M106 S255
G1 X46.852 Y17.122 F250
M106 S0
M106 S255
G1 X47.095 Y17.153 F250
M106 S0
M106 S255
G1 X47.345 Y17.172 F250
M106 S0
M106 S255
G1 X47.601 Y17.178 F250
M106 S0
G0 X47.111 Y16.696 F6000
M106 S255
G1 X47.111 Y16.696 F250
M106 S0
M106 S255
G1 X46.957 Y16.691 F250
M106 S0
M106 S255
G1 X46.805 Y16.677 F250
M106 S0
M106 S255
G1 X46.656 Y16.654 F250
M106 S0
M106 S255
G1 X46.509 Y16.622 F250
M106 S0
M106 S255
G1 X46.365 Y16.581 F250
M106 S0
M106 S255
G1 X46.223 Y16.53 F250
M106 S0
M106 S255
G1 X46.084 Y16.471 F250
M106 S0
M106 S255
G1 X45.947 Y16.402 F250
M106 S0
M106 S255
G1 X45.812 Y16.324 F250
M106 S0
M106 S255
G1 X45.68 Y16.237 F250
M106 S0
M106 S255
G1 X45.552 Y16.14 F250
M106 S0
M106 S255
G1 X45.428 Y16.032 F250
M106 S0
M106 S255
G1 X45.31 Y15.915 F250
M106 S0
M106 S255
G1 X45.196 Y15.787 F250
M106 S0
M106 S255
G1 X45.086 Y15.648 F250
M106 S0
M106 S255
G1 X44.982 Y15.5 F250
M106 S0
M106 S255
G1 X44.882 Y15.341 F250
M106 S0
M106 S255
G1 X44.787 Y15.172 F250
M106 S0
M106 S255
G1 X44.697 Y14.992 F250
M106 S0
M106 S255
G1 X44.611 Y14.802 F250
M106 S0
M106 S255
G1 X44.532 Y14.604 F250
M106 S0
M106 S255
G1 X44.462 Y14.4 F250
M106 S0
M106 S255
G1 X44.399 Y14.189 F250
M106 S0
M106 S255
G1 X44.345 Y13.972 F250
M106 S0
M106 S255
G1 X44.3 Y13.749 F250
M106 S0
M106 S255
G1 X44.262 Y13.52 F250
M106 S0
M106 S255
G1 X44.233 Y13.284 F250
M106 S0
M106 S255
G1 X44.212 Y13.042 F250
M106 S0
M106 S255
G1 X44.2 Y12.794 F250
M106 S0
M106 S255
G1 X44.196 Y12.54 F250
M106 S0
M106 S255
G1 X44.202 Y12.252 F250
M106 S0
M106 S255
G1 X44.222 Y11.977 F250
M106 S0
M106 S255
G1 X44.254 Y11.716 F250
M106 S0
M106 S255
G1 X44.3 Y11.468 F250
M106 S0
M106 S255
G1 X44.358 Y11.234 F250
M106 S0
M106 S255
G1 X44.43 Y11.013 F250
M106 S0
M106 S255
G1 X44.514 Y10.806 F250
M106 S0
M106 S255
G1 X44.612 Y10.612 F250
M106 S0
M106 S255
G1 X44.722 Y10.432 F250
M106 S0
M106 S255
G1 X44.846 Y10.265 F250
M106 S0
M106 S255
G1 X44.979 Y10.113 F250
M106 S0
M106 S255
G1 X45.119 Y9.976 F250
M106 S0
M106 S255
G1 X45.265 Y9.856 F250
M106 S0
M106 S255
G1 X45.417 Y9.752 F250
M106 S0
M106 S255
G1 X45.576 Y9.664 F250
M106 S0
M106 S255
G1 X45.742 Y9.592 F250
M106 S0
M106 S255
G1 X45.914 Y9.536 F250
M106 S0
M106 S255
G1 X46.092 Y9.496 F250
M106 S0
M106 S255
G1 X46.277 Y9.472 F250
M106 S0
M106 S255
G1 X46.468 Y9.464 F250
M106 S0
M106 S255
G1 X46.612 Y9.469 F250
M106 S0
M106 S255
G1 X46.754 Y9.483 F250
M106 S0
M106 S255
G1 X46.895 Y9.507 F250
M106 S0
M106 S255
G1 X47.035 Y9.54 F250
M106 S0
M106 S255
G1 X47.172 Y9.583 F250
M106 S0
M106 S255
G1 X47.309 Y9.635 F250
M106 S0
M106 S255
G1 X47.443 Y9.697 F250
M106 S0
M106 S255
G1 X47.577 Y9.768 F250
M106 S0
M106 S255
G1 X47.708 Y9.849 F250
M106 S0
M106 S255
G1 X47.838 Y9.94 F250
M106 S0
M106 S255
G1 X47.966 Y10.04 F250
M106 S0
M106 S255
G1 X48.088 Y10.152 F250
M106 S0
M106 S255
G1 X48.206 Y10.274 F250
M106 S0
M106 S255
G1 X48.319 Y10.408 F250
M106 S0
M106 S255
G1 X48.428 Y10.552 F250
M106 S0
M106 S255
G1 X48.533 Y10.707 F250
M106 S0
M106 S255
G1 X48.632 Y10.874 F250
M106 S0
M106 S255
G1 X48.727 Y11.051 F250
M106 S0
M106 S255
G1 X48.818 Y11.239 F250
M106 S0
M106 S255
G1 X48.904 Y11.438 F250
M106 S0
M106 S255
G1 X48.984 Y11.645 F250
M106 S0
M106 S255
G1 X49.055 Y11.859 F250
M106 S0
M106 S255
G1 X49.118 Y12.078 F250
M106 S0
M106 S255
G1 X49.172 Y12.304 F250
M106 S0
M106 S255
G1 X49.218 Y12.536 F250
M106 S0
M106 S255
G1 X49.256 Y12.774 F250
M106 S0
M106 S255
G1 X49.285 Y13.018 F250
M106 S0
M106 S255
G1 X49.306 Y13.268 F250
M106 S0
M106 S255
G1 X49.319 Y13.524 F250
M106 S0
M106 S255
G1 X49.323 Y13.787 F250
M106 S0
M106 S255
G1 X49.317 Y14.056 F250
M106 S0
M106 S255
G1 X49.297 Y14.312 F250
M106 S0
M106 S255
G1 X49.265 Y14.557 F250
M106 S0
M106 S255
G1 X49.221 Y14.789 F250
M106 S0
M106 S255
G1 X49.163 Y15.009 F250
M106 S0
M106 S255
G1 X49.093 Y15.217 F250
M106 S0
M106 S255
G1 X49.009 Y15.413 F250
M106 S0
M106 S255
G1 X48.913 Y15.597 F250
M106 S0
M106 S255
G1 X48.805 Y15.769 F250
M106 S0
M106 S255
G1 X48.683 Y15.928 F250
M106 S0
M106 S255
G1 X48.552 Y16.074 F250
M106 S0
M106 S255
G1 X48.415 Y16.205 F250
M106 S0
M106 S255
G1 X48.273 Y16.32 F250
M106 S0
M106 S255
G1 X48.124 Y16.419 F250
M106 S0
M106 S255
G1 X47.97 Y16.504 F250
M106 S0
M106 S255
G1 X47.81 Y16.573 F250
M106 S0
M106 S255
G1 X47.644 Y16.627 F250
M106 S0
M106 S255
G1 X47.472 Y16.665 F250
M106 S0
M106 S255
G1 X47.295 Y16.688 F250
M106 S0
M106 S255
G1 X47.111 Y16.696 F250
M106 S0
G0 X56.032 Y17.165 F6000
M106 S255
G1 X56.032 Y17.165 F250
M106 S0
M106 S255
G1 X55.897 Y16.92 F250
M106 S0
M106 S255
G1 X55.762 Y16.662 F250
M106 S0
M106 S255
G1 X55.628 Y16.391 F250
M106 S0
M106 S255
G1 X55.494 Y16.106 F250
M106 S0
M106 S255
G1 X55.36 Y15.809 F250
M106 S0
M106 S255
G1 X55.227 Y15.499 F250
M106 S0
M106 S255
G1 X55.094 Y15.176 F250
M106 S0
M106 S255
G1 X54.962 Y14.84 F250
M106 S0
M106 S255
G1 X54.83 Y14.491 F250
M106 S0
M106 S255
G1 X54.698 Y14.129 F250
M106 S0
M106 S255
G1 X54.611 Y13.872 F250
M106 S0
M106 S255
G1 X54.532 Y13.623 F250
M106 S0
M106 S255
G1 X54.463 Y13.383 F250
M106 S0
M106 S255
G1 X54.402 Y13.152 F250
M106 S0
M106 S255
G1 X54.352 Y12.929 F250
M106 S0
M106 S255
G1 X54.31 Y12.715 F250
M106 S0
M106 S255
G1 X54.278 Y12.509 F250
M106 S0
M106 S255
G1 X54.254 Y12.312 F250
M106 S0
M106 S255
G1 X54.241 Y12.124 F250
M106 S0
M106 S255
G1 X54.236 Y11.944 F250
M106 S0
M106 S255
G1 X54.241 Y11.752 F250
M106 S0
M106 S255
G1 X54.255 Y11.57 F250
M106 S0
M106 S255
G1 X54.278 Y11.396 F250
M106 S0
M106 S255
G1 X54.312 Y11.231 F250
M106 S0
M106 S255
G1 X54.354 Y11.074 F250
M106 S0
M106 S255
G1 X54.406 Y10.926 F250
M106 S0
M106 S255
G1 X54.467 Y10.787 F250
M106 S0
M106 S255
G1 X54.538 Y10.657 F250
M106 S0
M106 S255
G1 X54.619 Y10.535 F250
M106 S0
M106 S255
G1 X54.708 Y10.422 F250
M106 S0
M106 S255
G1 X54.805 Y10.319 F250
M106 S0
M106 S255
G1 X54.907 Y10.227 F250
M106 S0
M106 S255
G1 X55.013 Y10.145 F250
M106 S0
M106 S255
G1 X55.125 Y10.075 F250
M106 S0
M106 S255
G1 X55.24 Y10.015 F250
M106 S0
M106 S255
G1 X55.361 Y9.966 F250
M106 S0
M106 S255
G1 X55.487 Y9.928 F250
M106 S0
M106 S255
G1 X55.617 Y9.901 F250
M106 S0
M106 S255
G1 X55.752 Y9.885 F250
M106 S0
M106 S255
G1 X55.891 Y9.879 F250
M106 S0
M106 S255
G1 X56.025 Y9.883 F250
M106 S0
M106 S255
G1 X56.156 Y9.893 F250
M106 S0
M106 S255
G1 X56.286 Y9.91 F250
M106 S0
M106 S255
G1 X56.415 Y9.933 F250
M106 S0
M106 S255
G1 X56.542 Y9.963 F250
M106 S0
M106 S255
G1 X56.667 Y10.0 F250
M106 S0
M106 S255
G1 X56.79 Y10.044 F250
M106 S0
M106 S255
G1 X56.912 Y10.094 F250
M106 S0
M106 S255
G1 X57.033 Y10.151 F250
M106 S0
M106 S255
G1 X57.151 Y10.214 F250
M106 S0
M106 S255
G1 X57.307 Y10.308 F250
M106 S0
M106 S255
G1 X57.46 Y10.41 F250
M106 S0
M106 S255
G1 X57.611 Y10.522 F250
M106 S0
M106 S255
G1 X57.76 Y10.642 F250
M106 S0
M106 S255
G1 X57.906 Y10.772 F250
M106 S0
M106 S255
G1 X58.05 Y10.912 F250
M106 S0
M106 S255
G1 X58.192 Y11.06 F250
M106 S0
M106 S255
G1 X58.331 Y11.218 F250
M106 S0
M106 S255
G1 X58.468 Y11.385 F250
M106 S0
M106 S255
G1 X58.603 Y11.562 F250
M106 S0
M106 S255
G1 X58.733 Y11.746 F250
M106 S0
M106 S255
G1 X58.86 Y11.938 F250
M106 S0
M106 S255
G1 X58.981 Y12.137 F250
M106 S0
M106 S255
G1 X59.097 Y12.343 F250
M106 S0
M106 S255
G1 X59.208 Y12.556 F250
M106 S0
M106 S255
G1 X59.315 Y12.777 F250
M106 S0
M106 S255
G1 X59.416 Y13.004 F250
M106 S0
M106 S255
G1 X59.513 Y13.239 F250
M106 S0
M106 S255
G1 X59.605 Y13.481 F250
M106 S0
M106 S255
G1 X59.692 Y13.73 F250
M106 S0
M106 S255
G1 X59.772 Y13.981 F250
M106 S0
M106 S255
G1 X59.844 Y14.229 F250
M106 S0
M106 S255
G1 X59.907 Y14.473 F250
M106 S0
M106 S255
G1 X59.962 Y14.714 F250
M106 S0
M106 S255
G1 X60.008 Y14.952 F250
M106 S0
M106 S255
G1 X60.046 Y15.187 F250
M106 S0
M106 S255
G1 X60.076 Y15.418 F250
M106 S0
M106 S255
G1 X60.097 Y15.646 F250
M106 S0
M106 S255
G1 X60.11 Y15.871 F250
M106 S0
M106 S255
G1 X60.114 Y16.092 F250
M106 S0
M106 S255
G1 X60.111 Y16.245 F250
M106 S0
M106 S255
G1 X60.101 Y16.395 F250
M106 S0
M106 S255
G1 X60.084 Y16.544 F250
M106 S0
M106 S255
G1 X60.061 Y16.691 F250
M106 S0
M106 S255
G1 X60.032 Y16.836 F250
M106 S0
M106 S255
G1 X59.996 Y16.98 F250
M106 S0
M106 S255
G1 X59.953 Y17.123 F250
M106 S0
M106 S255
G1 X59.904 Y17.264 F250
M106 S0
M106 S255
G1 X59.848 Y17.403 F250
M106 S0
M106 S255
G1 X59.786 Y17.54 F250
M106 S0
M106 S255
G1 X59.752 Y17.607 F250
M106 S0
M106 S255
G1 X59.722 Y17.668 F250
M106 S0
M106 S255
G1 X59.695 Y17.724 F250
M106 S0
M106 S255
G1 X59.671 Y17.774 F250
M106 S0
M106 S255
G1 X59.65 Y17.818 F250
M106 S0
M106 S255
G1 X59.632 Y17.857 F250
M106 S0
M106 S255
G1 X59.617 Y17.89 F250
M106 S0
M106 S255
G1 X59.605 Y17.918 F250
M106 S0
M106 S255
G1 X59.597 Y17.94 F250
M106 S0
M106 S255
G1 X59.591 Y17.956 F250
M106 S0
M106 S255
G1 X59.586 Y17.975 F250
M106 S0
M106 S255
G1 X59.582 Y17.994 F250
M106 S0
M106 S255
G1 X59.577 Y18.013 F250
M106 S0
M106 S255
G1 X59.574 Y18.033 F250
M106 S0
M106 S255
G1 X59.571 Y18.053 F250
M106 S0
M106 S255
G1 X59.569 Y18.073 F250
M106 S0
M106 S255
G1 X59.567 Y18.094 F250
M106 S0
M106 S255
G1 X59.565 Y18.114 F250
M106 S0
M106 S255
G1 X59.565 Y18.136 F250
M106 S0
M106 S255
G1 X59.564 Y18.157 F250
M106 S0
M106 S255
G1 X59.566 Y18.196 F250
M106 S0
M106 S255
G1 X59.569 Y18.234 F250
M106 S0
M106 S255
G1 X59.576 Y18.271 F250
M106 S0
M106 S255
G1 X59.584 Y18.306 F250
M106 S0
M106 S255
G1 X59.595 Y18.339 F250
M106 S0
M106 S255
G1 X59.609 Y18.372 F250
M106 S0
M106 S255
G1 X59.625 Y18.402 F250
M106 S0
M106 S255
G1 X59.644 Y18.431 F250
M106 S0
M106 S255
G1 X59.665 Y18.459 F250
M106 S0
M106 S255
G1 X59.688 Y18.485 F250
M106 S0
M106 S255
G1 X59.714 Y18.509 F250
M106 S0
M106 S255
G1 X59.74 Y18.531 F250
M106 S0
M106 S255
G1 X59.768 Y18.55 F250
M106 S0
M106 S255
G1 X59.797 Y18.567 F250
M106 S0
M106 S255
G1 X59.827 Y18.581 F250
M106 S0
M106 S255
G1 X59.858 Y18.592 F250
M106 S0
M106 S255
G1 X59.89 Y18.601 F250
M106 S0
M106 S255
G1 X59.923 Y18.608 F250
M106 S0
M106 S255
G1 X59.958 Y18.611 F250
M106 S0
M106 S255
G1 X59.993 Y18.613 F250
M106 S0
M106 S255
G1 X60.055 Y18.609 F250
M106 S0
M106 S255
G1 X60.114 Y18.599 F250
M106 S0
M106 S255
G1 X60.17 Y18.582 F250
M106 S0
M106 S255
G1 X60.224 Y18.559 F250
M106 S0
M106 S255
G1 X60.275 Y18.529 F250
M106 S0
M106 S255
G1 X60.323 Y18.492 F250
M106 S0
M106 S255
G1 X60.369 Y18.448 F250
M106 S0
M106 S255
G1 X60.412 Y18.398 F250
M106 S0
M106 S255
G1 X60.452 Y18.341 F250
M106 S0
M106 S255
G1 X60.489 Y18.277 F250
M106 S0
M106 S255
G1 X60.539 Y18.181 F250
M106 S0
M106 S255
G1 X60.583 Y18.075 F250
M106 S0
M106 S255
G1 X60.623 Y17.959 F250
M106 S0
M106 S255
G1 X60.657 Y17.832 F250
M106 S0
M106 S255
G1 X60.685 Y17.696 F250
M106 S0
M106 S255
G1 X60.709 Y17.55 F250
M106 S0
M106 S255
G1 X60.727 Y17.393 F250
M106 S0
M106 S255
G1 X60.74 Y17.227 F250
M106 S0
M106 S255
G1 X60.748 Y17.05 F250
M106 S0
M106 S255
G1 X60.751 Y16.863 F250
M106 S0
M106 S255
G1 X60.742 Y16.453 F250
M106 S0
M106 S255
G1 X60.715 Y16.044 F250
M106 S0
M106 S255
G1 X60.67 Y15.635 F250
M106 S0
M106 S255
G1 X60.607 Y15.226 F250
M106 S0
M106 S255
G1 X60.526 Y14.817 F250
M106 S0
M106 S255
G1 X60.427 Y14.409 F250
M106 S0
M106 S255
G1 X60.311 Y14.002 F250
M106 S0
M106 S255
G1 X60.176 Y13.595 F250
M106 S0
M106 S255
G1 X60.023 Y13.188 F250
M106 S0
M106 S255
G1 X59.853 Y12.782 F250
M106 S0
M106 S255
G1 X59.67 Y12.387 F250
M106 S0
M106 S255
G1 X59.482 Y12.016 F250
M106 S0
M106 S255
G1 X59.289 Y11.667 F250
M106 S0
M106 S255
G1 X59.09 Y11.342 F250
M106 S0
M106 S255
G1 X58.885 Y11.041 F250
M106 S0
M106 S255
G1 X58.675 Y10.762 F250
M106 S0
M106 S255
G1 X58.459 Y10.507 F250
M106 S0
M106 S255
G1 X58.238 Y10.274 F250
M106 S0
M106 S255
G1 X58.011 Y10.065 F250
M106 S0
M106 S255
G1 X57.778 Y9.879 F250
M106 S0
M106 S255
G1 X57.542 Y9.714 F250
M106 S0
M106 S255
G1 X57.303 Y9.566 F250
M106 S0
M106 S255
G1 X57.062 Y9.435 F250
M106 S0
M106 S255
G1 X56.818 Y9.322 F250
M106 S0
M106 S255
G1 X56.573 Y9.226 F250
M106 S0
M106 S255
G1 X56.324 Y9.147 F250
M106 S0
M106 S255
G1 X56.074 Y9.086 F250
M106 S0
M106 S255
G1 X55.821 Y9.043 F250
M106 S0
M106 S255
G1 X55.566 Y9.017 F250
M106 S0
M106 S255
G1 X55.308 Y9.008 F250
M106 S0
M106 S255
G1 X55.103 Y9.015 F250
M106 S0
M106 S255
G1 X54.907 Y9.036 F250
M106 S0
M106 S255
G1 X54.721 Y9.071 F250
M106 S0
M106 S255
G1 X54.545 Y9.12 F250
M106 S0
M106 S255
G1 X54.378 Y9.183 F250
M106 S0
M106 S255
G1 X54.222 Y9.26 F250
M106 S0
M106 S255
G1 X54.075 Y9.351 F250
M106 S0
M106 S255
G1 X53.938 Y9.456 F250
M106 S0
M106 S255
G1 X53.811 Y9.575 F250
M106 S0
M106 S255
G1 X53.693 Y9.708 F250
M106 S0
M106 S255
G1 X53.586 Y9.852 F250
M106 S0
M106 S255
G1 X53.49 Y10.002 F250
M106 S0
M106 S255
G1 X53.406 Y10.158 F250
M106 S0
M106 S255
G1 X53.333 Y10.321 F250
M106 S0
M106 S255
G1 X53.271 Y10.49 F250
M106 S0
M106 S255
G1 X53.22 Y10.666 F250
M106 S0
M106 S255
G1 X53.181 Y10.848 F250
M106 S0
M106 S255
G1 X53.153 Y11.037 F250
M106 S0
M106 S255
G1 X53.136 Y11.232 F250
M106 S0
M106 S255
G1 X53.13 Y11.434 F250
M106 S0
M106 S255
G1 X53.133 Y11.604 F250
M106 S0
M106 S255
G1 X53.14 Y11.774 F250
M106 S0
M106 S255
G1 X53.154 Y11.945 F250
M106 S0
M106 S255
G1 X53.172 Y12.116 F250
M106 S0
M106 S255
G1 X53.195 Y12.289 F250
M106 S0
M106 S255
G1 X53.224 Y12.462 F250
M106 S0
M106 S255
G1 X53.258 Y12.636 F250
M106 S0
M106 S255
G1 X53.297 Y12.811 F250
M106 S0
M106 S255
G1 X53.342 Y12.987 F250
M106 S0
M106 S255
G1 X53.391 Y13.164 F250
M106 S0
M106 S255
G1 X53.467 Y13.407 F250
M106 S0
M106 S255
G1 X53.557 Y13.673 F250
M106 S0
M106 S255
G1 X53.662 Y13.962 F250
M106 S0
M106 S255
G1 X53.782 Y14.275 F250
M106 S0
M106 S255
G1 X53.916 Y14.61 F250
M106 S0
M106 S255
G1 X54.065 Y14.968 F250
M106 S0
M106 S255
G1 X54.228 Y15.348 F250
M106 S0
M106 S255
G1 X54.406 Y15.752 F250
M106 S0
M106 S255
G1 X54.598 Y16.179 F250
M106 S0
M106 S255
G1 X54.806 Y16.629 F250
M106 S0
M106 S255
G1 X54.64 Y16.63 F250
M106 S0
M106 S255
G1 X54.477 Y16.627 F250
M106 S0
M106 S255
G1 X54.319 Y16.619 F250
M106 S0
M106 S255
G1 X54.163 Y16.606 F250
M106 S0
M106 S255
G1 X54.011 Y16.588 F250
M106 S0
M106 S255
G1 X53.863 Y16.565 F250
M106 S0
M106 S255
G1 X53.718 Y16.537 F250
M106 S0
M106 S255
G1 X53.577 Y16.504 F250
M106 S0
M106 S255
G1 X53.439 Y16.467 F250
M106 S0
M106 S255
G1 X53.304 Y16.424 F250
M106 S0
M106 S255
G1 X53.175 Y16.378 F250
M106 S0
M106 S255
G1 X53.054 Y16.329 F250
M106 S0
M106 S255
G1 X52.94 Y16.278 F250
M106 S0
M106 S255
G1 X52.833 Y16.225 F250
M106 S0
M106 S255
G1 X52.734 Y16.169 F250
M106 S0
M106 S255
G1 X52.642 Y16.11 F250
M106 S0
M106 S255
G1 X52.558 Y16.049 F250
M106 S0
M106 S255
G1 X52.481 Y15.986 F250
M106 S0
M106 S255
G1 X52.411 Y15.92 F250
M106 S0
M106 S255
G1 X52.349 Y15.851 F250
M106 S0
M106 S255
G1 X52.294 Y15.782 F250
M106 S0
M106 S255
G1 X52.244 Y15.712 F250
M106 S0
M106 S255
G1 X52.2 Y15.643 F250
M106 S0
M106 S255
G1 X52.163 Y15.573 F250
M106 S0
M106 S255
G1 X52.131 Y15.504 F250
M106 S0
M106 S255
G1 X52.104 Y15.435 F250
M106 S0
M106 S255
G1 X52.084 Y15.367 F250
M106 S0
M106 S255
G1 X52.069 Y15.298 F250
M106 S0
M106 S255
G1 X52.061 Y15.229 F250
M106 S0
M106 S255
G1 X52.058 Y15.161 F250
M106 S0
M106 S255
G1 X52.059 Y15.132 F250
M106 S0
M106 S255
G1 X52.064 Y15.101 F250
M106 S0
M106 S255
G1 X52.072 Y15.067 F250
M106 S0
M106 S255
G1 X52.082 Y15.032 F250
M106 S0
M106 S255
G1 X52.096 Y14.995 F250
M106 S0
M106 S255
G1 X52.113 Y14.956 F250
M106 S0
M106 S255
G1 X52.133 Y14.915 F250
M106 S0
M106 S255
G1 X52.156 Y14.871 F250
M106 S0
M106 S255
G1 X52.183 Y14.826 F250
M106 S0
M106 S255
G1 X52.212 Y14.779 F250
M106 S0
M106 S255
G1 X52.242 Y14.725 F250
M106 S0
M106 S255
G1 X52.27 Y14.674 F250
M106 S0
M106 S255
G1 X52.294 Y14.625 F250
M106 S0
M106 S255
G1 X52.315 Y14.578 F250
M106 S0
M106 S255
G1 X52.332 Y14.534 F250
M106 S0
M106 S255
G1 X52.347 Y14.492 F250
M106 S0
M106 S255
G1 X52.358 Y14.453 F250
M106 S0
M106 S255
G1 X52.366 Y14.416 F250
M106 S0
M106 S255
G1 X52.371 Y14.382 F250
M106 S0
M106 S255
G1 X52.373 Y14.35 F250
M106 S0
M106 S255
G1 X52.371 Y14.312 F250
M106 S0
M106 S255
G1 X52.368 Y14.275 F250
M106 S0
M106 S255
G1 X52.362 Y14.239 F250
M106 S0
M106 S255
G1 X52.353 Y14.205 F250
M106 S0
M106 S255
G1 X52.342 Y14.172 F250
M106 S0
M106 S255
G1 X52.329 Y14.141 F250
M106 S0
M106 S255
G1 X52.314 Y14.111 F250
M106 S0
M106 S255
G1 X52.295 Y14.082 F250
M106 S0
M106 S255
G1 X52.275 Y14.054 F250
M106 S0
M106 S255
G1 X52.252 Y14.028 F250
M106 S0
M106 S255
G1 X52.227 Y14.004 F250
M106 S0
M106 S255
G1 X52.201 Y13.982 F250
M106 S0
M106 S255
G1 X52.174 Y13.963 F250
M106 S0
M106 S255
G1 X52.146 Y13.947 F250
M106 S0
M106 S255
G1 X52.116 Y13.933 F250
M106 S0
M106 S255
G1 X52.086 Y13.921 F250
M106 S0
M106 S255
G1 X52.054 Y13.912 F250
M106 S0
M106 S255
G1 X52.02 Y13.906 F250
M106 S0
M106 S255
G1 X51.986 Y13.902 F250
M106 S0
M106 S255
G1 X51.95 Y13.901 F250
M106 S0
M106 S255
G1 X51.907 Y13.903 F250
M106 S0
M106 S255
G1 X51.864 Y13.909 F250
M106 S0
M106 S255
G1 X51.823 Y13.919 F250
M106 S0
M106 S255
G1 X51.783 Y13.933 F250
M106 S0
M106 S255
G1 X51.743 Y13.951 F250
M106 S0
M106 S255
G1 X51.705 Y13.973 F250
M106 S0
M106 S255
G1 X51.669 Y13.999 F250
M106 S0
M106 S255
G1 X51.633 Y14.029 F250
M106 S0
M106 S255
G1 X51.598 Y14.064 F250
M106 S0
M106 S255
G1 X51.565 Y14.102 F250
M106 S0
M106 S255
G1 X51.534 Y14.143 F250
M106 S0
M106 S255
G1 X51.506 Y14.187 F250
M106 S0
M106 S255
G1 X51.481 Y14.233 F250
M106 S0
M106 S255
G1 X51.46 Y14.282 F250
M106 S0
M106 S255
G1 X51.442 Y14.333 F250
M106 S0
M106 S255
G1 X51.427 Y14.387 F250
M106 S0
M106 S255
G1 X51.416 Y14.442 F250
M106 S0
M106 S255
G1 X51.407 Y14.501 F250
M106 S0
M106 S255
G1 X51.402 Y14.562 F250
M106 S0
M106 S255
G1 X51.401 Y14.625 F250
M106 S0
M106 S255
G1 X51.404 Y14.728 F250
M106 S0
M106 S255
G1 X51.413 Y14.831 F250
M106 S0
M106 S255
G1 X51.428 Y14.935 F250
M106 S0
M106 S255
G1 X51.449 Y15.038 F250
M106 S0
M106 S255
G1 X51.476 Y15.142 F250
M106 S0
M106 S255
G1 X51.509 Y15.245 F250
M106 S0
M106 S255
G1 X51.549 Y15.349 F250
M106 S0
M106 S255
G1 X51.594 Y15.453 F250
M106 S0
M106 S255
G1 X51.645 Y15.556 F250
M106 S0
M106 S255
G1 X51.702 Y15.66 F250
M106 S0
M106 S255
G1 X51.765 Y15.762 F250
M106 S0
M106 S255
G1 X51.83 Y15.86 F250
M106 S0
M106 S255
G1 X51.899 Y15.953 F250
M106 S0
M106 S255
G1 X51.972 Y16.043 F250
M106 S0
M106 S255
G1 X52.048 Y16.129 F250
M106 S0
M106 S255
G1 X52.128 Y16.21 F250
M106 S0
M106 S255
G1 X52.212 Y16.287 F250
M106 S0
M106 S255
G1 X52.299 Y16.36 F250
M106 S0
M106 S255
G1 X52.389 Y16.43 F250
M106 S0
M106 S255
G1 X52.483 Y16.495 F250
M106 S0
M106 S255
G1 X52.581 Y16.556 F250
M106 S0
M106 S255
G1 X52.684 Y16.614 F250
M106 S0
M106 S255
G1 X52.791 Y16.669 F250
M106 S0
M106 S255
G1 X52.903 Y16.72 F250
M106 S0
M106 S255
G1 X53.019 Y16.768 F250
M106 S0
M106 S255
G1 X53.139 Y16.812 F250
M106 S0
M106 S255
G1 X53.264 Y16.854 F250
M106 S0
M106 S255
G1 X53.394 Y16.891 F250
M106 S0
M106 S255
G1 X53.528 Y16.926 F250
M106 S0
M106 S255
G1 X53.666 Y16.957 F250
M106 S0
M106 S255
G1 X53.743 Y16.972 F250
M106 S0
M106 S255
G1 X53.836 Y16.986 F250
M106 S0
M106 S255
G1 X53.943 Y17.0 F250
M106 S0
M106 S255
G1 X54.065 Y17.014 F250
M106 S0
M106 S255
G1 X54.202 Y17.027 F250
M106 S0
M106 S255
G1 X54.355 Y17.041 F250
M106 S0
M106 S255
G1 X54.522 Y17.054 F250
M106 S0
M106 S255
G1 X54.704 Y17.066 F250
M106 S0
M106 S255
G1 X54.902 Y17.079 F250
M106 S0
M106 S255
G1 X55.114 Y17.091 F250
M106 S0
M106 S255
G1 X55.258 Y17.099 F250
M106 S0
M106 S255
G1 X55.391 Y17.107 F250
M106 S0
M106 S255
G1 X55.512 Y17.115 F250
M106 S0
M106 S255
G1 X55.621 Y17.122 F250
M106 S0
M106 S255
G1 X55.719 Y17.13 F250
M106 S0
M106 S255
G1 X55.805 Y17.137 F250
M106 S0
M106 S255
G1 X55.879 Y17.144 F250
M106 S0
M106 S255
G1 X55.942 Y17.151 F250
M106 S0
M106 S255
G1 X55.993 Y17.158 F250
M106 S0
M106 S255
G1 X56.032 Y17.165 F250
M106 S0
G0 X64.906 Y12.989 F6000
M106 S255
G1 X64.906 Y12.989 F250
M106 S0
M106 S255
G1 X64.008 Y9.43 F250
M106 S0
M106 S255
G1 X64.071 Y9.421 F250
M106 S0
M106 S255
G1 X64.132 Y9.413 F250
M106 S0
M106 S255
G1 X64.19 Y9.406 F250
M106 S0
M106 S255
G1 X64.245 Y9.4 F250
M106 S0
M106 S255
G1 X64.298 Y9.395 F250
M106 S0
M106 S255
G1 X64.348 Y9.391 F250
M106 S0
M106 S255
G1 X64.396 Y9.388 F250
M106 S0
M106 S255
G1 X64.441 Y9.385 F250
M106 S0
M106 S255
G1 X64.484 Y9.384 F250
M106 S0
M106 S255
G1 X64.524 Y9.383 F250
M106 S0
M106 S255
G1 X64.585 Y9.384 F250
M106 S0
M106 S255
G1 X64.648 Y9.387 F250
M106 S0
M106 S255
G1 X64.714 Y9.392 F250
M106 S0
M106 S255
G1 X64.783 Y9.399 F250
M106 S0
M106 S255
G1 X64.854 Y9.409 F250
M106 S0
M106 S255
G1 X64.929 Y9.42 F250
M106 S0
M106 S255
G1 X65.006 Y9.433 F250
M106 S0
M106 S255
G1 X65.086 Y9.448 F250
M106 S0
M106 S255
G1 X65.169 Y9.465 F250
M106 S0
M106 S255
G1 X65.255 Y9.484 F250
M106 S0
M106 S255
G1 X65.188 Y9.155 F250
M106 S0
M106 S255
G1 X65.1 Y9.138 F250
M106 S0
M106 S255
G1 X65.016 Y9.122 F250
M106 S0
M106 S255
G1 X64.936 Y9.108 F250
M106 S0
M106 S255
G1 X64.861 Y9.095 F250
M106 S0
M106 S255
G1 X64.789 Y9.085 F250
M106 S0
M106 S255
G1 X64.721 Y9.077 F250
M106 S0
M106 S255
G1 X64.658 Y9.07 F250
M106 S0
M106 S255
G1 X64.598 Y9.065 F250
M106 S0
M106 S255
G1 X64.542 Y9.063 F250
M106 S0
M106 S255
G1 X64.491 Y9.062 F250
M106 S0
M106 S255
G1 X64.436 Y9.062 F250
M106 S0
M106 S255
G1 X64.376 Y9.064 F250
M106 S0
M106 S255
G1 X64.311 Y9.066 F250
M106 S0
M106 S255
G1 X64.242 Y9.069 F250
M106 S0
M106 S255
G1 X64.167 Y9.073 F250
M106 S0
M106 S255
G1 X64.088 Y9.079 F250
M106 S0
M106 S255
G1 X64.003 Y9.085 F250
M106 S0
M106 S255
G1 X63.914 Y9.092 F250
M106 S0
M106 S255
G1 X63.819 Y9.1 F250
M106 S0
M106 S255
G1 X63.72 Y9.109 F250
M106 S0
M106 S255
G1 X63.632 Y9.117 F250
M106 S0
M106 S255
G1 X63.546 Y9.125 F250
M106 S0
M106 S255
G1 X63.464 Y9.133 F250
M106 S0
M106 S255
G1 X63.385 Y9.139 F250
M106 S0
M106 S255
G1 X63.309 Y9.144 F250
M106 S0
M106 S255
G1 X63.236 Y9.148 F250
M106 S0
M106 S255
G1 X63.167 Y9.151 F250
M106 S0
M106 S255
G1 X63.1 Y9.154 F250
M106 S0
M106 S255
G1 X63.036 Y9.155 F250
M106 S0
M106 S255
G1 X62.976 Y9.155 F250
M106 S0
M106 S255
G1 X62.867 Y9.154 F250
M106 S0
M106 S255
G1 X62.755 Y9.149 F250
M106 S0
M106 S255
G1 X62.639 Y9.142 F250
M106 S0
M106 S255
G1 X62.52 Y9.131 F250
M106 S0
M106 S255
G1 X62.398 Y9.117 F250
M106 S0
M106 S255
G1 X62.272 Y9.1 F250
M106 S0
M106 S255
G1 X62.143 Y9.08 F250
M106 S0
M106 S255
G1 X62.011 Y9.057 F250
M106 S0
M106 S255
G1 X61.875 Y9.031 F250
M106 S0
M106 S255
G1 X61.736 Y9.001 F250
M106 S0
M106 S255
G1 X61.836 Y9.377 F250
M106 S0
M106 S255
G1 X61.979 Y9.414 F250
M106 S0
M106 S255
G1 X62.111 Y9.451 F250
M106 S0
M106 S255
G1 X62.232 Y9.489 F250
M106 S0
M106 S255
G1 X62.344 Y9.526 F250
M106 S0
M106 S255
G1 X62.445 Y9.563 F250
M106 S0
M106 S255
G1 X62.535 Y9.599 F250
M106 S0
M106 S255
G1 X62.616 Y9.636 F250
M106 S0
M106 S255
G1 X62.686 Y9.673 F250
M106 S0
M106 S255
G1 X62.746 Y9.709 F250
M106 S0
M106 S255
G1 X62.795 Y9.745 F250
M106 S0
M106 S255
G1 X62.86 Y9.807 F250
M106 S0
M106 S255
G1 X62.923 Y9.878 F250
M106 S0
M106 S255
G1 X62.982 Y9.957 F250
M106 S0
M106 S255
G1 X63.038 Y10.046 F250
M106 S0
M106 S255
G1 X63.091 Y10.142 F250
M106 S0
M106 S255
G1 X63.142 Y10.248 F250
M106 S0
M106 S255
G1 X63.189 Y10.362 F250
M106 S0
M106 S255
G1 X63.232 Y10.485 F250
M106 S0
M106 S255
G1 X63.273 Y10.617 F250
M106 S0
M106 S255
G1 X63.311 Y10.757 F250
M106 S0
M106 S255
G1 X64.249 Y14.504 F250
M106 S0
M106 S255
G1 X64.282 Y14.642 F250
M106 S0
M106 S255
G1 X64.312 Y14.767 F250
M106 S0
M106 S255
G1 X64.338 Y14.881 F250
M106 S0
M106 S255
G1 X64.361 Y14.983 F250
M106 S0
M106 S255
G1 X64.38 Y15.074 F250
M106 S0
M106 S255
G1 X64.396 Y15.152 F250
M106 S0
M106 S255
G1 X64.408 Y15.219 F250
M106 S0
M106 S255
G1 X64.417 Y15.274 F250
M106 S0
M106 S255
G1 X64.422 Y15.317 F250
M106 S0
M106 S255
G1 X64.424 Y15.349 F250
M106 S0
M106 S255
G1 X64.423 Y15.372 F250
M106 S0
M106 S255
G1 X64.42 Y15.394 F250
M106 S0
M106 S255
G1 X64.416 Y15.415 F250
M106 S0
M106 S255
G1 X64.41 Y15.435 F250
M106 S0
M106 S255
G1 X64.403 Y15.454 F250
M106 S0
M106 S255
G1 X64.393 Y15.472 F250
M106 S0
M106 S255
G1 X64.383 Y15.488 F250
M106 S0
M106 S255
G1 X64.37 Y15.503 F250
M106 S0
M106 S255
G1 X64.356 Y15.517 F250
M106 S0
M106 S255
G1 X64.34 Y15.529 F250
M106 S0
M106 S255
G1 X64.321 Y15.541 F250
M106 S0
M106 S255
G1 X64.3 Y15.551 F250
M106 S0
M106 S255
G1 X64.275 Y15.56 F250
M106 S0
M106 S255
G1 X64.247 Y15.567 F250
M106 S0
M106 S255
G1 X64.215 Y15.573 F250
M106 S0
M106 S255
G1 X64.18 Y15.578 F250
M106 S0
M106 S255
G1 X64.142 Y15.581 F250
M106 S0
M106 S255
G1 X64.101 Y15.583 F250
M106 S0
M106 S255
G1 X64.056 Y15.584 F250
M106 S0
M106 S255
G1 X64.008 Y15.583 F250
M106 S0
M106 S255
G1 X64.095 Y15.905 F250
M106 S0
M106 S255
G1 X64.233 Y15.909 F250
M106 S0
M106 S255
G1 X64.377 Y15.917 F250
M106 S0
M106 S255
G1 X64.525 Y15.93 F250
M106 S0
M106 S255
G1 X64.68 Y15.948 F250
M106 S0
M106 S255
G1 X64.839 Y15.97 F250
M106 S0
M106 S255
G1 X65.004 Y15.997 F250
M106 S0
M106 S255
G1 X65.174 Y16.029 F250
M106 S0
M106 S255
G1 X65.35 Y16.066 F250
M106 S0
M106 S255
G1 X65.531 Y16.107 F250
M106 S0
M106 S255
G1 X65.717 Y16.153 F250
M106 S0
M106 S255
G1 X65.701 Y16.099 F250
M106 S0
M106 S255
G1 X65.683 Y16.041 F250
M106 S0
M106 S255
G1 X65.665 Y15.978 F250
M106 S0
M106 S255
G1 X65.645 Y15.91 F250
M106 S0
M106 S255
G1 X65.625 Y15.838 F250
M106 S0
M106 S255
G1 X65.604 Y15.76 F250
M106 S0
M106 S255
G1 X65.582 Y15.678 F250
M106 S0
M106 S255
G1 X65.558 Y15.591 F250
M106 S0
M106 S255
G1 X65.534 Y15.499 F250
M106 S0
M106 S255
G1 X65.509 Y15.402 F250
M106 S0
M106 S255
G1 X65.007 Y13.425 F250
M106 S0
M106 S255
G1 X65.07 Y13.412 F250
M106 S0
M106 S255
G1 X65.131 Y13.401 F250
M106 S0
M106 S255
G1 X65.191 Y13.391 F250
M106 S0
M106 S255
G1 X65.248 Y13.382 F250
M106 S0
M106 S255
G1 X65.303 Y13.375 F250
M106 S0
M106 S255
G1 X65.357 Y13.369 F250
M106 S0
M106 S255
G1 X65.408 Y13.364 F250
M106 S0
M106 S255
G1 X65.457 Y13.361 F250
M106 S0
M106 S255
G1 X65.504 Y13.359 F250
M106 S0
M106 S255
G1 X65.55 Y13.358 F250
M106 S0
M106 S255
G1 X65.715 Y13.364 F250
M106 S0
M106 S255
G1 X65.875 Y13.381 F250
M106 S0
M106 S255
G1 X66.031 Y13.411 F250
M106 S0
M106 S255
G1 X66.181 Y13.452 F250
M106 S0
M106 S255
G1 X66.327 Y13.505 F250
M106 S0
M106 S255
G1 X66.468 Y13.569 F250
M106 S0
M106 S255
G1 X66.604 Y13.645 F250
M106 S0
M106 S255
G1 X66.736 Y13.733 F250
M106 S0
M106 S255
G1 X66.862 Y13.833 F250
M106 S0
M106 S255
G1 X66.984 Y13.944 F250
M106 S0
M106 S255
G1 X67.097 Y14.064 F250
M106 S0
M106 S255
G1 X67.199 Y14.188 F250
M106 S0
M106 S255
G1 X67.288 Y14.316 F250
M106 S0
M106 S255
G1 X67.366 Y14.448 F250
M106 S0
M106 S255
G1 X67.431 Y14.585 F250
M106 S0
M106 S255
G1 X67.485 Y14.727 F250
M106 S0
M106 S255
G1 X67.527 Y14.872 F250
M106 S0
M106 S255
G1 X67.557 Y15.022 F250
M106 S0
M106 S255
G1 X67.574 Y15.176 F250
M106 S0
M106 S255
G1 X67.58 Y15.335 F250
M106 S0
M106 S255
G1 X67.576 Y15.458 F250
M106 S0
M106 S255
G1 X67.561 Y15.576 F250
M106 S0
M106 S255
G1 X67.537 Y15.689 F250
M106 S0
M106 S255
G1 X67.504 Y15.798 F250
M106 S0
M106 S255
G1 X67.461 Y15.903 F250
M106 S0
M106 S255
G1 X67.408 Y16.003 F250
M106 S0
M106 S255
G1 X67.346 Y16.099 F250
M106 S0
M106 S255
G1 X67.274 Y16.191 F250
M106 S0
M106 S255
G1 X67.192 Y16.278 F250
M106 S0
M106 S255
G1 X67.101 Y16.361 F250
M106 S0
M106 S255
G1 X67.002 Y16.437 F250
M106 S0
M106 S255
G1 X66.896 Y16.505 F250
M106 S0
M106 S255
G1 X66.783 Y16.566 F250
M106 S0
M106 S255
G1 X66.663 Y16.618 F250
M106 S0
M106 S255
G1 X66.536 Y16.662 F250
M106 S0
M106 S255
G1 X66.402 Y16.698 F250
M106 S0
M106 S255
G1 X66.261 Y16.727 F250
M106 S0
M106 S255
G1 X66.114 Y16.747 F250
M106 S0
M106 S255
G1 X65.959 Y16.759 F250
M106 S0
M106 S255
G1 X65.798 Y16.763 F250
M106 S0
M106 S255
G1 X65.588 Y16.758 F250
M106 S0
M106 S255
G1 X65.379 Y16.742 F250
M106 S0
M106 S255
G1 X65.17 Y16.717 F250
M106 S0
M106 S255
G1 X64.963 Y16.681 F250
M106 S0
M106 S255
G1 X64.757 Y16.635 F250
M106 S0
M106 S255
G1 X64.552 Y16.579 F250
M106 S0
M106 S255
G1 X64.347 Y16.513 F250
M106 S0
M106 S255
G1 X64.144 Y16.437 F250
M106 S0
M106 S255
G1 X63.941 Y16.35 F250
M106 S0
M106 S255
G1 X63.74 Y16.253 F250
M106 S0
M106 S255
G1 X63.544 Y16.149 F250
M106 S0
M106 S255
G1 X63.358 Y16.04 F250
M106 S0
M106 S255
G1 X63.182 Y15.926 F250
M106 S0
M106 S255
G1 X63.016 Y15.807 F250
M106 S0
M106 S255
G1 X62.86 Y15.683 F250
M106 S0
M106 S255
G1 X62.714 Y15.554 F250
M106 S0
M106 S255
G1 X62.579 Y15.42 F250
M106 S0
M106 S255
G1 X62.453 Y15.282 F250
M106 S0
M106 S255
G1 X62.337 Y15.138 F250
M106 S0
M106 S255
G1 X62.232 Y14.99 F250
M106 S0
M106 S255
G1 X62.136 Y14.838 F250
M106 S0
M106 S255
G1 X62.051 Y14.686 F250
M106 S0
M106 S255
G1 X61.976 Y14.531 F250
M106 S0
M106 S255
G1 X61.91 Y14.375 F250
M106 S0
M106 S255
G1 X61.855 Y14.218 F250
M106 S0
M106 S255
G1 X61.81 Y14.06 F250
M106 S0
M106 S255
G1 X61.774 Y13.9 F250
M106 S0
M106 S255
G1 X61.749 Y13.738 F250
M106 S0
M106 S255
G1 X61.734 Y13.576 F250
M106 S0
M106 S255
G1 X61.729 Y13.412 F250
M106 S0
M106 S255
G1 X61.734 Y13.289 F250
M106 S0
M106 S255
G1 X61.75 Y13.169 F250
M106 S0
M106 S255
G1 X61.776 Y13.053 F250
M106 S0
M106 S255
G1 X61.812 Y12.941 F250
M106 S0
M106 S255
G1 X61.858 Y12.832 F250
M106 S0
M106 S255
G1 X61.915 Y12.726 F250
M106 S0
M106 S255
G1 X61.982 Y12.624 F250
M106 S0
M106 S255
G1 X62.06 Y12.526 F250
M106 S0
M106 S255
G1 X62.147 Y12.431 F250
M106 S0
M106 S255
G1 X62.245 Y12.339 F250
M106 S0
M106 S255
G1 X62.296 Y12.296 F250
M106 S0
M106 S255
G1 X62.342 Y12.255 F250
M106 S0
M106 S255
G1 X62.384 Y12.217 F250
M106 S0
M106 S255
G1 X62.422 Y12.182 F250
M106 S0
M106 S255
G1 X62.456 Y12.148 F250
M106 S0
M106 S255
G1 X62.487 Y12.117 F250
M106 S0
M106 S255
G1 X62.513 Y12.089 F250
M106 S0
M106 S255
G1 X62.535 Y12.062 F250
M106 S0
M106 S255
G1 X62.553 Y12.039 F250
M106 S0
M106 S255
G1 X62.567 Y12.017 F250
M106 S0
M106 S255
G1 X62.578 Y11.997 F250
M106 S0
M106 S255
G1 X62.589 Y11.977 F250
M106 S0
M106 S255
G1 X62.598 Y11.956 F250
M106 S0
M106 S255
G1 X62.606 Y11.935 F250
M106 S0
M106 S255
G1 X62.612 Y11.914 F250
M106 S0
M106 S255
G1 X62.618 Y11.892 F250
M106 S0
M106 S255
G1 X62.622 Y11.87 F250
M106 S0
M106 S255
G1 X62.625 Y11.848 F250
M106 S0
M106 S255
G1 X62.627 Y11.826 F250
M106 S0
M106 S255
G1 X62.627 Y11.803 F250
M106 S0
M106 S255
G1 X62.626 Y11.775 F250
M106 S0
M106 S255
G1 X62.623 Y11.748 F250
M106 S0
M106 S255
G1 X62.618 Y11.722 F250
M106 S0
M106 S255
G1 X62.611 Y11.696 F250
M106 S0
M106 S255
G1 X62.601 Y11.671 F250
M106 S0
M106 S255
G1 X62.59 Y11.647 F250
M106 S0
M106 S255
G1 X62.576 Y11.624 F250
M106 S0
M106 S255
G1 X62.561 Y11.601 F250
M106 S0
M106 S255
G1 X62.543 Y11.579 F250
M106 S0
M106 S255
G1 X62.523 Y11.558 F250
M106 S0
M106 S255
G1 X62.502 Y11.539 F250
M106 S0
M106 S255
G1 X62.48 Y11.521 F250
M106 S0
M106 S255
G1 X62.457 Y11.505 F250
M106 S0
M106 S255
G1 X62.433 Y11.492 F250
M106 S0
M106 S255
G1 X62.409 Y11.48 F250
M106 S0
M106 S255
G1 X62.383 Y11.471 F250
M106 S0
M106 S255
G1 X62.357 Y11.464 F250
M106 S0
M106 S255
G1 X62.329 Y11.459 F250
M106 S0
M106 S255
G1 X62.301 Y11.455 F250
M106 S0
M106 S255
G1 X62.272 Y11.454 F250
M106 S0
M106 S255
G1 X62.201 Y11.459 F250
M106 S0
M106 S255
G1 X62.131 Y11.471 F250
M106 S0
M106 S255
G1 X62.062 Y11.492 F250
M106 S0
M106 S255
G1 X61.995 Y11.522 F250
M106 S0
M106 S255
G1 X61.93 Y11.56 F250
M106 S0
M106 S255
G1 X61.867 Y11.606 F250
M106 S0
M106 S255
G1 X61.805 Y11.661 F250
M106 S0
M106 S255
G1 X61.745 Y11.725 F250
M106 S0
M106 S255
G1 X61.686 Y11.796 F250
M106 S0
M106 S255
G1 X61.629 Y11.877 F250
M106 S0
M106 S255
G1 X61.56 Y11.989 F250
M106 S0
M106 S255
G1 X61.498 Y12.107 F250
M106 S0
M106 S255
G1 X61.444 Y12.229 F250
M106 S0
M106 S255
G1 X61.397 Y12.357 F250
M106 S0
M106 S255
G1 X61.357 Y12.49 F250
M106 S0
M106 S255
G1 X61.325 Y12.628 F250
M106 S0
M106 S255
G1 X61.299 Y12.771 F250
M106 S0
M106 S255
G1 X61.281 Y12.919 F250
M106 S0
M106 S255
G1 X61.27 Y13.072 F250
M106 S0
M106 S255
G1 X61.267 Y13.231 F250
M106 S0
M106 S255
G1 X61.272 Y13.436 F250
M106 S0
M106 S255
G1 X61.29 Y13.638 F250
M106 S0
M106 S255
G1 X61.318 Y13.837 F250
M106 S0
M106 S255
G1 X61.358 Y14.034 F250
M106 S0
M106 S255
G1 X61.409 Y14.228 F250
M106 S0
M106 S255
G1 X61.472 Y14.418 F250
M106 S0
M106 S255
G1 X61.546 Y14.607 F250
M106 S0
M106 S255
G1 X61.631 Y14.792 F250
M106 S0
M106 S255
G1 X61.728 Y14.974 F250
M106 S0
M106 S255
G1 X61.836 Y15.154 F250
M106 S0
M106 S255
G1 X61.956 Y15.329 F250
M106 S0
M106 S255
G1 X62.088 Y15.498 F250
M106 S0
M106 S255
G1 X62.231 Y15.661 F250
M106 S0
M106 S255
G1 X62.386 Y15.818 F250
M106 S0
M106 S255
G1 X62.553 Y15.968 F250
M106 S0
M106 S255
G1 X62.731 Y16.113 F250
M106 S0
M106 S255
G1 X62.921 Y16.251 F250
M106 S0
M106 S255
G1 X63.123 Y16.383 F250
M106 S0
M106 S255
G1 X63.337 Y16.509 F250
M106 S0
M106 S255
G1 X63.562 Y16.629 F250
M106 S0
M106 S255
G1 X63.795 Y16.739 F250
M106 S0
M106 S255
G1 X64.03 Y16.839 F250
M106 S0
M106 S255
G1 X64.267 Y16.926 F250
M106 S0
M106 S255
G1 X64.507 Y17.002 F250
M106 S0
M106 S255
G1 X64.749 Y17.066 F250
M106 S0
M106 S255
G1 X64.994 Y17.118 F250
M106 S0
M106 S255
G1 X65.242 Y17.159 F250
M106 S0
M106 S255
G1 X65.492 Y17.188 F250
M106 S0
M106 S255
G1 X65.744 Y17.206 F250
M106 S0
M106 S255
G1 X65.999 Y17.212 F250
M106 S0
M106 S255
G1 X66.233 Y17.207 F250
M106 S0
M106 S255
G1 X66.459 Y17.194 F250
M106 S0
M106 S255
G1 X66.676 Y17.171 F250
M106 S0
M106 S255
G1 X66.886 Y17.14 F250
M106 S0
M106 S255
G1 X67.086 Y17.1 F250
M106 S0
M106 S255
G1 X67.278 Y17.05 F250
M106 S0
M106 S255
G1 X67.462 Y16.992 F250
M106 S0
M106 S255
G1 X67.637 Y16.924 F250
M106 S0
M106 S255
G1 X67.804 Y16.848 F250
M106 S0
M106 S255
G1 X67.962 Y16.763 F250
M106 S0
M106 S255
G1 X68.109 Y16.669 F250
M106 S0
M106 S255
G1 X68.24 Y16.566 F250
M106 S0
M106 S255
G1 X68.356 Y16.455 F250
M106 S0
M106 S255
G1 X68.456 Y16.335 F250
M106 S0
M106 S255
G1 X68.541 Y16.206 F250
M106 S0
M106 S255
G1 X68.61 Y16.069 F250
M106 S0
M106 S255
G1 X68.664 Y15.924 F250
M106 S0
M106 S255
G1 X68.702 Y15.77 F250
M106 S0
M106 S255
G1 X68.726 Y15.607 F250
M106 S0
M106 S255
G1 X68.733 Y15.436 F250
M106 S0
M106 S255
G1 X68.726 Y15.272 F250
M106 S0
M106 S255
G1 X68.705 Y15.11 F250
M106 S0
M106 S255
G1 X68.67 Y14.951 F250
M106 S0
M106 S255
G1 X68.62 Y14.794 F250
M106 S0
M106 S255
G1 X68.556 Y14.64 F250
M106 S0
M106 S255
G1 X68.479 Y14.487 F250
M106 S0
M106 S255
G1 X68.387 Y14.337 F250
M106 S0
M106 S255
G1 X68.281 Y14.19 F250
M106 S0
M106 S255
G1 X68.16 Y14.044 F250
M106 S0
M106 S255
G1 X68.026 Y13.901 F250
M106 S0
M106 S255
G1 X67.879 Y13.764 F250
M106 S0
M106 S255
G1 X67.722 Y13.637 F250
M106 S0
M106 S255
G1 X67.554 Y13.52 F250
M106 S0
M106 S255
G1 X67.375 Y13.414 F250
M106 S0
M106 S255
G1 X67.186 Y13.318 F250
M106 S0
M106 S255
G1 X66.986 Y13.232 F250
M106 S0
M106 S255
G1 X66.775 Y13.156 F250
M106 S0
M106 S255
G1 X66.554 Y13.09 F250
M106 S0
M106 S255
G1 X66.322 Y13.035 F250
M106 S0
M106 S255
G1 X66.079 Y12.989 F250
M106 S0
M106 S255
G1 X66.139 Y12.87 F250
M106 S0
M106 S255
G1 X66.194 Y12.759 F250
M106 S0
M106 S255
G1 X66.244 Y12.655 F250
M106 S0
M106 S255
G1 X66.29 Y12.56 F250
M106 S0
M106 S255
G1 X66.332 Y12.473 F250
M106 S0
M106 S255
G1 X66.369 Y12.394 F250
M106 S0
M106 S255
G1 X66.402 Y12.323 F250
M106 S0
M106 S255
G1 X66.431 Y12.26 F250
M106 S0
M106 S255
G1 X66.455 Y12.205 F250
M106 S0
M106 S255
G1 X66.475 Y12.158 F250
M106 S0
M106 S255
G1 X66.504 Y12.081 F250
M106 S0
M106 S255
G1 X66.537 Y11.994 F250
M106 S0
M106 S255
G1 X66.572 Y11.896 F250
M106 S0
M106 S255
G1 X66.611 Y11.789 F250
M106 S0
M106 S255
G1 X66.652 Y11.672 F250
M106 S0
M106 S255
G1 X66.697 Y11.545 F250
M106 S0
M106 S255
G1 X66.744 Y11.408 F250
M106 S0
M106 S255
G1 X66.794 Y11.262 F250
M106 S0
M106 S255
G1 X66.847 Y11.105 F250
M106 S0
M106 S255
G1 X66.903 Y10.938 F250
M106 S0
M106 S255
G1 X67.039 Y10.547 F250
M106 S0
M106 S255
