;GCode generated by Numa's program v0.0
G0 X52.099 Y200.013 F6000
M106 S255
G1 X52.099 Y200.013 F180
M106 S0
M106 S255
G1 X69.615 Y137.273 F180
M106 S0
G0 X58.575 Y200.013 F6000
M106 S255
G1 X58.575 Y200.013 F180
M106 S0
M106 S255
G1 X80.044 Y137.242 F180
M106 S0
G0 X59.53 Y200.013 F6000
M106 S255
G1 X59.53 Y200.013 F180
M106 S0
M106 S255
G1 X81.177 Y137.238 F180
M106 S0
G0 X0.0 Y137.479 F6000
M106 S255
G1 X0.0 Y137.479 F180
M106 S0
M106 S255
G1 X84.585 Y137.228 F180
M106 S0
M106 S255
G1 X85.026 Y126.732 F180
M106 S0
M106 S255
G1 X0.0 Y126.062 F180
M106 S0
G0 X-0.0 Y121.042 F6000
M106 S255
G1 X-0.0 Y121.042 F180
M106 S0
M106 S255
G1 X83.636 Y122.055 F180
M106 S0
M106 S255
G1 X84.983 Y126.731 F180
M106 S0
G0 X84.476 Y137.228 F6000
M106 S255
G1 X84.476 Y137.228 F180
M106 S0
M106 S255
G1 X83.283 Y132.199 F180
M106 S0
M106 S255
G1 X-0.0 Y132.109 F180
M106 S0
G0 X0.0 Y136.491 F6000
M106 S255
G1 X0.0 Y136.491 F180
M106 S0
M106 S255
G1 X0.983 Y137.31 F180
M106 S0
M106 S255
G1 X0.0 Y136.945 F180
M106 S0
G0 X0.894 Y137.398 F6000
M106 S255
G1 X0.894 Y137.398 F180
M106 S0
M106 S255
G1 X6.8 Y132.106 F180
M106 S0
M106 S255
G1 X12.001 Y137.398 F180
M106 S0
M106 S255
G1 X17.466 Y132.194 F180
M106 S0
G0 X-0.0 Y132.803 F6000
M106 S255
G1 X-0.0 Y132.803 F180
M106 S0
M106 S255
G1 X1.688 Y132.106 F180
M106 S0
M106 S255
G1 X11.736 Y137.486 F180
M106 S0
G0 X-0.0 Y127.124 F6000
M106 S255
G1 X-0.0 Y127.124 F180
M106 S0
M106 S255
G1 X1.071 Y126.196 F180
M106 S0
M106 S255
G1 X6.8 Y132.106 F180
M106 S0
M106 S255
G1 X12.089 Y126.196 F180
M106 S0
M106 S255
G1 X17.554 Y132.018 F180
M106 S0
M106 S255
G1 X23.283 Y126.373 F180
M106 S0
M106 S255
G1 X28.749 Y132.106 F180
M106 S0
M106 S255
G1 X34.39 Y126.373 F180
M106 S0
M106 S255
G1 X39.679 Y132.106 F180
M106 S0
M106 S255
G1 X45.408 Y126.461 F180
M106 S0
M106 S255
G1 X50.726 Y132.108 F180
M106 S0
M106 S255
G1 X56.544 Y126.551 F180
M106 S0
M106 S255
G1 X61.921 Y132.108 F180
M106 S0
M106 S255
G1 X69.325 Y126.639 F180
M106 S0
M106 S255
G1 X73.586 Y132.285 F180
M106 S0
M106 S255
G1 X81.431 Y126.728 F180
M106 S0
G0 X17.747 Y132.121 F6000
M106 S255
G1 X17.747 Y132.121 F180
M106 S0
M106 S255
G1 X23.155 Y137.422 F180
M106 S0
M106 S255
G1 X28.784 Y132.065 F180
M106 S0
M106 S255
G1 X34.027 Y137.367 F180
M106 S0
M106 S255
G1 X39.655 Y132.121 F180
M106 S0
M106 S255
G1 X45.189 Y137.314 F180
M106 S0
M106 S255
G1 X50.762 Y132.123 F180
M106 S0
M106 S255
G1 X56.465 Y137.314 F180
M106 S0
M106 S255
G1 X61.928 Y132.123 F180
M106 S0
M106 S255
G1 X68.274 Y137.314 F180
M106 S0
M106 S255
G1 X73.64 Y132.289 F180
M106 S0
M106 S255
G1 X80.428 Y137.259 F180
M106 S0
M106 S255
G1 X83.48 Y133.392 F180
M106 S0
G0 X0.0 Y130.605 F6000
M106 S255
G1 X0.0 Y130.605 F180
M106 S0
M106 S255
G1 X1.721 Y132.127 F180
M106 S0
M106 S255
G1 X7.145 Y126.281 F180
M106 S0
M106 S255
G1 X12.57 Y132.197 F180
M106 S0
M106 S255
G1 X17.971 Y126.594 F180
M106 S0
M106 S255
G1 X23.336 Y132.129 F180
M106 S0
M106 S255
G1 X28.83 Y126.701 F180
M106 S0
M106 S255
G1 X34.195 Y132.2 F180
M106 S0
M106 S255
G1 X39.767 Y126.875 F180
M106 S0
M106 S255
G1 X45.018 Y132.199 F180
M106 S0
M106 S255
G1 X50.66 Y126.91 F180
M106 S0
M106 S255
G1 X55.782 Y132.234 F180
M106 S0
M106 S255
G1 X61.485 Y126.98 F180
M106 S0
M106 S255
G1 X67.408 Y132.233 F180
M106 S0
M106 S255
G1 X72.45 Y127.118 F180
M106 S0
M106 S255
G1 X79.416 Y132.234 F180
M106 S0
G0 X-0.0 Y125.585 F6000
M106 S255
G1 X-0.0 Y125.585 F180
M106 S0
M106 S255
G1 X0.935 Y125.993 F180
M106 S0
M106 S255
G1 X12.552 Y121.175 F180
M106 S0
M106 S255
G1 X23.241 Y126.272 F180
M106 S0
M106 S255
G1 X34.351 Y121.454 F180
M106 S0
M106 S255
G1 X45.422 Y126.447 F180
M106 S0
M106 S255
G1 X56.184 Y121.769 F180
M106 S0
M106 S255
G1 X60.685 Y126.447 F180
M106 S0
G0 X-0.0 Y121.64 F6000
M106 S255
G1 X-0.0 Y121.64 F180
M106 S0
M106 S255
G1 X1.613 Y121.075 F180
M106 S0
M106 S255
G1 X6.513 Y126.083 F180
M106 S0
G0 X7.633 Y126.118 F6000
M106 S255
G1 X7.633 Y126.118 F180
M106 S0
M106 S255
G1 X12.463 Y121.215 F180
M106 S0
M106 S255
G1 X17.406 Y126.19 F180
M106 S0
G0 X18.491 Y126.26 F6000
M106 S255
G1 X18.491 Y126.26 F180
M106 S0
M106 S255
G1 X23.434 Y121.321 F180
M106 S0
M106 S255
G1 X28.194 Y126.294 F180
M106 S0
G0 X29.358 Y126.33 F6000
M106 S255
G1 X29.358 Y126.33 F180
M106 S0
M106 S255
G1 X34.293 Y121.497 F180
M106 S0
M106 S255
G1 X39.1 Y126.401 F180
M106 S0
G0 X40.22 Y126.331 F6000
M106 S255
G1 X40.22 Y126.331 F180
M106 S0
M106 S255
G1 X44.945 Y121.672 F180
M106 S0
M106 S255
G1 X49.929 Y126.471 F180
M106 S0
G0 X1.023 Y137.435 F6000
M106 S255
G1 X1.023 Y137.435 F180
M106 S0
M106 S255
G1 X12.642 Y132.147 F180
M106 S0
M106 S255
G1 X23.153 Y137.436 F180
M106 S0
M106 S255
G1 X34.225 Y132.252 F180
M106 S0
M106 S255
G1 X45.16 Y137.367 F180
M106 S0
M106 S255
G1 X55.811 Y132.184 F180
M106 S0
M106 S255
G1 X61.387 Y134.602 F180
M106 S0
M106 S255
G1 X56.452 Y137.264 F180
M106 S0
G0 X12.019 Y137.404 F6000
M106 S255
G1 X12.019 Y137.404 F180
M106 S0
M106 S255
G1 X23.359 Y132.186 F180
M106 S0
M106 S255
G1 X33.941 Y137.37 F180
M106 S0
M106 S255
G1 X45.023 Y132.22 F180
M106 S0
M106 S255
G1 X56.443 Y137.334 F180
M106 S0
G0 X61.807 Y137.299 F6000
M106 S255
G1 X61.807 Y137.299 F180
M106 S0
M106 S255
G1 X61.282 Y132.256 F180
M106 S0
M106 S255
G1 X61.387 Y126.617 F180
M106 S0
M106 S255
G1 X61.597 Y121.854 F180
M106 S0
M106 S255
G1 X62.122 Y126.617 F180
M106 S0
M106 S255
G1 X62.017 Y132.151 F180
M106 S0
M106 S255
G1 X61.877 Y137.299 F180
M106 S0
G0 X39.756 Y137.364 F6000
M106 S255
G1 X39.756 Y137.364 F180
M106 S0
M106 S255
G1 X39.668 Y132.15 F180
M106 S0
M106 S255
G1 X39.69 Y126.365 F180
M106 S0
M106 S255
G1 X39.756 Y121.565 F180
M106 S0
M106 S255
G1 X39.888 Y126.405 F180
M106 S0
M106 S255
G1 X39.932 Y132.168 F180
M106 S0
M106 S255
G1 X39.756 Y137.338 F180
M106 S0
G0 X28.792 Y137.379 F6000
M106 S255
G1 X28.792 Y137.379 F180
M106 S0
M106 S255
G1 X28.725 Y132.113 F180
M106 S0
M106 S255
G1 X28.77 Y126.318 F180
M106 S0
M106 S255
G1 X28.836 Y121.427 F180
M106 S0
G0 X17.653 Y137.425 F6000
M106 S255
G1 X17.653 Y137.425 F180
M106 S0
M106 S255
G1 X17.608 Y132.129 F180
M106 S0
M106 S255
G1 X17.675 Y126.233 F180
M106 S0
M106 S255
G1 X17.853 Y121.272 F180
M106 S0
M106 S255
G1 X17.942 Y126.189 F180
M106 S0
M106 S255
G1 X17.964 Y132.129 F180
M106 S0
M106 S255
G1 X17.653 Y137.402 F180
M106 S0
G0 X6.589 Y137.48 F6000
M106 S255
G1 X6.589 Y137.48 F180
M106 S0
M106 S255
G1 X6.633 Y132.145 F180
M106 S0
M106 S255
G1 X6.656 Y126.23 F180
M106 S0
M106 S255
G1 X6.968 Y121.14 F180
M106 S0
M106 S255
G1 X7.147 Y126.118 F180
M106 S0
M106 S255
G1 X7.035 Y132.145 F180
M106 S0
M106 S255
G1 X6.611 Y137.48 F180
M106 S0
G0 X50.788 Y137.312 F6000
M106 S255
G1 X50.788 Y137.312 F180
M106 S0
M106 S255
G1 X50.592 Y132.152 F180
M106 S0
M106 S255
G1 X50.578 Y126.474 F180
M106 S0
M106 S255
G1 X50.675 Y121.663 F180
M106 S0
M106 S255
G1 X50.942 Y126.486 F180
M106 S0
M106 S255
G1 X50.956 Y132.164 F180
M106 S0
M106 S255
G1 X50.815 Y137.284 F180
M106 S0
G0 X73.011 Y137.262 F6000
M106 S255
G1 X73.011 Y137.262 F180
M106 S0
M106 S255
G1 X73.43 Y132.199 F180
M106 S0
M106 S255
G1 X73.574 Y126.592 F180
M106 S0
M106 S255
G1 X72.676 Y121.955 F180
M106 S0
M106 S255
G1 X72.352 Y126.664 F180
M106 S0
M106 S255
G1 X72.281 Y132.163 F180
M106 S0
M106 S255
G1 X72.935 Y137.263 F180
M106 S0
G0 X73.46 Y126.576 F6000
M106 S255
G1 X73.46 Y126.576 F180
M106 S0
M106 S255
G1 X80.544 Y122.068 F180
M106 S0
G0 X83.236 Y132.199 F6000
M106 S255
G1 X83.236 Y132.199 F180
M106 S0
M106 S255
G1 X83.599 Y122.055 F180
M106 S0
G0 X82.208 Y122.038 F6000
M106 S255
G1 X82.208 Y122.038 F180
M106 S0
M106 S255
G1 X65.568 Y0.136 F180
M106 S0
G0 X81.633 Y122.031 F6000
M106 S255
G1 X81.633 Y122.031 F180
M106 S0
M106 S255
G1 X64.26 Y0.02 F180
M106 S0
G0 X69.919 Y121.889 F6000
M106 S255
G1 X69.919 Y121.889 F180
M106 S0
M106 S255
G1 X56.12 Y0.107 F180
M106 S0
G0 X69.062 Y121.879 F6000
M106 S255
G1 X69.062 Y121.879 F180
M106 S0
M106 S255
G1 X55.077 Y0.101 F180
M106 S0
G0 X64.125 Y78.785 F6000
M106 S255
G1 X64.125 Y78.785 F180
M106 S0
M106 S255
G1 X62.151 Y77.281 F180
M106 S0
M106 S255
G1 X62.166 Y78.918 F180
M106 S0
M106 S255
G1 X61.665 Y78.918 F180
M106 S0
M106 S255
G1 X61.665 Y80.569 F180
M106 S0
M106 S255
G1 X57.768 Y79.979 F180
M106 S0
M106 S255
G1 X57.768 Y72.858 F180
M106 S0
M106 S255
G1 X61.937 Y72.475 F180
M106 S0
M106 S255
G1 X61.937 Y74.716 F180
M106 S0
M106 S255
G1 X62.232 Y74.716 F180
M106 S0
M106 S255
G1 X62.232 Y75.202 F180
M106 S0
M106 S255
G1 X62.497 Y75.202 F180
M106 S0
M106 S255
G1 X63.44 Y72.755 F180
M106 S0
G0 X63.558 Y74.141 F6000
M106 S255
G1 X63.558 Y74.141 F180
M106 S0
M106 S255
G1 X63.013 Y75.438 F180
M106 S0
M106 S255
G1 X63.779 Y75.807 F180
M106 S0
G0 X64.029 Y78.122 F6000
M106 S255
G1 X64.029 Y78.122 F180
M106 S0
M106 S255
G1 X62.335 Y76.809 F180
M106 S0
M106 S255
G1 X62.335 Y75.689 F180
M106 S0
M106 S255
G1 X63.808 Y76.411 F180
M106 S0
G0 X61.289 Y80.185 F6000
M106 S255
G1 X61.289 Y80.185 F180
M106 S0
M106 S255
G1 X58.357 Y79.787 F180
M106 S0
M106 S255
G1 X58.357 Y79.095 F180
M106 S0
M106 S255
G1 X61.378 Y79.095 F180
M106 S0
M106 S255
G1 X61.378 Y80.199 F180
M106 S0
M106 S255
G1 X61.308 Y80.199 F180
M106 S0
G0 X61.372 Y78.905 F6000
M106 S255
G1 X61.372 Y78.905 F180
M106 S0
M106 S255
G1 X58.342 Y78.905 F180
M106 S0
M106 S255
G1 X58.342 Y73.534 F180
M106 S0
M106 S255
G1 X61.372 Y73.534 F180
M106 S0
M106 S255
G1 X61.372 Y78.905 F180
M106 S0
G0 X61.363 Y77.814 F6000
M106 S255
G1 X61.363 Y77.814 F180
M106 S0
M106 S255
G1 X58.342 Y77.814 F180
M106 S0
G0 X61.372 Y77.555 F6000
M106 S255
G1 X61.372 Y77.555 F180
M106 S0
M106 S255
G1 X58.352 Y77.555 F180
M106 S0
G0 X61.354 Y76.463 F6000
M106 S255
G1 X61.354 Y76.463 F180
M106 S0
M106 S255
G1 X58.333 Y76.463 F180
M106 S0
G0 X61.372 Y76.306 F6000
M106 S255
G1 X61.372 Y76.306 F180
M106 S0
M106 S255
G1 X58.342 Y76.306 F180
M106 S0
G0 X61.372 Y75.273 F6000
M106 S255
G1 X61.372 Y75.273 F180
M106 S0
M106 S255
G1 X58.342 Y75.273 F180
M106 S0
G0 X61.372 Y75.012 F6000
M106 S255
G1 X61.372 Y75.012 F180
M106 S0
M106 S255
G1 X58.342 Y75.012 F180
M106 S0
G0 X61.359 Y73.322 F6000
M106 S255
G1 X61.359 Y73.322 F180
M106 S0
M106 S255
G1 X58.336 Y73.322 F180
M106 S0
M106 S255
G1 X58.336 Y73.042 F180
M106 S0
M106 S255
G1 X61.359 Y72.762 F180
M106 S0
M106 S255
G1 X61.359 Y73.322 F180
M106 S0
G0 X80.125 Y111.407 F6000
M106 S255
G1 X80.125 Y111.407 F180
M106 S0
M106 S255
G1 X77.707 Y111.407 F180
M106 S0
M106 S255
G1 X77.707 Y111.629 F180
M106 S0
M106 S255
G1 X77.263 Y111.629 F180
M106 S0
M106 S255
G1 X77.263 Y113.184 F180
M106 S0
M106 S255
G1 X76.943 Y113.184 F180
M106 S0
M106 S255
G1 X76.791 Y113.184 F180
M106 S0
M106 S255
G1 X76.791 Y114.509 F180
M106 S0
M106 S255
G1 X73.03 Y114.005 F180
M106 S0
M106 S255
G1 X73.03 Y107.282 F180
M106 S0
M106 S255
G1 X76.867 Y106.943 F180
M106 S0
M106 S255
G1 X76.867 Y109.149 F180
M106 S0
M106 S255
G1 X77.342 Y109.149 F180
M106 S0
M106 S255
G1 X77.342 Y110.029 F180
M106 S0
M106 S255
G1 X79.924 Y110.029 F180
M106 S0
G0 X79.964 Y110.436 F6000
M106 S255
G1 X79.964 Y110.436 F180
M106 S0
M106 S255
G1 X77.634 Y110.436 F180
M106 S0
M106 S255
G1 X77.634 Y110.997 F180
M106 S0
M106 S255
G1 X80.061 Y110.997 F180
M106 S0
G0 X76.504 Y113.19 F6000
M106 S255
G1 X76.504 Y113.19 F180
M106 S0
M106 S255
G1 X73.744 Y113.19 F180
M106 S0
M106 S255
G1 X73.744 Y107.909 F180
M106 S0
M106 S255
G1 X76.504 Y107.909 F180
M106 S0
M106 S255
G1 X76.504 Y113.19 F180
M106 S0
G0 X76.504 Y112.105 F6000
M106 S255
G1 X76.504 Y112.105 F180
M106 S0
M106 S255
G1 X73.744 Y112.105 F180
M106 S0
G0 X76.504 Y111.852 F6000
M106 S255
G1 X76.504 Y111.852 F180
M106 S0
M106 S255
G1 X73.744 Y111.852 F180
M106 S0
G0 X76.504 Y110.883 F6000
M106 S255
G1 X76.504 Y110.883 F180
M106 S0
M106 S255
G1 X73.744 Y110.883 F180
M106 S0
G0 X76.504 Y110.661 F6000
M106 S255
G1 X76.504 Y110.661 F180
M106 S0
M106 S255
G1 X73.744 Y110.661 F180
M106 S0
G0 X76.504 Y109.672 F6000
M106 S255
G1 X76.504 Y109.672 F180
M106 S0
M106 S255
G1 X73.744 Y109.672 F180
M106 S0
G0 X76.504 Y109.537 F6000
M106 S255
G1 X76.504 Y109.537 F180
M106 S0
M106 S255
G1 X73.744 Y109.537 F180
M106 S0
G0 X76.504 Y113.393 F6000
M106 S255
G1 X76.504 Y113.393 F180
M106 S0
M106 S255
G1 X76.504 Y114.275 F180
M106 S0
M106 S255
G1 X73.744 Y113.907 F180
M106 S0
M106 S255
G1 X73.744 Y113.393 F180
M106 S0
M106 S255
G1 X76.504 Y113.393 F180
M106 S0
G0 X73.744 Y107.733 F6000
M106 S255
G1 X73.744 Y107.733 F180
M106 S0
M106 S255
G1 X73.744 Y107.374 F180
M106 S0
M106 S255
G1 X76.504 Y107.132 F180
M106 S0
M106 S255
G1 X76.504 Y107.733 F180
M106 S0
M106 S255
G1 X73.744 Y107.733 F180
M106 S0
G0 X42.114 Y200.013 F6000
M106 S255
G1 X42.114 Y200.013 F180
M106 S0
M106 S255
G1 X31.672 Y197.416 F180
M106 S0
M106 S255
G1 X23.357 Y197.416 F180
M106 S0
M106 S255
G1 X23.357 Y162.675 F180
M106 S0
G0 X22.32 Y187.581 F6000
M106 S255
G1 X22.32 Y187.581 F180
M106 S0
M106 S255
G1 X22.633 Y153.122 F180
M106 S0
M106 S255
G1 X23.133 Y98.092 F180
M106 S0
M106 S255
G1 X23.133 Y62.318 F180
M106 S0
G0 X22.334 Y187.582 F6000
M106 S255
G1 X22.334 Y187.582 F180
M106 S0
M106 S255
G1 X13.685 Y187.129 F180
M106 S0
G0 X23.357 Y165.021 F6000
M106 S255
G1 X23.357 Y165.021 F180
M106 S0
M106 S255
G1 X53.86 Y162.236 F180
M106 S0
M106 S255
G1 X53.643 Y161.05 F180
M106 S0
M106 S255
G1 X53.643 Y159.118 F180
M106 S0
M106 S255
G1 X48.118 Y159.4 F180
M106 S0
G0 X23.36 Y154.66 F6000
M106 S255
G1 X23.36 Y154.66 F180
M106 S0
M106 S255
G1 X51.077 Y154.489 F180
M106 S0
M106 S255
G1 X51.077 Y155.218 F180
M106 S0
M106 S255
G1 X54.159 Y155.346 F180
M106 S0
M106 S255
G1 X54.159 Y155.847 F180
M106 S0
M106 S255
G1 X54.409 Y155.847 F180
M106 S0
M106 S255
G1 X54.409 Y158.23 F180
M106 S0
M106 S255
G1 X23.172 Y159.864 F180
M106 S0
G0 X23.355 Y160.724 F6000
M106 S255
G1 X23.355 Y160.724 F180
M106 S0
M106 S255
G1 X46.285 Y159.687 F180
M106 S0
M106 S255
G1 X46.285 Y161.556 F180
M106 S0
M106 S255
G1 X23.357 Y162.683 F180
M106 S0
G0 X53.667 Y161.18 F6000
M106 S255
G1 X53.667 Y161.18 F180
M106 S0
M106 S255
G1 X47.995 Y161.417 F180
M106 S0
M106 S255
G1 X47.995 Y159.411 F180
M106 S0
G0 X23.438 Y154.659 F6000
M106 S255
G1 X23.438 Y154.659 F180
M106 S0
M106 S255
G1 X26.061 Y153.079 F180
M106 S0
G0 X26.045 Y153.111 F6000
M106 S255
G1 X26.045 Y153.111 F180
M106 S0
M106 S255
G1 X23.413 Y151.127 F180
M106 S0
M106 S255
G1 X23.423 Y149.948 F180
M106 S0
M106 S255
G1 X27.323 Y147.751 F180
M106 S0
M106 S255
G1 X23.463 Y145.107 F180
M106 S0
M106 S255
G1 X28.181 Y142.269 F180
M106 S0
M106 S255
G1 X23.485 Y139.537 F180
M106 S0
M106 S255
G1 X28.618 Y137.155 F180
M106 S0
M106 S255
G1 X23.545 Y134.651 F180
M106 S0
M106 S255
G1 X28.653 Y132.164 F180
M106 S0
M106 S255
G1 X23.574 Y129.257 F180
M106 S0
M106 S255
G1 X28.706 Y127.032 F180
M106 S0
M106 S255
G1 X23.648 Y124.521 F180
M106 S0
M106 S255
G1 X28.776 Y122.052 F180
M106 S0
M106 S255
G1 X23.667 Y119.775 F180
M106 S0
M106 S255
G1 X28.794 Y117.025 F180
M106 S0
M106 S255
G1 X23.737 Y114.534 F180
M106 S0
M106 S255
G1 X28.144 Y112.047 F180
M106 S0
M106 S255
G1 X23.759 Y109.652 F180
M106 S0
M106 S255
G1 X27.321 Y107.143 F180
M106 S0
M106 S255
G1 X23.8 Y104.778 F180
M106 S0
M106 S255
G1 X23.804 Y104.283 F180
M106 S0
M106 S255
G1 X26.293 Y102.409 F180
M106 S0
M106 S255
G1 X23.843 Y100.325 F180
M106 S0
G0 X23.394 Y152.115 F6000
M106 S255
G1 X23.394 Y152.115 F180
M106 S0
M106 S255
G1 X26.761 Y150.256 F180
M106 S0
M106 S255
G1 X23.428 Y147.712 F180
M106 S0
M106 S255
G1 X27.795 Y144.923 F180
M106 S0
M106 S255
G1 X23.474 Y142.221 F180
M106 S0
M106 S255
G1 X28.427 Y139.59 F180
M106 S0
M106 S255
G1 X23.526 Y136.959 F180
M106 S0
M106 S255
G1 X28.76 Y134.643 F180
M106 S0
M106 S255
G1 X23.289 Y132.234 F180
M106 S0
M106 S255
G1 X28.986 Y129.217 F180
M106 S0
M106 S255
G1 X23.552 Y126.954 F180
M106 S0
M106 S255
G1 X29.074 Y124.07 F180
M106 S0
M106 S255
G1 X23.535 Y121.684 F180
M106 S0
M106 S255
G1 X28.987 Y119.457 F180
M106 S0
M106 S255
G1 X23.64 Y117.369 F180
M106 S0
M106 S255
G1 X28.513 Y114.527 F180
M106 S0
M106 S255
G1 X23.727 Y112.457 F180
M106 S0
M106 S255
G1 X27.727 Y109.471 F180
M106 S0
M106 S255
G1 X23.747 Y107.682 F180
M106 S0
M106 S255
G1 X26.955 Y105.629 F180
M106 S0
M106 S255
G1 X23.747 Y103.401 F180
M106 S0
G0 X13.685 Y164.261 F6000
M106 S255
G1 X13.685 Y164.261 F180
M106 S0
M106 S255
G1 X21.083 Y164.008 F180
M106 S0
M106 S255
G1 X21.083 Y187.529 F180
M106 S0
G0 X13.685 Y163.188 F6000
M106 S255
G1 X13.685 Y163.188 F180
M106 S0
M106 S255
G1 X17.152 Y163.047 F180
M106 S0
M106 S255
G1 X17.152 Y161.213 F180
M106 S0
M106 S255
G1 X13.685 Y161.295 F180
M106 S0
G0 X13.685 Y160.293 F6000
M106 S255
G1 X13.685 Y160.293 F180
M106 S0
M106 S255
G1 X21.18 Y160.071 F180
M106 S0
G0 X13.685 Y154.613 F6000
M106 S255
G1 X13.685 Y154.613 F180
M106 S0
M106 S255
G1 X22.257 Y154.687 F180
M106 S0
G0 X13.685 Y93.232 F6000
M106 S255
G1 X13.685 Y93.232 F180
M106 S0
M106 S255
G1 X15.686 Y93.515 F180
M106 S0
M106 S255
G1 X22.089 Y93.863 F180
M106 S0
M106 S255
G1 X22.089 Y74.12 F180
M106 S0
M106 S255
G1 X13.685 Y74.12 F180
M106 S0
G0 X21.506 Y73.733 F6000
M106 S255
G1 X21.506 Y73.733 F180
M106 S0
M106 S255
G1 X19.391 Y71.037 F180
M106 S0
M106 S255
G1 X13.685 Y71.037 F180
M106 S0
G0 X13.685 Y70.486 F6000
M106 S255
G1 X13.685 Y70.486 F180
M106 S0
M106 S255
G1 X19.247 Y70.486 F180
M106 S0
M106 S255
G1 X18.696 Y69.21 F180
M106 S0
M106 S255
G1 X13.685 Y69.21 F180
M106 S0
G0 X21.477 Y72.892 F6000
M106 S255
G1 X21.477 Y72.892 F180
M106 S0
M106 S255
G1 X21.477 Y62.397 F180
M106 S0
G0 X23.355 Y162.672 F6000
M106 S255
G1 X23.355 Y162.672 F180
M106 S0
M106 S255
G1 X23.355 Y160.717 F180
M106 S0
G0 X23.384 Y154.643 F6000
M106 S255
G1 X23.384 Y154.643 F180
M106 S0
M106 S255
G1 X23.837 Y100.315 F180
M106 S0
G0 X23.843 Y94.125 F6000
M106 S255
G1 X23.843 Y94.125 F180
M106 S0
M106 S255
G1 X23.843 Y62.304 F180
M106 S0
G0 X23.843 Y94.125 F6000
M106 S255
G1 X23.843 Y94.125 F180
M106 S0
M106 S255
G1 X53.214 Y95.641 F180
M106 S0
M106 S255
G1 X53.214 Y98.12 F180
M106 S0
M106 S255
G1 X23.875 Y97.957 F180
M106 S0
G0 X53.214 Y98.12 F6000
M106 S255
G1 X53.214 Y98.12 F180
M106 S0
M106 S255
G1 X52.886 Y99.426 F180
M106 S0
M106 S255
G1 X50.338 Y99.426 F180
M106 S0
G0 X50.319 Y98.627 F6000
M106 S255
G1 X50.319 Y98.627 F180
M106 S0
M106 S255
G1 X50.319 Y99.62 F180
M106 S0
M106 S255
G1 X50.319 Y100.315 F180
M106 S0
M106 S255
G1 X46.697 Y100.335 F180
M106 S0
M106 S255
G1 X46.716 Y101.411 F180
M106 S0
M106 S255
G1 X45.783 Y101.411 F180
M106 S0
M106 S255
G1 X45.783 Y101.873 F180
M106 S0
G0 X49.935 Y101.964 F6000
M106 S255
G1 X49.935 Y101.964 F180
M106 S0
M106 S255
G1 X49.877 Y102.911 F180
M106 S0
M106 S255
G1 X46.225 Y102.911 F180
M106 S0
G0 X46.22 Y103.065 F6000
M106 S255
G1 X46.22 Y103.065 F180
M106 S0
M106 S255
G1 X46.227 Y101.873 F180
M106 S0
G0 X49.877 Y102.911 F6000
M106 S255
G1 X49.877 Y102.911 F180
M106 S0
M106 S255
G1 X49.877 Y103.663 F180
M106 S0
G0 X46.22 Y103.065 F6000
M106 S255
G1 X46.22 Y103.065 F180
M106 S0
M106 S255
G1 X26.461 Y103.088 F180
M106 S0
G0 X41.064 Y102.024 F6000
M106 S255
G1 X41.064 Y102.024 F180
M106 S0
M106 S255
G1 X25.754 Y101.951 F180
M106 S0
G0 X49.877 Y103.663 F6000
M106 S255
G1 X49.877 Y103.663 F180
M106 S0
M106 S255
G1 X26.555 Y103.528 F180
M106 S0
G0 X49.877 Y103.287 F6000
M106 S255
G1 X49.877 Y103.287 F180
M106 S0
M106 S255
G1 X52.849 Y103.299 F180
M106 S0
M106 S255
G1 X52.932 Y101.873 F180
M106 S0
M106 S255
G1 X52.886 Y99.426 F180
M106 S0
G0 X50.319 Y99.62 F6000
M106 S255
G1 X50.319 Y99.62 F180
M106 S0
M106 S255
G1 X23.864 Y99.297 F180
M106 S0
G0 X41.693 Y99.793 F6000
M106 S255
G1 X41.693 Y99.793 F180
M106 S0
M106 S255
G1 X23.844 Y99.671 F180
M106 S0
G0 X41.064 Y102.024 F6000
M106 S255
G1 X41.064 Y102.024 F180
M106 S0
M106 S255
G1 X41.146 Y101.906 F180
M106 S0
M106 S255
G1 X41.227 Y101.788 F180
M106 S0
M106 S255
G1 X41.305 Y101.669 F180
M106 S0
M106 S255
G1 X41.379 Y101.549 F180
M106 S0
M106 S255
G1 X41.447 Y101.427 F180
M106 S0
M106 S255
G1 X41.509 Y101.303 F180
M106 S0
M106 S255
G1 X41.564 Y101.177 F180
M106 S0
M106 S255
G1 X41.604 Y101.063 F180
M106 S0
M106 S255
G1 X41.644 Y100.917 F180
M106 S0
M106 S255
G1 X41.67 Y100.782 F180
M106 S0
M106 S255
G1 X41.688 Y100.645 F180
M106 S0
M106 S255
G1 X41.699 Y100.506 F180
M106 S0
M106 S255
G1 X41.705 Y100.366 F180
M106 S0
M106 S255
G1 X41.706 Y100.224 F180
M106 S0
M106 S255
G1 X41.704 Y100.081 F180
M106 S0
M106 S255
G1 X41.699 Y99.937 F180
M106 S0
M106 S255
G1 X41.693 Y99.793 F180
M106 S0
G0 X26.042 Y153.074 F6000
M106 S255
G1 X26.042 Y153.074 F180
M106 S0
M106 S255
G1 X26.411 Y151.66 F180
M106 S0
M106 S255
G1 X26.769 Y150.243 F180
M106 S0
M106 S255
G1 X27.252 Y148.131 F180
M106 S0
M106 S255
G1 X27.401 Y147.391 F180
M106 S0
M106 S255
G1 X27.66 Y145.954 F180
M106 S0
M106 S255
G1 X27.884 Y144.509 F180
M106 S0
M106 S255
G1 X28.078 Y143.06 F180
M106 S0
M106 S255
G1 X28.245 Y141.607 F180
M106 S0
M106 S255
G1 X28.391 Y140.151 F180
M106 S0
M106 S255
G1 X28.496 Y138.972 F180
M106 S0
M106 S255
G1 X28.634 Y137.236 F180
M106 S0
M106 S255
G1 X28.736 Y135.779 F180
M106 S0
M106 S255
G1 X28.825 Y134.321 F180
M106 S0
M106 S255
G1 X28.902 Y132.862 F180
M106 S0
M106 S255
G1 X28.968 Y131.403 F180
M106 S0
M106 S255
G1 X29.023 Y129.942 F180
M106 S0
M106 S255
G1 X29.063 Y128.665 F180
M106 S0
M106 S255
G1 X29.102 Y127.017 F180
M106 S0
M106 S255
G1 X29.122 Y125.554 F180
M106 S0
M106 S255
G1 X29.127 Y124.09 F180
M106 S0
M106 S255
G1 X29.113 Y122.627 F180
M106 S0
M106 S255
G1 X29.076 Y121.165 F180
M106 S0
M106 S255
G1 X29.016 Y119.705 F180
M106 S0
M106 S255
G1 X28.927 Y118.248 F180
M106 S0
M106 S255
G1 X28.79 Y116.611 F180
M106 S0
M106 S255
G1 X28.656 Y115.343 F180
M106 S0
M106 S255
G1 X28.473 Y113.896 F180
M106 S0
M106 S255
G1 X28.263 Y112.451 F180
M106 S0
M106 S255
G1 X28.029 Y111.01 F180
M106 S0
M106 S255
G1 X27.774 Y109.571 F180
M106 S0
M106 S255
G1 X27.503 Y108.134 F180
M106 S0
M106 S255
G1 X27.217 Y106.699 F180
M106 S0
M106 S255
G1 X26.922 Y105.264 F180
M106 S0
M106 S255
G1 X26.619 Y103.831 F180
M106 S0
M106 S255
G1 X26.313 Y102.397 F180
M106 S0
G0 X39.636 Y94.968 F6000
M106 S255
G1 X39.636 Y94.968 F180
M106 S0
M106 S255
G1 X39.548 Y91.244 F180
M106 S0
M106 S255
G1 X39.636 Y87.345 F180
M106 S0
M106 S255
G1 X31.842 Y87.388 F180
M106 S0
M106 S255
G1 X31.776 Y85.066 F180
M106 S0
M106 S255
G1 X33.834 Y85.066 F180
M106 S0
M106 S255
G1 X34.6 Y82.744 F180
M106 S0
M106 S255
G1 X34.622 Y82.613 F180
M106 S0
M106 S255
G1 X35.87 Y82.634 F180
M106 S0
M106 S255
G1 X35.892 Y82.284 F180
M106 S0
M106 S255
G1 X34.622 Y82.284 F180
M106 S0
M106 S255
G1 X34.6 Y82.043 F180
M106 S0
M106 S255
G1 X35.938 Y82.043 F180
M106 S0
M106 S255
G1 X35.938 Y81.697 F180
M106 S0
M106 S255
G1 X34.583 Y81.697 F180
M106 S0
M106 S255
G1 X34.583 Y80.925 F180
M106 S0
M106 S255
G1 X35.203 Y80.925 F180
M106 S0
M106 S255
G1 X35.203 Y80.21 F180
M106 S0
M106 S255
G1 X35.335 Y80.21 F180
M106 S0
M106 S255
G1 X35.335 Y79.44 F180
M106 S0
M106 S255
G1 X35.972 Y79.44 F180
M106 S0
M106 S255
G1 X35.972 Y78.957 F180
M106 S0
M106 S255
G1 X34.566 Y78.957 F180
M106 S0
M106 S255
G1 X34.566 Y78.781 F180
M106 S0
M106 S255
G1 X36.104 Y78.781 F180
M106 S0
M106 S255
G1 X36.104 Y77.968 F180
M106 S0
M106 S255
G1 X34.566 Y77.968 F180
M106 S0
M106 S255
G1 X34.566 Y73.089 F180
M106 S0
M106 S255
G1 X35.95 Y73.089 F180
M106 S0
M106 S255
G1 X35.95 Y72.693 F180
M106 S0
M106 S255
G1 X34.764 Y72.693 F180
M106 S0
M106 S255
G1 X34.764 Y72.517 F180
M106 S0
M106 S255
G1 X35.818 Y72.517 F180
M106 S0
M106 S255
G1 X35.818 Y72.232 F180
M106 S0
M106 S255
G1 X34.786 Y72.232 F180
M106 S0
M106 S255
G1 X34.786 Y71.352 F180
M106 S0
M106 S255
G1 X35.313 Y71.352 F180
M106 S0
M106 S255
G1 X35.313 Y70.891 F180
M106 S0
M106 S255
G1 X35.818 Y70.891 F180
M106 S0
M106 S255
G1 X35.818 Y70.517 F180
M106 S0
M106 S255
G1 X35.357 Y70.517 F180
M106 S0
M106 S255
G1 X35.357 Y69.805 F180
M106 S0
M106 S255
G1 X35.858 Y69.805 F180
M106 S0
M106 S255
G1 X35.858 Y69.494 F180
M106 S0
M106 S255
G1 X34.753 Y69.494 F180
M106 S0
M106 S255
G1 X34.753 Y69.226 F180
M106 S0
M106 S255
G1 X35.928 Y69.226 F180
M106 S0
M106 S255
G1 X35.928 Y68.233 F180
M106 S0
M106 S255
G1 X34.736 Y68.233 F180
M106 S0
M106 S255
G1 X34.736 Y66.407 F180
M106 S0
M106 S255
G1 X34.736 Y66.23 F180
M106 S0
M106 S255
G1 X35.463 Y66.23 F180
M106 S0
M106 S255
G1 X35.463 Y65.831 F180
M106 S0
M106 S255
G1 X35.176 Y65.831 F180
M106 S0
M106 S255
G1 X35.176 Y65.189 F180
M106 S0
M106 S255
G1 X34.821 Y65.189 F180
M106 S0
M106 S255
G1 X34.821 Y63.483 F180
M106 S0
M106 S255
G1 X35.375 Y63.483 F180
M106 S0
M106 S255
G1 X35.375 Y63.062 F180
M106 S0
M106 S255
G1 X34.821 Y63.062 F180
M106 S0
M106 S255
G1 X34.821 Y61.972 F180
M106 S0
M106 S255
G1 X35.49 Y61.972 F180
M106 S0
M106 S255
G1 X35.49 Y61.066 F180
M106 S0
M106 S255
G1 X34.654 Y61.066 F180
M106 S0
M106 S255
G1 X34.654 Y60.856 F180
M106 S0
M106 S255
G1 X35.638 Y60.856 F180
M106 S0
M106 S255
G1 X35.638 Y60.098 F180
M106 S0
M106 S255
G1 X34.55 Y60.098 F180
M106 S0
M106 S255
G1 X34.55 Y59.811 F180
M106 S0
M106 S255
G1 X35.438 Y59.811 F180
M106 S0
M106 S255
G1 X35.438 Y59.053 F180
M106 S0
M106 S255
G1 X34.55 Y59.053 F180
M106 S0
M106 S255
G1 X34.55 Y58.905 F180
M106 S0
M106 S255
G1 X35.212 Y58.905 F180
M106 S0
M106 S255
G1 X35.212 Y58.412 F180
M106 S0
M106 S255
G1 X35.445 Y58.412 F180
M106 S0
M106 S255
G1 X35.445 Y57.783 F180
M106 S0
M106 S255
G1 X34.414 Y57.783 F180
M106 S0
M106 S255
G1 X34.414 Y57.125 F180
M106 S0
M106 S255
G1 X30.09 Y57.125 F180
M106 S0
G0 X39.548 Y91.244 F6000
M106 S255
G1 X39.548 Y91.244 F180
M106 S0
M106 S255
G1 X27.445 Y91.244 F180
M106 S0
M106 S255
G1 X27.445 Y81.27 F180
M106 S0
M106 S255
G1 X28.681 Y81.27 F180
M106 S0
M106 S255
G1 X28.681 Y81.652 F180
M106 S0
M106 S255
G1 X29.108 Y81.652 F180
M106 S0
M106 S255
G1 X29.108 Y69.821 F180
M106 S0
M106 S255
G1 X23.843 Y69.821 F180
M106 S0
G0 X29.108 Y80.422 F6000
M106 S255
G1 X29.108 Y80.422 F180
M106 S0
M106 S255
G1 X29.841 Y76.247 F180
M106 S0
M106 S255
G1 X29.841 Y63.968 F180
M106 S0
M106 S255
G1 X28.848 Y62.739 F180
M106 S0
M106 S255
G1 X23.843 Y62.739 F180
M106 S0
G0 X29.108 Y69.821 F6000
M106 S255
G1 X29.108 Y69.821 F180
M106 S0
M106 S255
G1 X29.841 Y68.124 F180
M106 S0
G0 X31.718 Y88.398 F6000
M106 S255
G1 X31.718 Y88.398 F180
M106 S0
M106 S255
G1 X28.113 Y88.398 F180
M106 S0
M106 S255
G1 X27.445 Y91.244 F180
M106 S0
G0 X31.718 Y88.398 F6000
M106 S255
G1 X31.718 Y88.398 F180
M106 S0
M106 S255
G1 X31.604 Y83.964 F180
M106 S0
G0 X33.834 Y85.066 F6000
M106 S255
G1 X33.834 Y85.066 F180
M106 S0
M106 S255
G1 X33.834 Y66.842 F180
M106 S0
M106 S255
G1 X34.278 Y65.146 F180
M106 S0
M106 S255
G1 X29.841 Y65.146 F180
M106 S0
G0 X33.834 Y66.842 F6000
M106 S255
G1 X33.834 Y66.842 F180
M106 S0
M106 S255
G1 X29.841 Y66.842 F180
M106 S0
G0 X34.278 Y65.146 F6000
M106 S255
G1 X34.278 Y65.146 F180
M106 S0
M106 S255
G1 X34.278 Y61.118 F180
M106 S0
M106 S255
G1 X23.84 Y61.118 F180
M106 S0
G0 X31.135 Y56.626 F6000
M106 S255
G1 X31.135 Y56.626 F180
M106 S0
M106 S255
G1 X33.471 Y56.626 F180
M106 S0
M106 S255
G1 X33.471 Y53.53 F180
M106 S0
M106 S255
G1 X34.245 Y53.53 F180
M106 S0
M106 S255
G1 X34.245 Y52.57 F180
M106 S0
M106 S255
G1 X34.467 Y52.57 F180
M106 S0
M106 S255
G1 X34.467 Y51.942 F180
M106 S0
M106 S255
G1 X34.95 Y51.942 F180
M106 S0
M106 S255
G1 X34.95 Y46.839 F180
M106 S0
M106 S255
G1 X34.597 Y46.839 F180
M106 S0
M106 S255
G1 X34.597 Y42.273 F180
M106 S0
M106 S255
G1 X34.597 Y40.773 F180
M106 S0
M106 S255
G1 X35.332 Y40.773 F180
M106 S0
M106 S255
G1 X36.011 Y38.885 F180
M106 S0
M106 S255
G1 X36.011 Y36.77 F180
M106 S0
M106 S255
G1 X36.567 Y36.77 F180
M106 S0
M106 S255
G1 X36.567 Y36.107 F180
M106 S0
M106 S255
G1 X36.029 Y36.107 F180
M106 S0
M106 S255
G1 X36.029 Y34.52 F180
M106 S0
M106 S255
G1 X36.511 Y34.52 F180
M106 S0
M106 S255
G1 X36.511 Y33.861 F180
M106 S0
M106 S255
G1 X36.011 Y33.861 F180
M106 S0
M106 S255
G1 X36.011 Y29.286 F180
M106 S0
M106 S255
G1 X34.465 Y30.093 F180
M106 S0
G0 X35.739 Y33.461 F6000
M106 S255
G1 X35.739 Y33.461 F180
M106 S0
M106 S255
G1 X36.545 Y33.461 F180
M106 S0
M106 S255
G1 X37.643 Y31.978 F180
M106 S0
M106 S255
G1 X37.643 Y30.795 F180
M106 S0
M106 S255
G1 X37.643 Y25.491 F180
M106 S0
M106 S255
G1 X36.469 Y22.557 F180
M106 S0
M106 S255
G1 X34.404 Y22.557 F180
M106 S0
G0 X37.23 Y24.458 F6000
M106 S255
G1 X37.23 Y24.458 F180
M106 S0
M106 S255
G1 X37.501 Y20.192 F180
M106 S0
M106 S255
G1 X35.564 Y20.192 F180
M106 S0
G0 X33.499 Y19.657 F6000
M106 S255
G1 X33.499 Y19.657 F180
M106 S0
M106 S255
G1 X35.636 Y19.657 F180
M106 S0
M106 S255
G1 X35.636 Y19.324 F180
M106 S0
M106 S255
G1 X37.743 Y19.324 F180
M106 S0
M106 S255
G1 X37.743 Y19.324 F180
M106 S0
M106 S255
G1 X39.152 Y19.324 F180
M106 S0
M106 S255
G1 X39.152 Y17.61 F180
M106 S0
M106 S255
G1 X40.455 Y16.078 F180
M106 S0
M106 S255
G1 X40.455 Y15.396 F180
M106 S0
M106 S255
G1 X39.258 Y15.396 F180
M106 S0
M106 S255
G1 X39.258 Y14.198 F180
M106 S0
M106 S255
G1 X36.985 Y14.198 F180
M106 S0
M106 S255
G1 X36.985 Y11.074 F180
M106 S0
M106 S255
G1 X35.762 Y11.074 F180
M106 S0
M106 S255
G1 X35.762 Y12.378 F180
M106 S0
G0 X33.917 Y18.002 F6000
M106 S255
G1 X33.917 Y18.002 F180
M106 S0
M106 S255
G1 X35.808 Y18.002 F180
M106 S0
M106 S255
G1 X36.646 Y16.417 F180
M106 S0
M106 S255
G1 X37.362 Y16.417 F180
M106 S0
M106 S255
G1 X37.362 Y15.304 F180
M106 S0
M106 S255
G1 X36.57 Y15.304 F180
M106 S0
M106 S255
G1 X35.275 Y13.78 F180
M106 S0
M106 S255
G1 X35.275 Y13.536 F180
M106 S0
M106 S255
G1 X35.732 Y13.201 F180
M106 S0
M106 S255
G1 X36.143 Y13.201 F180
M106 S0
M106 S255
G1 X36.143 Y12.378 F180
M106 S0
M106 S255
G1 X35.625 Y12.378 F180
M106 S0
M106 S255
G1 X35.396 Y11.812 F180
M106 S0
G0 X36.985 Y12.395 F6000
M106 S255
G1 X36.985 Y12.395 F180
M106 S0
M106 S255
G1 X37.403 Y12.395 F180
M106 S0
M106 S255
G1 X37.403 Y12.026 F180
M106 S0
M106 S255
G1 X38.126 Y12.026 F180
M106 S0
M106 S255
G1 X38.126 Y11.134 F180
M106 S0
M106 S255
G1 X38.525 Y11.134 F180
M106 S0
M106 S255
G1 X38.525 Y10.041 F180
M106 S0
M106 S255
G1 X38.156 Y10.041 F180
M106 S0
M106 S255
G1 X38.156 Y7.071 F180
M106 S0
M106 S255
G1 X38.756 Y7.071 F180
M106 S0
M106 S255
G1 X38.756 Y6.409 F180
M106 S0
M106 S255
G1 X38.448 Y6.409 F180
M106 S0
M106 S255
G1 X38.448 Y5.594 F180
M106 S0
M106 S255
G1 X39.079 Y5.594 F180
M106 S0
M106 S255
G1 X39.079 Y5.24 F180
M106 S0
M106 S255
G1 X38.218 Y5.24 F180
M106 S0
M106 S255
G1 X38.218 Y4.439 F180
M106 S0
M106 S255
G1 X40.448 Y4.439 F180
M106 S0
M106 S255
G1 X40.448 Y3.901 F180
M106 S0
M106 S255
G1 X38.187 Y3.901 F180
M106 S0
M106 S255
G1 X38.187 Y3.624 F180
M106 S0
M106 S255
G1 X38.864 Y3.624 F180
M106 S0
M106 S255
G1 X38.864 Y3.131 F180
M106 S0
M106 S255
G1 X38.264 Y3.131 F180
M106 S0
M106 S255
G1 X38.264 Y2.854 F180
M106 S0
M106 S255
G1 X38.894 Y2.854 F180
M106 S0
M106 S255
G1 X38.894 Y2.531 F180
M106 S0
M106 S255
G1 X38.233 Y2.531 F180
M106 S0
M106 S255
G1 X38.233 Y0.069 F180
M106 S0
G0 X39.601 Y88.897 F6000
M106 S255
G1 X39.601 Y88.897 F180
M106 S0
M106 S255
G1 X41.153 Y88.897 F180
M106 S0
M106 S255
G1 X41.153 Y94.718 F180
M106 S0
M106 S255
G1 X40.462 Y94.718 F180
M106 S0
M106 S255
G1 X40.462 Y94.983 F180
M106 S0
G0 X26.984 Y56.873 F6000
M106 S255
G1 X26.984 Y56.873 F180
M106 S0
M106 S255
G1 X31.11 Y56.873 F180
M106 S0
M106 S255
G1 X31.11 Y45.806 F180
M106 S0
M106 S255
G1 X31.288 Y40.741 F180
M106 S0
M106 S255
G1 X25.356 Y40.741 F180
M106 S0
G0 X31.11 Y45.806 F6000
M106 S255
G1 X31.11 Y45.806 F180
M106 S0
M106 S255
G1 X25.163 Y45.806 F180
M106 S0
G0 X31.429 Y56.626 F6000
M106 S255
G1 X31.429 Y56.626 F180
M106 S0
M106 S255
G1 X31.429 Y45.799 F180
M106 S0
M106 S255
G1 X31.552 Y40.741 F180
M106 S0
G0 X31.429 Y56.626 F6000
M106 S255
G1 X31.429 Y56.626 F180
M106 S0
M106 S255
G1 X31.93 Y52.29 F180
M106 S0
M106 S255
G1 X31.93 Y44.613 F180
M106 S0
M106 S255
G1 X31.429 Y45.799 F180
M106 S0
G0 X31.93 Y44.613 F6000
M106 S255
G1 X31.93 Y44.613 F180
M106 S0
M106 S255
G1 X31.552 Y40.741 F180
M106 S0
M106 S255
G1 X31.288 Y40.741 F180
M106 S0
G0 X31.42 Y40.741 F6000
M106 S255
G1 X31.42 Y40.741 F180
M106 S0
M106 S255
G1 X31.42 Y34.205 F180
M106 S0
M106 S255
G1 X31.576 Y30.31 F180
M106 S0
M106 S255
G1 X25.232 Y30.31 F180
M106 S0
G0 X31.42 Y34.205 F6000
M106 S255
G1 X31.42 Y34.205 F180
M106 S0
M106 S255
G1 X25.473 Y34.205 F180
M106 S0
G0 X31.42 Y40.741 F6000
M106 S255
G1 X31.42 Y40.741 F180
M106 S0
M106 S255
G1 X32.333 Y37.316 F180
M106 S0
M106 S255
G1 X31.42 Y34.205 F180
M106 S0
G0 X32.333 Y37.316 F6000
M106 S255
G1 X32.333 Y37.316 F180
M106 S0
M106 S255
G1 X32.428 Y34.26 F180
M106 S0
M106 S255
G1 X31.576 Y30.31 F180
M106 S0
G0 X31.576 Y30.31 F6000
M106 S255
G1 X31.576 Y30.31 F180
M106 S0
M106 S255
G1 X31.576 Y28.578 F180
M106 S0
M106 S255
G1 X32.252 Y28.578 F180
M106 S0
M106 S255
G1 X33.497 Y27.738 F180
M106 S0
M106 S255
G1 X33.497 Y19.15 F180
M106 S0
M106 S255
G1 X33.497 Y18.364 F180
M106 S0
M106 S255
G1 X25.971 Y18.364 F180
M106 S0
G0 X33.497 Y19.15 F6000
M106 S255
G1 X33.497 Y19.15 F180
M106 S0
M106 S255
G1 X33.779 Y19.15 F180
M106 S0
M106 S255
G1 X33.779 Y18.915 F180
M106 S0
M106 S255
G1 X33.96 Y18.915 F180
M106 S0
M106 S255
G1 X33.96 Y18.554 F180
M106 S0
M106 S255
G1 X34.225 Y18.554 F180
M106 S0
M106 S255
G1 X34.225 Y18.161 F180
M106 S0
M106 S255
G1 X33.917 Y18.161 F180
M106 S0
M106 S255
G1 X33.917 Y16.186 F180
M106 S0
M106 S255
G1 X25.532 Y16.186 F180
M106 S0
G0 X33.616 Y16.186 F6000
M106 S255
G1 X33.616 Y16.186 F180
M106 S0
M106 S255
G1 X33.616 Y15.027 F180
M106 S0
M106 S255
G1 X25.476 Y15.027 F180
M106 S0
G0 X31.702 Y15.027 F6000
M106 S255
G1 X31.702 Y15.027 F180
M106 S0
M106 S255
G1 X31.702 Y13.348 F180
M106 S0
M106 S255
G1 X32.354 Y13.348 F180
M106 S0
M106 S255
G1 X32.354 Y12.686 F180
M106 S0
M106 S255
G1 X31.702 Y12.686 F180
M106 S0
M106 S255
G1 X31.702 Y11.1 F180
M106 S0
M106 S255
G1 X25.621 Y11.1 F180
M106 S0
G0 X35.396 Y11.812 F6000
M106 S255
G1 X35.396 Y11.812 F180
M106 S0
M106 S255
G1 X33.097 Y11.812 F180
M106 S0
G0 X52.932 Y101.873 F6000
M106 S255
G1 X52.932 Y101.873 F180
M106 S0
M106 S255
G1 X45.783 Y101.873 F180
M106 S0
G0 X50.564 Y200.013 F6000
M106 S255
G1 X50.564 Y200.013 F180
M106 S0
M106 S255
G1 X67.857 Y137.278 F180
M106 S0
G0 X23.357 Y190.131 F6000
M106 S255
G1 X23.357 Y190.131 F180
M106 S0
M106 S255
G1 X25.954 Y189.248 F180
M106 S0
M106 S255
G1 X23.357 Y189.248 F180
M106 S0
G0 X23.357 Y188.911 F6000
M106 S255
G1 X23.357 Y188.911 F180
M106 S0
M106 S255
G1 X25.347 Y188.911 F180
M106 S0
M106 S255
G1 X35.111 Y194.766 F180
M106 S0
M106 S255
G1 X35.322 Y195.281 F180
M106 S0
M106 S255
G1 X36.035 Y194.825 F180
M106 S0
M106 S255
G1 X35.708 Y194.076 F180
M106 S0
M106 S255
G1 X35.31 Y194.076 F180
M106 S0
M106 S255
G1 X27.871 Y189.078 F180
M106 S0
M106 S255
G1 X30.023 Y188.704 F180
M106 S0
M106 S255
G1 X31.403 Y188.704 F180
M106 S0
M106 S255
G1 X31.602 Y189.804 F180
M106 S0
M106 S255
G1 X32.83 Y188.423 F180
M106 S0
M106 S255
G1 X32.83 Y185.906 F180
M106 S0
M106 S255
G1 X32.14 Y185.906 F180
M106 S0
M106 S255
G1 X32.14 Y186.433 F180
M106 S0
M106 S255
G1 X31.193 Y186.433 F180
M106 S0
M106 S255
G1 X31.193 Y186.737 F180
M106 S0
M106 S255
G1 X32.105 Y186.737 F180
M106 S0
M106 S255
G1 X32.105 Y187.521 F180
M106 S0
M106 S255
G1 X27.555 Y187.521 F180
M106 S0
M106 S255
G1 X27.555 Y186.031 F180
M106 S0
M106 S255
G1 X26.01 Y186.031 F180
M106 S0
M106 S255
G1 X26.01 Y187.722 F180
M106 S0
M106 S255
G1 X23.357 Y187.953 F180
M106 S0
G0 X23.357 Y186.407 F6000
M106 S255
G1 X23.357 Y186.407 F180
M106 S0
M106 S255
G1 X26.01 Y186.407 F180
M106 S0
G0 X23.357 Y186.726 F6000
M106 S255
G1 X23.357 Y186.726 F180
M106 S0
M106 S255
G1 X26.01 Y186.726 F180
M106 S0
G0 X23.357 Y186.726 F6000
M106 S255
G1 X23.357 Y186.726 F180
M106 S0
M106 S255
G1 X26.01 Y187.299 F180
M106 S0
G0 X23.357 Y187.601 F6000
M106 S255
G1 X23.357 Y187.601 F180
M106 S0
M106 S255
G1 X24.475 Y187.408 F180
M106 S0
M106 S255
G1 X25.481 Y187.768 F180
M106 S0
G0 X29.613 Y190.248 F6000
M106 S255
G1 X29.613 Y190.248 F180
M106 S0
M106 S255
G1 X31.602 Y189.804 F180
M106 S0
G0 X28.836 Y189.727 F6000
M106 S255
G1 X28.836 Y189.727 F180
M106 S0
M106 S255
G1 X31.503 Y189.254 F180
M106 S0
G0 X29.827 Y188.738 F6000
M106 S255
G1 X29.827 Y188.738 F180
M106 S0
M106 S255
G1 X29.613 Y190.248 F180
M106 S0
G0 X35.111 Y194.766 F6000
M106 S255
G1 X35.111 Y194.766 F180
M106 S0
M106 S255
G1 X32.602 Y194.766 F180
M106 S0
M106 S255
G1 X32.602 Y195.003 F180
M106 S0
M106 S255
G1 X35.216 Y195.024 F180
M106 S0
G0 X32.602 Y195.003 F6000
M106 S255
G1 X32.602 Y195.003 F180
M106 S0
M106 S255
G1 X32.602 Y195.198 F180
M106 S0
M106 S255
G1 X32.157 Y195.198 F180
M106 S0
M106 S255
G1 X32.157 Y195.018 F180
M106 S0
M106 S255
G1 X31.893 Y195.018 F180
M106 S0
M106 S255
G1 X31.893 Y194.73 F180
M106 S0
M106 S255
G1 X32.157 Y194.73 F180
M106 S0
M106 S255
G1 X32.157 Y194.502 F180
M106 S0
M106 S255
G1 X32.602 Y194.502 F180
M106 S0
M106 S255
G1 X32.602 Y194.766 F180
M106 S0
G0 X23.357 Y178.702 F6000
M106 S255
G1 X23.357 Y178.702 F180
M106 S0
M106 S255
G1 X27.731 Y179.518 F180
M106 S0
M106 S255
G1 X27.731 Y180.626 F180
M106 S0
M106 S255
G1 X28.777 Y180.626 F180
M106 S0
M106 S255
G1 X28.777 Y179.579 F180
M106 S0
M106 S255
G1 X38.266 Y180.842 F180
M106 S0
M106 S255
G1 X38.266 Y181.328 F180
M106 S0
M106 S255
G1 X38.546 Y181.099 F180
M106 S0
M106 S255
G1 X41.079 Y181.232 F180
M106 S0
M106 S255
G1 X41.699 Y181.823 F180
M106 S0
M106 S255
G1 X42.061 Y181.823 F180
M106 S0
M106 S255
G1 X42.061 Y181.353 F180
M106 S0
M106 S255
G1 X42.713 Y181.353 F180
M106 S0
M106 S255
G1 X42.713 Y181.92 F180
M106 S0
M106 S255
G1 X43.099 Y181.92 F180
M106 S0
M106 S255
G1 X43.099 Y181.63 F180
M106 S0
M106 S255
G1 X43.364 Y181.63 F180
M106 S0
M106 S255
G1 X43.364 Y181.28 F180
M106 S0
M106 S255
G1 X43.087 Y181.28 F180
M106 S0
M106 S255
G1 X43.087 Y180.785 F180
M106 S0
M106 S255
G1 X42.218 Y180.785 F180
M106 S0
M106 S255
G1 X41.953 Y180.013 F180
M106 S0
M106 S255
G1 X41.712 Y180.013 F180
M106 S0
M106 S255
G1 X41.241 Y180.508 F180
M106 S0
M106 S255
G1 X39.091 Y180.155 F180
M106 S0
M106 S255
G1 X39.091 Y179.851 F180
M106 S0
M106 S255
G1 X38.697 Y179.851 F180
M106 S0
M106 S255
G1 X38.697 Y179.442 F180
M106 S0
M106 S255
G1 X38.334 Y179.442 F180
M106 S0
M106 S255
G1 X38.015 Y179.859 F180
M106 S0
M106 S255
G1 X33.235 Y179.054 F180
M106 S0
M106 S255
G1 X33.235 Y178.739 F180
M106 S0
M106 S255
G1 X34.181 Y178.739 F180
M106 S0
M106 S255
G1 X34.181 Y178.396 F180
M106 S0
M106 S255
G1 X31.261 Y177.229 F180
M106 S0
M106 S255
G1 X31.261 Y176.703 F180
M106 S0
M106 S255
G1 X30.355 Y176.703 F180
M106 S0
M106 S255
G1 X30.355 Y177.777 F180
M106 S0
M106 S255
G1 X29.357 Y177.777 F180
M106 S0
M106 S255
G1 X29.357 Y176.406 F180
M106 S0
M106 S255
G1 X29.083 Y176.406 F180
M106 S0
M106 S255
G1 X29.083 Y175.964 F180
M106 S0
M106 S255
G1 X27.652 Y175.964 F180
M106 S0
M106 S255
G1 X27.652 Y177.389 F180
M106 S0
M106 S255
G1 X23.357 Y178.111 F180
M106 S0
G0 X23.357 Y180.761 F6000
M106 S255
G1 X23.357 Y180.761 F180
M106 S0
M106 S255
G1 X27.731 Y179.518 F180
M106 S0
G0 X23.357 Y180.761 F6000
M106 S255
G1 X23.357 Y180.761 F180
M106 S0
M106 S255
G1 X26.607 Y179.308 F180
M106 S0
G0 X23.357 Y179.442 F6000
M106 S255
G1 X23.357 Y179.442 F180
M106 S0
M106 S255
G1 X25.386 Y179.854 F180
M106 S0
G0 X23.357 Y176.579 F6000
M106 S255
G1 X23.357 Y176.579 F180
M106 S0
M106 S255
G1 X27.652 Y177.389 F180
M106 S0
G0 X23.357 Y176.579 F6000
M106 S255
G1 X23.357 Y176.579 F180
M106 S0
M106 S255
G1 X25.821 Y177.697 F180
M106 S0
G0 X33.562 Y181.107 F6000
M106 S255
G1 X33.562 Y181.107 F180
M106 S0
M106 S255
G1 X33.562 Y181.542 F180
M106 S0
M106 S255
G1 X33.04 Y181.542 F180
M106 S0
M106 S255
G1 X33.04 Y181.181 F180
M106 S0
M106 S255
G1 X32.494 Y181.181 F180
M106 S0
M106 S255
G1 X32.494 Y180.933 F180
M106 S0
M106 S255
G1 X33.028 Y180.933 F180
M106 S0
M106 S255
G1 X33.028 Y180.585 F180
M106 S0
M106 S255
G1 X33.537 Y180.585 F180
M106 S0
M106 S255
G1 X33.537 Y180.961 F180
M106 S0
M106 S255
G1 X33.21 Y180.961 F180
M106 S0
M106 S255
G1 X33.21 Y181.107 F180
M106 S0
M106 S255
G1 X33.562 Y181.107 F180
M106 S0
G0 X33.562 Y181.324 F6000
M106 S255
G1 X33.562 Y181.324 F180
M106 S0
M106 S255
G1 X41.389 Y181.324 F180
M106 S0
G0 X33.537 Y180.773 F6000
M106 S255
G1 X33.537 Y180.773 F180
M106 S0
M106 S255
G1 X37.745 Y180.773 F180
M106 S0
G0 X34.597 Y45.545 F6000
M106 S255
G1 X34.597 Y45.545 F180
M106 S0
M106 S255
G1 X40.015 Y48.76 F180
M106 S0
M106 S255
G1 X44.172 Y50.781 F180
M106 S0
M106 S255
G1 X44.172 Y51.438 F180
M106 S0
M106 S255
G1 X44.575 Y51.438 F180
M106 S0
M106 S255
G1 X44.557 Y52.095 F180
M106 S0
M106 S255
G1 X44.942 Y52.095 F180
M106 S0
M106 S255
G1 X44.942 Y51.086 F180
M106 S0
M106 S255
G1 X44.99 Y49.915 F180
M106 S0
M106 S255
G1 X44.551 Y49.669 F180
M106 S0
M106 S255
G1 X34.645 Y43.387 F180
M106 S0
G0 X35.471 Y43.911 F6000
M106 S255
G1 X35.471 Y43.911 F180
M106 S0
M106 S255
G1 X38.254 Y42.842 F180
M106 S0
M106 S255
G1 X37.923 Y42.049 F180
M106 S0
M106 S255
G1 X34.645 Y43.387 F180
M106 S0
G0 X38.254 Y42.842 F6000
M106 S255
G1 X38.254 Y42.842 F180
M106 S0
M106 S255
G1 X44.551 Y49.669 F180
M106 S0
G0 X37.558 Y43.109 F6000
M106 S255
G1 X37.558 Y43.109 F180
M106 S0
M106 S255
G1 X44.551 Y49.669 F180
M106 S0
G0 X44.172 Y50.781 F6000
M106 S255
G1 X44.172 Y50.781 F180
M106 S0
M106 S255
G1 X34.95 Y50.781 F180
M106 S0
G0 X44.172 Y51.088 F6000
M106 S255
G1 X44.172 Y51.088 F180
M106 S0
M106 S255
G1 X34.95 Y51.088 F180
M106 S0
G0 X34.597 Y42.273 F6000
M106 S255
G1 X34.597 Y42.273 F180
M106 S0
M106 S255
G1 X37.375 Y42.273 F180
M106 S0
M106 S255
G1 X37.375 Y41.313 F180
M106 S0
M106 S255
G1 X34.597 Y41.313 F180
M106 S0
G0 X37.375 Y41.313 F6000
M106 S255
G1 X37.375 Y41.313 F180
M106 S0
M106 S255
G1 X37.484 Y40.345 F180
M106 S0
M106 S255
G1 X35.485 Y40.345 F180
M106 S0
G0 X34.597 Y43.96 F6000
M106 S255
G1 X34.597 Y43.96 F180
M106 S0
M106 S255
G1 X44.117 Y50.088 F180
M106 S0
M106 S255
G1 X44.117 Y50.754 F180
M106 S0
G0 X37.643 Y25.491 F6000
M106 S255
G1 X37.643 Y25.491 F180
M106 S0
M106 S255
G1 X47.304 Y23.247 F180
M106 S0
M106 S255
G1 X47.304 Y23.419 F180
M106 S0
M106 S255
G1 X47.557 Y23.419 F180
M106 S0
M106 S255
G1 X47.557 Y22.318 F180
M106 S0
M106 S255
G1 X47.308 Y22.318 F180
M106 S0
M106 S255
G1 X47.308 Y22.825 F180
M106 S0
M106 S255
G1 X37.24 Y24.303 F180
M106 S0
G0 X37.397 Y24.877 F6000
M106 S255
G1 X37.397 Y24.877 F180
M106 S0
M106 S255
G1 X47.3 Y23.001 F180
M106 S0
G0 X47.557 Y22.491 F6000
M106 S255
G1 X47.557 Y22.491 F180
M106 S0
M106 S255
G1 X48.631 Y21.734 F180
M106 S0
M106 S255
G1 X48.631 Y22.121 F180
M106 S0
M106 S255
G1 X47.557 Y23.103 F180
M106 S0
G0 X36.985 Y13.507 F6000
M106 S255
G1 X36.985 Y13.507 F180
M106 S0
M106 S255
G1 X48.97 Y9.455 F180
M106 S0
M106 S255
G1 X48.97 Y9.999 F180
M106 S0
M106 S255
G1 X49.785 Y9.67 F180
M106 S0
M106 S255
G1 X49.971 Y9.67 F180
M106 S0
M106 S255
G1 X49.971 Y10.128 F180
M106 S0
M106 S255
G1 X50.529 Y9.956 F180
M106 S0
M106 S255
G1 X50.529 Y9.112 F180
M106 S0
M106 S255
G1 X51.621 Y7.608 F180
M106 S0
M106 S255
G1 X51.091 Y7.608 F180
M106 S0
M106 S255
G1 X50.362 Y8.624 F180
M106 S0
M106 S255
G1 X50.047 Y8.624 F180
M106 S0
M106 S255
G1 X50.047 Y8.023 F180
M106 S0
M106 S255
G1 X49.733 Y8.023 F180
M106 S0
M106 S255
G1 X49.733 Y9.097 F180
M106 S0
M106 S255
G1 X48.803 Y9.097 F180
M106 S0
M106 S255
G1 X48.803 Y9.297 F180
M106 S0
M106 S255
G1 X36.985 Y12.896 F180
M106 S0
G0 X37.45 Y14.198 F6000
M106 S255
G1 X37.45 Y14.198 F180
M106 S0
M106 S255
G1 X48.97 Y9.727 F180
M106 S0
G0 X38.268 Y14.198 F6000
M106 S255
G1 X38.268 Y14.198 F180
M106 S0
M106 S255
G1 X48.97 Y9.999 F180
M106 S0
G0 X49.733 Y8.56 F6000
M106 S255
G1 X49.733 Y8.56 F180
M106 S0
M106 S255
G1 X38.156 Y8.56 F180
M106 S0
G0 X49.851 Y8.238 F6000
M106 S255
G1 X49.851 Y8.238 F180
M106 S0
M106 S255
G1 X38.156 Y8.238 F180
M106 S0
G0 X39.684 Y15.396 F6000
M106 S255
G1 X39.684 Y15.396 F180
M106 S0
M106 S255
G1 X49.971 Y10.128 F180
M106 S0
G0 X39.258 Y15.135 F6000
M106 S255
G1 X39.258 Y15.135 F180
M106 S0
M106 S255
G1 X49.971 Y10.128 F180
M106 S0
G0 X38.058 Y13.967 F6000
M106 S255
G1 X38.058 Y13.967 F180
M106 S0
M106 S255
G1 X38.058 Y13.145 F180
M106 S0
G0 X39.498 Y13.403 F6000
M106 S255
G1 X39.498 Y13.403 F180
M106 S0
M106 S255
G1 X39.498 Y12.658 F180
M106 S0
G0 X40.651 Y12.955 F6000
M106 S255
G1 X40.651 Y12.955 F180
M106 S0
M106 S255
G1 X40.651 Y12.268 F180
M106 S0
G0 X42.111 Y12.389 F6000
M106 S255
G1 X42.111 Y12.389 F180
M106 S0
M106 S255
G1 X42.111 Y11.774 F180
M106 S0
G0 X43.332 Y11.915 F6000
M106 S255
G1 X43.332 Y11.915 F180
M106 S0
M106 S255
G1 X43.332 Y11.361 F180
M106 S0
G0 X45.004 Y11.266 F6000
M106 S255
G1 X45.004 Y11.266 F180
M106 S0
M106 S255
G1 X45.004 Y10.796 F180
M106 S0
G0 X34.557 Y45.508 F6000
M106 S255
G1 X34.557 Y45.508 F180
M106 S0
M106 S255
G1 X36.96 Y45.508 F180
M106 S0
M106 S255
G1 X36.96 Y46.964 F180
M106 S0
M106 S255
G1 X39.271 Y46.964 F180
M106 S0
M106 S255
G1 X39.271 Y48.317 F180
M106 S0
M106 S255
G1 X41.378 Y48.317 F180
M106 S0
M106 S255
G1 X41.378 Y49.426 F180
M106 S0
M106 S255
G1 X43.067 Y49.426 F180
M106 S0
M106 S255
G1 X43.067 Y50.243 F180
M106 S0
G0 X36.947 Y45.479 F6000
M106 S255
G1 X36.947 Y45.479 F180
M106 S0
M106 S255
G1 X37.287 Y45.083 F180
M106 S0
G0 X39.278 Y46.964 F6000
M106 S255
G1 X39.278 Y46.964 F180
M106 S0
M106 S255
G1 X39.592 Y46.556 F180
M106 S0
G0 X41.379 Y48.332 F6000
M106 S255
G1 X41.379 Y48.332 F180
M106 S0
M106 S255
G1 X41.683 Y47.876 F180
M106 S0
G0 X43.078 Y49.424 F6000
M106 S255
G1 X43.078 Y49.424 F180
M106 S0
M106 S255
G1 X43.392 Y48.949 F180
M106 S0
G0 X44.094 Y50.108 F6000
M106 S255
G1 X44.094 Y50.108 F180
M106 S0
M106 S255
G1 X44.407 Y49.605 F180
M106 S0
G0 X35.669 Y46.181 F6000
M106 S255
G1 X35.669 Y46.181 F180
M106 S0
M106 S255
G1 X37.993 Y46.181 F180
M106 S0
M106 S255
G1 X37.993 Y47.56 F180
M106 S0
G0 X38.176 Y47.669 F6000
M106 S255
G1 X38.176 Y47.669 F180
M106 S0
M106 S255
G1 X40.285 Y47.669 F180
M106 S0
M106 S255
G1 X40.285 Y48.937 F180
M106 S0
M106 S255
G1 X42.283 Y48.937 F180
M106 S0
M106 S255
G1 X42.283 Y49.872 F180
M106 S0
M106 S255
G1 X43.784 Y49.872 F180
M106 S0
M106 S255
G1 X43.784 Y50.584 F180
M106 S0
G0 X21.477 Y62.397 F6000
M106 S255
G1 X21.477 Y62.397 F180
M106 S0
M106 S255
G1 X21.477 Y57.981 F180
M106 S0
M106 S255
G1 X23.737 Y49.971 F180
M106 S0
M106 S255
G1 X24.199 Y8.36 F180
M106 S0
M106 S255
G1 X26.638 Y8.17 F180
M106 S0
M106 S255
G1 X26.638 Y0.069 F180
M106 S0
G0 X13.685 Y97.95 F6000
M106 S255
G1 X13.685 Y97.95 F180
M106 S0
M106 S255
G1 X23.133 Y98.092 F180
M106 S0
G0 X13.685 Y99.207 F6000
M106 S255
G1 X13.685 Y99.207 F180
M106 S0
M106 S255
G1 X23.123 Y99.207 F180
M106 S0
G0 X13.685 Y101.661 F6000
M106 S255
G1 X13.685 Y101.661 F180
M106 S0
M106 S255
G1 X23.1 Y101.661 F180
M106 S0
G0 X13.685 Y103.013 F6000
M106 S255
G1 X13.685 Y103.013 F180
M106 S0
M106 S255
G1 X23.088 Y103.013 F180
M106 S0
G0 X12.384 Y200.013 F6000
M106 S255
G1 X12.384 Y200.013 F180
M106 S0
M106 S255
G1 X12.381 Y200.057 F180
M106 S0
G0 X-0.0 Y122.532 F6000
M106 S255
G1 X-0.0 Y122.532 F180
M106 S0
M106 S255
G1 X1.659 Y121.039 F180
M106 S0
M106 S255
G1 X12.09 Y126.171 F180
M106 S0
M106 S255
G1 X23.309 Y121.352 F180
M106 S0
M106 S255
G1 X34.376 Y126.38 F180
M106 S0
M106 S255
G1 X45.063 Y121.632 F180
M106 S0
M106 S255
G1 X56.563 Y126.519 F180
M106 S0
M106 S255
G1 X61.389 Y124.353 F180
M106 S0
M106 S255
G1 X56.296 Y121.77 F180
M106 S0
M106 S255
G1 X50.923 Y126.482 F180
M106 S0
M106 S0
