;GCode generated by Numa's program v0.0
G0 X36.329 Y47.115 F6000
M106 S255
G1 X36.329 Y47.115 F800
M106 S0
M106 S255
G1 X44.864 Y40.644 F800
M106 S0
M106 S255
G1 X49.136 Y37.405 F800
M106 S0
M106 S255
G1 X49.67 Y37.0 F800
M106 S0
M106 S255
G1 X49.937 Y36.797 F800
M106 S0
M106 S255
G1 X49.971 Y36.772 F800
M106 S0
M106 S255
G1 X49.987 Y36.759 F800
M106 S0
M106 S255
G1 X49.991 Y36.757 F800
M106 S0
M106 S255
G1 X49.992 Y36.757 F800
M106 S0
M106 S255
G1 X49.995 Y36.758 F800
M106 S0
M106 S255
G1 X50.015 Y36.768 F800
M106 S0
M106 S255
G1 X50.055 Y36.789 F800
M106 S0
M106 S255
G1 X50.134 Y36.831 F800
M106 S0
M106 S255
G1 X50.21 Y36.874 F800
M106 S0
M106 S255
G1 X50.357 Y36.966 F800
M106 S0
M106 S255
G1 X50.495 Y37.063 F800
M106 S0
M106 S255
G1 X50.627 Y37.165 F800
M106 S0
M106 S255
G1 X50.752 Y37.272 F800
M106 S0
M106 S255
G1 X50.871 Y37.383 F800
M106 S0
M106 S255
G1 X50.984 Y37.498 F800
M106 S0
M106 S255
G1 X51.092 Y37.617 F800
M106 S0
M106 S255
G1 X51.195 Y37.739 F800
M106 S0
M106 S255
G1 X51.294 Y37.863 F800
M106 S0
M106 S255
G1 X51.39 Y37.99 F800
M106 S0
M106 S255
G1 X51.483 Y38.118 F800
M106 S0
M106 S255
G1 X51.662 Y38.379 F800
M106 S0
M106 S255
G1 X52.008 Y38.903 F800
M106 S0
M106 S255
G1 X52.183 Y39.161 F800
M106 S0
M106 S255
G1 X52.274 Y39.287 F800
M106 S0
M106 S255
G1 X52.366 Y39.411 F800
M106 S0
M106 S255
G1 X52.462 Y39.532 F800
M106 S0
M106 S255
G1 X52.561 Y39.65 F800
M106 S0
M106 S255
G1 X52.664 Y39.764 F800
M106 S0
M106 S255
G1 X52.677 Y39.778 F800
M106 S0
M106 S255
G1 X52.684 Y39.785 F800
M106 S0
M106 S255
G1 X52.684 Y39.789 F800
M106 S0
M106 S255
G1 X52.681 Y39.794 F800
M106 S0
M106 S255
G1 X52.66 Y39.833 F800
M106 S0
M106 S255
G1 X52.617 Y39.91 F800
M106 S0
M106 S255
G1 X52.441 Y40.214 F800
M106 S0
M106 S255
G1 X52.259 Y40.512 F800
M106 S0
M106 S255
G1 X52.07 Y40.803 F800
M106 S0
M106 S255
G1 X51.875 Y41.087 F800
M106 S0
M106 S255
G1 X51.674 Y41.365 F800
M106 S0
M106 S255
G1 X51.466 Y41.636 F800
M106 S0
M106 S255
G1 X51.251 Y41.9 F800
M106 S0
M106 S255
G1 X51.03 Y42.157 F800
M106 S0
M106 S255
G1 X50.802 Y42.408 F800
M106 S0
M106 S255
G1 X50.568 Y42.651 F800
M106 S0
M106 S255
G1 X50.326 Y42.888 F800
M106 S0
M106 S255
G1 X50.078 Y43.118 F800
M106 S0
M106 S255
G1 X50.015 Y43.174 F800
M106 S0
M106 S255
G1 X49.983 Y43.202 F800
M106 S0
M106 S255
G1 X49.974 Y43.21 F800
M106 S0
M106 S255
G1 X49.961 Y43.221 F800
M106 S0
M106 S255
G1 X49.936 Y43.243 F800
M106 S0
M106 S255
G1 X49.733 Y43.42 F800
M106 S0
M106 S255
G1 X49.325 Y43.771 F800
M106 S0
M106 S255
G1 X48.915 Y44.12 F800
M106 S0
M106 S255
G1 X48.502 Y44.466 F800
M106 S0
M106 S255
G1 X47.673 Y45.152 F800
M106 S0
M106 S255
G1 X46.005 Y46.516 F800
M106 S0
M106 S255
G1 X45.174 Y47.202 F800
M106 S0
M106 S255
G1 X44.761 Y47.547 F800
M106 S0
M106 S255
G1 X44.709 Y47.59 F800
M106 S0
M106 S255
G1 X44.684 Y47.612 F800
M106 S0
M106 S255
G1 X44.678 Y47.616 F800
M106 S0
M106 S255
G1 X44.676 Y47.618 F800
M106 S0
M106 S255
G1 X44.673 Y47.621 F800
M106 S0
M106 S255
G1 X44.644 Y47.645 F800
M106 S0
M106 S255
G1 X44.588 Y47.694 F800
M106 S0
M106 S255
G1 X44.476 Y47.794 F800
M106 S0
M106 S255
G1 X44.366 Y47.896 F800
M106 S0
M106 S255
G1 X44.151 Y48.106 F800
M106 S0
M106 S255
G1 X43.941 Y48.32 F800
M106 S0
M106 S255
G1 X43.732 Y48.538 F800
M106 S0
M106 S255
G1 X43.524 Y48.755 F800
M106 S0
M106 S255
G1 X43.313 Y48.97 F800
M106 S0
G0 X73.6 Y56.448 F6000
M106 S255
G1 X73.6 Y56.448 F800
M106 S0
M106 S255
G1 X73.68 Y56.502 F800
M106 S0
M106 S255
G1 X73.763 Y56.558 F800
M106 S0
M106 S255
G1 X73.851 Y56.616 F800
M106 S0
M106 S255
G1 X73.862 Y56.624 F800
M106 S0
M106 S255
G1 X73.868 Y56.628 F800
M106 S0
M106 S255
G1 X73.869 Y56.628 F800
M106 S0
M106 S255
G1 X73.869 Y56.628 F800
M106 S0
M106 S255
G1 X73.867 Y56.63 F800
M106 S0
M106 S255
G1 X73.859 Y56.636 F800
M106 S0
M106 S255
G1 X73.843 Y56.649 F800
M106 S0
M106 S255
G1 X73.813 Y56.672 F800
M106 S0
M106 S255
G1 X73.785 Y56.693 F800
M106 S0
M106 S255
G1 X73.758 Y56.71 F800
M106 S0
M106 S255
G1 X73.734 Y56.725 F800
M106 S0
M106 S255
G1 X73.712 Y56.737 F800
M106 S0
M106 S255
G1 X73.691 Y56.747 F800
M106 S0
M106 S255
G1 X73.672 Y56.755 F800
M106 S0
M106 S255
G1 X73.655 Y56.76 F800
M106 S0
M106 S255
G1 X73.639 Y56.764 F800
M106 S0
M106 S255
G1 X73.625 Y56.765 F800
M106 S0
M106 S255
G1 X73.612 Y56.764 F800
M106 S0
M106 S255
G1 X73.6 Y56.761 F800
M106 S0
M106 S255
G1 X73.59 Y56.757 F800
M106 S0
M106 S255
G1 X73.581 Y56.751 F800
M106 S0
M106 S255
G1 X73.566 Y56.735 F800
M106 S0
M106 S255
G1 X73.555 Y56.714 F800
M106 S0
M106 S255
G1 X73.547 Y56.688 F800
M106 S0
M106 S255
G1 X73.542 Y56.658 F800
M106 S0
M106 S255
G1 X73.539 Y56.626 F800
M106 S0
M106 S255
G1 X73.537 Y56.556 F800
M106 S0
M106 S255
G1 X73.536 Y56.485 F800
M106 S0
M106 S255
G1 X73.534 Y56.45 F800
M106 S0
M106 S255
G1 X73.532 Y56.418 F800
M106 S0
M106 S255
G1 X73.527 Y56.389 F800
M106 S0
M106 S255
G1 X73.519 Y56.364 F800
M106 S0
M106 S255
G1 X73.508 Y56.343 F800
M106 S0
M106 S255
G1 X73.494 Y56.328 F800
M106 S0
M106 S255
G1 X73.485 Y56.323 F800
M106 S0
M106 S255
G1 X73.475 Y56.319 F800
M106 S0
M106 S255
G1 X73.463 Y56.317 F800
M106 S0
M106 S255
G1 X73.451 Y56.317 F800
M106 S0
M106 S255
G1 X73.436 Y56.319 F800
M106 S0
M106 S255
G1 X73.421 Y56.323 F800
M106 S0
M106 S255
G1 X73.417 Y56.324 F800
M106 S0
M106 S255
G1 X73.414 Y56.325 F800
M106 S0
M106 S255
G1 X73.414 Y56.325 F800
M106 S0
M106 S255
G1 X73.412 Y56.325 F800
M106 S0
M106 S255
G1 X73.402 Y56.324 F800
M106 S0
M106 S255
G1 X73.381 Y56.322 F800
M106 S0
M106 S255
G1 X73.362 Y56.323 F800
M106 S0
M106 S255
G1 X73.356 Y56.326 F800
M106 S0
M106 S255
G1 X73.352 Y56.332 F800
M106 S0
M106 S255
G1 X73.351 Y56.341 F800
M106 S0
M106 S255
G1 X73.352 Y56.351 F800
M106 S0
M106 S255
G1 X73.354 Y56.373 F800
M106 S0
M106 S255
G1 X73.353 Y56.381 F800
M106 S0
M106 S255
G1 X73.351 Y56.385 F800
M106 S0
M106 S255
G1 X73.35 Y56.386 F800
M106 S0
M106 S255
G1 X73.348 Y56.388 F800
M106 S0
M106 S255
G1 X73.344 Y56.394 F800
M106 S0
M106 S255
G1 X73.307 Y56.434 F800
M106 S0
M106 S255
G1 X73.229 Y56.51 F800
M106 S0
G0 X22.422 Y38.586 F6000
M106 S255
G1 X22.422 Y38.586 F800
M106 S0
M106 S255
G1 X22.508 Y38.499 F800
M106 S0
M106 S255
G1 X22.595 Y38.413 F800
M106 S0
M106 S255
G1 X22.682 Y38.326 F800
M106 S0
M106 S255
G1 X22.768 Y38.24 F800
M106 S0
M106 S255
G1 X22.855 Y38.153 F800
M106 S0
G0 X44.735 Y101.26 F6000
M106 S255
G1 X44.735 Y101.26 F800
M106 S0
M106 S255
G1 X44.783 Y101.14 F800
M106 S0
M106 S255
G1 X44.836 Y101.025 F800
M106 S0
M106 S255
G1 X44.894 Y100.915 F800
M106 S0
M106 S255
G1 X44.955 Y100.809 F800
M106 S0
M106 S255
G1 X45.021 Y100.708 F800
M106 S0
M106 S255
G1 X45.091 Y100.61 F800
M106 S0
M106 S255
G1 X45.164 Y100.516 F800
M106 S0
M106 S255
G1 X45.241 Y100.425 F800
M106 S0
M106 S255
G1 X45.321 Y100.338 F800
M106 S0
M106 S255
G1 X45.405 Y100.254 F800
M106 S0
M106 S255
G1 X45.491 Y100.173 F800
M106 S0
M106 S255
G1 X45.581 Y100.095 F800
M106 S0
M106 S255
G1 X45.673 Y100.02 F800
M106 S0
M106 S255
G1 X45.768 Y99.946 F800
M106 S0
M106 S255
G1 X45.865 Y99.875 F800
M106 S0
M106 S255
G1 X45.964 Y99.806 F800
M106 S0
M106 S255
G1 X46.169 Y99.673 F800
M106 S0
M106 S255
G1 X46.38 Y99.545 F800
M106 S0
M106 S255
G1 X46.488 Y99.482 F800
M106 S0
M106 S255
G1 X46.515 Y99.467 F800
M106 S0
M106 S255
G1 X46.522 Y99.463 F800
M106 S0
M106 S255
G1 X46.523 Y99.462 F800
M106 S0
M106 S255
G1 X46.529 Y99.459 F800
M106 S0
M106 S255
G1 X46.543 Y99.45 F800
M106 S0
M106 S255
G1 X46.601 Y99.417 F800
M106 S0
M106 S255
G1 X46.834 Y99.285 F800
M106 S0
M106 S255
G1 X47.763 Y98.755 F800
M106 S0
M106 S255
G1 X49.62 Y97.693 F800
M106 S0
M106 S255
G1 X51.475 Y96.629 F800
M106 S0
M106 S255
G1 X53.328 Y95.561 F800
M106 S0
M106 S255
G1 X55.18 Y94.491 F800
M106 S0
M106 S255
G1 X56.106 Y93.955 F800
M106 S0
M106 S255
G1 X56.337 Y93.821 F800
M106 S0
M106 S255
G1 X56.395 Y93.788 F800
M106 S0
M106 S255
G1 X56.409 Y93.779 F800
M106 S0
M106 S255
G1 X56.415 Y93.776 F800
M106 S0
M106 S255
G1 X56.417 Y93.775 F800
M106 S0
M106 S255
G1 X56.426 Y93.77 F800
M106 S0
M106 S255
G1 X56.461 Y93.749 F800
M106 S0
M106 S255
G1 X56.601 Y93.664 F800
M106 S0
M106 S255
G1 X56.737 Y93.577 F800
M106 S0
M106 S255
G1 X56.87 Y93.486 F800
M106 S0
M106 S255
G1 X57.001 Y93.392 F800
M106 S0
M106 S255
G1 X57.128 Y93.295 F800
M106 S0
M106 S255
G1 X57.252 Y93.195 F800
M106 S0
M106 S255
G1 X57.373 Y93.092 F800
M106 S0
M106 S255
G1 X57.49 Y92.985 F800
M106 S0
M106 S255
G1 X57.605 Y92.876 F800
M106 S0
M106 S255
G1 X57.716 Y92.763 F800
M106 S0
M106 S255
G1 X57.823 Y92.647 F800
M106 S0
M106 S255
G1 X57.927 Y92.528 F800
M106 S0
M106 S255
G1 X58.028 Y92.406 F800
M106 S0
M106 S255
G1 X58.125 Y92.28 F800
M106 S0
M106 S255
G1 X58.219 Y92.151 F800
M106 S0
M106 S255
G1 X58.308 Y92.019 F800
M106 S0
M106 S255
G1 X58.395 Y91.883 F800
M106 S0
M106 S255
G1 X58.477 Y91.744 F800
M106 S0
M106 S255
G1 X58.556 Y91.602 F800
M106 S0
M106 S255
G1 X58.631 Y91.457 F800
M106 S0
M106 S255
G1 X58.702 Y91.308 F800
M106 S0
M106 S255
G1 X59.206 Y90.225 F800
M106 S0
M106 S255
G1 X59.454 Y89.682 F800
M106 S0
M106 S255
G1 X59.574 Y89.409 F800
M106 S0
M106 S255
G1 X59.691 Y89.135 F800
M106 S0
M106 S255
G1 X59.804 Y88.859 F800
M106 S0
M106 S255
G1 X59.911 Y88.582 F800
M106 S0
M106 S255
G1 X59.963 Y88.442 F800
M106 S0
M106 S255
G1 X59.976 Y88.408 F800
M106 S0
M106 S255
G1 X59.979 Y88.399 F800
M106 S0
M106 S255
G1 X59.981 Y88.393 F800
M106 S0
M106 S255
G1 X59.984 Y88.384 F800
M106 S0
M106 S255
G1 X59.997 Y88.348 F800
M106 S0
M106 S255
G1 X60.04 Y88.2 F800
M106 S0
M106 S255
G1 X60.074 Y88.05 F800
M106 S0
M106 S255
G1 X60.1 Y87.896 F800
M106 S0
M106 S255
G1 X60.12 Y87.74 F800
M106 S0
M106 S255
G1 X60.135 Y87.582 F800
M106 S0
M106 S255
G1 X60.154 Y87.264 F800
M106 S0
M106 S255
G1 X60.17 Y86.945 F800
M106 S0
M106 S255
G1 X60.18 Y86.787 F800
M106 S0
M106 S255
G1 X60.183 Y86.748 F800
M106 S0
M106 S255
G1 X60.184 Y86.738 F800
M106 S0
M106 S255
G1 X60.184 Y86.735 F800
M106 S0
M106 S255
G1 X60.185 Y86.73 F800
M106 S0
M106 S255
G1 X60.186 Y86.716 F800
M106 S0
M106 S255
G1 X60.19 Y86.661 F800
M106 S0
M106 S255
G1 X60.208 Y86.44 F800
M106 S0
M106 S255
G1 X60.237 Y85.998 F800
M106 S0
M106 S255
G1 X60.257 Y85.556 F800
M106 S0
M106 S255
G1 X60.263 Y85.336 F800
M106 S0
M106 S255
G1 X60.265 Y85.115 F800
M106 S0
M106 S255
G1 X60.264 Y84.895 F800
M106 S0
M106 S255
G1 X60.258 Y84.676 F800
M106 S0
M106 S255
G1 X60.248 Y84.457 F800
M106 S0
M106 S255
G1 X60.234 Y84.239 F800
M106 S0
M106 S255
G1 X60.213 Y84.021 F800
M106 S0
M106 S255
G1 X60.188 Y83.804 F800
M106 S0
M106 S255
G1 X60.156 Y83.588 F800
M106 S0
M106 S255
G1 X60.118 Y83.373 F800
M106 S0
M106 S255
G1 X60.073 Y83.159 F800
M106 S0
M106 S255
G1 X60.02 Y82.947 F800
M106 S0
M106 S255
G1 X59.961 Y82.735 F800
M106 S0
M106 S255
G1 X59.893 Y82.525 F800
M106 S0
M106 S255
G1 X59.817 Y82.316 F800
M106 S0
M106 S255
G1 X59.733 Y82.108 F800
M106 S0
M106 S255
G1 X59.586 Y81.781 F800
M106 S0
M106 S255
G1 X59.43 Y81.456 F800
M106 S0
M106 S255
G1 X59.266 Y81.134 F800
M106 S0
M106 S255
G1 X59.096 Y80.815 F800
M106 S0
M106 S255
G1 X58.921 Y80.496 F800
M106 S0
M106 S255
G1 X58.742 Y80.177 F800
M106 S0
M106 S255
G1 X58.377 Y79.538 F800
M106 S0
M106 S255
G1 X58.194 Y79.215 F800
M106 S0
M106 S255
G1 X58.012 Y78.889 F800
M106 S0
M106 S255
G1 X57.921 Y78.725 F800
M106 S0
M106 S255
G1 X57.899 Y78.684 F800
M106 S0
M106 S255
G1 X57.893 Y78.673 F800
M106 S0
M106 S255
G1 X57.892 Y78.669 F800
M106 S0
M106 S255
G1 X57.892 Y78.667 F800
M106 S0
M106 S255
G1 X57.894 Y78.658 F800
M106 S0
M106 S255
G1 X57.899 Y78.624 F800
M106 S0
M106 S255
G1 X57.907 Y78.553 F800
M106 S0
M106 S255
G1 X57.911 Y78.48 F800
M106 S0
M106 S255
G1 X57.913 Y78.327 F800
M106 S0
M106 S255
G1 X57.909 Y78.169 F800
M106 S0
M106 S255
G1 X57.907 Y78.006 F800
M106 S0
M106 S255
G1 X57.912 Y77.841 F800
M106 S0
M106 S255
G1 X57.92 Y77.758 F800
M106 S0
M106 S255
G1 X57.931 Y77.675 F800
M106 S0
M106 S255
G1 X57.948 Y77.592 F800
M106 S0
M106 S255
G1 X57.97 Y77.51 F800
M106 S0
M106 S255
G1 X57.999 Y77.429 F800
M106 S0
M106 S255
G1 X58.035 Y77.348 F800
M106 S0
M106 S255
G1 X58.079 Y77.269 F800
M106 S0
M106 S255
G1 X58.132 Y77.191 F800
M106 S0
M106 S255
G1 X58.195 Y77.115 F800
M106 S0
M106 S255
G1 X58.268 Y77.041 F800
M106 S0
M106 S255
G1 X58.308 Y77.004 F800
M106 S0
M106 S255
G1 X58.319 Y76.995 F800
M106 S0
M106 S255
G1 X58.321 Y76.993 F800
M106 S0
M106 S255
G1 X58.32 Y76.991 F800
M106 S0
M106 S255
G1 X58.315 Y76.989 F800
M106 S0
M106 S255
G1 X58.293 Y76.979 F800
M106 S0
M106 S255
G1 X58.209 Y76.939 F800
M106 S0
M106 S255
G1 X58.133 Y76.895 F800
M106 S0
M106 S255
G1 X58.064 Y76.848 F800
M106 S0
M106 S255
G1 X58.003 Y76.797 F800
M106 S0
M106 S255
G1 X57.947 Y76.744 F800
M106 S0
M106 S255
G1 X57.898 Y76.688 F800
M106 S0
M106 S255
G1 X57.855 Y76.63 F800
M106 S0
M106 S255
G1 X57.817 Y76.569 F800
M106 S0
M106 S255
G1 X57.784 Y76.505 F800
M106 S0
M106 S255
G1 X57.756 Y76.439 F800
M106 S0
M106 S255
G1 X57.732 Y76.372 F800
M106 S0
M106 S255
G1 X57.712 Y76.302 F800
M106 S0
M106 S255
G1 X57.695 Y76.23 F800
M106 S0
M106 S255
G1 X57.681 Y76.157 F800
M106 S0
M106 S255
G1 X57.671 Y76.082 F800
M106 S0
M106 S255
G1 X57.656 Y75.929 F800
M106 S0
M106 S255
G1 X57.648 Y75.771 F800
M106 S0
M106 S255
G1 X57.643 Y75.609 F800
M106 S0
M106 S255
G1 X57.635 Y75.406 F800
M106 S0
M106 S255
G1 X57.624 Y75.203 F800
M106 S0
M106 S255
G1 X57.592 Y74.798 F800
M106 S0
M106 S255
G1 X57.514 Y73.987 F800
M106 S0
M106 S255
G1 X57.481 Y73.581 F800
M106 S0
M106 S255
G1 X57.475 Y73.479 F800
M106 S0
M106 S255
G1 X57.473 Y73.454 F800
M106 S0
M106 S255
G1 X57.473 Y73.443 F800
M106 S0
M106 S255
G1 X57.472 Y73.434 F800
M106 S0
M106 S255
G1 X57.47 Y73.399 F800
M106 S0
M106 S255
G1 X57.465 Y73.261 F800
M106 S0
M106 S255
G1 X57.459 Y72.982 F800
M106 S0
M106 S255
G1 X57.46 Y72.7 F800
M106 S0
M106 S255
G1 X57.463 Y72.415 F800
M106 S0
M106 S255
G1 X57.467 Y72.125 F800
M106 S0
M106 S255
G1 X57.467 Y71.978 F800
M106 S0
M106 S255
G1 X57.468 Y71.941 F800
M106 S0
M106 S255
G1 X57.468 Y71.932 F800
M106 S0
M106 S255
G1 X57.468 Y71.929 F800
M106 S0
M106 S255
G1 X57.469 Y71.928 F800
M106 S0
M106 S255
G1 X57.472 Y71.928 F800
M106 S0
M106 S255
G1 X57.486 Y71.927 F800
M106 S0
M106 S255
G1 X57.54 Y71.922 F800
M106 S0
M106 S255
G1 X57.647 Y71.914 F800
M106 S0
M106 S255
G1 X57.753 Y71.91 F800
M106 S0
M106 S255
G1 X57.857 Y71.908 F800
M106 S0
M106 S255
G1 X57.961 Y71.91 F800
M106 S0
M106 S255
G1 X58.063 Y71.914 F800
M106 S0
M106 S255
G1 X58.163 Y71.921 F800
M106 S0
M106 S255
G1 X58.362 Y71.944 F800
M106 S0
M106 S255
G1 X58.556 Y71.976 F800
M106 S0
M106 S255
G1 X58.746 Y72.016 F800
M106 S0
M106 S255
G1 X58.932 Y72.065 F800
M106 S0
M106 S255
G1 X59.115 Y72.12 F800
M106 S0
M106 S255
G1 X59.296 Y72.182 F800
M106 S0
M106 S255
G1 X59.474 Y72.249 F800
M106 S0
M106 S255
G1 X59.649 Y72.32 F800
M106 S0
M106 S255
G1 X59.823 Y72.395 F800
M106 S0
M106 S255
G1 X59.995 Y72.472 F800
M106 S0
M106 S255
G1 X60.677 Y72.789 F800
M106 S0
M106 S255
G1 X61.017 Y72.939 F800
M106 S0
M106 S255
G1 X61.189 Y73.009 F800
M106 S0
M106 S255
G1 X61.362 Y73.075 F800
M106 S0
G0 X39.296 Y63.989 F6000
M106 S255
G1 X39.296 Y63.989 F800
M106 S0
M106 S255
G1 X39.26 Y63.998 F800
M106 S0
M106 S255
G1 X39.225 Y64.007 F800
M106 S0
M106 S255
G1 X39.19 Y64.016 F800
M106 S0
M106 S255
G1 X39.154 Y64.024 F800
M106 S0
M106 S255
G1 X39.119 Y64.033 F800
M106 S0
M106 S255
G1 X39.084 Y64.042 F800
M106 S0
M106 S255
G1 X39.048 Y64.051 F800
M106 S0
M106 S255
G1 X39.013 Y64.06 F800
M106 S0
M106 S255
G1 X38.978 Y64.069 F800
M106 S0
M106 S255
G1 X38.943 Y64.077 F800
M106 S0
M106 S255
G1 X38.907 Y64.086 F800
M106 S0
M106 S255
G1 X38.872 Y64.095 F800
M106 S0
M106 S255
G1 X38.837 Y64.104 F800
M106 S0
M106 S255
G1 X38.801 Y64.113 F800
M106 S0
G0 X54.501 Y105.772 F6000
M106 S255
G1 X54.501 Y105.772 F800
M106 S0
M106 S255
G1 X54.452 Y105.703 F800
M106 S0
M106 S255
G1 X54.401 Y105.637 F800
M106 S0
M106 S255
G1 X54.296 Y105.514 F800
M106 S0
M106 S255
G1 X54.186 Y105.401 F800
M106 S0
M106 S255
G1 X54.07 Y105.297 F800
M106 S0
M106 S255
G1 X53.95 Y105.202 F800
M106 S0
M106 S255
G1 X53.825 Y105.115 F800
M106 S0
M106 S255
G1 X53.697 Y105.036 F800
M106 S0
M106 S255
G1 X53.565 Y104.964 F800
M106 S0
M106 S255
G1 X53.43 Y104.897 F800
M106 S0
M106 S255
G1 X53.292 Y104.836 F800
M106 S0
M106 S255
G1 X53.152 Y104.78 F800
M106 S0
M106 S255
G1 X53.009 Y104.727 F800
M106 S0
M106 S255
G1 X52.721 Y104.631 F800
M106 S0
M106 S255
G1 X52.428 Y104.542 F800
M106 S0
M106 S255
G1 X52.135 Y104.454 F800
M106 S0
M106 S255
G1 X51.845 Y104.363 F800
M106 S0
M106 S255
G1 X51.702 Y104.314 F800
M106 S0
M106 S255
G1 X51.666 Y104.301 F800
M106 S0
M106 S255
G1 X51.628 Y104.287 F800
M106 S0
M106 S255
G1 X51.549 Y104.259 F800
M106 S0
M106 S255
G1 X51.234 Y104.147 F800
M106 S0
M106 S255
G1 X50.599 Y103.929 F800
M106 S0
M106 S255
G1 X49.962 Y103.719 F800
M106 S0
M106 S255
G1 X49.323 Y103.515 F800
M106 S0
M106 S255
G1 X48.683 Y103.315 F800
M106 S0
M106 S255
G1 X48.363 Y103.215 F800
M106 S0
M106 S255
G1 X48.283 Y103.191 F800
M106 S0
M106 S255
G1 X48.263 Y103.184 F800
M106 S0
M106 S255
G1 X48.255 Y103.182 F800
M106 S0
M106 S255
G1 X48.252 Y103.181 F800
M106 S0
M106 S255
G1 X48.238 Y103.177 F800
M106 S0
M106 S255
G1 X48.185 Y103.161 F800
M106 S0
M106 S255
G1 X48.08 Y103.129 F800
M106 S0
M106 S255
G1 X47.978 Y103.095 F800
M106 S0
M106 S255
G1 X47.88 Y103.058 F800
M106 S0
M106 S255
G1 X47.789 Y103.015 F800
M106 S0
M106 S255
G1 X47.704 Y102.964 F800
M106 S0
M106 S255
G1 X47.665 Y102.934 F800
M106 S0
M106 S255
G1 X47.629 Y102.902 F800
M106 S0
M106 S255
G1 X47.594 Y102.866 F800
M106 S0
M106 S255
G1 X47.563 Y102.826 F800
M106 S0
M106 S255
G1 X47.534 Y102.783 F800
M106 S0
M106 S255
G1 X47.508 Y102.736 F800
M106 S0
M106 S255
G1 X47.486 Y102.684 F800
M106 S0
M106 S255
G1 X47.467 Y102.627 F800
M106 S0
M106 S255
G1 X47.451 Y102.565 F800
M106 S0
M106 S255
G1 X47.439 Y102.498 F800
M106 S0
M106 S255
G1 X47.429 Y102.465 F800
M106 S0
M106 S255
G1 X47.411 Y102.43 F800
M106 S0
M106 S255
G1 X47.386 Y102.396 F800
M106 S0
M106 S255
G1 X47.355 Y102.362 F800
M106 S0
M106 S255
G1 X47.32 Y102.329 F800
M106 S0
M106 S255
G1 X47.28 Y102.298 F800
M106 S0
M106 S255
G1 X47.238 Y102.269 F800
M106 S0
M106 S255
G1 X47.195 Y102.244 F800
M106 S0
M106 S255
G1 X47.151 Y102.222 F800
M106 S0
M106 S255
G1 X47.108 Y102.204 F800
M106 S0
M106 S255
G1 X47.088 Y102.197 F800
M106 S0
M106 S255
G1 X47.083 Y102.195 F800
M106 S0
M106 S255
G1 X47.082 Y102.195 F800
M106 S0
M106 S255
G1 X47.081 Y102.195 F800
M106 S0
M106 S255
G1 X47.078 Y102.194 F800
M106 S0
M106 S255
G1 X47.066 Y102.19 F800
M106 S0
M106 S255
G1 X47.022 Y102.177 F800
M106 S0
M106 S255
G1 X46.844 Y102.122 F800
M106 S0
M106 S255
G1 X46.132 Y101.906 F800
M106 S0
M106 S255
G1 X43.282 Y101.043 F800
M106 S0
M106 S255
G1 X40.432 Y100.185 F800
M106 S0
M106 S255
G1 X39.719 Y99.971 F800
M106 S0
M106 S255
G1 X39.541 Y99.917 F800
M106 S0
M106 S255
G1 X39.496 Y99.904 F800
M106 S0
M106 S255
G1 X39.485 Y99.901 F800
M106 S0
M106 S255
G1 X39.481 Y99.899 F800
M106 S0
M106 S255
G1 X39.481 Y99.899 F800
M106 S0
M106 S255
G1 X39.479 Y99.899 F800
M106 S0
M106 S255
G1 X39.473 Y99.897 F800
M106 S0
M106 S255
G1 X39.446 Y99.889 F800
M106 S0
M106 S255
G1 X39.342 Y99.855 F800
M106 S0
M106 S255
G1 X38.925 Y99.715 F800
M106 S0
G0 X42.572 Y78.391 F6000
M106 S255
G1 X42.572 Y78.391 F800
M106 S0
M106 S255
G1 X42.679 Y78.015 F800
M106 S0
M106 S255
G1 X42.788 Y77.635 F800
M106 S0
M106 S255
G1 X42.815 Y77.539 F800
M106 S0
M106 S255
G1 X42.829 Y77.49 F800
M106 S0
M106 S255
G1 X42.836 Y77.466 F800
M106 S0
M106 S255
G1 X42.838 Y77.46 F800
M106 S0
M106 S255
G1 X42.838 Y77.457 F800
M106 S0
M106 S255
G1 X42.845 Y77.449 F800
M106 S0
M106 S255
G1 X42.875 Y77.416 F800
M106 S0
M106 S255
G1 X42.998 Y77.294 F800
M106 S0
M106 S255
G1 X43.126 Y77.183 F800
M106 S0
M106 S255
G1 X43.258 Y77.083 F800
M106 S0
M106 S255
G1 X43.395 Y76.993 F800
M106 S0
M106 S255
G1 X43.537 Y76.913 F800
M106 S0
M106 S255
G1 X43.682 Y76.84 F800
M106 S0
M106 S255
G1 X43.83 Y76.775 F800
M106 S0
M106 S255
G1 X43.981 Y76.716 F800
M106 S0
M106 S255
G1 X44.135 Y76.663 F800
M106 S0
M106 S255
G1 X44.291 Y76.615 F800
M106 S0
M106 S255
G1 X44.607 Y76.529 F800
M106 S0
M106 S255
G1 X45.249 Y76.375 F800
M106 S0
M106 S255
G1 X45.568 Y76.293 F800
M106 S0
M106 S255
G1 X45.726 Y76.248 F800
M106 S0
M106 S255
G1 X45.803 Y76.225 F800
M106 S0
M106 S255
G1 X45.877 Y76.202 F800
M106 S0
M106 S255
G1 X46.466 Y76.023 F800
M106 S0
M106 S255
G1 X47.056 Y75.848 F800
M106 S0
M106 S255
G1 X48.236 Y75.496 F800
M106 S0
M106 S255
G1 X48.531 Y75.405 F800
M106 S0
M106 S255
G1 X48.677 Y75.359 F800
M106 S0
M106 S255
G1 X48.687 Y75.356 F800
M106 S0
M106 S255
G1 X48.691 Y75.355 F800
M106 S0
M106 S255
G1 X48.696 Y75.354 F800
M106 S0
M106 S255
G1 X48.706 Y75.35 F800
M106 S0
M106 S255
G1 X48.726 Y75.344 F800
M106 S0
M106 S255
G1 X48.897 Y75.29 F800
M106 S0
M106 S255
G1 X49.071 Y75.226 F800
M106 S0
M106 S255
G1 X49.153 Y75.19 F800
M106 S0
M106 S255
G1 X49.228 Y75.149 F800
M106 S0
M106 S255
G1 X49.295 Y75.105 F800
M106 S0
M106 S255
G1 X49.35 Y75.055 F800
M106 S0
M106 S255
G1 X49.373 Y75.029 F800
M106 S0
M106 S255
G1 X49.392 Y75.001 F800
M106 S0
M106 S255
G1 X49.4 Y74.986 F800
M106 S0
M106 S255
G1 X49.404 Y74.979 F800
M106 S0
M106 S255
G1 X49.41 Y74.966 F800
M106 S0
M106 S255
G1 X49.434 Y74.912 F800
M106 S0
M106 S255
G1 X49.481 Y74.799 F800
M106 S0
M106 S255
G1 X49.524 Y74.681 F800
M106 S0
M106 S255
G1 X49.562 Y74.559 F800
M106 S0
M106 S255
G1 X49.593 Y74.435 F800
M106 S0
M106 S255
G1 X49.616 Y74.312 F800
M106 S0
M106 S255
G1 X49.63 Y74.189 F800
M106 S0
M106 S255
G1 X49.633 Y74.07 F800
M106 S0
M106 S255
G1 X49.629 Y74.013 F800
M106 S0
M106 S255
G1 X49.623 Y73.956 F800
M106 S0
M106 S255
G1 X49.613 Y73.902 F800
M106 S0
M106 S255
G1 X49.599 Y73.849 F800
M106 S0
M106 S255
G1 X49.595 Y73.836 F800
M106 S0
M106 S255
G1 X49.593 Y73.83 F800
M106 S0
M106 S255
G1 X49.592 Y73.827 F800
M106 S0
M106 S255
G1 X49.591 Y73.824 F800
M106 S0
M106 S255
G1 X49.589 Y73.818 F800
M106 S0
M106 S255
G1 X49.555 Y73.714 F800
M106 S0
M106 S255
G1 X49.493 Y73.505 F800
M106 S0
M106 S255
G1 X49.438 Y73.296 F800
M106 S0
M106 S255
G1 X49.391 Y73.087 F800
M106 S0
M106 S255
G1 X49.35 Y72.877 F800
M106 S0
M106 S255
G1 X49.316 Y72.667 F800
M106 S0
M106 S255
G1 X49.288 Y72.457 F800
M106 S0
M106 S255
G1 X49.265 Y72.246 F800
M106 S0
M106 S255
G1 X49.248 Y72.035 F800
M106 S0
M106 S255
G1 X49.235 Y71.824 F800
M106 S0
M106 S255
G1 X49.226 Y71.613 F800
M106 S0
M106 S255
G1 X49.221 Y71.402 F800
M106 S0
M106 S255
G1 X49.22 Y70.979 F800
M106 S0
M106 S255
G1 X49.229 Y70.555 F800
M106 S0
M106 S255
G1 X49.244 Y70.132 F800
M106 S0
M106 S255
G1 X49.262 Y69.709 F800
M106 S0
M106 S255
G1 X49.263 Y69.682 F800
M106 S0
M106 S255
G1 X49.264 Y69.661 F800
M106 S0
M106 S255
G1 X49.265 Y69.622 F800
M106 S0
M106 S255
G1 X49.269 Y69.543 F800
M106 S0
M106 S255
G1 X49.277 Y69.385 F800
M106 S0
M106 S255
G1 X49.296 Y69.07 F800
M106 S0
M106 S255
G1 X49.321 Y68.754 F800
M106 S0
M106 S255
G1 X49.35 Y68.439 F800
M106 S0
M106 S255
G1 X49.385 Y68.124 F800
M106 S0
M106 S255
G1 X49.426 Y67.81 F800
M106 S0
M106 S255
G1 X49.472 Y67.497 F800
M106 S0
M106 S255
G1 X49.524 Y67.185 F800
M106 S0
M106 S255
G1 X49.583 Y66.875 F800
M106 S0
M106 S255
G1 X49.615 Y66.721 F800
M106 S0
M106 S255
G1 X49.631 Y66.644 F800
M106 S0
M106 S255
G1 X49.639 Y66.605 F800
M106 S0
M106 S255
G1 X49.643 Y66.587 F800
M106 S0
M106 S255
G1 X49.647 Y66.574 F800
M106 S0
M106 S255
G1 X49.703 Y66.353 F800
M106 S0
M106 S255
G1 X49.77 Y66.135 F800
M106 S0
M106 S255
G1 X49.847 Y65.919 F800
M106 S0
M106 S255
G1 X49.932 Y65.704 F800
M106 S0
M106 S255
G1 X50.023 Y65.491 F800
M106 S0
M106 S255
G1 X50.217 Y65.068 F800
M106 S0
M106 S255
G1 X50.415 Y64.648 F800
M106 S0
M106 S255
G1 X50.464 Y64.543 F800
M106 S0
M106 S255
G1 X50.488 Y64.49 F800
M106 S0
M106 S255
G1 X50.505 Y64.452 F800
M106 S0
M106 S255
G1 X50.575 Y64.305 F800
M106 S0
M106 S255
G1 X50.723 Y64.013 F800
M106 S0
M106 S255
G1 X50.883 Y63.719 F800
M106 S0
M106 S255
G1 X51.05 Y63.417 F800
M106 S0
M106 S255
G1 X51.136 Y63.262 F800
M106 S0
M106 S255
G1 X51.223 Y63.103 F800
M106 S0
M106 S255
G1 X51.267 Y63.022 F800
M106 S0
M106 S255
G1 X51.277 Y63.003 F800
M106 S0
M106 S255
G1 X51.274 Y63.0 F800
M106 S0
M106 S255
G1 X51.268 Y62.993 F800
M106 S0
M106 S255
G1 X51.244 Y62.968 F800
M106 S0
M106 S255
G1 X51.195 Y62.917 F800
M106 S0
M106 S255
G1 X51.142 Y62.861 F800
M106 S0
M106 S255
G1 X51.082 Y62.798 F800
M106 S0
M106 S255
G1 X51.016 Y62.728 F800
M106 S0
M106 S255
G1 X51.0 Y62.708 F800
M106 S0
M106 S255
G1 X51.013 Y62.682 F800
M106 S0
M106 S255
G1 X51.042 Y62.624 F800
M106 S0
M106 S255
G1 X51.074 Y62.561 F800
M106 S0
M106 S255
G1 X51.107 Y62.494 F800
M106 S0
M106 S255
G1 X51.143 Y62.423 F800
M106 S0
M106 S255
G1 X51.18 Y62.349 F800
M106 S0
M106 S255
G1 X51.258 Y62.193 F800
M106 S0
M106 S255
G1 X51.338 Y62.031 F800
M106 S0
M106 S255
G1 X51.349 Y62.011 F800
M106 S0
M106 S255
G1 X51.351 Y62.006 F800
M106 S0
M106 S255
G1 X51.353 Y62.007 F800
M106 S0
M106 S255
G1 X51.356 Y62.009 F800
M106 S0
M106 S255
G1 X51.368 Y62.016 F800
M106 S0
M106 S255
G1 X51.393 Y62.029 F800
M106 S0
M106 S255
G1 X51.445 Y62.058 F800
M106 S0
M106 S255
G1 X51.501 Y62.089 F800
M106 S0
M106 S255
G1 X51.565 Y62.124 F800
M106 S0
M106 S255
G1 X51.639 Y62.165 F800
M106 S0
M106 S255
G1 X51.644 Y62.168 F800
M106 S0
M106 S255
G1 X51.643 Y62.171 F800
M106 S0
M106 S255
G1 X51.641 Y62.176 F800
M106 S0
M106 S255
G1 X51.63 Y62.195 F800
M106 S0
M106 S255
G1 X51.609 Y62.234 F800
M106 S0
M106 S255
G1 X51.567 Y62.311 F800
M106 S0
M106 S255
G1 X51.225 Y62.938 F800
M106 S0
G0 X97.952 Y104.041 F6000
M106 S255
G1 X97.952 Y104.041 F800
M106 S0
M106 S255
G1 X97.917 Y104.059 F800
M106 S0
M106 S255
G1 X97.879 Y104.079 F800
M106 S0
M106 S255
G1 X97.836 Y104.1 F800
M106 S0
M106 S255
G1 X97.786 Y104.126 F800
M106 S0
M106 S255
G1 X97.727 Y104.156 F800
M106 S0
M106 S255
G1 X97.656 Y104.192 F800
M106 S0
M106 S255
G1 X97.57 Y104.235 F800
M106 S0
M106 S255
G1 X97.559 Y104.209 F800
M106 S0
M106 S255
G1 X97.545 Y104.178 F800
M106 S0
M106 S255
G1 X97.53 Y104.143 F800
M106 S0
M106 S255
G1 X97.513 Y104.105 F800
M106 S0
M106 S255
G1 X97.495 Y104.065 F800
M106 S0
M106 S255
G1 X97.477 Y104.022 F800
M106 S0
M106 S255
G1 X97.458 Y103.979 F800
M106 S0
G0 X69.52 Y107.564 F6000
M106 S255
G1 X69.52 Y107.564 F800
M106 S0
M106 S255
G1 X69.511 Y107.529 F800
M106 S0
M106 S255
G1 X69.503 Y107.494 F800
M106 S0
M106 S255
G1 X69.494 Y107.458 F800
M106 S0
M106 S255
G1 X69.485 Y107.423 F800
M106 S0
M106 S255
G1 X69.476 Y107.388 F800
M106 S0
M106 S255
G1 X69.467 Y107.353 F800
M106 S0
M106 S255
G1 X69.458 Y107.317 F800
M106 S0
M106 S255
G1 X69.45 Y107.282 F800
M106 S0
M106 S255
G1 X69.441 Y107.247 F800
M106 S0
M106 S255
G1 X69.432 Y107.211 F800
M106 S0
M106 S255
G1 X69.423 Y107.176 F800
M106 S0
M106 S255
G1 X69.414 Y107.141 F800
M106 S0
M106 S255
G1 X69.405 Y107.105 F800
M106 S0
M106 S255
G1 X69.397 Y107.07 F800
M106 S0
G0 X89.485 Y115.847 F6000
M106 S255
G1 X89.485 Y115.847 F800
M106 S0
M106 S255
G1 X89.476 Y115.823 F800
M106 S0
M106 S255
G1 X89.468 Y115.798 F800
M106 S0
M106 S255
G1 X89.46 Y115.774 F800
M106 S0
M106 S255
G1 X89.452 Y115.749 F800
M106 S0
M106 S255
G1 X89.443 Y115.725 F800
M106 S0
M106 S255
G1 X89.435 Y115.699 F800
M106 S0
M106 S255
G1 X89.426 Y115.674 F800
M106 S0
M106 S255
G1 X89.41 Y115.662 F800
M106 S0
M106 S255
G1 X89.378 Y115.68 F800
M106 S0
M106 S255
G1 X89.346 Y115.697 F800
M106 S0
M106 S255
G1 X89.314 Y115.715 F800
M106 S0
M106 S255
G1 X89.281 Y115.733 F800
M106 S0
M106 S255
G1 X89.247 Y115.752 F800
M106 S0
M106 S255
G1 X89.212 Y115.771 F800
M106 S0
M106 S255
G1 X89.176 Y115.791 F800
M106 S0
M106 S255
G1 X89.153 Y115.764 F800
M106 S0
M106 S255
G1 X89.138 Y115.712 F800
M106 S0
M106 S255
G1 X89.124 Y115.661 F800
M106 S0
M106 S255
G1 X89.109 Y115.611 F800
M106 S0
M106 S255
G1 X89.095 Y115.561 F800
M106 S0
M106 S255
G1 X89.08 Y115.512 F800
M106 S0
M106 S255
G1 X89.066 Y115.463 F800
M106 S0
M106 S255
G1 X89.052 Y115.414 F800
M106 S0
G0 X32.188 Y97.984 F6000
M106 S255
G1 X32.188 Y97.984 F800
M106 S0
M106 S255
G1 X32.245 Y97.859 F800
M106 S0
M106 S255
G1 X32.291 Y97.736 F800
M106 S0
M106 S255
G1 X32.318 Y97.617 F800
M106 S0
M106 S255
G1 X32.324 Y97.559 F800
M106 S0
M106 S255
G1 X32.323 Y97.503 F800
M106 S0
M106 S255
G1 X32.315 Y97.448 F800
M106 S0
M106 S255
G1 X32.299 Y97.394 F800
M106 S0
M106 S255
G1 X32.275 Y97.343 F800
M106 S0
M106 S255
G1 X32.242 Y97.294 F800
M106 S0
M106 S255
G1 X32.198 Y97.246 F800
M106 S0
M106 S255
G1 X32.144 Y97.201 F800
M106 S0
M106 S255
G1 X32.079 Y97.159 F800
M106 S0
M106 S255
G1 X32.002 Y97.119 F800
M106 S0
G0 X83.736 Y59.972 F6000
M106 S255
G1 X83.736 Y59.972 F800
M106 S0
M106 S255
G1 X83.872 Y59.873 F800
M106 S0
M106 S255
G1 X84.008 Y59.774 F800
M106 S0
M106 S255
G1 X84.144 Y59.675 F800
M106 S0
M106 S255
G1 X84.28 Y59.576 F800
M106 S0
M106 S255
G1 X84.416 Y59.477 F800
M106 S0
G0 X75.701 Y59.972 F6000
M106 S255
G1 X75.701 Y59.972 F800
M106 S0
M106 S255
G1 X75.775 Y59.848 F800
M106 S0
M106 S255
G1 X75.85 Y59.724 F800
M106 S0
M106 S255
G1 X75.924 Y59.601 F800
M106 S0
M106 S255
G1 X75.998 Y59.477 F800
M106 S0
M106 S255
G1 X76.072 Y59.353 F800
M106 S0
G0 X114.394 Y71.962 F6000
M106 S255
G1 X114.394 Y71.962 F800
M106 S0
M106 S255
G1 X114.302 Y71.906 F800
M106 S0
M106 S255
G1 X114.218 Y71.847 F800
M106 S0
M106 S255
G1 X114.148 Y71.784 F800
M106 S0
M106 S255
G1 X114.12 Y71.75 F800
M106 S0
M106 S255
G1 X114.097 Y71.715 F800
M106 S0
M106 S255
G1 X114.081 Y71.677 F800
M106 S0
M106 S255
G1 X114.072 Y71.638 F800
M106 S0
M106 S255
G1 X114.07 Y71.596 F800
M106 S0
M106 S255
G1 X114.078 Y71.552 F800
M106 S0
M106 S255
G1 X114.094 Y71.505 F800
M106 S0
M106 S255
G1 X114.121 Y71.455 F800
M106 S0
M106 S255
G1 X114.159 Y71.401 F800
M106 S0
M106 S255
G1 X114.208 Y71.344 F800
M106 S0
G0 X68.531 Y79.503 F6000
M106 S255
G1 X68.531 Y79.503 F800
M106 S0
M106 S255
G1 X68.618 Y79.417 F800
M106 S0
M106 S255
G1 X68.704 Y79.33 F800
M106 S0
M106 S255
G1 X68.791 Y79.244 F800
M106 S0
M106 S255
G1 X68.877 Y79.157 F800
M106 S0
M106 S255
G1 X68.964 Y79.071 F800
M106 S0
G0 X36.329 Y63.618 F6000
M106 S255
G1 X36.329 Y63.618 F800
M106 S0
M106 S255
G1 X36.223 Y63.613 F800
M106 S0
M106 S255
G1 X36.111 Y63.605 F800
M106 S0
M106 S255
G1 X36.06 Y63.604 F800
M106 S0
M106 S255
G1 X36.018 Y63.605 F800
M106 S0
M106 S255
G1 X35.988 Y63.612 F800
M106 S0
M106 S255
G1 X35.973 Y63.624 F800
M106 S0
M106 S255
G1 X35.949 Y63.677 F800
M106 S0
M106 S255
G1 X35.924 Y63.721 F800
M106 S0
M106 S255
G1 X35.897 Y63.755 F800
M106 S0
M106 S255
G1 X35.868 Y63.781 F800
M106 S0
M106 S255
G1 X35.808 Y63.812 F800
M106 S0
M106 S255
G1 X35.743 Y63.82 F800
M106 S0
M106 S255
G1 X35.675 Y63.81 F800
M106 S0
M106 S255
G1 X35.606 Y63.79 F800
M106 S0
M106 S255
G1 X35.464 Y63.742 F800
M106 S0
G0 X91.586 Y115.847 F6000
M106 S255
G1 X91.586 Y115.847 F800
M106 S0
M106 S255
G1 X91.524 Y115.785 F800
M106 S0
M106 S255
G1 X91.462 Y115.723 F800
M106 S0
M106 S255
G1 X91.401 Y115.661 F800
M106 S0
M106 S255
G1 X91.339 Y115.6 F800
M106 S0
M106 S255
G1 X91.277 Y115.538 F800
M106 S0
G0 X78.544 Y86.055 F6000
M106 S255
G1 X78.544 Y86.055 F800
M106 S0
M106 S255
G1 X78.614 Y86.009 F800
M106 S0
M106 S255
G1 X78.683 Y85.963 F800
M106 S0
M106 S255
G1 X78.752 Y85.917 F800
M106 S0
M106 S255
G1 X78.82 Y85.872 F800
M106 S0
M106 S255
G1 X78.888 Y85.827 F800
M106 S0
M106 S255
G1 X78.954 Y85.782 F800
M106 S0
M106 S255
G1 X79.019 Y85.739 F800
M106 S0
M106 S255
G1 X79.237 Y85.999 F800
M106 S0
M106 S255
G1 X79.453 Y86.258 F800
M106 S0
M106 S255
G1 X79.668 Y86.515 F800
M106 S0
M106 S255
G1 X79.882 Y86.772 F800
M106 S0
M106 S255
G1 X80.096 Y87.028 F800
M106 S0
M106 S255
G1 X80.309 Y87.283 F800
M106 S0
M106 S255
G1 X80.522 Y87.538 F800
M106 S0
G0 X80.893 Y92.236 F6000
M106 S255
G1 X80.893 Y92.236 F800
M106 S0
M106 S255
G1 X80.943 Y92.149 F800
M106 S0
M106 S255
G1 X80.992 Y92.063 F800
M106 S0
M106 S255
G1 X81.041 Y91.976 F800
M106 S0
M106 S255
G1 X81.091 Y91.89 F800
M106 S0
M106 S255
G1 X81.14 Y91.803 F800
M106 S0
G0 X93.379 Y77.463 F6000
M106 S255
G1 X93.379 Y77.463 F800
M106 S0
M106 S255
G1 X93.494 Y77.331 F800
M106 S0
M106 S255
G1 X93.61 Y77.197 F800
M106 S0
M106 S255
G1 X93.726 Y77.064 F800
M106 S0
M106 S255
G1 X93.842 Y76.929 F800
M106 S0
M106 S255
G1 X93.96 Y76.794 F800
M106 S0
M106 S255
G1 X94.078 Y76.657 F800
M106 S0
M106 S255
G1 X94.198 Y76.52 F800
M106 S0
M106 S255
G1 X94.319 Y76.38 F800
M106 S0
M106 S255
G1 X94.321 Y76.381 F800
M106 S0
M106 S255
G1 X94.328 Y76.387 F800
M106 S0
M106 S255
G1 X94.339 Y76.396 F800
M106 S0
M106 S255
G1 X94.353 Y76.407 F800
M106 S0
M106 S255
G1 X94.371 Y76.421 F800
M106 S0
M106 S255
G1 X94.39 Y76.436 F800
M106 S0
M106 S255
G1 X94.411 Y76.453 F800
M106 S0
M106 S255
G1 X94.433 Y76.47 F800
M106 S0
M106 S255
G1 X94.45 Y76.468 F800
M106 S0
M106 S255
G1 X94.466 Y76.466 F800
M106 S0
M106 S255
G1 X94.483 Y76.464 F800
M106 S0
M106 S255
G1 X94.5 Y76.463 F800
M106 S0
M106 S255
G1 X94.517 Y76.461 F800
M106 S0
M106 S255
G1 X94.534 Y76.459 F800
M106 S0
M106 S255
G1 X94.551 Y76.457 F800
M106 S0
M106 S255
G1 X94.568 Y76.455 F800
M106 S0
M106 S255
G1 X94.558 Y76.388 F800
M106 S0
M106 S255
G1 X94.549 Y76.321 F800
M106 S0
M106 S255
G1 X94.539 Y76.254 F800
M106 S0
M106 S255
G1 X94.529 Y76.187 F800
M106 S0
M106 S255
G1 X94.52 Y76.12 F800
M106 S0
M106 S255
G1 X94.51 Y76.052 F800
M106 S0
M106 S255
G1 X94.501 Y75.985 F800
M106 S0
M106 S255
G1 X94.491 Y75.918 F800
M106 S0
G0 X17.106 Y22.145 F6000
M106 S255
G1 X17.106 Y22.145 F800
M106 S0
M106 S255
G1 X17.205 Y22.046 F800
M106 S0
M106 S255
G1 X17.304 Y21.947 F800
M106 S0
M106 S255
G1 X17.403 Y21.848 F800
M106 S0
M106 S255
G1 X17.502 Y21.749 F800
M106 S0
M106 S255
G1 X17.601 Y21.65 F800
M106 S0
G0 X49.865 Y64.236 F6000
M106 S255
G1 X49.865 Y64.236 F800
M106 S0
M106 S255
G1 X49.899 Y64.164 F800
M106 S0
M106 S255
G1 X49.931 Y64.091 F800
M106 S0
M106 S255
G1 X49.962 Y64.017 F800
M106 S0
M106 S255
G1 X49.995 Y63.944 F800
M106 S0
M106 S255
G1 X50.031 Y63.874 F800
M106 S0
M106 S255
G1 X50.071 Y63.808 F800
M106 S0
M106 S255
G1 X50.118 Y63.747 F800
M106 S0
M106 S255
G1 X50.236 Y63.618 F800
M106 S0
M106 S255
G1 X50.356 Y63.492 F800
M106 S0
M106 S255
G1 X50.479 Y63.367 F800
M106 S0
M106 S255
G1 X50.603 Y63.244 F800
M106 S0
M106 S255
G1 X50.728 Y63.122 F800
M106 S0
M106 S255
G1 X50.853 Y63.0 F800
M106 S0
M106 S255
G1 X50.978 Y62.877 F800
M106 S0
G0 X62.907 Y62.32 F6000
M106 S255
G1 X62.907 Y62.32 F800
M106 S0
M106 S255
G1 X62.734 Y62.16 F800
M106 S0
M106 S255
G1 X62.561 Y61.999 F800
M106 S0
M106 S255
G1 X62.388 Y61.838 F800
M106 S0
M106 S255
G1 X62.214 Y61.677 F800
M106 S0
M106 S255
G1 X62.041 Y61.517 F800
M106 S0
G0 X88.805 Y66.276 F6000
M106 S255
G1 X88.805 Y66.276 F800
M106 S0
M106 S255
G1 X88.669 Y66.128 F800
M106 S0
M106 S255
G1 X88.533 Y65.979 F800
M106 S0
M106 S255
G1 X88.397 Y65.831 F800
M106 S0
M106 S255
G1 X88.261 Y65.683 F800
M106 S0
M106 S255
G1 X88.125 Y65.534 F800
M106 S0
G0 X63.525 Y115.785 F6000
M106 S255
G1 X63.525 Y115.785 F800
M106 S0
M106 S255
G1 X63.426 Y115.785 F800
M106 S0
M106 S255
G1 X63.327 Y115.785 F800
M106 S0
M106 S255
G1 X63.228 Y115.785 F800
M106 S0
M106 S255
G1 X63.129 Y115.785 F800
M106 S0
M106 S255
G1 X63.03 Y115.785 F800
M106 S0
G0 X3.879 Y54.841 F6000
M106 S255
G1 X3.879 Y54.841 F800
M106 S0
M106 S255
G1 X3.768 Y54.829 F800
M106 S0
M106 S255
G1 X3.657 Y54.817 F800
M106 S0
M106 S255
G1 X3.545 Y54.804 F800
M106 S0
M106 S255
G1 X3.434 Y54.792 F800
M106 S0
M106 S255
G1 X3.323 Y54.78 F800
M106 S0
G0 X21.309 Y26.966 F6000
M106 S255
G1 X21.309 Y26.966 F800
M106 S0
M106 S255
G1 X21.356 Y27.011 F800
M106 S0
M106 S255
G1 X21.401 Y27.051 F800
M106 S0
M106 S255
G1 X21.443 Y27.084 F800
M106 S0
M106 S255
G1 X21.484 Y27.112 F800
M106 S0
M106 S255
G1 X21.523 Y27.134 F800
M106 S0
M106 S255
G1 X21.56 Y27.152 F800
M106 S0
M106 S255
G1 X21.595 Y27.164 F800
M106 S0
M106 S255
G1 X21.629 Y27.172 F800
M106 S0
M106 S255
G1 X21.662 Y27.175 F800
M106 S0
M106 S255
G1 X21.693 Y27.175 F800
M106 S0
M106 S255
G1 X21.723 Y27.171 F800
M106 S0
M106 S255
G1 X21.752 Y27.163 F800
M106 S0
M106 S255
G1 X21.781 Y27.152 F800
M106 S0
M106 S255
G1 X21.809 Y27.138 F800
M106 S0
M106 S255
G1 X21.862 Y27.103 F800
M106 S0
M106 S255
G1 X21.914 Y27.059 F800
M106 S0
M106 S255
G1 X21.966 Y27.009 F800
M106 S0
M106 S255
G1 X22.072 Y26.9 F800
M106 S0
M106 S255
G1 X22.128 Y26.845 F800
M106 S0
M106 S255
G1 X22.187 Y26.792 F800
M106 S0
M106 S255
G1 X22.251 Y26.745 F800
M106 S0
M106 S255
G1 X22.32 Y26.704 F800
M106 S0
M106 S255
G1 X22.282 Y26.659 F800
M106 S0
M106 S255
G1 X22.246 Y26.616 F800
M106 S0
M106 S255
G1 X22.179 Y26.536 F800
M106 S0
M106 S255
G1 X22.118 Y26.463 F800
M106 S0
M106 S255
G1 X22.061 Y26.396 F800
M106 S0
M106 S255
G1 X22.009 Y26.333 F800
M106 S0
M106 S255
G1 X21.96 Y26.274 F800
M106 S0
M106 S255
G1 X21.866 Y26.162 F800
M106 S0
G0 X68.099 Y114.734 F6000
M106 S255
G1 X68.099 Y114.734 F800
M106 S0
M106 S255
G1 X67.867 Y114.541 F800
M106 S0
M106 S255
G1 X67.751 Y114.445 F800
M106 S0
M106 S255
G1 X67.736 Y114.432 F800
M106 S0
M106 S255
G1 X67.729 Y114.426 F800
M106 S0
M106 S255
G1 X67.727 Y114.425 F800
M106 S0
M106 S255
G1 X67.722 Y114.425 F800
M106 S0
M106 S255
G1 X67.711 Y114.424 F800
M106 S0
M106 S255
G1 X67.69 Y114.422 F800
M106 S0
M106 S255
G1 X67.673 Y114.424 F800
M106 S0
M106 S255
G1 X67.667 Y114.429 F800
M106 S0
M106 S255
G1 X67.665 Y114.436 F800
M106 S0
M106 S255
G1 X67.666 Y114.456 F800
M106 S0
M106 S255
G1 X67.668 Y114.477 F800
M106 S0
M106 S255
G1 X67.665 Y114.485 F800
M106 S0
M106 S255
G1 X67.663 Y114.487 F800
M106 S0
M106 S255
G1 X67.656 Y114.495 F800
M106 S0
M106 S255
G1 X67.642 Y114.51 F800
M106 S0
M106 S255
G1 X67.584 Y114.57 F800
M106 S0
M106 S255
G1 X67.52 Y114.633 F800
M106 S0
M106 S255
G1 X67.486 Y114.667 F800
M106 S0
M106 S255
G1 X67.468 Y114.685 F800
M106 S0
M106 S255
G1 X67.466 Y114.687 F800
M106 S0
M106 S255
G1 X67.464 Y114.689 F800
M106 S0
M106 S255
G1 X67.463 Y114.685 F800
M106 S0
M106 S255
G1 X67.454 Y114.666 F800
M106 S0
M106 S255
G1 X67.434 Y114.631 F800
M106 S0
M106 S255
G1 X67.41 Y114.6 F800
M106 S0
M106 S255
G1 X67.382 Y114.571 F800
M106 S0
M106 S255
G1 X67.32 Y114.522 F800
M106 S0
M106 S255
G1 X67.249 Y114.48 F800
M106 S0
M106 S255
G1 X67.174 Y114.442 F800
M106 S0
M106 S255
G1 X67.023 Y114.367 F800
M106 S0
M106 S255
G1 X66.953 Y114.324 F800
M106 S0
M106 S255
G1 X66.921 Y114.3 F800
M106 S0
M106 S255
G1 X66.892 Y114.273 F800
M106 S0
M106 S255
G1 X66.866 Y114.244 F800
M106 S0
M106 S255
G1 X66.843 Y114.212 F800
M106 S0
M106 S255
G1 X66.824 Y114.176 F800
M106 S0
M106 S255
G1 X66.809 Y114.136 F800
M106 S0
M106 S255
G1 X66.799 Y114.092 F800
M106 S0
M106 S255
G1 X66.794 Y114.043 F800
M106 S0
M106 S255
G1 X66.794 Y113.99 F800
M106 S0
M106 S255
G1 X66.801 Y113.931 F800
M106 S0
G0 X33.177 Y55.398 F6000
M106 S255
G1 X33.177 Y55.398 F800
M106 S0
M106 S255
G1 X33.288 Y55.398 F800
M106 S0
M106 S255
G1 X33.399 Y55.398 F800
M106 S0
M106 S255
G1 X33.51 Y55.398 F800
M106 S0
M106 S255
G1 X33.622 Y55.398 F800
M106 S0
M106 S255
G1 X33.733 Y55.398 F800
M106 S0
G0 X69.273 Y96.81 F6000
M106 S255
G1 X69.273 Y96.81 F800
M106 S0
M106 S255
G1 X69.27 Y96.766 F800
M106 S0
M106 S255
G1 X69.267 Y96.722 F800
M106 S0
M106 S255
G1 X69.265 Y96.678 F800
M106 S0
M106 S255
G1 X69.262 Y96.634 F800
M106 S0
M106 S255
G1 X69.259 Y96.589 F800
M106 S0
M106 S255
G1 X69.256 Y96.545 F800
M106 S0
M106 S255
G1 X69.253 Y96.501 F800
M106 S0
M106 S255
G1 X69.296 Y96.501 F800
M106 S0
M106 S255
G1 X69.336 Y96.501 F800
M106 S0
M106 S255
G1 X69.375 Y96.501 F800
M106 S0
M106 S255
G1 X69.413 Y96.501 F800
M106 S0
M106 S255
G1 X69.449 Y96.501 F800
M106 S0
M106 S255
G1 X69.485 Y96.501 F800
M106 S0
M106 S255
G1 X69.52 Y96.501 F800
M106 S0
G0 X22.422 Y100.518 F6000
M106 S255
G1 X22.422 Y100.518 F800
M106 S0
M106 S255
G1 X22.348 Y100.395 F800
M106 S0
M106 S255
G1 X22.274 Y100.271 F800
M106 S0
M106 S255
G1 X22.199 Y100.147 F800
M106 S0
M106 S255
G1 X22.125 Y100.024 F800
M106 S0
M106 S255
G1 X22.051 Y99.9 F800
M106 S0
G0 X61.732 Y107.255 F6000
M106 S255
G1 X61.732 Y107.255 F800
M106 S0
M106 S255
G1 X61.542 Y107.103 F800
M106 S0
M106 S255
G1 X61.344 Y106.968 F800
M106 S0
M106 S255
G1 X61.138 Y106.849 F800
M106 S0
M106 S255
G1 X60.925 Y106.748 F800
M106 S0
M106 S255
G1 X60.706 Y106.664 F800
M106 S0
M106 S255
G1 X60.478 Y106.597 F800
M106 S0
M106 S255
G1 X60.244 Y106.547 F800
M106 S0
M106 S255
G1 X60.002 Y106.514 F800
M106 S0
G0 X53.944 Y106.637 F6000
M106 S255
G1 X53.944 Y106.637 F800
M106 S0
M106 S255
G1 X54.068 Y106.514 F800
M106 S0
M106 S255
G1 X54.192 Y106.39 F800
M106 S0
M106 S255
G1 X54.315 Y106.266 F800
M106 S0
M106 S255
G1 X54.439 Y106.143 F800
M106 S0
M106 S255
G1 X54.563 Y106.019 F800
M106 S0
G0 X66.553 Y78.514 F6000
M106 S255
G1 X66.553 Y78.514 F800
M106 S0
M106 S255
G1 X66.417 Y78.378 F800
M106 S0
M106 S255
G1 X66.282 Y78.242 F800
M106 S0
M106 S255
G1 X66.146 Y78.106 F800
M106 S0
M106 S255
G1 X66.01 Y77.97 F800
M106 S0
M106 S255
G1 X65.874 Y77.834 F800
M106 S0
G0 X86.58 Y71.653 F6000
M106 S255
G1 X86.58 Y71.653 F800
M106 S0
M106 S255
G1 X86.716 Y71.53 F800
M106 S0
M106 S255
G1 X86.852 Y71.406 F800
M106 S0
M106 S255
G1 X86.987 Y71.283 F800
M106 S0
M106 S255
G1 X87.123 Y71.159 F800
M106 S0
M106 S255
G1 X87.259 Y71.035 F800
M106 S0
G0 X87.507 Y70.788 F6000
M106 S255
G1 X87.507 Y70.788 F800
M106 S0
M106 S255
G1 X87.643 Y70.652 F800
M106 S0
M106 S255
G1 X87.779 Y70.516 F800
M106 S0
M106 S255
G1 X87.915 Y70.38 F800
M106 S0
M106 S255
G1 X88.051 Y70.244 F800
M106 S0
M106 S255
G1 X88.187 Y70.108 F800
M106 S0
G0 X63.587 Y72.086 F6000
M106 S255
G1 X63.587 Y72.086 F800
M106 S0
M106 S255
G1 X63.636 Y72.022 F800
M106 S0
M106 S255
G1 X63.675 Y71.964 F800
M106 S0
M106 S255
G1 X63.703 Y71.912 F800
M106 S0
M106 S255
G1 X63.721 Y71.866 F800
M106 S0
M106 S255
G1 X63.73 Y71.825 F800
M106 S0
M106 S255
G1 X63.729 Y71.789 F800
M106 S0
M106 S255
G1 X63.72 Y71.759 F800
M106 S0
M106 S255
G1 X63.704 Y71.732 F800
M106 S0
M106 S255
G1 X63.679 Y71.71 F800
M106 S0
M106 S255
G1 X63.648 Y71.693 F800
M106 S0
M106 S255
G1 X63.61 Y71.678 F800
M106 S0
M106 S255
G1 X63.566 Y71.668 F800
M106 S0
M106 S255
G1 X63.516 Y71.66 F800
M106 S0
M106 S255
G1 X63.461 Y71.655 F800
M106 S0
M106 S255
G1 X63.339 Y71.653 F800
M106 S0
G0 X68.47 Y44.519 F6000
M106 S255
G1 X68.47 Y44.519 F800
M106 S0
M106 S255
G1 X68.487 Y44.563 F800
M106 S0
M106 S255
G1 X68.505 Y44.607 F800
M106 S0
M106 S255
G1 X68.523 Y44.651 F800
M106 S0
M106 S255
G1 X68.541 Y44.695 F800
M106 S0
M106 S255
G1 X68.558 Y44.739 F800
M106 S0
M106 S255
G1 X68.576 Y44.783 F800
M106 S0
M106 S255
G1 X68.594 Y44.827 F800
M106 S0
M106 S255
G1 X68.601 Y44.861 F800
M106 S0
M106 S255
G1 X68.585 Y44.872 F800
M106 S0
M106 S255
G1 X68.57 Y44.884 F800
M106 S0
M106 S255
G1 X68.554 Y44.895 F800
M106 S0
M106 S255
G1 X68.538 Y44.907 F800
M106 S0
M106 S255
G1 X68.523 Y44.918 F800
M106 S0
M106 S255
G1 X68.507 Y44.93 F800
M106 S0
M106 S255
G1 X68.492 Y44.942 F800
M106 S0
M106 S255
G1 X68.426 Y44.892 F800
M106 S0
M106 S255
G1 X68.335 Y44.812 F800
M106 S0
M106 S255
G1 X68.244 Y44.733 F800
M106 S0
M106 S255
G1 X68.153 Y44.653 F800
M106 S0
M106 S255
G1 X68.062 Y44.573 F800
M106 S0
M106 S255
G1 X67.971 Y44.493 F800
M106 S0
M106 S255
G1 X67.881 Y44.414 F800
M106 S0
M106 S255
G1 X67.79 Y44.334 F800
M106 S0
G0 X31.94 Y84.51 F6000
M106 S255
G1 X31.94 Y84.51 F800
M106 S0
M106 S255
G1 X31.886 Y84.365 F800
M106 S0
M106 S255
G1 X31.84 Y84.214 F800
M106 S0
M106 S255
G1 X31.795 Y84.064 F800
M106 S0
M106 S255
G1 X31.74 Y83.919 F800
M106 S0
M106 S255
G1 X31.706 Y83.851 F800
M106 S0
M106 S255
G1 X31.668 Y83.787 F800
M106 S0
M106 S255
G1 X31.622 Y83.727 F800
M106 S0
M106 S255
G1 X31.57 Y83.672 F800
M106 S0
M106 S255
G1 X31.508 Y83.624 F800
M106 S0
M106 S255
G1 X31.437 Y83.582 F800
M106 S0
M106 S255
G1 X31.355 Y83.547 F800
M106 S0
M106 S255
G1 X31.261 Y83.521 F800
M106 S0
G0 X85.961 Y87.724 F6000
M106 S255
G1 X85.961 Y87.724 F800
M106 S0
M106 S255
G1 X86.11 Y87.625 F800
M106 S0
M106 S255
G1 X86.258 Y87.526 F800
M106 S0
M106 S255
G1 X86.406 Y87.427 F800
M106 S0
M106 S255
G1 X86.555 Y87.328 F800
M106 S0
M106 S255
G1 X86.703 Y87.229 F800
M106 S0
G0 X21.742 Y101.94 F6000
M106 S255
G1 X21.742 Y101.94 F800
M106 S0
M106 S255
G1 X21.594 Y101.965 F800
M106 S0
M106 S255
G1 X21.445 Y101.989 F800
M106 S0
M106 S255
G1 X21.297 Y102.014 F800
M106 S0
M106 S255
G1 X21.149 Y102.039 F800
M106 S0
M106 S255
G1 X21.0 Y102.063 F800
M106 S0
G0 X30.395 Y96.995 F6000
M106 S255
G1 X30.395 Y96.995 F800
M106 S0
M106 S255
G1 X30.458 Y96.845 F800
M106 S0
M106 S255
G1 X30.52 Y96.695 F800
M106 S0
M106 S255
G1 X30.583 Y96.546 F800
M106 S0
M106 S255
G1 X30.645 Y96.395 F800
M106 S0
M106 S255
G1 X30.705 Y96.245 F800
M106 S0
M106 S255
G1 X30.763 Y96.093 F800
M106 S0
M106 S255
G1 X30.819 Y95.941 F800
M106 S0
M106 S255
G1 X30.822 Y95.913 F800
M106 S0
M106 S255
G1 X30.813 Y95.881 F800
M106 S0
M106 S255
G1 X30.796 Y95.846 F800
M106 S0
M106 S255
G1 X30.773 Y95.809 F800
M106 S0
M106 S255
G1 X30.749 Y95.771 F800
M106 S0
M106 S255
G1 X30.725 Y95.733 F800
M106 S0
M106 S255
G1 X30.704 Y95.697 F800
M106 S0
G0 X64.39 Y115.847 F6000
M106 S255
G1 X64.39 Y115.847 F800
M106 S0
M106 S255
G1 X64.218 Y115.783 F800
M106 S0
M106 S255
G1 X64.045 Y115.718 F800
M106 S0
M106 S255
G1 X63.87 Y115.653 F800
M106 S0
M106 S255
G1 X63.693 Y115.586 F800
M106 S0
M106 S255
G1 X63.512 Y115.519 F800
M106 S0
M106 S255
G1 X63.327 Y115.45 F800
M106 S0
M106 S255
G1 X63.137 Y115.379 F800
M106 S0
M106 S255
G1 X63.023 Y115.31 F800
M106 S0
M106 S255
G1 X63.065 Y115.251 F800
M106 S0
M106 S255
G1 X63.105 Y115.197 F800
M106 S0
M106 S255
G1 X63.141 Y115.146 F800
M106 S0
M106 S255
G1 X63.177 Y115.097 F800
M106 S0
M106 S255
G1 X63.212 Y115.048 F800
M106 S0
M106 S255
G1 X63.249 Y114.998 F800
M106 S0
M106 S255
G1 X63.287 Y114.945 F800
M106 S0
M106 S255
G1 X63.355 Y114.988 F800
M106 S0
M106 S255
G1 X63.435 Y115.079 F800
M106 S0
M106 S255
G1 X63.514 Y115.168 F800
M106 S0
M106 S255
G1 X63.592 Y115.256 F800
M106 S0
M106 S255
G1 X63.669 Y115.343 F800
M106 S0
M106 S255
G1 X63.745 Y115.429 F800
M106 S0
M106 S255
G1 X63.82 Y115.514 F800
M106 S0
M106 S255
G1 X63.896 Y115.6 F800
M106 S0
G0 X3.323 Y48.97 F6000
M106 S255
G1 X3.323 Y48.97 F800
M106 S0
M106 S255
G1 X3.397 Y48.821 F800
M106 S0
M106 S255
G1 X3.471 Y48.673 F800
M106 S0
M106 S255
G1 X3.545 Y48.525 F800
M106 S0
M106 S255
G1 X3.62 Y48.376 F800
M106 S0
M106 S255
G1 X3.694 Y48.228 F800
M106 S0
G0 X74.712 Y49.897 F6000
M106 S255
G1 X74.712 Y49.897 F800
M106 S0
M106 S255
G1 X74.648 Y49.867 F800
M106 S0
M106 S255
G1 X74.581 Y49.843 F800
M106 S0
M106 S255
G1 X74.437 Y49.807 F800
M106 S0
M106 S255
G1 X74.291 Y49.776 F800
M106 S0
M106 S255
G1 X74.219 Y49.758 F800
M106 S0
M106 S255
G1 X74.149 Y49.738 F800
M106 S0
M106 S255
G1 X74.082 Y49.713 F800
M106 S0
M106 S255
G1 X74.019 Y49.681 F800
M106 S0
M106 S255
G1 X73.961 Y49.642 F800
M106 S0
M106 S255
G1 X73.91 Y49.594 F800
M106 S0
M106 S255
G1 X73.865 Y49.535 F800
M106 S0
M106 S255
G1 X73.846 Y49.501 F800
M106 S0
M106 S255
G1 X73.829 Y49.464 F800
M106 S0
M106 S255
G1 X73.814 Y49.423 F800
M106 S0
M106 S255
G1 X73.802 Y49.379 F800
M106 S0
M106 S255
G1 X73.792 Y49.331 F800
M106 S0
M106 S255
G1 X73.785 Y49.279 F800
M106 S0
G0 X85.405 Y69.737 F6000
M106 S255
G1 X85.405 Y69.737 F800
M106 S0
M106 S255
G1 X85.269 Y69.589 F800
M106 S0
M106 S255
G1 X85.133 Y69.441 F800
M106 S0
M106 S255
G1 X84.997 Y69.292 F800
M106 S0
M106 S255
G1 X84.861 Y69.144 F800
M106 S0
M106 S255
G1 X84.725 Y68.996 F800
M106 S0
G0 X76.937 Y73.26 F6000
M106 S255
G1 X76.937 Y73.26 F800
M106 S0
M106 S255
G1 X77.049 Y73.137 F800
M106 S0
M106 S255
G1 X77.16 Y73.013 F800
M106 S0
M106 S255
G1 X77.271 Y72.89 F800
M106 S0
M106 S255
G1 X77.382 Y72.766 F800
M106 S0
M106 S255
G1 X77.494 Y72.642 F800
M106 S0
G0 X5.486 Y19.425 F6000
M106 S255
G1 X5.486 Y19.425 F800
M106 S0
M106 S255
G1 X5.56 Y19.401 F800
M106 S0
M106 S255
G1 X5.636 Y19.38 F800
M106 S0
M106 S255
G1 X5.713 Y19.359 F800
M106 S0
M106 S255
G1 X5.788 Y19.337 F800
M106 S0
M106 S255
G1 X5.858 Y19.31 F800
M106 S0
M106 S255
G1 X5.92 Y19.275 F800
M106 S0
M106 S255
G1 X5.972 Y19.231 F800
M106 S0
M106 S255
G1 X6.147 Y19.035 F800
M106 S0
M106 S255
G1 X6.319 Y18.835 F800
M106 S0
M106 S255
G1 X6.488 Y18.634 F800
M106 S0
M106 S255
G1 X6.655 Y18.43 F800
M106 S0
M106 S255
G1 X6.822 Y18.226 F800
M106 S0
M106 S255
G1 X6.988 Y18.022 F800
M106 S0
M106 S255
G1 X7.155 Y17.818 F800
M106 S0
G0 X70.324 Y46.126 F6000
M106 S255
G1 X70.324 Y46.126 F800
M106 S0
M106 S255
G1 X70.221 Y46.035 F800
M106 S0
M106 S255
G1 X70.119 Y45.944 F800
M106 S0
M106 S255
G1 X70.017 Y45.853 F800
M106 S0
M106 S255
G1 X69.916 Y45.763 F800
M106 S0
M106 S255
G1 X69.816 Y45.674 F800
M106 S0
M106 S255
G1 X69.717 Y45.586 F800
M106 S0
M106 S255
G1 X69.619 Y45.499 F800
M106 S0
M106 S255
G1 X69.547 Y45.451 F800
M106 S0
M106 S255
G1 X69.524 Y45.481 F800
M106 S0
M106 S255
G1 X69.501 Y45.509 F800
M106 S0
M106 S255
G1 X69.478 Y45.538 F800
M106 S0
M106 S255
G1 X69.455 Y45.568 F800
M106 S0
M106 S255
G1 X69.429 Y45.6 F800
M106 S0
M106 S255
G1 X69.401 Y45.635 F800
M106 S0
M106 S255
G1 X69.37 Y45.675 F800
M106 S0
M106 S255
G1 X69.286 Y45.624 F800
M106 S0
M106 S255
G1 X69.177 Y45.527 F800
M106 S0
M106 S255
G1 X69.069 Y45.431 F800
M106 S0
M106 S255
G1 X68.961 Y45.335 F800
M106 S0
M106 S255
G1 X68.854 Y45.239 F800
M106 S0
M106 S255
G1 X68.746 Y45.143 F800
M106 S0
M106 S255
G1 X68.639 Y45.048 F800
M106 S0
M106 S255
G1 X68.531 Y44.952 F800
M106 S0
G0 X71.189 Y46.868 F6000
M106 S255
G1 X71.189 Y46.868 F800
M106 S0
M106 S255
G1 X71.087 Y46.777 F800
M106 S0
M106 S255
G1 X70.984 Y46.686 F800
M106 S0
M106 S255
G1 X70.883 Y46.595 F800
M106 S0
M106 S255
G1 X70.781 Y46.505 F800
M106 S0
M106 S255
G1 X70.681 Y46.415 F800
M106 S0
M106 S255
G1 X70.582 Y46.327 F800
M106 S0
M106 S255
G1 X70.485 Y46.24 F800
M106 S0
M106 S255
G1 X70.412 Y46.193 F800
M106 S0
M106 S255
G1 X70.389 Y46.222 F800
M106 S0
M106 S255
G1 X70.367 Y46.251 F800
M106 S0
M106 S255
G1 X70.344 Y46.279 F800
M106 S0
M106 S255
G1 X70.32 Y46.309 F800
M106 S0
M106 S255
G1 X70.295 Y46.341 F800
M106 S0
M106 S255
G1 X70.267 Y46.377 F800
M106 S0
M106 S255
G1 X70.235 Y46.416 F800
M106 S0
M106 S255
G1 X70.151 Y46.366 F800
M106 S0
M106 S255
G1 X70.043 Y46.269 F800
M106 S0
M106 S255
G1 X69.934 Y46.173 F800
M106 S0
M106 S255
G1 X69.827 Y46.077 F800
M106 S0
M106 S255
G1 X69.719 Y45.981 F800
M106 S0
M106 S255
G1 X69.611 Y45.885 F800
M106 S0
M106 S255
G1 X69.504 Y45.789 F800
M106 S0
M106 S255
G1 X69.397 Y45.694 F800
M106 S0
G0 X60.682 Y107.132 F6000
M106 S255
G1 X60.682 Y107.132 F800
M106 S0
M106 S255
G1 X60.521 Y107.058 F800
M106 S0
M106 S255
G1 X60.36 Y106.983 F800
M106 S0
M106 S255
G1 X60.2 Y106.909 F800
M106 S0
M106 S255
G1 X60.039 Y106.835 F800
M106 S0
M106 S255
G1 X59.878 Y106.761 F800
M106 S0
G0 X113.961 Y97.428 F6000
M106 S255
G1 X113.961 Y97.428 F800
M106 S0
M106 S255
G1 X113.862 Y97.267 F800
M106 S0
M106 S255
G1 X113.763 Y97.106 F800
M106 S0
M106 S255
G1 X113.664 Y96.946 F800
M106 S0
M106 S255
G1 X113.565 Y96.785 F800
M106 S0
M106 S255
G1 X113.466 Y96.624 F800
M106 S0
G0 X29.221 Y100.209 F6000
M106 S255
G1 X29.221 Y100.209 F800
M106 S0
M106 S255
G1 X29.154 Y100.199 F800
M106 S0
M106 S255
G1 X29.087 Y100.189 F800
M106 S0
M106 S255
G1 X29.02 Y100.179 F800
M106 S0
M106 S255
G1 X28.953 Y100.17 F800
M106 S0
M106 S255
G1 X28.886 Y100.16 F800
M106 S0
M106 S255
G1 X28.82 Y100.15 F800
M106 S0
M106 S255
G1 X28.753 Y100.14 F800
M106 S0
M106 S255
G1 X28.686 Y100.13 F800
M106 S0
M106 S255
G1 X28.683 Y100.148 F800
M106 S0
M106 S255
G1 X28.68 Y100.166 F800
M106 S0
M106 S255
G1 X28.677 Y100.183 F800
M106 S0
M106 S255
G1 X28.674 Y100.201 F800
M106 S0
M106 S255
G1 X28.671 Y100.219 F800
M106 S0
M106 S255
G1 X28.668 Y100.237 F800
M106 S0
M106 S255
G1 X28.665 Y100.255 F800
M106 S0
M106 S255
G1 X28.662 Y100.273 F800
M106 S0
M106 S255
G1 X28.697 Y100.315 F800
M106 S0
M106 S255
G1 X28.731 Y100.358 F800
M106 S0
M106 S255
G1 X28.767 Y100.402 F800
M106 S0
M106 S255
G1 X28.804 Y100.447 F800
M106 S0
M106 S255
G1 X28.842 Y100.495 F800
M106 S0
M106 S255
G1 X28.883 Y100.545 F800
M106 S0
M106 S255
G1 X28.926 Y100.598 F800
M106 S0
M106 S255
G1 X28.972 Y100.655 F800
M106 S0
M106 S255
G1 X29.119 Y100.498 F800
M106 S0
M106 S255
G1 X29.263 Y100.345 F800
M106 S0
M106 S255
G1 X29.404 Y100.195 F800
M106 S0
M106 S255
G1 X29.543 Y100.047 F800
M106 S0
M106 S255
G1 X29.68 Y99.9 F800
M106 S0
M106 S255
G1 X29.816 Y99.755 F800
M106 S0
M106 S255
G1 X29.951 Y99.611 F800
M106 S0
M106 S255
G1 X30.086 Y99.467 F800
M106 S0
G0 X17.168 Y100.765 F6000
M106 S255
G1 X17.168 Y100.765 F800
M106 S0
M106 S255
G1 X17.23 Y100.592 F800
M106 S0
M106 S255
G1 X17.292 Y100.419 F800
M106 S0
M106 S255
G1 X17.354 Y100.246 F800
M106 S0
M106 S255
G1 X17.415 Y100.073 F800
M106 S0
M106 S255
G1 X17.477 Y99.9 F800
M106 S0
G0 X18.157 Y101.074 F6000
M106 S255
G1 X18.157 Y101.074 F800
M106 S0
M106 S255
G1 X18.207 Y100.914 F800
M106 S0
M106 S255
G1 X18.256 Y100.753 F800
M106 S0
M106 S255
G1 X18.305 Y100.592 F800
M106 S0
M106 S255
G1 X18.355 Y100.432 F800
M106 S0
M106 S255
G1 X18.404 Y100.271 F800
M106 S0
G0 X85.529 Y72.642 F6000
M106 S255
G1 X85.529 Y72.642 F800
M106 S0
M106 S255
G1 X85.69 Y72.494 F800
M106 S0
M106 S255
G1 X85.85 Y72.346 F800
M106 S0
M106 S255
G1 X86.011 Y72.197 F800
M106 S0
M106 S255
G1 X86.172 Y72.049 F800
M106 S0
M106 S255
G1 X86.332 Y71.901 F800
M106 S0
G0 X110.129 Y76.598 F6000
M106 S255
G1 X110.129 Y76.598 F800
M106 S0
M106 S255
G1 X109.968 Y76.524 F800
M106 S0
M106 S255
G1 X109.807 Y76.45 F800
M106 S0
M106 S255
G1 X109.647 Y76.376 F800
M106 S0
M106 S255
G1 X109.486 Y76.301 F800
M106 S0
M106 S255
G1 X109.325 Y76.227 F800
M106 S0
G0 X69.706 Y115.847 F6000
M106 S255
G1 X69.706 Y115.847 F800
M106 S0
M106 S255
G1 X69.545 Y115.736 F800
M106 S0
M106 S255
G1 X69.384 Y115.624 F800
M106 S0
M106 S255
G1 X69.224 Y115.513 F800
M106 S0
M106 S255
G1 X69.063 Y115.402 F800
M106 S0
M106 S255
G1 X68.902 Y115.291 F800
M106 S0
G0 X69.458 Y45.385 F6000
M106 S255
G1 X69.458 Y45.385 F800
M106 S0
M106 S255
G1 X69.298 Y45.249 F800
M106 S0
M106 S255
G1 X69.137 Y45.113 F800
M106 S0
M106 S255
G1 X68.976 Y44.977 F800
M106 S0
M106 S255
G1 X68.816 Y44.841 F800
M106 S0
M106 S255
G1 X68.655 Y44.705 F800
M106 S0
G0 X51.41 Y100.147 F6000
M106 S255
G1 X51.41 Y100.147 F800
M106 S0
M106 S255
G1 X51.324 Y99.974 F800
M106 S0
M106 S255
G1 X51.237 Y99.801 F800
M106 S0
M106 S255
G1 X51.151 Y99.628 F800
M106 S0
M106 S255
G1 X51.064 Y99.455 F800
M106 S0
M106 S255
G1 X50.978 Y99.282 F800
M106 S0
G0 X36.638 Y70.046 F6000
M106 S255
G1 X36.638 Y70.046 F800
M106 S0
M106 S255
G1 X36.292 Y69.997 F800
M106 S0
M106 S255
G1 X35.946 Y69.948 F800
M106 S0
M106 S255
G1 X35.6 Y69.898 F800
M106 S0
M106 S255
G1 X35.253 Y69.849 F800
M106 S0
M106 S255
G1 X34.907 Y69.799 F800
M106 S0
G0 X114.332 Y61.455 F6000
M106 S255
G1 X114.332 Y61.455 F800
M106 S0
M106 S255
G1 X114.505 Y61.406 F800
M106 S0
M106 S255
G1 X114.678 Y61.356 F800
M106 S0
M106 S255
G1 X114.851 Y61.307 F800
M106 S0
M106 S255
G1 X115.024 Y61.257 F800
M106 S0
M106 S255
G1 X115.197 Y61.208 F800
M106 S0
G0 X70.818 Y62.753 F6000
M106 S255
G1 X70.818 Y62.753 F800
M106 S0
M106 S255
G1 X70.682 Y62.605 F800
M106 S0
M106 S255
G1 X70.546 Y62.456 F800
M106 S0
M106 S255
G1 X70.41 Y62.308 F800
M106 S0
M106 S255
G1 X70.274 Y62.16 F800
M106 S0
M106 S255
G1 X70.138 Y62.011 F800
M106 S0
G0 X85.034 Y82.346 F6000
M106 S255
G1 X85.034 Y82.346 F800
M106 S0
M106 S255
G1 X84.861 Y82.186 F800
M106 S0
M106 S255
G1 X84.688 Y82.025 F800
M106 S0
M106 S255
G1 X84.515 Y81.864 F800
M106 S0
M106 S255
G1 X84.342 Y81.704 F800
M106 S0
M106 S255
G1 X84.169 Y81.543 F800
M106 S0
G0 X60.496 Y112.076 F6000
M106 S255
G1 X60.496 Y112.076 F800
M106 S0
M106 S255
G1 X60.669 Y111.965 F800
M106 S0
M106 S255
G1 X60.842 Y111.854 F800
M106 S0
M106 S255
G1 X61.015 Y111.743 F800
M106 S0
M106 S255
G1 X61.188 Y111.631 F800
M106 S0
M106 S255
G1 X61.362 Y111.52 F800
M106 S0
G0 X74.403 Y49.711 F6000
M106 S255
G1 X74.403 Y49.711 F800
M106 S0
M106 S255
G1 X74.288 Y49.632 F800
M106 S0
M106 S255
G1 X74.172 Y49.554 F800
M106 S0
M106 S255
G1 X74.056 Y49.476 F800
M106 S0
M106 S255
G1 X73.94 Y49.398 F800
M106 S0
M106 S255
G1 X73.826 Y49.318 F800
M106 S0
M106 S255
G1 X73.713 Y49.236 F800
M106 S0
M106 S255
G1 X73.603 Y49.151 F800
M106 S0
M106 S255
G1 X73.501 Y49.069 F800
M106 S0
M106 S255
G1 X73.402 Y48.983 F800
M106 S0
M106 S255
G1 X73.304 Y48.895 F800
M106 S0
M106 S255
G1 X73.208 Y48.806 F800
M106 S0
M106 S255
G1 X73.112 Y48.716 F800
M106 S0
M106 S255
G1 X73.016 Y48.626 F800
M106 S0
M106 S255
G1 X72.92 Y48.537 F800
M106 S0
G0 X22.298 Y37.226 F6000
M106 S255
G1 X22.298 Y37.226 F800
M106 S0
M106 S255
G1 X22.15 Y37.078 F800
M106 S0
M106 S255
G1 X22.002 Y36.929 F800
M106 S0
M106 S255
G1 X21.853 Y36.781 F800
M106 S0
M106 S255
G1 X21.705 Y36.633 F800
M106 S0
M106 S255
G1 X21.557 Y36.484 F800
M106 S0
G0 X71.931 Y47.61 F6000
M106 S255
G1 X71.931 Y47.61 F800
M106 S0
M106 S255
G1 X71.867 Y47.485 F800
M106 S0
M106 S255
G1 X71.796 Y47.37 F800
M106 S0
M106 S255
G1 X71.716 Y47.265 F800
M106 S0
M106 S255
G1 X71.626 Y47.174 F800
M106 S0
M106 S255
G1 X71.524 Y47.099 F800
M106 S0
M106 S255
G1 X71.408 Y47.042 F800
M106 S0
M106 S255
G1 X71.277 Y47.006 F800
M106 S0
M106 S255
G1 X71.127 Y46.992 F800
M106 S0
G0 X58.333 Y65.473 F6000
M106 S255
G1 X58.333 Y65.473 F800
M106 S0
M106 S255
G1 X58.452 Y65.522 F800
M106 S0
M106 S255
G1 X58.571 Y65.561 F800
M106 S0
M106 S255
G1 X58.689 Y65.582 F800
M106 S0
M106 S255
G1 X58.805 Y65.578 F800
M106 S0
M106 S255
G1 X58.92 Y65.539 F800
M106 S0
M106 S255
G1 X59.033 Y65.458 F800
M106 S0
M106 S255
G1 X59.144 Y65.328 F800
M106 S0
M106 S255
G1 X58.816 Y65.313 F800
M106 S0
M106 S255
G1 X58.488 Y65.299 F800
M106 S0
M106 S255
G1 X58.16 Y65.284 F800
M106 S0
M106 S255
G1 X57.833 Y65.269 F800
M106 S0
M106 S255
G1 X57.505 Y65.255 F800
M106 S0
M106 S255
G1 X57.177 Y65.24 F800
M106 S0
M106 S255
G1 X56.849 Y65.225 F800
M106 S0
G0 X107.286 Y103.547 F6000
M106 S255
G1 X107.286 Y103.547 F800
M106 S0
M106 S255
G1 X107.199 Y103.374 F800
M106 S0
M106 S255
G1 X107.112 Y103.201 F800
M106 S0
M106 S255
G1 X107.026 Y103.028 F800
M106 S0
M106 S255
G1 X106.939 Y102.855 F800
M106 S0
M106 S255
G1 X106.853 Y102.682 F800
M106 S0
G0 X15.437 Y84.757 F6000
M106 S255
G1 X15.437 Y84.757 F800
M106 S0
M106 S255
G1 X15.462 Y84.794 F800
M106 S0
M106 S255
G1 X15.487 Y84.831 F800
M106 S0
M106 S255
G1 X15.512 Y84.869 F800
M106 S0
M106 S255
G1 X15.539 Y84.908 F800
M106 S0
M106 S255
G1 X15.566 Y84.949 F800
M106 S0
M106 S255
G1 X15.595 Y84.992 F800
M106 S0
M106 S255
G1 X15.625 Y85.038 F800
M106 S0
M106 S255
G1 X15.787 Y84.934 F800
M106 S0
M106 S255
G1 X15.947 Y84.831 F800
M106 S0
M106 S255
G1 X16.106 Y84.729 F800
M106 S0
M106 S255
G1 X16.264 Y84.627 F800
M106 S0
M106 S255
G1 X16.422 Y84.526 F800
M106 S0
M106 S255
G1 X16.579 Y84.425 F800
M106 S0
M106 S255
G1 X16.735 Y84.324 F800
M106 S0
G0 X68.84 Y63.062 F6000
M106 S255
G1 X68.84 Y63.062 F800
M106 S0
M106 S255
G1 X68.457 Y62.605 F800
M106 S0
M106 S255
G1 X68.074 Y62.147 F800
M106 S0
M106 S255
G1 X67.691 Y61.69 F800
M106 S0
M106 S255
G1 X67.308 Y61.232 F800
M106 S0
M106 S255
G1 X66.924 Y60.775 F800
M106 S0
G0 X114.641 Y71.159 F6000
M106 S255
G1 X114.641 Y71.159 F800
M106 S0
M106 S255
G1 X114.703 Y70.974 F800
M106 S0
M106 S255
G1 X114.764 Y70.788 F800
M106 S0
M106 S255
G1 X114.826 Y70.603 F800
M106 S0
M106 S255
G1 X114.888 Y70.417 F800
M106 S0
M106 S255
G1 X114.95 Y70.232 F800
M106 S0
G0 X63.957 Y63.0 F6000
M106 S255
G1 X63.957 Y63.0 F800
M106 S0
M106 S255
G1 X63.797 Y62.839 F800
M106 S0
M106 S255
G1 X63.636 Y62.679 F800
M106 S0
M106 S255
G1 X63.475 Y62.518 F800
M106 S0
M106 S255
G1 X63.315 Y62.357 F800
M106 S0
M106 S255
G1 X63.154 Y62.197 F800
M106 S0
G0 X30.581 Y96.068 F6000
M106 S255
G1 X30.581 Y96.068 F800
M106 S0
M106 S255
G1 X30.58 Y95.931 F800
M106 S0
M106 S255
G1 X30.571 Y95.795 F800
M106 S0
M106 S255
G1 X30.532 Y95.526 F800
M106 S0
M106 S255
G1 X30.476 Y95.258 F800
M106 S0
M106 S255
G1 X30.414 Y94.991 F800
M106 S0
M106 S255
G1 X30.357 Y94.724 F800
M106 S0
M106 S255
G1 X30.316 Y94.454 F800
M106 S0
M106 S255
G1 X30.305 Y94.318 F800
M106 S0
M106 S255
G1 X30.302 Y94.181 F800
M106 S0
M106 S255
G1 X30.309 Y94.043 F800
M106 S0
M106 S255
G1 X30.327 Y93.904 F800
M106 S0
M106 S255
G1 X30.326 Y93.883 F800
M106 S0
M106 S255
G1 X30.318 Y93.861 F800
M106 S0
M106 S255
G1 X30.287 Y93.815 F800
M106 S0
M106 S255
G1 X30.21 Y93.719 F800
M106 S0
G0 X62.474 Y107.873 F6000
M106 S255
G1 X62.474 Y107.873 F800
M106 S0
M106 S255
G1 X62.486 Y107.688 F800
M106 S0
M106 S255
G1 X62.499 Y107.503 F800
M106 S0
M106 S255
G1 X62.511 Y107.317 F800
M106 S0
M106 S255
G1 X62.524 Y107.132 F800
M106 S0
M106 S255
G1 X62.536 Y106.946 F800
M106 S0
G0 X30.642 Y98.231 F6000
M106 S255
G1 X30.642 Y98.231 F800
M106 S0
M106 S255
G1 X30.678 Y98.351 F800
M106 S0
M106 S255
G1 X30.713 Y98.472 F800
M106 S0
M106 S255
G1 X30.749 Y98.595 F800
M106 S0
M106 S255
G1 X30.785 Y98.72 F800
M106 S0
M106 S255
G1 X30.823 Y98.848 F800
M106 S0
M106 S255
G1 X30.861 Y98.98 F800
M106 S0
M106 S255
G1 X30.902 Y99.117 F800
M106 S0
M106 S255
G1 X30.895 Y99.226 F800
M106 S0
M106 S255
G1 X30.793 Y99.267 F800
M106 S0
M106 S255
G1 X30.69 Y99.308 F800
M106 S0
M106 S255
G1 X30.587 Y99.35 F800
M106 S0
M106 S255
G1 X30.482 Y99.392 F800
M106 S0
M106 S255
G1 X30.373 Y99.436 F800
M106 S0
M106 S255
G1 X30.26 Y99.481 F800
M106 S0
M106 S255
G1 X30.142 Y99.529 F800
M106 S0
M106 S255
G1 X30.065 Y99.445 F800
M106 S0
M106 S255
G1 X30.012 Y99.297 F800
M106 S0
M106 S255
G1 X29.96 Y99.154 F800
M106 S0
M106 S255
G1 X29.91 Y99.015 F800
M106 S0
M106 S255
G1 X29.86 Y98.878 F800
M106 S0
M106 S255
G1 X29.811 Y98.744 F800
M106 S0
M106 S255
G1 X29.763 Y98.611 F800
M106 S0
M106 S255
G1 X29.715 Y98.479 F800
M106 S0
G0 X62.536 Y108.553 F6000
M106 S255
G1 X62.536 Y108.553 F800
M106 S0
M106 S255
G1 X62.375 Y108.368 F800
M106 S0
M106 S255
G1 X62.214 Y108.183 F800
M106 S0
M106 S255
G1 X62.054 Y107.997 F800
M106 S0
M106 S255
G1 X61.893 Y107.812 F800
M106 S0
M106 S255
G1 X61.732 Y107.626 F800
M106 S0
G0 X73.661 Y49.093 F6000
M106 S255
G1 X73.661 Y49.093 F800
M106 S0
M106 S255
G1 X73.538 Y48.996 F800
M106 S0
M106 S255
G1 X73.414 Y48.899 F800
M106 S0
M106 S255
G1 X73.291 Y48.802 F800
M106 S0
M106 S255
G1 X73.167 Y48.705 F800
M106 S0
M106 S255
G1 X73.043 Y48.608 F800
M106 S0
M106 S255
G1 X72.92 Y48.51 F800
M106 S0
M106 S255
G1 X72.796 Y48.413 F800
M106 S0
M106 S255
G1 X72.673 Y48.316 F800
M106 S0
M106 S255
G1 X72.549 Y48.219 F800
M106 S0
M106 S255
G1 X72.425 Y48.122 F800
M106 S0
M106 S255
G1 X72.302 Y48.025 F800
M106 S0
M106 S255
G1 X72.178 Y47.928 F800
M106 S0
M106 S255
G1 X72.054 Y47.831 F800
M106 S0
M106 S255
G1 X71.931 Y47.733 F800
M106 S0
G0 X32.311 Y85.251 F6000
M106 S255
G1 X32.311 Y85.251 F800
M106 S0
M106 S255
G1 X32.011 Y85.23 F800
M106 S0
M106 S255
G1 X31.709 Y85.208 F800
M106 S0
M106 S255
G1 X31.406 Y85.187 F800
M106 S0
M106 S255
G1 X31.102 Y85.165 F800
M106 S0
M106 S255
G1 X30.794 Y85.143 F800
M106 S0
M106 S255
G1 X30.484 Y85.121 F800
M106 S0
M106 S255
G1 X30.169 Y85.098 F800
M106 S0
M106 S255
G1 X30.079 Y85.158 F800
M106 S0
M106 S255
G1 X29.984 Y85.221 F800
M106 S0
M106 S255
G1 X29.885 Y85.286 F800
M106 S0
M106 S255
G1 X29.784 Y85.353 F800
M106 S0
M106 S255
G1 X29.68 Y85.421 F800
M106 S0
M106 S255
G1 X29.574 Y85.49 F800
M106 S0
M106 S255
G1 X29.468 Y85.56 F800
M106 S0
G0 X62.474 Y45.632 F6000
M106 S255
G1 X62.474 Y45.632 F800
M106 S0
M106 S255
G1 X62.647 Y45.446 F800
M106 S0
M106 S255
G1 X62.82 Y45.261 F800
M106 S0
M106 S255
G1 X62.993 Y45.076 F800
M106 S0
M106 S255
G1 X63.166 Y44.89 F800
M106 S0
M106 S255
G1 X63.339 Y44.705 F800
M106 S0
G0 X72.796 Y48.351 F6000
M106 S255
G1 X72.796 Y48.351 F800
M106 S0
M106 S255
G1 X72.702 Y48.193 F800
M106 S0
M106 S255
G1 X72.599 Y48.049 F800
M106 S0
M106 S255
G1 X72.483 Y47.923 F800
M106 S0
M106 S255
G1 X72.42 Y47.868 F800
M106 S0
M106 S255
G1 X72.353 Y47.818 F800
M106 S0
M106 S255
G1 X72.281 Y47.775 F800
M106 S0
M106 S255
G1 X72.205 Y47.738 F800
M106 S0
M106 S255
G1 X72.125 Y47.709 F800
M106 S0
M106 S255
G1 X72.039 Y47.687 F800
M106 S0
M106 S255
G1 X71.947 Y47.672 F800
M106 S0
M106 S255
G1 X71.85 Y47.666 F800
M106 S0
M106 S255
G1 X71.746 Y47.669 F800
M106 S0
M106 S255
G1 X71.636 Y47.68 F800
M106 S0
M106 S255
G1 X71.499 Y47.53 F800
M106 S0
M106 S255
G1 X71.357 Y47.374 F800
M106 S0
M106 S255
G1 X71.066 Y47.053 F800
M106 S0
G0 X31.693 Y90.814 F6000
M106 S255
G1 X31.693 Y90.814 F800
M106 S0
M106 S255
G1 X31.682 Y90.765 F800
M106 S0
M106 S255
G1 X31.669 Y90.72 F800
M106 S0
M106 S255
G1 X31.655 Y90.68 F800
M106 S0
M106 S255
G1 X31.639 Y90.643 F800
M106 S0
M106 S255
G1 X31.621 Y90.61 F800
M106 S0
M106 S255
G1 X31.601 Y90.581 F800
M106 S0
M106 S255
G1 X31.558 Y90.532 F800
M106 S0
M106 S255
G1 X31.51 Y90.495 F800
M106 S0
M106 S255
G1 X31.457 Y90.469 F800
M106 S0
M106 S255
G1 X31.401 Y90.451 F800
M106 S0
M106 S255
G1 X31.341 Y90.441 F800
M106 S0
M106 S255
G1 X31.279 Y90.437 F800
M106 S0
M106 S255
G1 X31.215 Y90.437 F800
M106 S0
M106 S255
G1 X31.084 Y90.444 F800
M106 S0
M106 S255
G1 X30.953 Y90.45 F800
M106 S0
M106 S255
G1 X30.889 Y90.449 F800
M106 S0
M106 S255
G1 X30.828 Y90.443 F800
M106 S0
G0 X30.581 Y83.521 F6000
M106 S255
G1 X30.581 Y83.521 F800
M106 S0
M106 S255
G1 X30.725 Y83.464 F800
M106 S0
M106 S255
G1 X30.87 Y83.418 F800
M106 S0
M106 S255
G1 X31.015 Y83.383 F800
M106 S0
M106 S255
G1 X31.161 Y83.357 F800
M106 S0
M106 S255
G1 X31.307 Y83.339 F800
M106 S0
M106 S255
G1 X31.454 Y83.328 F800
M106 S0
M106 S255
G1 X31.748 Y83.325 F800
M106 S0
M106 S255
G1 X32.043 Y83.338 F800
M106 S0
M106 S255
G1 X32.339 Y83.36 F800
M106 S0
M106 S255
G1 X32.634 Y83.382 F800
M106 S0
M106 S255
G1 X32.929 Y83.397 F800
M106 S0
G0 X20.135 Y94.152 F6000
M106 S255
G1 X20.135 Y94.152 F800
M106 S0
M106 S255
G1 X19.937 Y94.065 F800
M106 S0
M106 S255
G1 X19.739 Y93.979 F800
M106 S0
M106 S255
G1 X19.542 Y93.892 F800
M106 S0
M106 S255
G1 X19.344 Y93.806 F800
M106 S0
M106 S255
G1 X19.146 Y93.719 F800
M106 S0
G0 X76.196 Y113.374 F6000
M106 S255
G1 X76.196 Y113.374 F800
M106 S0
M106 S255
G1 X76.196 Y113.279 F800
M106 S0
M106 S255
G1 X76.196 Y113.184 F800
M106 S0
M106 S255
G1 X76.196 Y113.088 F800
M106 S0
M106 S255
G1 X76.196 Y112.993 F800
M106 S0
M106 S255
G1 X76.196 Y112.897 F800
M106 S0
M106 S255
G1 X76.196 Y112.802 F800
M106 S0
M106 S255
G1 X76.196 Y112.706 F800
M106 S0
M106 S255
G1 X76.185 Y112.637 F800
M106 S0
M106 S255
G1 X76.154 Y112.621 F800
M106 S0
M106 S255
G1 X76.123 Y112.605 F800
M106 S0
M106 S255
G1 X76.091 Y112.588 F800
M106 S0
M106 S255
G1 X76.06 Y112.572 F800
M106 S0
M106 S255
G1 X76.029 Y112.556 F800
M106 S0
M106 S255
G1 X75.998 Y112.539 F800
M106 S0
M106 S255
G1 X75.966 Y112.523 F800
M106 S0
M106 S255
G1 X75.982 Y112.506 F800
M106 S0
M106 S255
G1 X76.022 Y112.489 F800
M106 S0
M106 S255
G1 X76.061 Y112.472 F800
M106 S0
M106 S255
G1 X76.1 Y112.454 F800
M106 S0
M106 S255
G1 X76.14 Y112.437 F800
M106 S0
M106 S255
G1 X76.179 Y112.42 F800
M106 S0
M106 S255
G1 X76.218 Y112.403 F800
M106 S0
M106 S255
G1 X76.257 Y112.386 F800
M106 S0
G0 X64.699 Y75.795 F6000
M106 S255
G1 X64.699 Y75.795 F800
M106 S0
M106 S255
G1 X64.897 Y75.622 F800
M106 S0
M106 S255
G1 X65.095 Y75.449 F800
M106 S0
M106 S255
G1 X65.293 Y75.275 F800
M106 S0
M106 S255
G1 X65.49 Y75.102 F800
M106 S0
M106 S255
G1 X65.688 Y74.929 F800
M106 S0
G0 X115.197 Y89.887 F6000
M106 S255
G1 X115.197 Y89.887 F800
M106 S0
M106 S255
G1 X115.111 Y89.714 F800
M106 S0
M106 S255
G1 X115.024 Y89.541 F800
M106 S0
M106 S255
G1 X114.937 Y89.368 F800
M106 S0
M106 S255
G1 X114.851 Y89.195 F800
M106 S0
M106 S255
G1 X114.764 Y89.022 F800
M106 S0
G0 X94.8 Y112.633 F6000
M106 S255
G1 X94.8 Y112.633 F800
M106 S0
M106 S255
G1 X94.973 Y112.46 F800
M106 S0
M106 S255
G1 X95.146 Y112.287 F800
M106 S0
M106 S255
G1 X95.319 Y112.114 F800
M106 S0
M106 S255
G1 X95.492 Y111.94 F800
M106 S0
M106 S255
G1 X95.665 Y111.767 F800
M106 S0
G0 X64.699 Y49.402 F6000
M106 S255
G1 X64.699 Y49.402 F800
M106 S0
M106 S255
G1 X65.021 Y49.007 F800
M106 S0
M106 S255
G1 X65.342 Y48.611 F800
M106 S0
M106 S255
G1 X65.663 Y48.216 F800
M106 S0
M106 S255
G1 X65.985 Y47.82 F800
M106 S0
M106 S255
G1 X66.306 Y47.424 F800
M106 S0
G0 X100.734 Y87.167 F6000
M106 S255
G1 X100.734 Y87.167 F800
M106 S0
M106 S255
G1 X100.932 Y86.846 F800
M106 S0
M106 S255
G1 X101.129 Y86.525 F800
M106 S0
M106 S255
G1 X101.327 Y86.203 F800
M106 S0
M106 S255
G1 X101.525 Y85.882 F800
M106 S0
M106 S255
G1 X101.723 Y85.56 F800
M106 S0
G0 X79.904 Y65.164 F6000
M106 S255
G1 X79.904 Y65.164 F800
M106 S0
M106 S255
G1 X79.731 Y64.966 F800
M106 S0
M106 S255
G1 X79.558 Y64.768 F800
M106 S0
M106 S255
G1 X79.385 Y64.57 F800
M106 S0
M106 S255
G1 X79.212 Y64.372 F800
M106 S0
M106 S255
G1 X79.039 Y64.175 F800
M106 S0
G0 X70.386 Y61.888 F6000
M106 S255
G1 X70.386 Y61.888 F800
M106 S0
M106 S255
G1 X70.781 Y61.554 F800
M106 S0
M106 S255
G1 X71.177 Y61.22 F800
M106 S0
M106 S255
G1 X71.572 Y60.886 F800
M106 S0
M106 S255
G1 X71.968 Y60.553 F800
M106 S0
M106 S255
G1 X72.364 Y60.219 F800
M106 S0
G0 X21.186 Y45.508 F6000
M106 S255
G1 X21.186 Y45.508 F800
M106 S0
M106 S255
G1 X21.255 Y45.45 F800
M106 S0
M106 S255
G1 X21.324 Y45.407 F800
M106 S0
M106 S255
G1 X21.392 Y45.377 F800
M106 S0
M106 S255
G1 X21.459 Y45.36 F800
M106 S0
M106 S255
G1 X21.526 Y45.353 F800
M106 S0
M106 S255
G1 X21.593 Y45.355 F800
M106 S0
M106 S255
G1 X21.66 Y45.364 F800
M106 S0
M106 S255
G1 X21.728 Y45.379 F800
M106 S0
M106 S255
G1 X21.864 Y45.419 F800
M106 S0
M106 S255
G1 X22.003 Y45.463 F800
M106 S0
M106 S255
G1 X22.147 Y45.498 F800
M106 S0
M106 S255
G1 X22.221 Y45.507 F800
M106 S0
M106 S255
G1 X22.297 Y45.51 F800
M106 S0
M106 S255
G1 X22.329 Y45.494 F800
M106 S0
M106 S255
G1 X22.366 Y45.475 F800
M106 S0
M106 S255
G1 X22.409 Y45.454 F800
M106 S0
M106 S255
G1 X22.456 Y45.43 F800
M106 S0
M106 S255
G1 X22.559 Y45.378 F800
M106 S0
M106 S255
G1 X22.669 Y45.323 F800
M106 S0
G0 X79.101 Y85.684 F6000
M106 S255
G1 X79.101 Y85.684 F800
M106 S0
M106 S255
G1 X79.731 Y85.14 F800
M106 S0
M106 S255
G1 X80.362 Y84.596 F800
M106 S0
M106 S255
G1 X80.992 Y84.052 F800
M106 S0
M106 S255
G1 X81.622 Y83.508 F800
M106 S0
M106 S255
G1 X82.253 Y82.964 F800
M106 S0
G0 X68.717 Y65.967 F6000
M106 S255
G1 X68.717 Y65.967 F800
M106 S0
M106 S255
G1 X68.47 Y65.67 F800
M106 S0
M106 S255
G1 X68.222 Y65.374 F800
M106 S0
M106 S255
G1 X67.975 Y65.077 F800
M106 S0
M106 S255
G1 X67.728 Y64.78 F800
M106 S0
M106 S255
G1 X67.481 Y64.484 F800
M106 S0
G0 X48.567 Y63.989 F6000
M106 S255
G1 X48.567 Y63.989 F800
M106 S0
M106 S255
G1 X48.599 Y63.849 F800
M106 S0
M106 S255
G1 X48.632 Y63.708 F800
M106 S0
M106 S255
G1 X48.665 Y63.566 F800
M106 S0
M106 S255
G1 X48.698 Y63.423 F800
M106 S0
M106 S255
G1 X48.731 Y63.278 F800
M106 S0
M106 S255
G1 X48.765 Y63.131 F800
M106 S0
M106 S255
G1 X48.8 Y62.981 F800
M106 S0
M106 S255
G1 X48.851 Y62.894 F800
M106 S0
M106 S255
G1 X48.929 Y62.934 F800
M106 S0
M106 S255
G1 X48.996 Y62.968 F800
M106 S0
M106 S255
G1 X49.054 Y62.998 F800
M106 S0
M106 S255
G1 X49.104 Y63.023 F800
M106 S0
M106 S255
G1 X49.147 Y63.045 F800
M106 S0
M106 S255
G1 X49.184 Y63.064 F800
M106 S0
M106 S255
G1 X49.217 Y63.081 F800
M106 S0
M106 S255
G1 X49.218 Y63.181 F800
M106 S0
M106 S255
G1 X49.204 Y63.32 F800
M106 S0
M106 S255
G1 X49.19 Y63.456 F800
M106 S0
M106 S255
G1 X49.176 Y63.591 F800
M106 S0
M106 S255
G1 X49.163 Y63.723 F800
M106 S0
M106 S255
G1 X49.15 Y63.854 F800
M106 S0
M106 S255
G1 X49.136 Y63.983 F800
M106 S0
M106 S255
G1 X49.123 Y64.113 F800
M106 S0
G0 X29.221 Y53.296 F6000
M106 S255
G1 X29.221 Y53.296 F800
M106 S0
M106 S255
G1 X29.307 Y52.876 F800
M106 S0
M106 S255
G1 X29.394 Y52.456 F800
M106 S0
M106 S255
G1 X29.48 Y52.035 F800
M106 S0
M106 S255
G1 X29.567 Y51.615 F800
M106 S0
M106 S255
G1 X29.654 Y51.195 F800
M106 S0
G0 X19.084 Y92.298 F6000
M106 S255
G1 X19.084 Y92.298 F800
M106 S0
M106 S255
G1 X18.874 Y92.248 F800
M106 S0
M106 S255
G1 X18.664 Y92.199 F800
M106 S0
M106 S255
G1 X18.454 Y92.149 F800
M106 S0
M106 S255
G1 X18.244 Y92.1 F800
M106 S0
M106 S255
G1 X18.033 Y92.05 F800
M106 S0
G0 X9.937 Y35.928 F6000
M106 S255
G1 X9.937 Y35.928 F800
M106 S0
M106 S255
G1 X9.929 Y35.968 F800
M106 S0
M106 S255
G1 X9.916 Y36.008 F800
M106 S0
M106 S255
G1 X9.897 Y36.047 F800
M106 S0
M106 S255
G1 X9.874 Y36.086 F800
M106 S0
M106 S255
G1 X9.77 Y36.242 F800
M106 S0
M106 S255
G1 X9.748 Y36.282 F800
M106 S0
M106 S255
G1 X9.73 Y36.322 F800
M106 S0
M106 S255
G1 X9.716 Y36.362 F800
M106 S0
M106 S255
G1 X9.71 Y36.404 F800
M106 S0
M106 S255
G1 X9.711 Y36.446 F800
M106 S0
M106 S255
G1 X9.721 Y36.489 F800
M106 S0
M106 S255
G1 X9.742 Y36.533 F800
M106 S0
M106 S255
G1 X9.775 Y36.579 F800
M106 S0
M106 S255
G1 X9.821 Y36.625 F800
M106 S0
M106 S255
G1 X9.849 Y36.649 F800
M106 S0
M106 S255
G1 X9.881 Y36.674 F800
M106 S0
M106 S255
G1 X9.899 Y36.686 F800
M106 S0
M106 S255
G1 X9.902 Y36.687 F800
M106 S0
M106 S255
G1 X9.903 Y36.685 F800
M106 S0
M106 S255
G1 X9.905 Y36.681 F800
M106 S0
M106 S255
G1 X9.914 Y36.666 F800
M106 S0
M106 S255
G1 X9.931 Y36.635 F800
M106 S0
M106 S255
G1 X9.999 Y36.512 F800
M106 S0
M106 S255
G1 X10.135 Y36.268 F800
M106 S0
M106 S255
G1 X10.203 Y36.147 F800
M106 S0
M106 S255
G1 X10.212 Y36.132 F800
M106 S0
M106 S255
G1 X10.215 Y36.126 F800
M106 S0
M106 S255
G1 X10.22 Y36.119 F800
M106 S0
M106 S255
G1 X10.231 Y36.103 F800
M106 S0
M106 S255
G1 X10.272 Y36.042 F800
M106 S0
M106 S255
G1 X10.293 Y36.012 F800
M106 S0
M106 S255
G1 X10.303 Y35.996 F800
M106 S0
M106 S255
G1 X10.306 Y35.992 F800
M106 S0
M106 S255
G1 X10.307 Y35.991 F800
M106 S0
M106 S255
G1 X10.304 Y35.989 F800
M106 S0
M106 S255
G1 X10.281 Y35.985 F800
M106 S0
M106 S255
G1 X10.094 Y35.956 F800
M106 S0
M106 S255
G1 X9.907 Y35.926 F800
M106 S0
M106 S255
G1 X9.884 Y35.922 F800
M106 S0
M106 S255
G1 X9.881 Y35.92 F800
M106 S0
M106 S255
G1 X9.882 Y35.918 F800
M106 S0
M106 S255
G1 X9.886 Y35.913 F800
M106 S0
M106 S255
G1 X9.899 Y35.893 F800
M106 S0
M106 S255
G1 X9.924 Y35.854 F800
M106 S0
M106 S255
G1 X9.976 Y35.776 F800
M106 S0
M106 S255
G1 X9.989 Y35.756 F800
M106 S0
M106 S255
G1 X9.996 Y35.747 F800
M106 S0
M106 S255
G1 X10.0 Y35.742 F800
M106 S0
M106 S255
G1 X10.008 Y35.742 F800
M106 S0
M106 S255
G1 X10.074 Y35.742 F800
M106 S0
M106 S255
G1 X10.134 Y35.742 F800
M106 S0
M106 S255
G1 X10.159 Y35.742 F800
M106 S0
M106 S255
G1 X10.181 Y35.742 F800
M106 S0
M106 S255
G1 X10.198 Y35.742 F800
M106 S0
M106 S255
G1 X10.209 Y35.742 F800
M106 S0
M106 S255
G1 X10.213 Y35.742 F800
M106 S0
M106 S255
G1 X10.214 Y35.742 F800
M106 S0
M106 S255
G1 X10.214 Y35.742 F800
M106 S0
M106 S255
G1 X10.215 Y35.742 F800
M106 S0
M106 S255
G1 X10.216 Y35.739 F800
M106 S0
M106 S255
G1 X10.228 Y35.713 F800
M106 S0
M106 S255
G1 X10.323 Y35.511 F800
M106 S0
M106 S255
G1 X10.508 Y35.112 F800
M106 S0
M106 S255
G1 X10.69 Y34.721 F800
M106 S0
M106 S255
G1 X11.049 Y33.95 F800
M106 S0
G0 X86.641 Y86.92 F6000
M106 S255
G1 X86.641 Y86.92 F800
M106 S0
M106 S255
G1 X86.864 Y86.722 F800
M106 S0
M106 S255
G1 X87.086 Y86.525 F800
M106 S0
M106 S255
G1 X87.309 Y86.327 F800
M106 S0
M106 S255
G1 X87.531 Y86.129 F800
M106 S0
M106 S255
G1 X87.754 Y85.931 F800
M106 S0
G0 X89.237 Y87.971 F6000
M106 S255
G1 X89.237 Y87.971 F800
M106 S0
M106 S255
G1 X89.002 Y87.637 F800
M106 S0
M106 S255
G1 X88.768 Y87.303 F800
M106 S0
M106 S255
G1 X88.533 Y86.97 F800
M106 S0
M106 S255
G1 X88.298 Y86.636 F800
M106 S0
M106 S255
G1 X88.063 Y86.302 F800
M106 S0
G0 X22.731 Y64.484 F6000
M106 S255
G1 X22.731 Y64.484 F800
M106 S0
M106 S255
G1 X22.508 Y64.447 F800
M106 S0
M106 S255
G1 X22.286 Y64.409 F800
M106 S0
M106 S255
G1 X22.063 Y64.372 F800
M106 S0
M106 S255
G1 X21.841 Y64.335 F800
M106 S0
M106 S255
G1 X21.618 Y64.298 F800
M106 S0
G0 X43.252 Y64.545 F6000
M106 S255
G1 X43.252 Y64.545 F800
M106 S0
M106 S255
G1 X43.029 Y64.533 F800
M106 S0
M106 S255
G1 X42.806 Y64.521 F800
M106 S0
M106 S255
G1 X42.584 Y64.508 F800
M106 S0
M106 S255
G1 X42.361 Y64.496 F800
M106 S0
M106 S255
G1 X42.139 Y64.484 F800
M106 S0
G0 X36.453 Y99.097 F6000
M106 S255
G1 X36.453 Y99.097 F800
M106 S0
M106 S255
G1 X36.23 Y99.022 F800
M106 S0
M106 S255
G1 X36.008 Y98.948 F800
M106 S0
M106 S255
G1 X35.785 Y98.874 F800
M106 S0
M106 S255
G1 X35.562 Y98.8 F800
M106 S0
M106 S255
G1 X35.34 Y98.726 F800
M106 S0
G0 X20.135 Y77.525 F6000
M106 S255
G1 X20.135 Y77.525 F800
M106 S0
M106 S255
G1 X19.912 Y77.439 F800
M106 S0
M106 S255
G1 X19.69 Y77.352 F800
M106 S0
M106 S255
G1 X19.467 Y77.266 F800
M106 S0
M106 S255
G1 X19.245 Y77.179 F800
M106 S0
M106 S255
G1 X19.022 Y77.093 F800
M106 S0
G0 X4.559 Y21.712 F6000
M106 S255
G1 X4.559 Y21.712 F800
M106 S0
M106 S255
G1 X4.615 Y21.763 F800
M106 S0
M106 S255
G1 X4.666 Y21.801 F800
M106 S0
M106 S255
G1 X4.714 Y21.828 F800
M106 S0
M106 S255
G1 X4.758 Y21.843 F800
M106 S0
M106 S255
G1 X4.799 Y21.849 F800
M106 S0
M106 S255
G1 X4.837 Y21.845 F800
M106 S0
M106 S255
G1 X4.872 Y21.834 F800
M106 S0
M106 S255
G1 X4.904 Y21.815 F800
M106 S0
M106 S255
G1 X4.935 Y21.79 F800
M106 S0
M106 S255
G1 X4.963 Y21.76 F800
M106 S0
M106 S255
G1 X5.016 Y21.689 F800
M106 S0
M106 S255
G1 X5.114 Y21.526 F800
M106 S0
M106 S255
G1 X5.364 Y21.095 F800
M106 S0
M106 S255
G1 X5.61 Y20.661 F800
M106 S0
G0 X80.955 Y61.208 F6000
M106 S255
G1 X80.955 Y61.208 F800
M106 S0
M106 S255
G1 X80.522 Y60.985 F800
M106 S0
M106 S255
G1 X80.09 Y60.763 F800
M106 S0
M106 S255
G1 X79.657 Y60.54 F800
M106 S0
M106 S255
G1 X79.224 Y60.318 F800
M106 S0
M106 S255
G1 X78.792 Y60.095 F800
M106 S0
G0 X10.122 Y37.782 F6000
M106 S255
G1 X10.122 Y37.782 F800
M106 S0
M106 S255
G1 X10.085 Y37.56 F800
M106 S0
M106 S255
G1 X10.048 Y37.337 F800
M106 S0
M106 S255
G1 X10.011 Y37.115 F800
M106 S0
M106 S255
G1 X9.974 Y36.892 F800
M106 S0
M106 S255
G1 X9.937 Y36.67 F800
M106 S0
G0 X87.939 Y107.441 F6000
M106 S255
G1 X87.939 Y107.441 F800
M106 S0
M106 S255
G1 X87.717 Y107.453 F800
M106 S0
M106 S255
G1 X87.494 Y107.466 F800
M106 S0
M106 S255
G1 X87.272 Y107.478 F800
M106 S0
M106 S255
G1 X87.049 Y107.49 F800
M106 S0
M106 S255
G1 X86.827 Y107.503 F800
M106 S0
G0 X98.138 Y115.723 F6000
M106 S255
G1 X98.138 Y115.723 F800
M106 S0
M106 S255
G1 X98.373 Y115.451 F800
M106 S0
M106 S255
G1 X98.608 Y115.179 F800
M106 S0
M106 S255
G1 X98.842 Y114.907 F800
M106 S0
M106 S255
G1 X99.077 Y114.635 F800
M106 S0
M106 S255
G1 X99.312 Y114.363 F800
M106 S0
G0 X61.547 Y65.534 F6000
M106 S255
G1 X61.547 Y65.534 F800
M106 S0
M106 S255
G1 X61.712 Y65.317 F800
M106 S0
M106 S255
G1 X61.87 Y65.114 F800
M106 S0
M106 S255
G1 X62.022 Y64.926 F800
M106 S0
M106 S255
G1 X62.168 Y64.752 F800
M106 S0
M106 S255
G1 X62.309 Y64.593 F800
M106 S0
M106 S255
G1 X62.446 Y64.447 F800
M106 S0
M106 S255
G1 X62.578 Y64.315 F800
M106 S0
M106 S255
G1 X62.707 Y64.196 F800
M106 S0
M106 S255
G1 X62.832 Y64.09 F800
M106 S0
M106 S255
G1 X62.955 Y63.996 F800
M106 S0
M106 S255
G1 X63.075 Y63.915 F800
M106 S0
M106 S255
G1 X63.193 Y63.845 F800
M106 S0
M106 S255
G1 X63.31 Y63.787 F800
M106 S0
M106 S255
G1 X63.426 Y63.74 F800
M106 S0
M106 S255
G1 X63.542 Y63.704 F800
M106 S0
M106 S255
G1 X63.657 Y63.679 F800
M106 S0
M106 S255
G1 X64.637 Y64.854 F800
M106 S0
G0 X115.197 Y74.373 F6000
M106 S255
G1 X115.197 Y74.373 F800
M106 S0
M106 S255
G1 X114.962 Y74.324 F800
M106 S0
M106 S255
G1 X114.727 Y74.274 F800
M106 S0
M106 S255
G1 X114.492 Y74.225 F800
M106 S0
M106 S255
G1 X114.258 Y74.175 F800
M106 S0
M106 S255
G1 X114.023 Y74.126 F800
M106 S0
G0 X30.21 Y79.75 F6000
M106 S255
G1 X30.21 Y79.75 F800
M106 S0
M106 S255
G1 X29.975 Y79.689 F800
M106 S0
M106 S255
G1 X29.74 Y79.627 F800
M106 S0
M106 S255
G1 X29.505 Y79.565 F800
M106 S0
M106 S255
G1 X29.27 Y79.503 F800
M106 S0
M106 S255
G1 X29.035 Y79.441 F800
M106 S0
G0 X11.605 Y32.714 F6000
M106 S255
G1 X11.605 Y32.714 F800
M106 S0
M106 S255
G1 X11.642 Y32.479 F800
M106 S0
M106 S255
G1 X11.68 Y32.244 F800
M106 S0
M106 S255
G1 X11.717 Y32.009 F800
M106 S0
M106 S255
G1 X11.754 Y31.774 F800
M106 S0
M106 S255
G1 X11.791 Y31.539 F800
M106 S0
G0 X108.707 Y102.743 F6000
M106 S255
G1 X108.707 Y102.743 F800
M106 S0
M106 S255
G1 X108.559 Y102.508 F800
M106 S0
M106 S255
G1 X108.41 Y102.274 F800
M106 S0
M106 S255
G1 X108.262 Y102.039 F800
M106 S0
M106 S255
G1 X108.114 Y101.804 F800
M106 S0
M106 S255
G1 X107.965 Y101.569 F800
M106 S0
G0 X83.118 Y64.236 F6000
M106 S255
G1 X83.118 Y64.236 F800
M106 S0
M106 S255
G1 X82.883 Y64.459 F800
M106 S0
M106 S255
G1 X82.649 Y64.681 F800
M106 S0
M106 S255
G1 X82.414 Y64.904 F800
M106 S0
M106 S255
G1 X82.179 Y65.126 F800
M106 S0
M106 S255
G1 X81.944 Y65.349 F800
M106 S0
G0 X9.875 Y73.57 F6000
M106 S255
G1 X9.875 Y73.57 F800
M106 S0
M106 S255
G1 X9.986 Y73.335 F800
M106 S0
M106 S255
G1 X10.097 Y73.1 F800
M106 S0
M106 S255
G1 X10.208 Y72.865 F800
M106 S0
M106 S255
G1 X10.32 Y72.63 F800
M106 S0
M106 S255
G1 X10.431 Y72.395 F800
M106 S0
G0 X76.134 Y51.133 F6000
M106 S255
G1 X76.134 Y51.133 F800
M106 S0
M106 S255
G1 X75.887 Y50.91 F800
M106 S0
M106 S255
G1 X75.639 Y50.688 F800
M106 S0
M106 S255
G1 X75.392 Y50.465 F800
M106 S0
M106 S255
G1 X75.145 Y50.243 F800
M106 S0
M106 S255
G1 X74.898 Y50.02 F800
M106 S0
G0 X36.762 Y66.956 F6000
M106 S255
G1 X36.762 Y66.956 F800
M106 S0
M106 S255
G1 X36.514 Y66.907 F800
M106 S0
M106 S255
G1 X36.267 Y66.857 F800
M106 S0
M106 S255
G1 X36.02 Y66.808 F800
M106 S0
M106 S255
G1 X35.773 Y66.758 F800
M106 S0
M106 S255
G1 X35.525 Y66.709 F800
M106 S0
G0 X89.299 Y70.726 F6000
M106 S255
G1 X89.299 Y70.726 F800
M106 S0
M106 S255
G1 X89.372 Y70.65 F800
M106 S0
M106 S255
G1 X89.441 Y70.572 F800
M106 S0
M106 S255
G1 X89.505 Y70.493 F800
M106 S0
M106 S255
G1 X89.565 Y70.411 F800
M106 S0
M106 S255
G1 X89.622 Y70.329 F800
M106 S0
M106 S255
G1 X89.674 Y70.244 F800
M106 S0
M106 S255
G1 X89.77 Y70.072 F800
M106 S0
M106 S255
G1 X89.853 Y69.894 F800
M106 S0
M106 S255
G1 X89.927 Y69.713 F800
M106 S0
M106 S255
G1 X89.992 Y69.528 F800
M106 S0
M106 S255
G1 X90.05 Y69.34 F800
M106 S0
M106 S255
G1 X90.152 Y68.959 F800
M106 S0
M106 S255
G1 X90.248 Y68.575 F800
M106 S0
M106 S255
G1 X90.297 Y68.384 F800
M106 S0
M106 S255
G1 X90.35 Y68.194 F800
M106 S0
M106 S255
G1 X90.408 Y68.006 F800
M106 S0
M106 S255
G1 X90.474 Y67.821 F800
M106 S0
G0 X30.704 Y52.431 F6000
M106 S255
G1 X30.704 Y52.431 F800
M106 S0
M106 S255
G1 X30.543 Y52.451 F800
M106 S0
M106 S255
G1 X30.383 Y52.464 F800
M106 S0
M106 S255
G1 X30.226 Y52.471 F800
M106 S0
M106 S255
G1 X30.07 Y52.471 F800
M106 S0
M106 S255
G1 X29.917 Y52.463 F800
M106 S0
M106 S255
G1 X29.766 Y52.447 F800
M106 S0
M106 S255
G1 X29.617 Y52.423 F800
M106 S0
M106 S255
G1 X29.472 Y52.39 F800
M106 S0
M106 S255
G1 X29.329 Y52.347 F800
M106 S0
M106 S255
G1 X29.189 Y52.295 F800
M106 S0
M106 S255
G1 X29.052 Y52.232 F800
M106 S0
M106 S255
G1 X28.918 Y52.159 F800
M106 S0
M106 S255
G1 X28.788 Y52.075 F800
M106 S0
M106 S255
G1 X28.661 Y51.979 F800
M106 S0
M106 S255
G1 X28.537 Y51.871 F800
M106 S0
M106 S255
G1 X28.418 Y51.75 F800
M106 S0
M106 S255
G1 X28.354 Y51.677 F800
M106 S0
M106 S255
G1 X28.297 Y51.601 F800
M106 S0
M106 S255
G1 X28.247 Y51.524 F800
M106 S0
M106 S255
G1 X28.202 Y51.445 F800
M106 S0
M106 S255
G1 X28.164 Y51.364 F800
M106 S0
M106 S255
G1 X28.131 Y51.282 F800
M106 S0
M106 S255
G1 X28.081 Y51.113 F800
M106 S0
M106 S255
G1 X28.05 Y50.938 F800
M106 S0
M106 S255
G1 X28.036 Y50.76 F800
M106 S0
M106 S255
G1 X28.035 Y50.577 F800
M106 S0
M106 S255
G1 X28.047 Y50.391 F800
M106 S0
G0 X87.754 Y75.424 F6000
M106 S255
G1 X87.754 Y75.424 F800
M106 S0
M106 S255
G1 X87.507 Y75.337 F800
M106 S0
M106 S255
G1 X87.259 Y75.251 F800
M106 S0
M106 S255
G1 X87.012 Y75.164 F800
M106 S0
M106 S255
G1 X86.765 Y75.078 F800
M106 S0
M106 S255
G1 X86.518 Y74.991 F800
M106 S0
G0 X93.626 Y71.715 F6000
M106 S255
G1 X93.626 Y71.715 F800
M106 S0
M106 S255
G1 X93.873 Y71.629 F800
M106 S0
M106 S255
G1 X94.12 Y71.542 F800
M106 S0
M106 S255
G1 X94.367 Y71.456 F800
M106 S0
M106 S255
G1 X94.615 Y71.369 F800
M106 S0
M106 S255
G1 X94.862 Y71.283 F800
M106 S0
G0 X6.29 Y20.599 F6000
M106 S255
G1 X6.29 Y20.599 F800
M106 S0
M106 S255
G1 X6.2 Y20.599 F800
M106 S0
M106 S255
G1 X6.11 Y20.599 F800
M106 S0
M106 S255
G1 X6.016 Y20.599 F800
M106 S0
M106 S255
G1 X5.919 Y20.599 F800
M106 S0
M106 S255
G1 X5.816 Y20.599 F800
M106 S0
M106 S255
G1 X5.707 Y20.599 F800
M106 S0
M106 S255
G1 X5.59 Y20.599 F800
M106 S0
M106 S255
G1 X5.604 Y20.487 F800
M106 S0
M106 S255
G1 X5.616 Y20.382 F800
M106 S0
M106 S255
G1 X5.628 Y20.282 F800
M106 S0
M106 S255
G1 X5.64 Y20.188 F800
M106 S0
M106 S255
G1 X5.65 Y20.096 F800
M106 S0
M106 S255
G1 X5.661 Y20.007 F800
M106 S0
M106 S255
G1 X5.672 Y19.919 F800
M106 S0
G0 X64.328 Y80.307 F6000
M106 S255
G1 X64.328 Y80.307 F800
M106 S0
M106 S255
G1 X64.056 Y79.998 F800
M106 S0
M106 S255
G1 X63.784 Y79.689 F800
M106 S0
M106 S255
G1 X63.512 Y79.38 F800
M106 S0
M106 S255
G1 X63.241 Y79.071 F800
M106 S0
M106 S255
G1 X62.969 Y78.761 F800
M106 S0
G0 X84.416 Y88.836 F6000
M106 S255
G1 X84.416 Y88.836 F800
M106 S0
M106 S255
G1 X84.544 Y88.78 F800
M106 S0
M106 S255
G1 X84.666 Y88.717 F800
M106 S0
M106 S255
G1 X84.783 Y88.649 F800
M106 S0
M106 S255
G1 X84.896 Y88.577 F800
M106 S0
M106 S255
G1 X85.005 Y88.5 F800
M106 S0
M106 S255
G1 X85.111 Y88.419 F800
M106 S0
M106 S255
G1 X85.311 Y88.246 F800
M106 S0
M106 S255
G1 X85.5 Y88.064 F800
M106 S0
M106 S255
G1 X85.679 Y87.875 F800
M106 S0
M106 S255
G1 X86.022 Y87.492 F800
M106 S0
M106 S255
G1 X86.19 Y87.306 F800
M106 S0
M106 S255
G1 X86.359 Y87.127 F800
M106 S0
M106 S255
G1 X86.445 Y87.042 F800
M106 S0
M106 S255
G1 X86.467 Y87.022 F800
M106 S0
M106 S255
G1 X86.472 Y87.016 F800
M106 S0
M106 S255
G1 X86.475 Y87.015 F800
M106 S0
M106 S255
G1 X86.478 Y87.016 F800
M106 S0
M106 S255
G1 X86.488 Y87.021 F800
M106 S0
M106 S255
G1 X86.529 Y87.037 F800
M106 S0
M106 S255
G1 X86.604 Y87.068 F800
M106 S0
M106 S255
G1 X86.671 Y87.096 F800
M106 S0
M106 S255
G1 X86.79 Y87.145 F800
M106 S0
M106 S255
G1 X86.818 Y87.156 F800
M106 S0
M106 S255
G1 X86.825 Y87.159 F800
M106 S0
M106 S255
G1 X86.826 Y87.16 F800
M106 S0
M106 S255
G1 X86.831 Y87.157 F800
M106 S0
M106 S255
G1 X86.843 Y87.146 F800
M106 S0
M106 S255
G1 X86.892 Y87.105 F800
M106 S0
M106 S255
G1 X87.097 Y86.934 F800
M106 S0
M106 S255
G1 X87.314 Y86.753 F800
M106 S0
M106 S255
G1 X87.538 Y86.566 F800
M106 S0
M106 S255
G1 X88.001 Y86.179 F800
M106 S0
G0 X70.138 Y70.788 F6000
M106 S255
G1 X70.138 Y70.788 F800
M106 S0
M106 S255
G1 X69.842 Y70.442 F800
M106 S0
M106 S255
G1 X69.545 Y70.096 F800
M106 S0
M106 S255
G1 X69.248 Y69.75 F800
M106 S0
M106 S255
G1 X68.952 Y69.404 F800
M106 S0
M106 S255
G1 X68.655 Y69.057 F800
M106 S0
G0 X80.46 Y46.312 F6000
M106 S255
G1 X80.46 Y46.312 F800
M106 S0
M106 S255
G1 X80.213 Y46.089 F800
M106 S0
M106 S255
G1 X79.966 Y45.867 F800
M106 S0
M106 S255
G1 X79.719 Y45.644 F800
M106 S0
M106 S255
G1 X79.472 Y45.422 F800
M106 S0
M106 S255
G1 X79.224 Y45.199 F800
M106 S0
G0 X109.634 Y115.847 F6000
M106 S255
G1 X109.634 Y115.847 F800
M106 S0
M106 S255
G1 X109.387 Y115.612 F800
M106 S0
M106 S255
G1 X109.14 Y115.377 F800
M106 S0
M106 S255
G1 X108.893 Y115.142 F800
M106 S0
M106 S255
G1 X108.645 Y114.907 F800
M106 S0
M106 S255
G1 X108.398 Y114.672 F800
M106 S0
G0 X71.127 Y99.653 F6000
M106 S255
G1 X71.127 Y99.653 F800
M106 S0
M106 S255
G1 X70.88 Y99.331 F800
M106 S0
M106 S255
G1 X70.633 Y99.01 F800
M106 S0
M106 S255
G1 X70.386 Y98.689 F800
M106 S0
M106 S255
G1 X70.138 Y98.367 F800
M106 S0
M106 S255
G1 X69.891 Y98.046 F800
M106 S0
G0 X74.094 Y75.3 F6000
M106 S255
G1 X74.094 Y75.3 F800
M106 S0
M106 S255
G1 X74.354 Y75.041 F800
M106 S0
M106 S255
G1 X74.613 Y74.781 F800
M106 S0
M106 S255
G1 X74.873 Y74.521 F800
M106 S0
M106 S255
G1 X75.133 Y74.262 F800
M106 S0
M106 S255
G1 X75.392 Y74.002 F800
M106 S0
G0 X74.898 Y60.961 F6000
M106 S255
G1 X74.898 Y60.961 F800
M106 S0
M106 S255
G1 X74.65 Y60.664 F800
M106 S0
M106 S255
G1 X74.403 Y60.367 F800
M106 S0
M106 S255
G1 X74.156 Y60.07 F800
M106 S0
M106 S255
G1 X73.909 Y59.774 F800
M106 S0
M106 S255
G1 X73.661 Y59.477 F800
M106 S0
G0 X78.297 Y58.797 F6000
M106 S255
G1 X78.297 Y58.797 F800
M106 S0
M106 S255
G1 X78.175 Y58.859 F800
M106 S0
M106 S255
G1 X78.051 Y58.92 F800
M106 S0
M106 S255
G1 X77.926 Y58.983 F800
M106 S0
M106 S255
G1 X77.798 Y59.048 F800
M106 S0
M106 S255
G1 X77.666 Y59.114 F800
M106 S0
M106 S255
G1 X77.529 Y59.182 F800
M106 S0
M106 S255
G1 X77.387 Y59.254 F800
M106 S0
M106 S255
G1 X77.204 Y59.263 F800
M106 S0
M106 S255
G1 X76.946 Y59.14 F800
M106 S0
M106 S255
G1 X76.684 Y59.014 F800
M106 S0
M106 S255
G1 X76.417 Y58.886 F800
M106 S0
M106 S255
G1 X76.147 Y58.757 F800
M106 S0
M106 S255
G1 X75.874 Y58.626 F800
M106 S0
M106 S255
G1 X75.598 Y58.494 F800
M106 S0
M106 S255
G1 X75.322 Y58.361 F800
M106 S0
M106 S255
G1 X75.255 Y58.267 F800
M106 S0
M106 S255
G1 X75.29 Y58.197 F800
M106 S0
M106 S255
G1 X75.322 Y58.133 F800
M106 S0
M106 S255
G1 X75.351 Y58.074 F800
M106 S0
M106 S255
G1 X75.379 Y58.02 F800
M106 S0
M106 S255
G1 X75.405 Y57.968 F800
M106 S0
M106 S255
G1 X75.43 Y57.919 F800
M106 S0
M106 S255
G1 X75.454 Y57.87 F800
M106 S0
G0 X82.253 Y44.458 F6000
M106 S255
G1 X82.253 Y44.458 F800
M106 S0
M106 S255
G1 X81.993 Y44.198 F800
M106 S0
M106 S255
G1 X81.734 Y43.938 F800
M106 S0
M106 S255
G1 X81.474 Y43.679 F800
M106 S0
M106 S255
G1 X81.215 Y43.419 F800
M106 S0
M106 S255
G1 X80.955 Y43.16 F800
M106 S0
G0 X18.157 Y86.364 F6000
M106 S255
G1 X18.157 Y86.364 F800
M106 S0
M106 S255
G1 X17.415 Y85.809 F800
M106 S0
M106 S255
G1 X17.23 Y85.668 F800
M106 S0
M106 S255
G1 X17.184 Y85.633 F800
M106 S0
M106 S255
G1 X17.143 Y85.602 F800
M106 S0
M106 S255
G1 X17.067 Y85.549 F800
M106 S0
M106 S255
G1 X16.991 Y85.505 F800
M106 S0
M106 S255
G1 X16.914 Y85.473 F800
M106 S0
M106 S255
G1 X16.837 Y85.452 F800
M106 S0
M106 S255
G1 X16.759 Y85.447 F800
M106 S0
M106 S255
G1 X16.679 Y85.458 F800
M106 S0
M106 S255
G1 X16.598 Y85.488 F800
M106 S0
M106 S255
G1 X16.515 Y85.539 F800
M106 S0
M106 S255
G1 X16.429 Y85.613 F800
M106 S0
M106 S255
G1 X16.386 Y85.658 F800
M106 S0
M106 S255
G1 X16.341 Y85.71 F800
M106 S0
M106 S255
G1 X16.319 Y85.739 F800
M106 S0
M106 S255
G1 X16.313 Y85.746 F800
M106 S0
M106 S255
G1 X16.309 Y85.745 F800
M106 S0
M106 S255
G1 X16.302 Y85.735 F800
M106 S0
M106 S255
G1 X16.275 Y85.695 F800
M106 S0
M106 S255
G1 X16.172 Y85.543 F800
M106 S0
M106 S255
G1 X16.075 Y85.4 F800
M106 S0
M106 S255
G1 X15.984 Y85.264 F800
M106 S0
M106 S255
G1 X15.808 Y85.004 F800
M106 S0
G0 X110.561 Y101.878 F6000
M106 S255
G1 X110.561 Y101.878 F800
M106 S0
M106 S255
G1 X110.413 Y101.618 F800
M106 S0
M106 S255
G1 X110.265 Y101.359 F800
M106 S0
M106 S255
G1 X110.116 Y101.099 F800
M106 S0
M106 S255
G1 X109.968 Y100.84 F800
M106 S0
M106 S255
G1 X109.82 Y100.58 F800
M106 S0
G0 X69.829 Y70.232 F6000
M106 S255
G1 X69.829 Y70.232 F800
M106 S0
M106 S255
G1 X70.089 Y70.009 F800
M106 S0
M106 S255
G1 X70.349 Y69.787 F800
M106 S0
M106 S255
G1 X70.608 Y69.564 F800
M106 S0
M106 S255
G1 X70.868 Y69.342 F800
M106 S0
M106 S255
G1 X71.127 Y69.119 F800
M106 S0
G0 X31.631 Y53.543 F6000
M106 S255
G1 X31.631 Y53.543 F800
M106 S0
M106 S255
G1 X31.891 Y53.506 F800
M106 S0
M106 S255
G1 X32.151 Y53.469 F800
M106 S0
M106 S255
G1 X32.41 Y53.432 F800
M106 S0
M106 S255
G1 X32.67 Y53.395 F800
M106 S0
M106 S255
G1 X32.929 Y53.358 F800
M106 S0
G0 X16.921 Y47.733 F6000
M106 S255
G1 X16.921 Y47.733 F800
M106 S0
M106 S255
G1 X16.847 Y47.474 F800
M106 S0
M106 S255
G1 X16.773 Y47.214 F800
M106 S0
M106 S255
G1 X16.698 Y46.955 F800
M106 S0
M106 S255
G1 X16.624 Y46.695 F800
M106 S0
M106 S255
G1 X16.55 Y46.435 F800
M106 S0
G0 X104.01 Y115.352 F6000
M106 S255
G1 X104.01 Y115.352 F800
M106 S0
M106 S255
G1 X103.75 Y115.08 F800
M106 S0
M106 S255
G1 X103.49 Y114.808 F800
M106 S0
M106 S255
G1 X103.231 Y114.536 F800
M106 S0
M106 S255
G1 X102.971 Y114.265 F800
M106 S0
M106 S255
G1 X102.712 Y113.993 F800
M106 S0
G0 X11.729 Y29.932 F6000
M106 S255
G1 X11.729 Y29.932 F800
M106 S0
M106 S255
G1 X11.578 Y29.825 F800
M106 S0
M106 S255
G1 X11.439 Y29.707 F800
M106 S0
M106 S255
G1 X11.311 Y29.581 F800
M106 S0
M106 S255
G1 X11.192 Y29.448 F800
M106 S0
M106 S255
G1 X11.081 Y29.308 F800
M106 S0
M106 S255
G1 X10.975 Y29.164 F800
M106 S0
M106 S255
G1 X10.778 Y28.864 F800
M106 S0
M106 S255
G1 X10.587 Y28.56 F800
M106 S0
M106 S255
G1 X10.391 Y28.259 F800
M106 S0
M106 S255
G1 X10.287 Y28.113 F800
M106 S0
M106 S255
G1 X10.177 Y27.972 F800
M106 S0
M106 S255
G1 X10.061 Y27.837 F800
M106 S0
M106 S255
G1 X9.935 Y27.709 F800
M106 S0
M106 S255
G1 X9.893 Y27.674 F800
M106 S0
M106 S255
G1 X9.847 Y27.643 F800
M106 S0
M106 S255
G1 X9.751 Y27.584 F800
M106 S0
G0 X77.803 Y49.402 F6000
M106 S255
G1 X77.803 Y49.402 F800
M106 S0
M106 S255
G1 X77.531 Y49.155 F800
M106 S0
M106 S255
G1 X77.259 Y48.908 F800
M106 S0
M106 S255
G1 X76.987 Y48.661 F800
M106 S0
M106 S255
G1 X76.715 Y48.413 F800
M106 S0
M106 S255
G1 X76.443 Y48.166 F800
M106 S0
G0 X86.209 Y56.51 F6000
M106 S255
G1 X86.209 Y56.51 F800
M106 S0
M106 S255
G1 X85.937 Y56.387 F800
M106 S0
M106 S255
G1 X85.665 Y56.263 F800
M106 S0
M106 S255
G1 X85.393 Y56.139 F800
M106 S0
M106 S255
G1 X85.121 Y56.016 F800
M106 S0
M106 S255
G1 X84.849 Y55.892 F800
M106 S0
G0 X63.154 Y63.309 F6000
M106 S255
G1 X63.154 Y63.309 F800
M106 S0
M106 S255
G1 X62.993 Y63.037 F800
M106 S0
M106 S255
G1 X62.833 Y62.765 F800
M106 S0
M106 S255
G1 X62.672 Y62.493 F800
M106 S0
M106 S255
G1 X62.511 Y62.221 F800
M106 S0
M106 S255
G1 X62.35 Y61.949 F800
M106 S0
G0 X39.048 Y63.989 F6000
M106 S255
G1 X39.048 Y63.989 F800
M106 S0
M106 S255
G1 X38.951 Y63.999 F800
M106 S0
M106 S255
G1 X38.854 Y64.01 F800
M106 S0
M106 S255
G1 X38.757 Y64.02 F800
M106 S0
M106 S255
G1 X38.66 Y64.03 F800
M106 S0
M106 S255
G1 X38.563 Y64.039 F800
M106 S0
M106 S255
G1 X38.466 Y64.044 F800
M106 S0
M106 S255
G1 X38.369 Y64.046 F800
M106 S0
M106 S255
G1 X38.271 Y64.044 F800
M106 S0
M106 S255
G1 X38.174 Y64.039 F800
M106 S0
M106 S255
G1 X38.077 Y64.03 F800
M106 S0
M106 S255
G1 X37.98 Y64.02 F800
M106 S0
M106 S255
G1 X37.883 Y64.01 F800
M106 S0
M106 S255
G1 X37.786 Y63.999 F800
M106 S0
M106 S255
G1 X37.689 Y63.989 F800
M106 S0
G0 X106.915 Y115.847 F6000
M106 S255
G1 X106.915 Y115.847 F800
M106 S0
M106 S255
G1 X107.187 Y115.6 F800
M106 S0
M106 S255
G1 X107.459 Y115.352 F800
M106 S0
M106 S255
G1 X107.731 Y115.105 F800
M106 S0
M106 S255
G1 X108.003 Y114.858 F800
M106 S0
M106 S255
G1 X108.274 Y114.611 F800
M106 S0
G0 X28.356 Y64.298 F6000
M106 S255
G1 X28.356 Y64.298 F800
M106 S0
M106 S255
G1 X28.516 Y64.026 F800
M106 S0
M106 S255
G1 X28.677 Y63.754 F800
M106 S0
M106 S255
G1 X28.838 Y63.482 F800
M106 S0
M106 S255
G1 X28.998 Y63.21 F800
M106 S0
M106 S255
G1 X29.159 Y62.938 F800
M106 S0
G0 X89.546 Y70.17 F6000
M106 S255
G1 X89.546 Y70.17 F800
M106 S0
M106 S255
G1 X89.527 Y70.073 F800
M106 S0
M106 S255
G1 X89.516 Y69.979 F800
M106 S0
M106 S255
G1 X89.515 Y69.889 F800
M106 S0
M106 S255
G1 X89.522 Y69.802 F800
M106 S0
M106 S255
G1 X89.537 Y69.718 F800
M106 S0
M106 S255
G1 X89.558 Y69.637 F800
M106 S0
M106 S255
G1 X89.621 Y69.483 F800
M106 S0
M106 S255
G1 X89.705 Y69.337 F800
M106 S0
M106 S255
G1 X89.807 Y69.199 F800
M106 S0
M106 S255
G1 X89.92 Y69.065 F800
M106 S0
M106 S255
G1 X90.041 Y68.934 F800
M106 S0
G0 X94.677 Y115.847 F6000
M106 S255
G1 X94.677 Y115.847 F800
M106 S0
M106 S255
G1 X94.405 Y115.6 F800
M106 S0
M106 S255
G1 X94.133 Y115.352 F800
M106 S0
M106 S255
G1 X93.861 Y115.105 F800
M106 S0
M106 S255
G1 X93.589 Y114.858 F800
M106 S0
M106 S255
G1 X93.317 Y114.611 F800
M106 S0
G0 X63.463 Y71.221 F6000
M106 S255
G1 X63.463 Y71.221 F800
M106 S0
M106 S255
G1 X63.551 Y71.239 F800
M106 S0
M106 S255
G1 X63.64 Y71.257 F800
M106 S0
M106 S255
G1 X63.73 Y71.275 F800
M106 S0
M106 S255
G1 X63.822 Y71.293 F800
M106 S0
M106 S255
G1 X63.915 Y71.312 F800
M106 S0
M106 S255
G1 X64.011 Y71.331 F800
M106 S0
M106 S255
G1 X64.11 Y71.351 F800
M106 S0
M106 S255
G1 X64.288 Y71.203 F800
M106 S0
M106 S255
G1 X64.468 Y71.053 F800
M106 S0
M106 S255
G1 X64.649 Y70.902 F800
M106 S0
M106 S255
G1 X64.83 Y70.751 F800
M106 S0
M106 S255
G1 X65.013 Y70.599 F800
M106 S0
M106 S255
G1 X65.196 Y70.446 F800
M106 S0
M106 S255
G1 X65.379 Y70.294 F800
M106 S0
G0 X7.279 Y17.756 F6000
M106 S255
G1 X7.279 Y17.756 F800
M106 S0
M106 S255
G1 X7.526 Y17.496 F800
M106 S0
M106 S255
G1 X7.773 Y17.237 F800
M106 S0
M106 S255
G1 X8.02 Y16.977 F800
M106 S0
M106 S255
G1 X8.268 Y16.718 F800
M106 S0
M106 S255
G1 X8.515 Y16.458 F800
M106 S0
G0 X64.328 Y80.678 F6000
M106 S255
G1 X64.328 Y80.678 F800
M106 S0
M106 S255
G1 X64.125 Y80.818 F800
M106 S0
M106 S255
G1 X63.921 Y80.959 F800
M106 S0
M106 S255
G1 X63.718 Y81.1 F800
M106 S0
M106 S255
G1 X63.515 Y81.241 F800
M106 S0
M106 S255
G1 X63.313 Y81.383 F800
M106 S0
M106 S255
G1 X63.111 Y81.527 F800
M106 S0
M106 S255
G1 X62.912 Y81.673 F800
M106 S0
M106 S255
G1 X62.883 Y81.702 F800
M106 S0
M106 S255
G1 X62.86 Y81.74 F800
M106 S0
M106 S255
G1 X62.842 Y81.783 F800
M106 S0
M106 S255
G1 X62.827 Y81.831 F800
M106 S0
M106 S255
G1 X62.813 Y81.88 F800
M106 S0
M106 S255
G1 X62.799 Y81.929 F800
M106 S0
M106 S255
G1 X62.783 Y81.976 F800
M106 S0
G0 X6.166 Y87.847 F6000
M106 S255
G1 X6.166 Y87.847 F800
M106 S0
M106 S255
G1 X5.598 Y87.501 F800
M106 S0
M106 S255
G1 X5.029 Y87.155 F800
M106 S0
M106 S255
G1 X4.46 Y86.809 F800
M106 S0
M106 S255
G1 X3.892 Y86.463 F800
M106 S0
M106 S255
G1 X3.323 Y86.117 F800
M106 S0
G0 X23.411 Y86.488 F6000
M106 S255
G1 X23.411 Y86.488 F800
M106 S0
M106 S255
G1 X23.386 Y86.365 F800
M106 S0
M106 S255
G1 X23.361 Y86.241 F800
M106 S0
M106 S255
G1 X23.336 Y86.113 F800
M106 S0
M106 S255
G1 X23.309 Y85.981 F800
M106 S0
M106 S255
G1 X23.281 Y85.842 F800
M106 S0
M106 S255
G1 X23.252 Y85.694 F800
M106 S0
M106 S255
G1 X23.22 Y85.537 F800
M106 S0
M106 S255
G1 X23.17 Y85.52 F800
M106 S0
M106 S255
G1 X23.11 Y85.501 F800
M106 S0
M106 S255
G1 X23.044 Y85.479 F800
M106 S0
M106 S255
G1 X22.971 Y85.454 F800
M106 S0
M106 S255
G1 X22.893 Y85.429 F800
M106 S0
M106 S255
G1 X22.813 Y85.402 F800
M106 S0
M106 S255
G1 X22.731 Y85.375 F800
M106 S0
G0 X12.347 Y29.5 F6000
M106 S255
G1 X12.347 Y29.5 F800
M106 S0
M106 S255
G1 X12.224 Y29.447 F800
M106 S0
M106 S255
G1 X12.1 Y29.393 F800
M106 S0
M106 S255
G1 X11.977 Y29.339 F800
M106 S0
M106 S255
G1 X11.853 Y29.286 F800
M106 S0
M106 S255
G1 X11.73 Y29.233 F800
M106 S0
M106 S255
G1 X11.606 Y29.181 F800
M106 S0
M106 S255
G1 X11.481 Y29.131 F800
M106 S0
M106 S255
G1 X11.403 Y29.101 F800
M106 S0
M106 S255
G1 X11.324 Y29.073 F800
M106 S0
M106 S255
G1 X11.245 Y29.046 F800
M106 S0
M106 S255
G1 X11.165 Y29.02 F800
M106 S0
M106 S255
G1 X11.085 Y28.995 F800
M106 S0
M106 S255
G1 X11.005 Y28.97 F800
M106 S0
M106 S255
G1 X10.925 Y28.943 F800
M106 S0
G0 X114.764 Y112.695 F6000
M106 S255
G1 X114.764 Y112.695 F800
M106 S0
M106 S255
G1 X114.48 Y112.596 F800
M106 S0
M106 S255
G1 X114.196 Y112.497 F800
M106 S0
M106 S255
G1 X113.911 Y112.398 F800
M106 S0
M106 S255
G1 X113.627 Y112.299 F800
M106 S0
M106 S255
G1 X113.343 Y112.2 F800
M106 S0
G0 X69.829 Y93.534 F6000
M106 S255
G1 X69.829 Y93.534 F800
M106 S0
M106 S255
G1 X70.423 Y93.027 F800
M106 S0
M106 S255
G1 X71.016 Y92.52 F800
M106 S0
M106 S255
G1 X71.609 Y92.013 F800
M106 S0
M106 S255
G1 X72.203 Y91.506 F800
M106 S0
M106 S255
G1 X72.796 Y91.0 F800
M106 S0
G0 X103.577 Y106.266 F6000
M106 S255
G1 X103.577 Y106.266 F800
M106 S0
M106 S255
G1 X103.379 Y105.982 F800
M106 S0
M106 S255
G1 X103.181 Y105.698 F800
M106 S0
M106 S255
G1 X102.984 Y105.413 F800
M106 S0
M106 S255
G1 X102.786 Y105.129 F800
M106 S0
M106 S255
G1 X102.588 Y104.845 F800
M106 S0
G0 X113.714 Y107.564 F6000
M106 S255
G1 X113.714 Y107.564 F800
M106 S0
M106 S255
G1 X114.004 Y107.404 F800
M106 S0
M106 S255
G1 X114.295 Y107.243 F800
M106 S0
M106 S255
G1 X114.585 Y107.082 F800
M106 S0
M106 S255
G1 X114.876 Y106.922 F800
M106 S0
M106 S255
G1 X115.166 Y106.761 F800
M106 S0
G0 X64.143 Y87.106 F6000
M106 S255
G1 X64.143 Y87.106 F800
M106 S0
M106 S255
G1 X64.002 Y87.23 F800
M106 S0
M106 S255
G1 X63.862 Y87.355 F800
M106 S0
M106 S255
G1 X63.722 Y87.48 F800
M106 S0
M106 S255
G1 X63.581 Y87.604 F800
M106 S0
M106 S255
G1 X63.439 Y87.726 F800
M106 S0
M106 S255
G1 X63.295 Y87.847 F800
M106 S0
M106 S255
G1 X63.149 Y87.964 F800
M106 S0
M106 S255
G1 X63.098 Y87.996 F800
M106 S0
M106 S255
G1 X63.041 Y88.02 F800
M106 S0
M106 S255
G1 X62.98 Y88.038 F800
M106 S0
M106 S255
G1 X62.916 Y88.053 F800
M106 S0
M106 S255
G1 X62.85 Y88.066 F800
M106 S0
M106 S255
G1 X62.785 Y88.079 F800
M106 S0
M106 S255
G1 X62.721 Y88.095 F800
M106 S0
G0 X50.421 Y64.422 F6000
M106 S255
G1 X50.421 Y64.422 F800
M106 S0
M106 S255
G1 X50.182 Y64.375 F800
M106 S0
M106 S255
G1 X49.942 Y64.329 F800
M106 S0
M106 S255
G1 X49.703 Y64.282 F800
M106 S0
M106 S255
G1 X49.463 Y64.235 F800
M106 S0
M106 S255
G1 X49.224 Y64.189 F800
M106 S0
M106 S255
G1 X48.984 Y64.144 F800
M106 S0
M106 S255
G1 X48.745 Y64.098 F800
M106 S0
M106 S255
G1 X48.505 Y64.054 F800
M106 S0
M106 S255
G1 X48.459 Y64.047 F800
M106 S0
M106 S255
G1 X48.414 Y64.043 F800
M106 S0
M106 S255
G1 X48.367 Y64.04 F800
M106 S0
M106 S255
G1 X48.32 Y64.04 F800
M106 S0
M106 S255
G1 X48.274 Y64.041 F800
M106 S0
M106 S255
G1 X48.227 Y64.044 F800
M106 S0
M106 S255
G1 X48.181 Y64.048 F800
M106 S0
M106 S255
G1 X48.135 Y64.053 F800
M106 S0
M106 S255
G1 X47.965 Y64.075 F800
M106 S0
M106 S255
G1 X47.794 Y64.097 F800
M106 S0
M106 S255
G1 X47.624 Y64.12 F800
M106 S0
M106 S255
G1 X47.454 Y64.143 F800
M106 S0
M106 S255
G1 X47.285 Y64.167 F800
M106 S0
