;GCode generated by Numa's program v0.0
G0 X-0.01 Y32.528 F6000
M106 S255
G1 X-0.01 Y32.528 F50
M106 S0
M106 S255
G1 X1.909 Y24.814 F50
M106 S0
M106 S255
G1 X1.909 Y18.67 F50
M106 S0
M106 S255
G1 X25.844 Y18.67 F50
M106 S0
M106 S255
G1 X27.902 Y41.207 F50
M106 S0
M106 S255
G1 X28.778 Y41.046 F50
M106 S0
M106 S255
G1 X30.206 Y41.046 F50
M106 S0
M106 S255
G1 X29.997 Y36.964 F50
M106 S0
M106 S255
G1 X30.618 Y36.964 F50
M106 S0
M106 S255
G1 X30.861 Y41.613 F50
M106 S0
M106 S255
G1 X32.622 Y41.613 F50
M106 S0
M106 S255
G1 X32.622 Y41.428 F50
M106 S0
M106 S255
G1 X32.992 Y41.428 F50
M106 S0
M106 S255
G1 X33.087 Y39.151 F50
M106 S0
M106 S255
G1 X33.625 Y39.151 F50
M106 S0
M106 S255
G1 X33.5 Y18.729 F50
M106 S0
M106 S255
G1 X34.657 Y20.65 F50
M106 S0
M106 S255
G1 X35.716 Y20.927 F50
M106 S0
M106 S255
G1 X36.763 Y21.191 F50
M106 S0
M106 S255
G1 X38.323 Y21.548 F50
M106 S0
M106 S255
G1 X38.87 Y21.658 F50
M106 S0
M106 S255
G1 X39.932 Y21.849 F50
M106 S0
M106 S255
G1 X40.999 Y22.015 F50
M106 S0
M106 S255
G1 X42.07 Y22.158 F50
M106 S0
M106 S255
G1 X43.143 Y22.281 F50
M106 S0
M106 S255
G1 X44.219 Y22.389 F50
M106 S0
M106 S255
G1 X45.09 Y22.467 F50
M106 S0
M106 S255
G1 X46.372 Y22.569 F50
M106 S0
M106 S255
G1 X47.449 Y22.644 F50
M106 S0
M106 S255
G1 X48.527 Y22.71 F50
M106 S0
M106 S255
G1 X49.604 Y22.767 F50
M106 S0
M106 S255
G1 X50.683 Y22.816 F50
M106 S0
M106 S255
G1 X51.762 Y22.856 F50
M106 S0
M106 S255
G1 X52.705 Y22.885 F50
M106 S0
M106 S255
G1 X53.923 Y22.914 F50
M106 S0
M106 S255
G1 X55.004 Y22.93 F50
M106 S0
M106 S255
G1 X56.085 Y22.933 F50
M106 S0
M106 S255
G1 X57.166 Y22.922 F50
M106 S0
M106 S255
G1 X58.246 Y22.896 F50
M106 S0
M106 S255
G1 X59.325 Y22.851 F50
M106 S0
M106 S255
G1 X60.402 Y22.785 F50
M106 S0
M106 S255
G1 X61.611 Y22.684 F50
M106 S0
M106 S255
G1 X62.548 Y22.585 F50
M106 S0
M106 S255
G1 X63.618 Y22.45 F50
M106 S0
M106 S255
G1 X64.685 Y22.295 F50
M106 S0
M106 S255
G1 X65.75 Y22.122 F50
M106 S0
M106 S255
G1 X66.813 Y21.934 F50
M106 S0
M106 S255
G1 X67.875 Y21.733 F50
M106 S0
M106 S255
G1 X68.935 Y21.522 F50
M106 S0
M106 S255
G1 X69.995 Y21.304 F50
M106 S0
M106 S255
G1 X71.054 Y21.08 F50
M106 S0
M106 S255
G1 X71.277 Y21.033 F50
M106 S0
M106 S255
G1 X71.178 Y38.264 F50
M106 S0
M106 S255
G1 X71.455 Y38.264 F50
M106 S0
M106 S255
G1 X71.447 Y40.46 F50
M106 S0
M106 S255
G1 X72.5 Y40.521 F50
M106 S0
M106 S255
G1 X74.308 Y40.487 F50
M106 S0
M106 S255
G1 X75.273 Y40.73 F50
M106 S0
M106 S255
G1 X77.105 Y40.73 F50
M106 S0
M106 S255
G1 X77.591 Y31.308 F50
M106 S0
M106 S255
G1 X77.787 Y31.308 F50
M106 S0
M106 S255
G1 X77.787 Y31.819 F50
M106 S0
M106 S255
G1 X82.088 Y31.819 F50
M106 S0
M106 S255
G1 X82.088 Y30.671 F50
M106 S0
M106 S255
G1 X83.235 Y30.697 F50
M106 S0
M106 S255
G1 X83.202 Y24.939 F50
M106 S0
M106 S255
G1 X84.918 Y24.89 F50
M106 S0
M106 S255
G1 X84.918 Y26.411 F50
M106 S0
M106 S255
G1 X86.634 Y26.977 F50
M106 S0
M106 S255
G1 X86.731 Y26.993 F50
M106 S0
M106 S255
G1 X86.715 Y27.915 F50
M106 S0
M106 S255
G1 X86.974 Y27.931 F50
M106 S0
M106 S255
G1 X86.974 Y26.993 F50
M106 S0
M106 S255
G1 X87.152 Y26.977 F50
M106 S0
M106 S255
G1 X87.152 Y27.966 F50
M106 S0
M106 S255
G1 X87.407 Y27.966 F50
M106 S0
M106 S255
G1 X87.407 Y26.964 F50
M106 S0
M106 S255
G1 X87.978 Y26.964 F50
M106 S0
M106 S255
G1 X87.978 Y27.422 F50
M106 S0
M106 S255
G1 X88.506 Y27.422 F50
M106 S0
M106 S255
G1 X88.506 Y27.52 F50
M106 S0
M106 S255
G1 X89.075 Y27.52 F50
M106 S0
M106 S255
G1 X89.075 Y27.99 F50
M106 S0
M106 S255
G1 X89.432 Y27.99 F50
M106 S0
M106 S255
G1 X89.432 Y26.952 F50
M106 S0
M106 S255
G1 X89.562 Y26.952 F50
M106 S0
M106 S255
G1 X89.562 Y28.088 F50
M106 S0
M106 S255
G1 X90.163 Y28.088 F50
M106 S0
M106 S255
G1 X90.163 Y26.952 F50
M106 S0
M106 S255
G1 X93.767 Y26.952 F50
M106 S0
M106 S255
G1 X93.767 Y27.974 F50
M106 S0
M106 S255
G1 X94.06 Y27.974 F50
M106 S0
M106 S255
G1 X94.06 Y27.098 F50
M106 S0
M106 S255
G1 X94.19 Y27.098 F50
M106 S0
M106 S255
G1 X94.19 Y27.877 F50
M106 S0
M106 S255
G1 X94.401 Y27.877 F50
M106 S0
M106 S255
G1 X94.401 Y27.114 F50
M106 S0
M106 S255
G1 X95.05 Y27.114 F50
M106 S0
M106 S255
G1 X95.05 Y27.503 F50
M106 S0
M106 S255
G1 X95.391 Y27.503 F50
M106 S0
M106 S255
G1 X95.391 Y27.877 F50
M106 S0
M106 S255
G1 X95.667 Y27.877 F50
M106 S0
M106 S255
G1 X95.667 Y27.536 F50
M106 S0
M106 S255
G1 X96.193 Y27.536 F50
M106 S0
M106 S255
G1 X96.193 Y27.907 F50
M106 S0
M106 S255
G1 X96.423 Y27.907 F50
M106 S0
M106 S255
G1 X96.423 Y27.09 F50
M106 S0
M106 S255
G1 X96.621 Y27.09 F50
M106 S0
M106 S255
G1 X96.621 Y27.958 F50
M106 S0
M106 S255
G1 X97.355 Y27.958 F50
M106 S0
M106 S255
G1 X97.355 Y27.077 F50
M106 S0
M106 S255
G1 X98.704 Y27.077 F50
M106 S0
M106 S255
G1 X98.835 Y27.077 F50
M106 S0
M106 S255
G1 X98.835 Y27.615 F50
M106 S0
M106 S255
G1 X99.13 Y27.615 F50
M106 S0
M106 S255
G1 X99.13 Y27.402 F50
M106 S0
M106 S255
G1 X99.604 Y27.402 F50
M106 S0
M106 S255
G1 X99.604 Y27.14 F50
M106 S0
M106 S255
G1 X100.865 Y27.14 F50
M106 S0
M106 S255
G1 X100.865 Y27.549 F50
M106 S0
M106 S255
G1 X101.176 Y27.549 F50
M106 S0
M106 S255
G1 X101.176 Y27.14 F50
M106 S0
M106 S255
G1 X101.981 Y27.14 F50
M106 S0
M106 S255
G1 X101.981 Y27.634 F50
M106 S0
M106 S255
G1 X102.651 Y27.634 F50
M106 S0
M106 S255
G1 X102.651 Y27.017 F50
M106 S0
M106 S255
G1 X102.805 Y27.017 F50
M106 S0
M106 S255
G1 X102.805 Y27.744 F50
M106 S0
M106 S255
G1 X103.365 Y27.744 F50
M106 S0
M106 S255
G1 X103.365 Y26.94 F50
M106 S0
M106 S255
G1 X103.578 Y26.94 F50
M106 S0
M106 S255
G1 X103.578 Y27.596 F50
M106 S0
M106 S255
G1 X104.138 Y27.596 F50
M106 S0
M106 S255
G1 X104.138 Y26.94 F50
M106 S0
M106 S255
G1 X104.247 Y26.94 F50
M106 S0
M106 S255
G1 X104.247 Y27.429 F50
M106 S0
M106 S255
G1 X104.611 Y27.429 F50
M106 S0
M106 S255
G1 X104.611 Y27.601 F50
M106 S0
M106 S255
G1 X105.076 Y27.601 F50
M106 S0
M106 S255
G1 X105.076 Y26.839 F50
M106 S0
M106 S255
G1 X105.562 Y26.839 F50
M106 S0
M106 S255
G1 X105.562 Y23.644 F50
M106 S0
M106 S255
G1 X105.931 Y23.644 F50
M106 S0
M106 S255
G1 X105.931 Y24.416 F50
M106 S0
M106 S255
G1 X105.931 Y26.142 F50
M106 S0
M106 S255
G1 X108.218 Y26.142 F50
M106 S0
M106 S255
G1 X108.218 Y26.715 F50
M106 S0
M106 S255
G1 X108.928 Y26.715 F50
M106 S0
M106 S255
G1 X108.928 Y26.879 F50
M106 S0
M106 S255
G1 X109.392 Y26.879 F50
M106 S0
M106 S255
G1 X109.392 Y27.235 F50
M106 S0
M106 S255
G1 X113.162 Y27.235 F50
M106 S0
M106 S255
G1 X113.162 Y26.975 F50
M106 S0
M106 S255
G1 X116.536 Y26.975 F50
M106 S0
M106 S255
G1 X117.644 Y26.975 F50
M106 S0
M106 S255
G1 X117.644 Y27.517 F50
M106 S0
M106 S255
G1 X119.039 Y28.019 F50
M106 S0
M106 S255
G1 X120.601 Y28.019 F50
M106 S0
M106 S255
G1 X120.601 Y28.43 F50
M106 S0
M106 S255
G1 X121.091 Y28.43 F50
M106 S0
M106 S255
G1 X121.091 Y28.033 F50
M106 S0
M106 S255
G1 X122.264 Y28.033 F50
M106 S0
M106 S255
G1 X122.264 Y28.389 F50
M106 S0
M106 S255
G1 X122.751 Y28.389 F50
M106 S0
M106 S255
G1 X122.751 Y28.019 F50
M106 S0
M106 S255
G1 X123.046 Y28.019 F50
M106 S0
M106 S255
G1 X123.046 Y28.414 F50
M106 S0
M106 S255
G1 X124.142 Y29.225 F50
M106 S0
M106 S255
G1 X125.016 Y29.225 F50
M106 S0
M106 S255
G1 X128.934 Y29.225 F50
M106 S0
M106 S255
G1 X129.698 Y28.92 F50
M106 S0
M106 S255
G1 X132.85 Y29.12 F50
M106 S0
M106 S255
G1 X132.85 Y27.689 F50
M106 S0
M106 S255
G1 X132.85 Y26.163 F50
M106 S0
M106 S255
G1 X133.245 Y26.163 F50
M106 S0
M106 S255
G1 X133.245 Y27.742 F50
M106 S0
M106 S255
G1 X133.491 Y27.742 F50
M106 S0
M106 S255
G1 X133.491 Y29.299 F50
M106 S0
M106 S255
G1 X133.491 Y29.299 F50
M106 S0
M106 S255
G1 X133.491 Y30.34 F50
M106 S0
M106 S255
G1 X134.757 Y30.34 F50
M106 S0
M106 S255
G1 X135.889 Y31.303 F50
M106 S0
M106 S255
G1 X136.393 Y31.303 F50
M106 S0
M106 S255
G1 X136.393 Y30.418 F50
M106 S0
M106 S255
G1 X137.279 Y30.418 F50
M106 S0
M106 S255
G1 X137.279 Y28.739 F50
M106 S0
M106 S255
G1 X138.61 Y28.739 F50
M106 S0
M106 S255
G1 X138.61 Y29.048 F50
M106 S0
M106 S255
G1 X138.883 Y29.048 F50
M106 S0
M106 S255
G1 X138.883 Y29.582 F50
M106 S0
M106 S255
G1 X139.543 Y29.582 F50
M106 S0
M106 S255
G1 X139.543 Y29.877 F50
M106 S0
M106 S255
G1 X140.35 Y29.877 F50
M106 S0
M106 S255
G1 X140.35 Y29.604 F50
M106 S0
M106 S255
G1 X142.544 Y29.604 F50
M106 S0
M106 S255
G1 X142.544 Y30.047 F50
M106 S0
M106 S255
G1 X143.033 Y30.047 F50
M106 S0
M106 S255
G1 X143.033 Y29.82 F50
M106 S0
M106 S255
G1 X143.636 Y29.82 F50
M106 S0
M106 S255
G1 X143.636 Y30.286 F50
M106 S0
M106 S255
G1 X143.897 Y30.286 F50
M106 S0
M106 S255
G1 X143.897 Y29.65 F50
M106 S0
M106 S255
G1 X144.489 Y29.65 F50
M106 S0
M106 S255
G1 X144.489 Y31.297 F50
M106 S0
M106 S255
G1 X144.886 Y31.297 F50
M106 S0
M106 S255
G1 X144.886 Y29.627 F50
M106 S0
M106 S255
G1 X145.091 Y29.627 F50
M106 S0
M106 S255
G1 X145.091 Y30.127 F50
M106 S0
M106 S255
G1 X145.455 Y30.127 F50
M106 S0
M106 S255
G1 X145.455 Y29.684 F50
M106 S0
M106 S255
G1 X145.66 Y29.684 F50
M106 S0
M106 S255
G1 X145.66 Y30.15 F50
M106 S0
M106 S255
G1 X145.898 Y30.15 F50
M106 S0
M106 S255
G1 X145.898 Y29.661 F50
M106 S0
M106 S255
G1 X147.717 Y29.661 F50
M106 S0
G0 X-0.01 Y32.528 F6000
M106 S255
G1 X-0.01 Y32.528 F50
M106 S0
M106 S255
G1 X1.909 Y24.814 F50
M106 S0
M106 S255
G1 X1.909 Y18.67 F50
M106 S0
M106 S255
G1 X25.844 Y18.67 F50
M106 S0
M106 S255
G1 X27.902 Y41.207 F50
M106 S0
M106 S255
G1 X28.778 Y41.046 F50
M106 S0
M106 S255
G1 X30.206 Y41.046 F50
M106 S0
M106 S255
G1 X29.997 Y36.964 F50
M106 S0
M106 S255
G1 X30.618 Y36.964 F50
M106 S0
M106 S255
G1 X30.861 Y41.613 F50
M106 S0
M106 S255
G1 X32.622 Y41.613 F50
M106 S0
M106 S255
G1 X32.622 Y41.428 F50
M106 S0
M106 S255
G1 X32.992 Y41.428 F50
M106 S0
M106 S255
G1 X33.087 Y39.151 F50
M106 S0
M106 S255
G1 X33.625 Y39.151 F50
M106 S0
M106 S255
G1 X33.5 Y18.729 F50
M106 S0
M106 S255
G1 X34.657 Y20.65 F50
M106 S0
M106 S255
G1 X35.716 Y20.927 F50
M106 S0
M106 S255
G1 X36.763 Y21.191 F50
M106 S0
M106 S255
G1 X38.323 Y21.548 F50
M106 S0
M106 S255
G1 X38.87 Y21.658 F50
M106 S0
M106 S255
G1 X39.932 Y21.849 F50
M106 S0
M106 S255
G1 X40.999 Y22.015 F50
M106 S0
M106 S255
G1 X42.07 Y22.158 F50
M106 S0
M106 S255
G1 X43.143 Y22.281 F50
M106 S0
M106 S255
G1 X44.219 Y22.389 F50
M106 S0
M106 S255
G1 X45.09 Y22.467 F50
M106 S0
M106 S255
G1 X46.372 Y22.569 F50
M106 S0
M106 S255
G1 X47.449 Y22.644 F50
M106 S0
M106 S255
G1 X48.527 Y22.71 F50
M106 S0
M106 S255
G1 X49.604 Y22.767 F50
M106 S0
M106 S255
G1 X50.683 Y22.816 F50
M106 S0
M106 S255
G1 X51.762 Y22.856 F50
M106 S0
M106 S255
G1 X52.705 Y22.885 F50
M106 S0
M106 S255
G1 X53.923 Y22.914 F50
M106 S0
M106 S255
G1 X55.004 Y22.93 F50
M106 S0
M106 S255
G1 X56.085 Y22.933 F50
M106 S0
M106 S255
G1 X57.166 Y22.922 F50
M106 S0
M106 S255
G1 X58.246 Y22.896 F50
M106 S0
M106 S255
G1 X59.325 Y22.851 F50
M106 S0
M106 S255
G1 X60.402 Y22.785 F50
M106 S0
M106 S255
G1 X61.611 Y22.684 F50
M106 S0
M106 S255
G1 X62.548 Y22.585 F50
M106 S0
M106 S255
G1 X63.618 Y22.45 F50
M106 S0
M106 S255
G1 X64.685 Y22.295 F50
M106 S0
M106 S255
G1 X65.75 Y22.122 F50
M106 S0
M106 S255
G1 X66.813 Y21.934 F50
M106 S0
M106 S255
G1 X67.875 Y21.733 F50
M106 S0
M106 S255
G1 X68.935 Y21.522 F50
M106 S0
M106 S255
G1 X69.995 Y21.304 F50
M106 S0
M106 S255
G1 X71.054 Y21.08 F50
M106 S0
M106 S255
G1 X71.277 Y21.033 F50
M106 S0
M106 S255
G1 X71.178 Y38.264 F50
M106 S0
M106 S255
G1 X71.455 Y38.264 F50
M106 S0
M106 S255
G1 X71.447 Y40.46 F50
M106 S0
M106 S255
G1 X72.5 Y40.521 F50
M106 S0
M106 S255
G1 X74.308 Y40.487 F50
M106 S0
M106 S255
G1 X75.273 Y40.73 F50
M106 S0
M106 S255
G1 X77.105 Y40.73 F50
M106 S0
M106 S255
G1 X77.591 Y31.308 F50
M106 S0
M106 S255
G1 X77.787 Y31.308 F50
M106 S0
M106 S255
G1 X77.787 Y31.819 F50
M106 S0
M106 S255
G1 X82.088 Y31.819 F50
M106 S0
M106 S255
G1 X82.088 Y30.671 F50
M106 S0
M106 S255
G1 X83.235 Y30.697 F50
M106 S0
M106 S255
G1 X83.202 Y24.939 F50
M106 S0
M106 S255
G1 X84.918 Y24.89 F50
M106 S0
M106 S255
G1 X84.918 Y26.411 F50
M106 S0
M106 S255
G1 X86.634 Y26.977 F50
M106 S0
M106 S255
G1 X86.731 Y26.993 F50
M106 S0
M106 S255
G1 X86.715 Y27.915 F50
M106 S0
M106 S255
G1 X86.974 Y27.931 F50
M106 S0
M106 S255
G1 X86.974 Y26.993 F50
M106 S0
M106 S255
G1 X87.152 Y26.977 F50
M106 S0
M106 S255
G1 X87.152 Y27.966 F50
M106 S0
M106 S255
G1 X87.407 Y27.966 F50
M106 S0
M106 S255
G1 X87.407 Y26.964 F50
M106 S0
M106 S255
G1 X87.978 Y26.964 F50
M106 S0
M106 S255
G1 X87.978 Y27.422 F50
M106 S0
M106 S255
G1 X88.506 Y27.422 F50
M106 S0
M106 S255
G1 X88.506 Y27.52 F50
M106 S0
M106 S255
G1 X89.075 Y27.52 F50
M106 S0
M106 S255
G1 X89.075 Y27.99 F50
M106 S0
M106 S255
G1 X89.432 Y27.99 F50
M106 S0
M106 S255
G1 X89.432 Y26.952 F50
M106 S0
M106 S255
G1 X89.562 Y26.952 F50
M106 S0
M106 S255
G1 X89.562 Y28.088 F50
M106 S0
M106 S255
G1 X90.163 Y28.088 F50
M106 S0
M106 S255
G1 X90.163 Y26.952 F50
M106 S0
M106 S255
G1 X93.767 Y26.952 F50
M106 S0
M106 S255
G1 X93.767 Y27.974 F50
M106 S0
M106 S255
G1 X94.06 Y27.974 F50
M106 S0
M106 S255
G1 X94.06 Y27.098 F50
M106 S0
M106 S255
G1 X94.19 Y27.098 F50
M106 S0
M106 S255
G1 X94.19 Y27.877 F50
M106 S0
M106 S255
G1 X94.401 Y27.877 F50
M106 S0
M106 S255
G1 X94.401 Y27.114 F50
M106 S0
M106 S255
G1 X95.05 Y27.114 F50
M106 S0
M106 S255
G1 X95.05 Y27.503 F50
M106 S0
M106 S255
G1 X95.391 Y27.503 F50
M106 S0
M106 S255
G1 X95.391 Y27.877 F50
M106 S0
M106 S255
G1 X95.667 Y27.877 F50
M106 S0
M106 S255
G1 X95.667 Y27.536 F50
M106 S0
M106 S255
G1 X96.193 Y27.536 F50
M106 S0
M106 S255
G1 X96.193 Y27.907 F50
M106 S0
M106 S255
G1 X96.423 Y27.907 F50
M106 S0
M106 S255
G1 X96.423 Y27.09 F50
M106 S0
M106 S255
G1 X96.621 Y27.09 F50
M106 S0
M106 S255
G1 X96.621 Y27.958 F50
M106 S0
M106 S255
G1 X97.355 Y27.958 F50
M106 S0
M106 S255
G1 X97.355 Y27.077 F50
M106 S0
M106 S255
G1 X98.704 Y27.077 F50
M106 S0
M106 S255
G1 X98.835 Y27.077 F50
M106 S0
M106 S255
G1 X98.835 Y27.615 F50
M106 S0
M106 S255
G1 X99.13 Y27.615 F50
M106 S0
M106 S255
G1 X99.13 Y27.402 F50
M106 S0
M106 S255
G1 X99.604 Y27.402 F50
M106 S0
M106 S255
G1 X99.604 Y27.14 F50
M106 S0
M106 S255
G1 X100.865 Y27.14 F50
M106 S0
M106 S255
G1 X100.865 Y27.549 F50
M106 S0
M106 S255
G1 X101.176 Y27.549 F50
M106 S0
M106 S255
G1 X101.176 Y27.14 F50
M106 S0
M106 S255
G1 X101.981 Y27.14 F50
M106 S0
M106 S255
G1 X101.981 Y27.634 F50
M106 S0
M106 S255
G1 X102.651 Y27.634 F50
M106 S0
M106 S255
G1 X102.651 Y27.017 F50
M106 S0
M106 S255
G1 X102.805 Y27.017 F50
M106 S0
M106 S255
G1 X102.805 Y27.744 F50
M106 S0
M106 S255
G1 X103.365 Y27.744 F50
M106 S0
M106 S255
G1 X103.365 Y26.94 F50
M106 S0
M106 S255
G1 X103.578 Y26.94 F50
M106 S0
M106 S255
G1 X103.578 Y27.596 F50
M106 S0
M106 S255
G1 X104.138 Y27.596 F50
M106 S0
M106 S255
G1 X104.138 Y26.94 F50
M106 S0
M106 S255
G1 X104.247 Y26.94 F50
M106 S0
M106 S255
G1 X104.247 Y27.429 F50
M106 S0
M106 S255
G1 X104.611 Y27.429 F50
M106 S0
M106 S255
G1 X104.611 Y27.601 F50
M106 S0
M106 S255
G1 X105.076 Y27.601 F50
M106 S0
M106 S255
G1 X105.076 Y26.839 F50
M106 S0
M106 S255
G1 X105.562 Y26.839 F50
M106 S0
M106 S255
G1 X105.562 Y23.644 F50
M106 S0
M106 S255
G1 X105.931 Y23.644 F50
M106 S0
M106 S255
G1 X105.931 Y24.416 F50
M106 S0
M106 S255
G1 X105.931 Y26.142 F50
M106 S0
M106 S255
G1 X108.218 Y26.142 F50
M106 S0
M106 S255
G1 X108.218 Y26.715 F50
M106 S0
M106 S255
G1 X108.928 Y26.715 F50
M106 S0
M106 S255
G1 X108.928 Y26.879 F50
M106 S0
M106 S255
G1 X109.392 Y26.879 F50
M106 S0
M106 S255
G1 X109.392 Y27.235 F50
M106 S0
M106 S255
G1 X113.162 Y27.235 F50
M106 S0
M106 S255
G1 X113.162 Y26.975 F50
M106 S0
M106 S255
G1 X116.536 Y26.975 F50
M106 S0
M106 S255
G1 X117.644 Y26.975 F50
M106 S0
M106 S255
G1 X117.644 Y27.517 F50
M106 S0
M106 S255
G1 X119.039 Y28.019 F50
M106 S0
M106 S255
G1 X120.601 Y28.019 F50
M106 S0
M106 S255
G1 X120.601 Y28.43 F50
M106 S0
M106 S255
G1 X121.091 Y28.43 F50
M106 S0
M106 S255
G1 X121.091 Y28.033 F50
M106 S0
M106 S255
G1 X122.264 Y28.033 F50
M106 S0
M106 S255
G1 X122.264 Y28.389 F50
M106 S0
M106 S255
G1 X122.751 Y28.389 F50
M106 S0
M106 S255
G1 X122.751 Y28.019 F50
M106 S0
M106 S255
G1 X123.046 Y28.019 F50
M106 S0
M106 S255
G1 X123.046 Y28.414 F50
M106 S0
M106 S255
G1 X124.142 Y29.225 F50
M106 S0
M106 S255
G1 X125.016 Y29.225 F50
M106 S0
M106 S255
G1 X128.934 Y29.225 F50
M106 S0
M106 S255
G1 X129.698 Y28.92 F50
M106 S0
M106 S255
G1 X132.85 Y29.12 F50
M106 S0
M106 S255
G1 X132.85 Y27.689 F50
M106 S0
M106 S255
G1 X132.85 Y26.163 F50
M106 S0
M106 S255
G1 X133.245 Y26.163 F50
M106 S0
M106 S255
G1 X133.245 Y27.742 F50
M106 S0
M106 S255
G1 X133.491 Y27.742 F50
M106 S0
M106 S255
G1 X133.491 Y29.299 F50
M106 S0
M106 S255
G1 X133.491 Y29.299 F50
M106 S0
M106 S255
G1 X133.491 Y30.34 F50
M106 S0
M106 S255
G1 X134.757 Y30.34 F50
M106 S0
M106 S255
G1 X135.889 Y31.303 F50
M106 S0
M106 S255
G1 X136.393 Y31.303 F50
M106 S0
M106 S255
G1 X136.393 Y30.418 F50
M106 S0
M106 S255
G1 X137.279 Y30.418 F50
M106 S0
M106 S255
G1 X137.279 Y28.739 F50
M106 S0
M106 S255
G1 X138.61 Y28.739 F50
M106 S0
M106 S255
G1 X138.61 Y29.048 F50
M106 S0
M106 S255
G1 X138.883 Y29.048 F50
M106 S0
M106 S255
G1 X138.883 Y29.582 F50
M106 S0
M106 S255
G1 X139.543 Y29.582 F50
M106 S0
M106 S255
G1 X139.543 Y29.877 F50
M106 S0
M106 S255
G1 X140.35 Y29.877 F50
M106 S0
M106 S255
G1 X140.35 Y29.604 F50
M106 S0
M106 S255
G1 X142.544 Y29.604 F50
M106 S0
M106 S255
G1 X142.544 Y30.047 F50
M106 S0
M106 S255
G1 X143.033 Y30.047 F50
M106 S0
M106 S255
G1 X143.033 Y29.82 F50
M106 S0
M106 S255
G1 X143.636 Y29.82 F50
M106 S0
M106 S255
G1 X143.636 Y30.286 F50
M106 S0
M106 S255
G1 X143.897 Y30.286 F50
M106 S0
M106 S255
G1 X143.897 Y29.65 F50
M106 S0
M106 S255
G1 X144.489 Y29.65 F50
M106 S0
M106 S255
G1 X144.489 Y31.297 F50
M106 S0
M106 S255
G1 X144.886 Y31.297 F50
M106 S0
M106 S255
G1 X144.886 Y29.627 F50
M106 S0
M106 S255
G1 X145.091 Y29.627 F50
M106 S0
M106 S255
G1 X145.091 Y30.127 F50
M106 S0
M106 S255
G1 X145.455 Y30.127 F50
M106 S0
M106 S255
G1 X145.455 Y29.684 F50
M106 S0
M106 S255
G1 X145.66 Y29.684 F50
M106 S0
M106 S255
G1 X145.66 Y30.15 F50
M106 S0
M106 S255
G1 X145.898 Y30.15 F50
M106 S0
M106 S255
G1 X145.898 Y29.661 F50
M106 S0
M106 S255
G1 X147.717 Y29.661 F50
M106 S0
G0 X-0.01 Y32.528 F6000
M106 S255
G1 X-0.01 Y32.528 F50
M106 S0
M106 S255
G1 X1.909 Y24.814 F50
M106 S0
M106 S255
G1 X1.909 Y18.67 F50
M106 S0
M106 S255
G1 X25.844 Y18.67 F50
M106 S0
M106 S255
G1 X27.902 Y41.207 F50
M106 S0
M106 S255
G1 X28.778 Y41.046 F50
M106 S0
M106 S255
G1 X30.206 Y41.046 F50
M106 S0
M106 S255
G1 X29.997 Y36.964 F50
M106 S0
M106 S255
G1 X30.618 Y36.964 F50
M106 S0
M106 S255
G1 X30.861 Y41.613 F50
M106 S0
M106 S255
G1 X32.622 Y41.613 F50
M106 S0
M106 S255
G1 X32.622 Y41.428 F50
M106 S0
M106 S255
G1 X32.992 Y41.428 F50
M106 S0
M106 S255
G1 X33.087 Y39.151 F50
M106 S0
M106 S255
G1 X33.625 Y39.151 F50
M106 S0
M106 S255
G1 X33.5 Y18.729 F50
M106 S0
M106 S255
G1 X34.657 Y20.65 F50
M106 S0
M106 S255
G1 X35.716 Y20.927 F50
M106 S0
M106 S255
G1 X36.763 Y21.191 F50
M106 S0
M106 S255
G1 X38.323 Y21.548 F50
M106 S0
M106 S255
G1 X38.87 Y21.658 F50
M106 S0
M106 S255
G1 X39.932 Y21.849 F50
M106 S0
M106 S255
G1 X40.999 Y22.015 F50
M106 S0
M106 S255
G1 X42.07 Y22.158 F50
M106 S0
M106 S255
G1 X43.143 Y22.281 F50
M106 S0
M106 S255
G1 X44.219 Y22.389 F50
M106 S0
M106 S255
G1 X45.09 Y22.467 F50
M106 S0
M106 S255
G1 X46.372 Y22.569 F50
M106 S0
M106 S255
G1 X47.449 Y22.644 F50
M106 S0
M106 S255
G1 X48.527 Y22.71 F50
M106 S0
M106 S255
G1 X49.604 Y22.767 F50
M106 S0
M106 S255
G1 X50.683 Y22.816 F50
M106 S0
M106 S255
G1 X51.762 Y22.856 F50
M106 S0
M106 S255
G1 X52.705 Y22.885 F50
M106 S0
M106 S255
G1 X53.923 Y22.914 F50
M106 S0
M106 S255
G1 X55.004 Y22.93 F50
M106 S0
M106 S255
G1 X56.085 Y22.933 F50
M106 S0
M106 S255
G1 X57.166 Y22.922 F50
M106 S0
M106 S255
G1 X58.246 Y22.896 F50
M106 S0
M106 S255
G1 X59.325 Y22.851 F50
M106 S0
M106 S255
G1 X60.402 Y22.785 F50
M106 S0
M106 S255
G1 X61.611 Y22.684 F50
M106 S0
M106 S255
G1 X62.548 Y22.585 F50
M106 S0
M106 S255
G1 X63.618 Y22.45 F50
M106 S0
M106 S255
G1 X64.685 Y22.295 F50
M106 S0
M106 S255
G1 X65.75 Y22.122 F50
M106 S0
M106 S255
G1 X66.813 Y21.934 F50
M106 S0
M106 S255
G1 X67.875 Y21.733 F50
M106 S0
M106 S255
G1 X68.935 Y21.522 F50
M106 S0
M106 S255
G1 X69.995 Y21.304 F50
M106 S0
M106 S255
G1 X71.054 Y21.08 F50
M106 S0
M106 S255
G1 X71.277 Y21.033 F50
M106 S0
M106 S255
G1 X71.178 Y38.264 F50
M106 S0
M106 S255
G1 X71.455 Y38.264 F50
M106 S0
M106 S255
G1 X71.447 Y40.46 F50
M106 S0
M106 S255
G1 X72.5 Y40.521 F50
M106 S0
M106 S255
G1 X74.308 Y40.487 F50
M106 S0
M106 S255
G1 X75.273 Y40.73 F50
M106 S0
M106 S255
G1 X77.105 Y40.73 F50
M106 S0
M106 S255
G1 X77.591 Y31.308 F50
M106 S0
M106 S255
G1 X77.787 Y31.308 F50
M106 S0
M106 S255
G1 X77.787 Y31.819 F50
M106 S0
M106 S255
G1 X82.088 Y31.819 F50
M106 S0
M106 S255
G1 X82.088 Y30.671 F50
M106 S0
M106 S255
G1 X83.235 Y30.697 F50
M106 S0
M106 S255
G1 X83.202 Y24.939 F50
M106 S0
M106 S255
G1 X84.918 Y24.89 F50
M106 S0
M106 S255
G1 X84.918 Y26.411 F50
M106 S0
M106 S255
G1 X86.634 Y26.977 F50
M106 S0
M106 S255
G1 X86.731 Y26.993 F50
M106 S0
M106 S255
G1 X86.715 Y27.915 F50
M106 S0
M106 S255
G1 X86.974 Y27.931 F50
M106 S0
M106 S255
G1 X86.974 Y26.993 F50
M106 S0
M106 S255
G1 X87.152 Y26.977 F50
M106 S0
M106 S255
G1 X87.152 Y27.966 F50
M106 S0
M106 S255
G1 X87.407 Y27.966 F50
M106 S0
M106 S255
G1 X87.407 Y26.964 F50
M106 S0
M106 S255
G1 X87.978 Y26.964 F50
M106 S0
M106 S255
G1 X87.978 Y27.422 F50
M106 S0
M106 S255
G1 X88.506 Y27.422 F50
M106 S0
M106 S255
G1 X88.506 Y27.52 F50
M106 S0
M106 S255
G1 X89.075 Y27.52 F50
M106 S0
M106 S255
G1 X89.075 Y27.99 F50
M106 S0
M106 S255
G1 X89.432 Y27.99 F50
M106 S0
M106 S255
G1 X89.432 Y26.952 F50
M106 S0
M106 S255
G1 X89.562 Y26.952 F50
M106 S0
M106 S255
G1 X89.562 Y28.088 F50
M106 S0
M106 S255
G1 X90.163 Y28.088 F50
M106 S0
M106 S255
G1 X90.163 Y26.952 F50
M106 S0
M106 S255
G1 X93.767 Y26.952 F50
M106 S0
M106 S255
G1 X93.767 Y27.974 F50
M106 S0
M106 S255
G1 X94.06 Y27.974 F50
M106 S0
M106 S255
G1 X94.06 Y27.098 F50
M106 S0
M106 S255
G1 X94.19 Y27.098 F50
M106 S0
M106 S255
G1 X94.19 Y27.877 F50
M106 S0
M106 S255
G1 X94.401 Y27.877 F50
M106 S0
M106 S255
G1 X94.401 Y27.114 F50
M106 S0
M106 S255
G1 X95.05 Y27.114 F50
M106 S0
M106 S255
G1 X95.05 Y27.503 F50
M106 S0
M106 S255
G1 X95.391 Y27.503 F50
M106 S0
M106 S255
G1 X95.391 Y27.877 F50
M106 S0
M106 S255
G1 X95.667 Y27.877 F50
M106 S0
M106 S255
G1 X95.667 Y27.536 F50
M106 S0
M106 S255
G1 X96.193 Y27.536 F50
M106 S0
M106 S255
G1 X96.193 Y27.907 F50
M106 S0
M106 S255
G1 X96.423 Y27.907 F50
M106 S0
M106 S255
G1 X96.423 Y27.09 F50
M106 S0
M106 S255
G1 X96.621 Y27.09 F50
M106 S0
M106 S255
G1 X96.621 Y27.958 F50
M106 S0
M106 S255
G1 X97.355 Y27.958 F50
M106 S0
M106 S255
G1 X97.355 Y27.077 F50
M106 S0
M106 S255
G1 X98.704 Y27.077 F50
M106 S0
M106 S255
G1 X98.835 Y27.077 F50
M106 S0
M106 S255
G1 X98.835 Y27.615 F50
M106 S0
M106 S255
G1 X99.13 Y27.615 F50
M106 S0
M106 S255
G1 X99.13 Y27.402 F50
M106 S0
M106 S255
G1 X99.604 Y27.402 F50
M106 S0
M106 S255
G1 X99.604 Y27.14 F50
M106 S0
M106 S255
G1 X100.865 Y27.14 F50
M106 S0
M106 S255
G1 X100.865 Y27.549 F50
M106 S0
M106 S255
G1 X101.176 Y27.549 F50
M106 S0
M106 S255
G1 X101.176 Y27.14 F50
M106 S0
M106 S255
G1 X101.981 Y27.14 F50
M106 S0
M106 S255
G1 X101.981 Y27.634 F50
M106 S0
M106 S255
G1 X102.651 Y27.634 F50
M106 S0
M106 S255
G1 X102.651 Y27.017 F50
M106 S0
M106 S255
G1 X102.805 Y27.017 F50
M106 S0
M106 S255
G1 X102.805 Y27.744 F50
M106 S0
M106 S255
G1 X103.365 Y27.744 F50
M106 S0
M106 S255
G1 X103.365 Y26.94 F50
M106 S0
M106 S255
G1 X103.578 Y26.94 F50
M106 S0
M106 S255
G1 X103.578 Y27.596 F50
M106 S0
M106 S255
G1 X104.138 Y27.596 F50
M106 S0
M106 S255
G1 X104.138 Y26.94 F50
M106 S0
M106 S255
G1 X104.247 Y26.94 F50
M106 S0
M106 S255
G1 X104.247 Y27.429 F50
M106 S0
M106 S255
G1 X104.611 Y27.429 F50
M106 S0
M106 S255
G1 X104.611 Y27.601 F50
M106 S0
M106 S255
G1 X105.076 Y27.601 F50
M106 S0
M106 S255
G1 X105.076 Y26.839 F50
M106 S0
M106 S255
G1 X105.562 Y26.839 F50
M106 S0
M106 S255
G1 X105.562 Y23.644 F50
M106 S0
M106 S255
G1 X105.931 Y23.644 F50
M106 S0
M106 S255
G1 X105.931 Y24.416 F50
M106 S0
M106 S255
G1 X105.931 Y26.142 F50
M106 S0
M106 S255
G1 X108.218 Y26.142 F50
M106 S0
M106 S255
G1 X108.218 Y26.715 F50
M106 S0
M106 S255
G1 X108.928 Y26.715 F50
M106 S0
M106 S255
G1 X108.928 Y26.879 F50
M106 S0
M106 S255
G1 X109.392 Y26.879 F50
M106 S0
M106 S255
G1 X109.392 Y27.235 F50
M106 S0
M106 S255
G1 X113.162 Y27.235 F50
M106 S0
M106 S255
G1 X113.162 Y26.975 F50
M106 S0
M106 S255
G1 X116.536 Y26.975 F50
M106 S0
M106 S255
G1 X117.644 Y26.975 F50
M106 S0
M106 S255
G1 X117.644 Y27.517 F50
M106 S0
M106 S255
G1 X119.039 Y28.019 F50
M106 S0
M106 S255
G1 X120.601 Y28.019 F50
M106 S0
M106 S255
G1 X120.601 Y28.43 F50
M106 S0
M106 S255
G1 X121.091 Y28.43 F50
M106 S0
M106 S255
G1 X121.091 Y28.033 F50
M106 S0
M106 S255
G1 X122.264 Y28.033 F50
M106 S0
M106 S255
G1 X122.264 Y28.389 F50
M106 S0
M106 S255
G1 X122.751 Y28.389 F50
M106 S0
M106 S255
G1 X122.751 Y28.019 F50
M106 S0
M106 S255
G1 X123.046 Y28.019 F50
M106 S0
M106 S255
G1 X123.046 Y28.414 F50
M106 S0
M106 S255
G1 X124.142 Y29.225 F50
M106 S0
M106 S255
G1 X125.016 Y29.225 F50
M106 S0
M106 S255
G1 X128.934 Y29.225 F50
M106 S0
M106 S255
G1 X129.698 Y28.92 F50
M106 S0
M106 S255
G1 X132.85 Y29.12 F50
M106 S0
M106 S255
G1 X132.85 Y27.689 F50
M106 S0
M106 S255
G1 X132.85 Y26.163 F50
M106 S0
M106 S255
G1 X133.245 Y26.163 F50
M106 S0
M106 S255
G1 X133.245 Y27.742 F50
M106 S0
M106 S255
G1 X133.491 Y27.742 F50
M106 S0
M106 S255
G1 X133.491 Y29.299 F50
M106 S0
M106 S255
G1 X133.491 Y29.299 F50
M106 S0
M106 S255
G1 X133.491 Y30.34 F50
M106 S0
M106 S255
G1 X134.757 Y30.34 F50
M106 S0
M106 S255
G1 X135.889 Y31.303 F50
M106 S0
M106 S255
G1 X136.393 Y31.303 F50
M106 S0
M106 S255
G1 X136.393 Y30.418 F50
M106 S0
M106 S255
G1 X137.279 Y30.418 F50
M106 S0
M106 S255
G1 X137.279 Y28.739 F50
M106 S0
M106 S255
G1 X138.61 Y28.739 F50
M106 S0
M106 S255
G1 X138.61 Y29.048 F50
M106 S0
M106 S255
G1 X138.883 Y29.048 F50
M106 S0
M106 S255
G1 X138.883 Y29.582 F50
M106 S0
M106 S255
G1 X139.543 Y29.582 F50
M106 S0
M106 S255
G1 X139.543 Y29.877 F50
M106 S0
M106 S255
G1 X140.35 Y29.877 F50
M106 S0
M106 S255
G1 X140.35 Y29.604 F50
M106 S0
M106 S255
G1 X142.544 Y29.604 F50
M106 S0
M106 S255
G1 X142.544 Y30.047 F50
M106 S0
M106 S255
G1 X143.033 Y30.047 F50
M106 S0
M106 S255
G1 X143.033 Y29.82 F50
M106 S0
M106 S255
G1 X143.636 Y29.82 F50
M106 S0
M106 S255
G1 X143.636 Y30.286 F50
M106 S0
M106 S255
G1 X143.897 Y30.286 F50
M106 S0
M106 S255
G1 X143.897 Y29.65 F50
M106 S0
M106 S255
G1 X144.489 Y29.65 F50
M106 S0
M106 S255
G1 X144.489 Y31.297 F50
M106 S0
M106 S255
G1 X144.886 Y31.297 F50
M106 S0
M106 S255
G1 X144.886 Y29.627 F50
M106 S0
M106 S255
G1 X145.091 Y29.627 F50
M106 S0
M106 S255
G1 X145.091 Y30.127 F50
M106 S0
M106 S255
G1 X145.455 Y30.127 F50
M106 S0
M106 S255
G1 X145.455 Y29.684 F50
M106 S0
M106 S255
G1 X145.66 Y29.684 F50
M106 S0
M106 S255
G1 X145.66 Y30.15 F50
M106 S0
M106 S255
G1 X145.898 Y30.15 F50
M106 S0
M106 S255
G1 X145.898 Y29.661 F50
M106 S0
M106 S255
G1 X147.717 Y29.661 F50
M106 S0
M106 S0
