;GCode generated by Numa's program v0.0
G0 X-0.01 Y39.906 F6000
M106 S255
G1 X-0.01 Y39.906 F160
M106 S0
M106 S255
G1 X46.346 Y52.848 F160
M106 S0
G0 X-0.01 Y44.69 F6000
M106 S255
G1 X-0.01 Y44.69 F160
M106 S0
M106 S255
G1 X46.369 Y60.553 F160
M106 S0
G0 X-0.01 Y45.396 F6000
M106 S255
G1 X-0.01 Y45.396 F160
M106 S0
M106 S255
G1 X46.371 Y61.39 F160
M106 S0
G0 X46.193 Y1.413 F6000
M106 S255
G1 X46.193 Y1.413 F160
M106 S0
M106 S255
G1 X46.379 Y63.908 F160
M106 S0
M106 S255
G1 X54.134 Y64.234 F160
M106 S0
M106 S255
G1 X54.629 Y1.413 F160
M106 S0
G0 X58.338 Y1.413 F6000
M106 S255
G1 X58.338 Y1.413 F160
M106 S0
M106 S255
G1 X57.589 Y63.206 F160
M106 S0
M106 S255
G1 X54.134 Y64.202 F160
M106 S0
G0 X46.378 Y63.827 F6000
M106 S255
G1 X46.378 Y63.827 F160
M106 S0
M106 S255
G1 X50.094 Y62.946 F160
M106 S0
M106 S255
G1 X50.16 Y1.413 F160
M106 S0
G0 X46.923 Y1.413 F6000
M106 S255
G1 X46.923 Y1.413 F160
M106 S0
M106 S255
G1 X46.318 Y2.139 F160
M106 S0
M106 S255
G1 X46.588 Y1.413 F160
M106 S0
G0 X46.253 Y2.074 F6000
M106 S255
G1 X46.253 Y2.074 F160
M106 S0
M106 S255
G1 X50.163 Y6.437 F160
M106 S0
M106 S255
G1 X46.253 Y10.279 F160
M106 S0
M106 S255
G1 X50.098 Y14.317 F160
M106 S0
G0 X49.648 Y1.413 F6000
M106 S255
G1 X49.648 Y1.413 F160
M106 S0
M106 S255
G1 X50.163 Y2.66 F160
M106 S0
M106 S255
G1 X46.188 Y10.084 F160
M106 S0
G0 X53.844 Y1.413 F6000
M106 S255
G1 X53.844 Y1.413 F160
M106 S0
M106 S255
G1 X54.529 Y2.204 F160
M106 S0
M106 S255
G1 X50.163 Y6.437 F160
M106 S0
M106 S255
G1 X54.529 Y10.345 F160
M106 S0
M106 S255
G1 X50.228 Y14.382 F160
M106 S0
M106 S255
G1 X54.399 Y18.616 F160
M106 S0
M106 S255
G1 X50.163 Y22.653 F160
M106 S0
M106 S255
G1 X54.399 Y26.821 F160
M106 S0
M106 S255
G1 X50.163 Y30.729 F160
M106 S0
M106 S255
G1 X54.334 Y34.962 F160
M106 S0
M106 S255
G1 X50.162 Y38.892 F160
M106 S0
M106 S255
G1 X54.267 Y43.19 F160
M106 S0
M106 S255
G1 X50.162 Y47.163 F160
M106 S0
M106 S255
G1 X54.202 Y52.633 F160
M106 S0
M106 S255
G1 X50.03 Y55.781 F160
M106 S0
M106 S255
G1 X54.136 Y61.577 F160
M106 S0
G0 X50.152 Y14.525 F6000
M106 S255
G1 X50.152 Y14.525 F160
M106 S0
M106 S255
G1 X46.235 Y18.521 F160
M106 S0
M106 S255
G1 X50.193 Y22.68 F160
M106 S0
M106 S255
G1 X46.276 Y26.553 F160
M106 S0
M106 S255
G1 X50.152 Y30.712 F160
M106 S0
M106 S255
G1 X46.315 Y34.8 F160
M106 S0
M106 S255
G1 X50.15 Y38.918 F160
M106 S0
M106 S255
G1 X46.315 Y43.131 F160
M106 S0
M106 S255
G1 X50.15 Y47.168 F160
M106 S0
M106 S255
G1 X46.315 Y51.857 F160
M106 S0
M106 S255
G1 X50.028 Y55.821 F160
M106 S0
M106 S255
G1 X46.356 Y60.836 F160
M106 S0
M106 S255
G1 X49.213 Y63.091 F160
M106 S0
G0 X51.272 Y1.413 F6000
M106 S255
G1 X51.272 Y1.413 F160
M106 S0
M106 S255
G1 X50.147 Y2.684 F160
M106 S0
M106 S255
G1 X54.467 Y6.692 F160
M106 S0
M106 S255
G1 X50.096 Y10.7 F160
M106 S0
M106 S255
G1 X54.235 Y14.69 F160
M106 S0
M106 S255
G1 X50.146 Y18.654 F160
M106 S0
M106 S255
G1 X54.157 Y22.714 F160
M106 S0
M106 S255
G1 X50.093 Y26.677 F160
M106 S0
M106 S255
G1 X54.028 Y30.794 F160
M106 S0
M106 S255
G1 X50.094 Y34.674 F160
M106 S0
M106 S255
G1 X54.002 Y38.843 F160
M106 S0
M106 S255
G1 X50.068 Y42.627 F160
M106 S0
M106 S255
G1 X53.951 Y46.841 F160
M106 S0
M106 S255
G1 X50.069 Y51.217 F160
M106 S0
M106 S255
G1 X53.848 Y54.942 F160
M106 S0
M106 S255
G1 X50.069 Y60.089 F160
M106 S0
G0 X54.981 Y1.413 F6000
M106 S255
G1 X54.981 Y1.413 F160
M106 S0
M106 S255
G1 X54.68 Y2.103 F160
M106 S0
M106 S255
G1 X58.239 Y10.687 F160
M106 S0
M106 S255
G1 X54.473 Y18.584 F160
M106 S0
M106 S255
G1 X58.033 Y26.793 F160
M106 S0
M106 S255
G1 X54.344 Y34.973 F160
M106 S0
M106 S255
G1 X57.801 Y42.924 F160
M106 S0
M106 S255
G1 X54.344 Y46.249 F160
M106 S0
G0 X57.896 Y1.413 F6000
M106 S255
G1 X57.896 Y1.413 F160
M106 S0
M106 S255
G1 X58.313 Y2.604 F160
M106 S0
M106 S255
G1 X54.613 Y6.225 F160
M106 S0
G0 X54.587 Y7.052 F6000
M106 S255
G1 X54.587 Y7.052 F160
M106 S0
M106 S255
G1 X58.21 Y10.621 F160
M106 S0
M106 S255
G1 X54.534 Y14.273 F160
M106 S0
G0 X54.483 Y15.075 F6000
M106 S255
G1 X54.483 Y15.075 F160
M106 S0
M106 S255
G1 X58.132 Y18.727 F160
M106 S0
M106 S255
G1 X54.457 Y22.244 F160
M106 S0
G0 X54.431 Y23.104 F6000
M106 S255
G1 X54.431 Y23.104 F160
M106 S0
M106 S255
G1 X58.002 Y26.75 F160
M106 S0
M106 S255
G1 X54.378 Y30.301 F160
M106 S0
G0 X54.43 Y31.129 F6000
M106 S255
G1 X54.43 Y31.129 F160
M106 S0
M106 S255
G1 X57.872 Y34.62 F160
M106 S0
M106 S255
G1 X54.326 Y38.302 F160
M106 S0
G0 X46.225 Y2.168 F6000
M106 S255
G1 X46.225 Y2.168 F160
M106 S0
M106 S255
G1 X50.133 Y10.754 F160
M106 S0
M106 S255
G1 X46.225 Y18.519 F160
M106 S0
M106 S255
G1 X50.055 Y26.699 F160
M106 S0
M106 S255
G1 X46.276 Y34.779 F160
M106 S0
M106 S255
G1 X50.106 Y42.648 F160
M106 S0
M106 S255
G1 X48.319 Y46.768 F160
M106 S0
M106 S255
G1 X46.352 Y43.122 F160
M106 S0
G0 X46.249 Y10.293 F6000
M106 S255
G1 X46.249 Y10.293 F160
M106 S0
M106 S255
G1 X50.104 Y18.671 F160
M106 S0
M106 S255
G1 X46.274 Y26.49 F160
M106 S0
M106 S255
G1 X50.078 Y34.678 F160
M106 S0
M106 S255
G1 X46.3 Y43.115 F160
M106 S0
G0 X46.326 Y47.079 F6000
M106 S255
G1 X46.326 Y47.079 F160
M106 S0
M106 S255
G1 X50.052 Y46.691 F160
M106 S0
M106 S255
G1 X54.218 Y46.768 F160
M106 S0
M106 S255
G1 X57.738 Y46.924 F160
M106 S0
M106 S255
G1 X54.218 Y47.311 F160
M106 S0
M106 S255
G1 X50.13 Y47.234 F160
M106 S0
M106 S255
G1 X46.326 Y47.13 F160
M106 S0
G0 X46.278 Y30.786 F6000
M106 S255
G1 X46.278 Y30.786 F160
M106 S0
M106 S255
G1 X50.13 Y30.721 F160
M106 S0
M106 S255
G1 X54.405 Y30.737 F160
M106 S0
M106 S255
G1 X57.951 Y30.786 F160
M106 S0
M106 S255
G1 X54.375 Y30.884 F160
M106 S0
M106 S255
G1 X50.117 Y30.916 F160
M106 S0
M106 S255
G1 X46.298 Y30.786 F160
M106 S0
G0 X46.267 Y22.685 F6000
M106 S255
G1 X46.267 Y22.685 F160
M106 S0
M106 S255
G1 X50.158 Y22.636 F160
M106 S0
M106 S255
G1 X54.439 Y22.669 F160
M106 S0
M106 S255
G1 X58.053 Y22.718 F160
M106 S0
G0 X46.233 Y14.455 F6000
M106 S255
G1 X46.233 Y14.455 F160
M106 S0
M106 S255
G1 X50.146 Y14.422 F160
M106 S0
M106 S255
G1 X54.502 Y14.472 F160
M106 S0
M106 S255
G1 X58.168 Y14.603 F160
M106 S0
M106 S255
G1 X54.535 Y14.669 F160
M106 S0
M106 S255
G1 X50.146 Y14.685 F160
M106 S0
M106 S255
G1 X46.25 Y14.455 F160
M106 S0
G0 X46.193 Y6.281 F6000
M106 S255
G1 X46.193 Y6.281 F160
M106 S0
M106 S255
G1 X50.134 Y6.314 F160
M106 S0
M106 S255
G1 X54.505 Y6.33 F160
M106 S0
M106 S255
G1 X58.265 Y6.561 F160
M106 S0
M106 S255
G1 X54.587 Y6.693 F160
M106 S0
M106 S255
G1 X50.134 Y6.61 F160
M106 S0
M106 S255
G1 X46.193 Y6.297 F160
M106 S0
G0 X46.317 Y38.937 F6000
M106 S255
G1 X46.317 Y38.937 F160
M106 S0
M106 S255
G1 X50.129 Y38.792 F160
M106 S0
M106 S255
G1 X54.324 Y38.782 F160
M106 S0
M106 S255
G1 X57.878 Y38.854 F160
M106 S0
M106 S255
G1 X54.315 Y39.051 F160
M106 S0
M106 S255
G1 X50.12 Y39.061 F160
M106 S0
M106 S255
G1 X46.337 Y38.957 F160
M106 S0
G0 X46.353 Y55.357 F6000
M106 S255
G1 X46.353 Y55.357 F160
M106 S0
M106 S255
G1 X50.094 Y55.666 F160
M106 S0
M106 S255
G1 X54.237 Y55.772 F160
M106 S0
M106 S255
G1 X57.663 Y55.109 F160
M106 S0
M106 S255
G1 X54.184 Y54.87 F160
M106 S0
M106 S255
G1 X50.121 Y54.817 F160
M106 S0
M106 S255
G1 X46.353 Y55.3 F160
M106 S0
G0 X54.249 Y55.688 F6000
M106 S255
G1 X54.249 Y55.688 F160
M106 S0
M106 S255
G1 X57.579 Y60.922 F160
M106 S0
G0 X50.094 Y62.911 F6000
M106 S255
G1 X50.094 Y62.911 F160
M106 S0
M106 S255
G1 X57.589 Y63.179 F160
M106 S0
G0 X57.602 Y62.151 F6000
M106 S255
G1 X57.602 Y62.151 F160
M106 S0
M106 S255
G1 X147.668 Y49.857 F160
M106 S0
G0 X57.607 Y61.726 F6000
M106 S255
G1 X57.607 Y61.726 F160
M106 S0
M106 S255
G1 X147.754 Y48.891 F160
M106 S0
G0 X57.712 Y53.072 F6000
M106 S255
G1 X57.712 Y53.072 F160
M106 S0
M106 S255
G1 X147.69 Y42.876 F160
M106 S0
G0 X57.719 Y52.439 F6000
M106 S255
G1 X57.719 Y52.439 F160
M106 S0
M106 S255
G1 X147.694 Y42.106 F160
M106 S0
G0 X89.559 Y48.791 F6000
M106 S255
G1 X89.559 Y48.791 F160
M106 S0
M106 S255
G1 X90.67 Y47.333 F160
M106 S0
M106 S255
G1 X89.461 Y47.344 F160
M106 S0
M106 S255
G1 X89.461 Y46.974 F160
M106 S0
M106 S255
G1 X88.241 Y46.974 F160
M106 S0
M106 S255
G1 X88.677 Y44.094 F160
M106 S0
M106 S255
G1 X93.938 Y44.094 F160
M106 S0
M106 S255
G1 X94.221 Y47.175 F160
M106 S0
M106 S255
G1 X92.565 Y47.175 F160
M106 S0
M106 S255
G1 X92.565 Y47.392 F160
M106 S0
M106 S255
G1 X92.206 Y47.392 F160
M106 S0
M106 S255
G1 X92.206 Y47.588 F160
M106 S0
M106 S255
G1 X94.014 Y48.285 F160
M106 S0
G0 X92.99 Y48.372 F6000
M106 S255
G1 X92.99 Y48.372 F160
M106 S0
M106 S255
G1 X92.031 Y47.969 F160
M106 S0
M106 S255
G1 X91.759 Y48.535 F160
M106 S0
G0 X90.049 Y48.72 F6000
M106 S255
G1 X90.049 Y48.72 F160
M106 S0
M106 S255
G1 X91.018 Y47.469 F160
M106 S0
M106 S255
G1 X91.846 Y47.469 F160
M106 S0
M106 S255
G1 X91.313 Y48.557 F160
M106 S0
G0 X88.524 Y46.696 F6000
M106 S255
G1 X88.524 Y46.696 F160
M106 S0
M106 S255
G1 X88.818 Y44.53 F160
M106 S0
M106 S255
G1 X89.33 Y44.53 F160
M106 S0
M106 S255
G1 X89.33 Y46.761 F160
M106 S0
M106 S255
G1 X88.514 Y46.761 F160
M106 S0
M106 S255
G1 X88.514 Y46.71 F160
M106 S0
G0 X89.47 Y46.757 F6000
M106 S255
G1 X89.47 Y46.757 F160
M106 S0
M106 S255
G1 X89.47 Y44.519 F160
M106 S0
M106 S255
G1 X93.439 Y44.519 F160
M106 S0
M106 S255
G1 X93.439 Y46.757 F160
M106 S0
M106 S255
G1 X89.47 Y46.757 F160
M106 S0
G0 X90.276 Y46.751 F6000
M106 S255
G1 X90.276 Y46.751 F160
M106 S0
M106 S255
G1 X90.276 Y44.519 F160
M106 S0
G0 X90.468 Y46.757 F6000
M106 S255
G1 X90.468 Y46.757 F160
M106 S0
M106 S255
G1 X90.468 Y44.525 F160
M106 S0
G0 X91.275 Y46.744 F6000
M106 S255
G1 X91.275 Y46.744 F160
M106 S0
M106 S255
G1 X91.275 Y44.512 F160
M106 S0
G0 X91.391 Y46.757 F6000
M106 S255
G1 X91.391 Y46.757 F160
M106 S0
M106 S255
G1 X91.391 Y44.519 F160
M106 S0
G0 X92.153 Y46.757 F6000
M106 S255
G1 X92.153 Y46.757 F160
M106 S0
M106 S255
G1 X92.153 Y44.519 F160
M106 S0
G0 X92.346 Y46.757 F6000
M106 S255
G1 X92.346 Y46.757 F160
M106 S0
M106 S255
G1 X92.346 Y44.519 F160
M106 S0
G0 X93.595 Y46.747 F6000
M106 S255
G1 X93.595 Y46.747 F160
M106 S0
M106 S255
G1 X93.595 Y44.514 F160
M106 S0
M106 S255
G1 X93.802 Y44.514 F160
M106 S0
M106 S255
G1 X94.009 Y46.747 F160
M106 S0
M106 S255
G1 X93.595 Y46.747 F160
M106 S0
G0 X65.456 Y60.612 F6000
M106 S255
G1 X65.456 Y60.612 F160
M106 S0
M106 S255
G1 X65.456 Y58.826 F160
M106 S0
M106 S255
G1 X65.292 Y58.826 F160
M106 S0
M106 S255
G1 X65.292 Y58.498 F160
M106 S0
M106 S255
G1 X64.143 Y58.498 F160
M106 S0
M106 S255
G1 X64.143 Y58.261 F160
M106 S0
M106 S255
G1 X64.143 Y58.149 F160
M106 S0
M106 S255
G1 X63.165 Y58.149 F160
M106 S0
M106 S255
G1 X63.536 Y55.371 F160
M106 S0
M106 S255
G1 X68.504 Y55.371 F160
M106 S0
M106 S255
G1 X68.754 Y58.205 F160
M106 S0
M106 S255
G1 X67.125 Y58.205 F160
M106 S0
M106 S255
G1 X67.125 Y58.556 F160
M106 S0
M106 S255
G1 X66.474 Y58.556 F160
M106 S0
M106 S255
G1 X66.474 Y60.464 F160
M106 S0
G0 X66.174 Y60.494 F6000
M106 S255
G1 X66.174 Y60.494 F160
M106 S0
M106 S255
G1 X66.174 Y58.772 F160
M106 S0
M106 S255
G1 X65.759 Y58.772 F160
M106 S0
M106 S255
G1 X65.759 Y60.565 F160
M106 S0
G0 X64.139 Y57.937 F6000
M106 S255
G1 X64.139 Y57.937 F160
M106 S0
M106 S255
G1 X64.139 Y55.898 F160
M106 S0
M106 S255
G1 X68.041 Y55.898 F160
M106 S0
M106 S255
G1 X68.041 Y57.937 F160
M106 S0
M106 S255
G1 X64.139 Y57.937 F160
M106 S0
G0 X64.941 Y57.937 F6000
M106 S255
G1 X64.941 Y57.937 F160
M106 S0
M106 S255
G1 X64.941 Y55.898 F160
M106 S0
G0 X65.127 Y57.937 F6000
M106 S255
G1 X65.127 Y57.937 F160
M106 S0
M106 S255
G1 X65.127 Y55.898 F160
M106 S0
G0 X65.843 Y57.937 F6000
M106 S255
G1 X65.843 Y57.937 F160
M106 S0
M106 S255
G1 X65.843 Y55.898 F160
M106 S0
G0 X66.008 Y57.937 F6000
M106 S255
G1 X66.008 Y57.937 F160
M106 S0
M106 S255
G1 X66.008 Y55.898 F160
M106 S0
G0 X66.738 Y57.937 F6000
M106 S255
G1 X66.738 Y57.937 F160
M106 S0
M106 S255
G1 X66.738 Y55.898 F160
M106 S0
G0 X66.838 Y57.937 F6000
M106 S255
G1 X66.838 Y57.937 F160
M106 S0
M106 S255
G1 X66.838 Y55.898 F160
M106 S0
G0 X63.989 Y57.937 F6000
M106 S255
G1 X63.989 Y57.937 F160
M106 S0
M106 S255
G1 X63.337 Y57.937 F160
M106 S0
M106 S255
G1 X63.609 Y55.898 F160
M106 S0
M106 S255
G1 X63.989 Y55.898 F160
M106 S0
M106 S255
G1 X63.989 Y57.937 F160
M106 S0
G0 X68.171 Y55.898 F6000
M106 S255
G1 X68.171 Y55.898 F160
M106 S0
M106 S255
G1 X68.436 Y55.898 F160
M106 S0
M106 S255
G1 X68.615 Y57.937 F160
M106 S0
M106 S255
G1 X68.171 Y57.937 F160
M106 S0
M106 S255
G1 X68.171 Y55.898 F160
M106 S0
G0 X-0.01 Y32.528 F6000
M106 S255
G1 X-0.01 Y32.528 F160
M106 S0
M106 S255
G1 X1.909 Y24.814 F160
M106 S0
M106 S255
G1 X1.909 Y18.67 F160
M106 S0
M106 S255
G1 X27.577 Y18.67 F160
M106 S0
G0 X9.176 Y17.904 F6000
M106 S255
G1 X9.176 Y17.904 F160
M106 S0
M106 S255
G1 X34.635 Y18.135 F160
M106 S0
M106 S255
G1 X75.294 Y18.504 F160
M106 S0
M106 S255
G1 X101.725 Y18.504 F160
M106 S0
G0 X9.175 Y17.914 F6000
M106 S255
G1 X9.175 Y17.914 F160
M106 S0
M106 S255
G1 X9.51 Y11.524 F160
M106 S0
G0 X25.844 Y18.67 F6000
M106 S255
G1 X25.844 Y18.67 F160
M106 S0
M106 S255
G1 X27.902 Y41.207 F160
M106 S0
M106 S255
G1 X28.778 Y41.046 F160
M106 S0
M106 S255
G1 X30.206 Y41.046 F160
M106 S0
M106 S255
G1 X29.997 Y36.964 F160
M106 S0
G0 X33.499 Y18.672 F6000
M106 S255
G1 X33.499 Y18.672 F160
M106 S0
M106 S255
G1 X33.625 Y39.151 F160
M106 S0
M106 S255
G1 X33.087 Y39.151 F160
M106 S0
M106 S255
G1 X32.992 Y41.428 F160
M106 S0
M106 S255
G1 X32.622 Y41.428 F160
M106 S0
M106 S255
G1 X32.622 Y41.613 F160
M106 S0
M106 S255
G1 X30.861 Y41.613 F160
M106 S0
M106 S255
G1 X29.654 Y18.533 F160
M106 S0
G0 X29.019 Y18.668 F6000
M106 S255
G1 X29.019 Y18.668 F160
M106 S0
M106 S255
G1 X29.785 Y35.61 F160
M106 S0
M106 S255
G1 X28.404 Y35.61 F160
M106 S0
M106 S255
G1 X27.572 Y18.67 F160
M106 S0
G0 X28.682 Y41.064 F6000
M106 S255
G1 X28.682 Y41.064 F160
M106 S0
M106 S255
G1 X28.507 Y36.874 F160
M106 S0
M106 S255
G1 X29.989 Y36.874 F160
M106 S0
G0 X33.5 Y18.729 F6000
M106 S255
G1 X33.5 Y18.729 F160
M106 S0
M106 S255
G1 X34.668 Y20.668 F160
M106 S0
G0 X34.644 Y20.656 F6000
M106 S255
G1 X34.644 Y20.656 F160
M106 S0
M106 S255
G1 X36.11 Y18.711 F160
M106 S0
M106 S255
G1 X36.981 Y18.719 F160
M106 S0
M106 S255
G1 X38.604 Y21.6 F160
M106 S0
M106 S255
G1 X40.558 Y18.748 F160
M106 S0
M106 S255
G1 X42.654 Y22.234 F160
M106 S0
M106 S255
G1 X44.673 Y18.765 F160
M106 S0
M106 S255
G1 X46.432 Y22.557 F160
M106 S0
M106 S255
G1 X48.283 Y18.809 F160
M106 S0
M106 S255
G1 X50.12 Y22.583 F160
M106 S0
M106 S255
G1 X52.268 Y18.83 F160
M106 S0
M106 S255
G1 X53.912 Y22.622 F160
M106 S0
M106 S255
G1 X55.767 Y18.885 F160
M106 S0
M106 S255
G1 X57.592 Y22.674 F160
M106 S0
M106 S255
G1 X59.274 Y18.899 F160
M106 S0
M106 S255
G1 X61.305 Y22.687 F160
M106 S0
M106 S255
G1 X63.146 Y18.951 F160
M106 S0
M106 S255
G1 X64.984 Y22.207 F160
M106 S0
M106 S255
G1 X66.753 Y18.967 F160
M106 S0
M106 S255
G1 X68.607 Y21.599 F160
M106 S0
M106 S255
G1 X70.354 Y18.997 F160
M106 S0
M106 S255
G1 X70.72 Y19.0 F160
M106 S0
M106 S255
G1 X72.104 Y20.839 F160
M106 S0
M106 S255
G1 X73.644 Y19.029 F160
M106 S0
G0 X35.379 Y18.697 F6000
M106 S255
G1 X35.379 Y18.697 F160
M106 S0
M106 S255
G1 X36.753 Y21.185 F160
M106 S0
M106 S255
G1 X38.632 Y18.723 F160
M106 S0
M106 S255
G1 X40.693 Y21.949 F160
M106 S0
M106 S255
G1 X42.689 Y18.757 F160
M106 S0
M106 S255
G1 X44.633 Y22.415 F160
M106 S0
M106 S255
G1 X46.578 Y18.795 F160
M106 S0
M106 S255
G1 X48.289 Y22.662 F160
M106 S0
M106 S255
G1 X50.068 Y18.62 F160
M106 S0
M106 S255
G1 X52.298 Y22.829 F160
M106 S0
M106 S255
G1 X53.97 Y18.814 F160
M106 S0
M106 S255
G1 X56.1 Y22.894 F160
M106 S0
M106 S255
G1 X57.863 Y18.801 F160
M106 S0
M106 S255
G1 X59.509 Y22.829 F160
M106 S0
M106 S255
G1 X61.051 Y18.879 F160
M106 S0
M106 S255
G1 X63.151 Y22.48 F160
M106 S0
M106 S255
G1 X64.68 Y18.944 F160
M106 S0
M106 S255
G1 X66.887 Y21.898 F160
M106 S0
M106 S255
G1 X68.209 Y18.958 F160
M106 S0
M106 S255
G1 X69.725 Y21.329 F160
M106 S0
M106 S255
G1 X71.371 Y18.958 F160
M106 S0
G0 X26.405 Y11.524 F6000
M106 S255
G1 X26.405 Y11.524 F160
M106 S0
M106 S255
G1 X26.592 Y16.99 F160
M106 S0
M106 S255
G1 X9.214 Y16.99 F160
M106 S0
G0 X27.198 Y11.524 F6000
M106 S255
G1 X27.198 Y11.524 F160
M106 S0
M106 S255
G1 X27.302 Y14.086 F160
M106 S0
M106 S255
G1 X28.657 Y14.086 F160
M106 S0
M106 S255
G1 X28.597 Y11.524 F160
M106 S0
G0 X29.337 Y11.524 F6000
M106 S255
G1 X29.337 Y11.524 F160
M106 S0
M106 S255
G1 X29.501 Y17.062 F160
M106 S0
G0 X33.534 Y11.524 F6000
M106 S255
G1 X33.534 Y11.524 F160
M106 S0
M106 S255
G1 X33.479 Y17.857 F160
M106 S0
G0 X78.885 Y11.524 F6000
M106 S255
G1 X78.885 Y11.524 F160
M106 S0
M106 S255
G1 X78.676 Y13.002 F160
M106 S0
M106 S255
G1 X78.419 Y17.733 F160
M106 S0
M106 S255
G1 X93.006 Y17.733 F160
M106 S0
M106 S255
G1 X93.006 Y11.524 F160
M106 S0
G0 X93.292 Y17.303 F6000
M106 S255
G1 X93.292 Y17.303 F160
M106 S0
M106 S255
G1 X95.284 Y15.74 F160
M106 S0
M106 S255
G1 X95.284 Y11.524 F160
M106 S0
G0 X95.691 Y11.524 F6000
M106 S255
G1 X95.691 Y11.524 F160
M106 S0
M106 S255
G1 X95.691 Y15.633 F160
M106 S0
M106 S255
G1 X96.633 Y15.226 F160
M106 S0
M106 S255
G1 X96.633 Y11.524 F160
M106 S0
G0 X93.913 Y17.281 F6000
M106 S255
G1 X93.913 Y17.281 F160
M106 S0
M106 S255
G1 X101.667 Y17.281 F160
M106 S0
G0 X27.579 Y18.668 F6000
M106 S255
G1 X27.579 Y18.668 F160
M106 S0
M106 S255
G1 X29.024 Y18.668 F160
M106 S0
G0 X33.512 Y18.69 F6000
M106 S255
G1 X33.512 Y18.69 F160
M106 S0
M106 S255
G1 X73.652 Y19.025 F160
M106 S0
G0 X78.225 Y19.029 F6000
M106 S255
G1 X78.225 Y19.029 F160
M106 S0
M106 S255
G1 X101.735 Y19.029 F160
M106 S0
G0 X78.225 Y19.029 F6000
M106 S255
G1 X78.225 Y19.029 F160
M106 S0
M106 S255
G1 X77.105 Y40.73 F160
M106 S0
M106 S255
G1 X75.273 Y40.73 F160
M106 S0
M106 S255
G1 X75.394 Y19.053 F160
M106 S0
G0 X75.273 Y40.73 F6000
M106 S255
G1 X75.273 Y40.73 F160
M106 S0
M106 S255
G1 X74.308 Y40.487 F160
M106 S0
M106 S255
G1 X74.308 Y38.605 F160
M106 S0
G0 X74.899 Y38.591 F6000
M106 S255
G1 X74.899 Y38.591 F160
M106 S0
M106 S255
G1 X74.165 Y38.591 F160
M106 S0
M106 S255
G1 X73.652 Y38.591 F160
M106 S0
M106 S255
G1 X73.637 Y35.915 F160
M106 S0
M106 S255
G1 X72.842 Y35.929 F160
M106 S0
M106 S255
G1 X72.842 Y35.239 F160
M106 S0
M106 S255
G1 X72.5 Y35.239 F160
M106 S0
G0 X72.433 Y38.307 F6000
M106 S255
G1 X72.433 Y38.307 F160
M106 S0
M106 S255
G1 X71.733 Y38.264 F160
M106 S0
M106 S255
G1 X71.733 Y35.566 F160
M106 S0
G0 X71.62 Y35.562 F6000
M106 S255
G1 X71.62 Y35.562 F160
M106 S0
M106 S255
G1 X72.5 Y35.568 F160
M106 S0
G0 X71.733 Y38.264 F6000
M106 S255
G1 X71.733 Y38.264 F160
M106 S0
M106 S255
G1 X71.178 Y38.264 F160
M106 S0
G0 X71.62 Y35.562 F6000
M106 S255
G1 X71.62 Y35.562 F160
M106 S0
M106 S255
G1 X71.602 Y20.963 F160
M106 S0
G0 X72.389 Y31.753 F6000
M106 S255
G1 X72.389 Y31.753 F160
M106 S0
M106 S255
G1 X72.443 Y20.441 F160
M106 S0
G0 X71.178 Y38.264 F6000
M106 S255
G1 X71.178 Y38.264 F160
M106 S0
M106 S255
G1 X71.277 Y21.033 F160
M106 S0
G0 X71.455 Y38.264 F6000
M106 S255
G1 X71.455 Y38.264 F160
M106 S0
M106 S255
G1 X71.447 Y40.46 F160
M106 S0
M106 S255
G1 X72.5 Y40.521 F160
M106 S0
M106 S255
G1 X74.308 Y40.487 F160
M106 S0
G0 X74.165 Y38.591 F6000
M106 S255
G1 X74.165 Y38.591 F160
M106 S0
M106 S255
G1 X74.404 Y19.044 F160
M106 S0
G0 X74.037 Y32.218 F6000
M106 S255
G1 X74.037 Y32.218 F160
M106 S0
M106 S255
G1 X74.128 Y19.03 F160
M106 S0
G0 X72.389 Y31.753 F6000
M106 S255
G1 X72.389 Y31.753 F160
M106 S0
M106 S255
G1 X72.476 Y31.813 F160
M106 S0
M106 S255
G1 X72.563 Y31.873 F160
M106 S0
M106 S255
G1 X72.651 Y31.93 F160
M106 S0
M106 S255
G1 X72.74 Y31.985 F160
M106 S0
M106 S255
G1 X72.83 Y32.036 F160
M106 S0
M106 S255
G1 X72.921 Y32.082 F160
M106 S0
M106 S255
G1 X73.015 Y32.122 F160
M106 S0
M106 S255
G1 X73.099 Y32.152 F160
M106 S0
M106 S255
G1 X73.207 Y32.181 F160
M106 S0
M106 S255
G1 X73.306 Y32.2 F160
M106 S0
M106 S255
G1 X73.408 Y32.214 F160
M106 S0
M106 S255
G1 X73.51 Y32.222 F160
M106 S0
M106 S255
G1 X73.614 Y32.226 F160
M106 S0
M106 S255
G1 X73.719 Y32.227 F160
M106 S0
M106 S255
G1 X73.825 Y32.225 F160
M106 S0
M106 S255
G1 X73.931 Y32.222 F160
M106 S0
M106 S255
G1 X74.037 Y32.218 F160
M106 S0
G0 X34.671 Y20.653 F6000
M106 S255
G1 X34.671 Y20.653 F160
M106 S0
M106 S255
G1 X35.716 Y20.927 F160
M106 S0
M106 S255
G1 X36.763 Y21.191 F160
M106 S0
M106 S255
G1 X38.323 Y21.548 F160
M106 S0
M106 S255
G1 X38.87 Y21.658 F160
M106 S0
M106 S255
G1 X39.932 Y21.849 F160
M106 S0
M106 S255
G1 X40.999 Y22.015 F160
M106 S0
M106 S255
G1 X42.07 Y22.158 F160
M106 S0
M106 S255
G1 X43.143 Y22.281 F160
M106 S0
M106 S255
G1 X44.219 Y22.389 F160
M106 S0
M106 S255
G1 X45.09 Y22.467 F160
M106 S0
M106 S255
G1 X46.372 Y22.569 F160
M106 S0
M106 S255
G1 X47.449 Y22.644 F160
M106 S0
M106 S255
G1 X48.527 Y22.71 F160
M106 S0
M106 S255
G1 X49.604 Y22.767 F160
M106 S0
M106 S255
G1 X50.683 Y22.816 F160
M106 S0
M106 S255
G1 X51.762 Y22.856 F160
M106 S0
M106 S255
G1 X52.705 Y22.885 F160
M106 S0
M106 S255
G1 X53.923 Y22.914 F160
M106 S0
M106 S255
G1 X55.004 Y22.93 F160
M106 S0
M106 S255
G1 X56.085 Y22.933 F160
M106 S0
M106 S255
G1 X57.166 Y22.922 F160
M106 S0
M106 S255
G1 X58.246 Y22.896 F160
M106 S0
M106 S255
G1 X59.325 Y22.851 F160
M106 S0
M106 S255
G1 X60.402 Y22.785 F160
M106 S0
M106 S255
G1 X61.611 Y22.684 F160
M106 S0
M106 S255
G1 X62.548 Y22.585 F160
M106 S0
M106 S255
G1 X63.618 Y22.45 F160
M106 S0
M106 S255
G1 X64.685 Y22.295 F160
M106 S0
M106 S255
G1 X65.75 Y22.122 F160
M106 S0
M106 S255
G1 X66.813 Y21.934 F160
M106 S0
M106 S255
G1 X67.875 Y21.733 F160
M106 S0
M106 S255
G1 X68.935 Y21.522 F160
M106 S0
M106 S255
G1 X69.995 Y21.304 F160
M106 S0
M106 S255
G1 X71.054 Y21.08 F160
M106 S0
M106 S255
G1 X72.113 Y20.854 F160
M106 S0
G0 X77.602 Y30.697 F6000
M106 S255
G1 X77.602 Y30.697 F160
M106 S0
M106 S255
G1 X80.354 Y30.632 F160
M106 S0
M106 S255
G1 X83.235 Y30.697 F160
M106 S0
M106 S255
G1 X83.202 Y24.939 F160
M106 S0
M106 S255
G1 X84.918 Y24.89 F160
M106 S0
M106 S255
G1 X84.918 Y26.411 F160
M106 S0
M106 S255
G1 X86.634 Y26.977 F160
M106 S0
M106 S255
G1 X86.731 Y26.993 F160
M106 S0
M106 S255
G1 X86.715 Y27.915 F160
M106 S0
M106 S255
G1 X86.974 Y27.931 F160
M106 S0
M106 S255
G1 X86.974 Y26.993 F160
M106 S0
M106 S255
G1 X87.152 Y26.977 F160
M106 S0
M106 S255
G1 X87.152 Y27.966 F160
M106 S0
M106 S255
G1 X87.407 Y27.966 F160
M106 S0
M106 S255
G1 X87.407 Y26.964 F160
M106 S0
M106 S255
G1 X87.978 Y26.964 F160
M106 S0
M106 S255
G1 X87.978 Y27.422 F160
M106 S0
M106 S255
G1 X88.506 Y27.422 F160
M106 S0
M106 S255
G1 X88.506 Y27.52 F160
M106 S0
M106 S255
G1 X89.075 Y27.52 F160
M106 S0
M106 S255
G1 X89.075 Y27.99 F160
M106 S0
M106 S255
G1 X89.432 Y27.99 F160
M106 S0
M106 S255
G1 X89.432 Y26.952 F160
M106 S0
M106 S255
G1 X89.562 Y26.952 F160
M106 S0
M106 S255
G1 X89.562 Y28.088 F160
M106 S0
M106 S255
G1 X90.163 Y28.088 F160
M106 S0
M106 S255
G1 X90.163 Y26.952 F160
M106 S0
M106 S255
G1 X93.767 Y26.952 F160
M106 S0
M106 S255
G1 X93.767 Y27.974 F160
M106 S0
M106 S255
G1 X94.06 Y27.974 F160
M106 S0
M106 S255
G1 X94.06 Y27.098 F160
M106 S0
M106 S255
G1 X94.19 Y27.098 F160
M106 S0
M106 S255
G1 X94.19 Y27.877 F160
M106 S0
M106 S255
G1 X94.401 Y27.877 F160
M106 S0
M106 S255
G1 X94.401 Y27.114 F160
M106 S0
M106 S255
G1 X95.05 Y27.114 F160
M106 S0
M106 S255
G1 X95.05 Y27.503 F160
M106 S0
M106 S255
G1 X95.391 Y27.503 F160
M106 S0
M106 S255
G1 X95.391 Y27.877 F160
M106 S0
M106 S255
G1 X95.667 Y27.877 F160
M106 S0
M106 S255
G1 X95.667 Y27.536 F160
M106 S0
M106 S255
G1 X96.193 Y27.536 F160
M106 S0
M106 S255
G1 X96.193 Y27.907 F160
M106 S0
M106 S255
G1 X96.423 Y27.907 F160
M106 S0
M106 S255
G1 X96.423 Y27.09 F160
M106 S0
M106 S255
G1 X96.621 Y27.09 F160
M106 S0
M106 S255
G1 X96.621 Y27.958 F160
M106 S0
M106 S255
G1 X97.355 Y27.958 F160
M106 S0
M106 S255
G1 X97.355 Y27.077 F160
M106 S0
M106 S255
G1 X98.704 Y27.077 F160
M106 S0
M106 S255
G1 X98.835 Y27.077 F160
M106 S0
M106 S255
G1 X98.835 Y27.615 F160
M106 S0
M106 S255
G1 X99.13 Y27.615 F160
M106 S0
M106 S255
G1 X99.13 Y27.402 F160
M106 S0
M106 S255
G1 X99.604 Y27.402 F160
M106 S0
M106 S255
G1 X99.604 Y27.14 F160
M106 S0
M106 S255
G1 X100.865 Y27.14 F160
M106 S0
M106 S255
G1 X100.865 Y27.549 F160
M106 S0
M106 S255
G1 X101.176 Y27.549 F160
M106 S0
M106 S255
G1 X101.176 Y27.14 F160
M106 S0
M106 S255
G1 X101.981 Y27.14 F160
M106 S0
M106 S255
G1 X101.981 Y27.634 F160
M106 S0
M106 S255
G1 X102.651 Y27.634 F160
M106 S0
M106 S255
G1 X102.651 Y27.017 F160
M106 S0
M106 S255
G1 X102.805 Y27.017 F160
M106 S0
M106 S255
G1 X102.805 Y27.744 F160
M106 S0
M106 S255
G1 X103.365 Y27.744 F160
M106 S0
M106 S255
G1 X103.365 Y26.94 F160
M106 S0
M106 S255
G1 X103.578 Y26.94 F160
M106 S0
M106 S255
G1 X103.578 Y27.596 F160
M106 S0
M106 S255
G1 X104.138 Y27.596 F160
M106 S0
M106 S255
G1 X104.138 Y26.94 F160
M106 S0
M106 S255
G1 X104.247 Y26.94 F160
M106 S0
M106 S255
G1 X104.247 Y27.429 F160
M106 S0
M106 S255
G1 X104.611 Y27.429 F160
M106 S0
M106 S255
G1 X104.611 Y27.601 F160
M106 S0
M106 S255
G1 X105.076 Y27.601 F160
M106 S0
M106 S255
G1 X105.076 Y26.839 F160
M106 S0
M106 S255
G1 X105.562 Y26.839 F160
M106 S0
M106 S255
G1 X105.562 Y23.644 F160
M106 S0
G0 X80.354 Y30.632 F6000
M106 S255
G1 X80.354 Y30.632 F160
M106 S0
M106 S255
G1 X80.354 Y21.691 F160
M106 S0
M106 S255
G1 X87.723 Y21.691 F160
M106 S0
M106 S255
G1 X87.723 Y22.604 F160
M106 S0
M106 S255
G1 X87.441 Y22.604 F160
M106 S0
M106 S255
G1 X87.441 Y22.919 F160
M106 S0
M106 S255
G1 X88.349 Y22.919 F160
M106 S0
G0 X88.349 Y22.919 F6000
M106 S255
G1 X88.349 Y22.919 F160
M106 S0
M106 S255
G1 X91.434 Y23.46 F160
M106 S0
M106 S255
G1 X100.506 Y23.46 F160
M106 S0
M106 S255
G1 X101.415 Y22.727 F160
M106 S0
M106 S255
G1 X101.415 Y19.029 F160
M106 S0
G0 X96.181 Y22.919 F6000
M106 S255
G1 X96.181 Y22.919 F160
M106 S0
M106 S255
G1 X97.435 Y23.46 F160
M106 S0
G0 X82.456 Y24.847 F6000
M106 S255
G1 X82.456 Y24.847 F160
M106 S0
M106 S255
G1 X82.456 Y22.184 F160
M106 S0
M106 S255
G1 X80.354 Y21.691 F160
M106 S0
G0 X82.456 Y24.847 F6000
M106 S255
G1 X82.456 Y24.847 F160
M106 S0
M106 S255
G1 X85.732 Y24.763 F160
M106 S0
G0 X84.918 Y26.411 F6000
M106 S255
G1 X84.918 Y26.411 F160
M106 S0
M106 S255
G1 X98.383 Y26.411 F160
M106 S0
M106 S255
G1 X99.636 Y26.739 F160
M106 S0
M106 S255
G1 X99.636 Y23.46 F160
M106 S0
G0 X98.383 Y26.411 F6000
M106 S255
G1 X98.383 Y26.411 F160
M106 S0
M106 S255
G1 X98.383 Y23.46 F160
M106 S0
G0 X99.636 Y26.739 F6000
M106 S255
G1 X99.636 Y26.739 F160
M106 S0
M106 S255
G1 X102.612 Y26.739 F160
M106 S0
M106 S255
G1 X102.612 Y19.027 F160
M106 S0
G0 X105.931 Y24.416 F6000
M106 S255
G1 X105.931 Y24.416 F160
M106 S0
M106 S255
G1 X105.931 Y26.142 F160
M106 S0
M106 S255
G1 X108.218 Y26.142 F160
M106 S0
M106 S255
G1 X108.218 Y26.715 F160
M106 S0
M106 S255
G1 X108.928 Y26.715 F160
M106 S0
M106 S255
G1 X108.928 Y26.879 F160
M106 S0
M106 S255
G1 X109.392 Y26.879 F160
M106 S0
M106 S255
G1 X109.392 Y27.235 F160
M106 S0
M106 S255
G1 X113.162 Y27.235 F160
M106 S0
M106 S255
G1 X113.162 Y26.975 F160
M106 S0
M106 S255
G1 X116.536 Y26.975 F160
M106 S0
M106 S255
G1 X117.644 Y26.975 F160
M106 S0
M106 S255
G1 X117.644 Y27.517 F160
M106 S0
M106 S255
G1 X119.039 Y28.019 F160
M106 S0
M106 S255
G1 X120.601 Y28.019 F160
M106 S0
M106 S255
G1 X120.601 Y28.43 F160
M106 S0
M106 S255
G1 X121.091 Y28.43 F160
M106 S0
M106 S255
G1 X121.091 Y28.033 F160
M106 S0
M106 S255
G1 X122.264 Y28.033 F160
M106 S0
M106 S255
G1 X122.264 Y28.389 F160
M106 S0
M106 S255
G1 X122.751 Y28.389 F160
M106 S0
M106 S255
G1 X122.751 Y28.019 F160
M106 S0
M106 S255
G1 X126.131 Y28.019 F160
M106 S0
M106 S255
G1 X125.534 Y26.877 F160
M106 S0
G0 X123.046 Y28.019 F6000
M106 S255
G1 X123.046 Y28.019 F160
M106 S0
M106 S255
G1 X123.046 Y28.414 F160
M106 S0
M106 S255
G1 X124.142 Y29.225 F160
M106 S0
M106 S255
G1 X125.016 Y29.225 F160
M106 S0
M106 S255
G1 X128.934 Y29.225 F160
M106 S0
M106 S255
G1 X131.103 Y28.358 F160
M106 S0
M106 S255
G1 X131.103 Y26.832 F160
M106 S0
G0 X129.698 Y28.92 F6000
M106 S255
G1 X129.698 Y28.92 F160
M106 S0
M106 S255
G1 X132.85 Y29.12 F160
M106 S0
M106 S255
G1 X132.85 Y27.689 F160
M106 S0
G0 X133.245 Y26.163 F6000
M106 S255
G1 X133.245 Y26.163 F160
M106 S0
M106 S255
G1 X133.245 Y27.742 F160
M106 S0
M106 S255
G1 X133.491 Y27.742 F160
M106 S0
M106 S255
G1 X133.491 Y29.299 F160
M106 S0
M106 S255
G1 X133.491 Y29.299 F160
M106 S0
M106 S255
G1 X133.491 Y30.34 F160
M106 S0
M106 S255
G1 X134.757 Y30.34 F160
M106 S0
M106 S255
G1 X135.889 Y31.303 F160
M106 S0
M106 S255
G1 X136.393 Y31.303 F160
M106 S0
M106 S255
G1 X136.393 Y30.418 F160
M106 S0
M106 S255
G1 X137.279 Y30.418 F160
M106 S0
M106 S255
G1 X137.279 Y28.739 F160
M106 S0
M106 S255
G1 X139.587 Y28.739 F160
M106 S0
M106 S255
G1 X139.587 Y27.836 F160
M106 S0
M106 S255
G1 X138.623 Y27.836 F160
M106 S0
G0 X134.468 Y26.472 F6000
M106 S255
G1 X134.468 Y26.472 F160
M106 S0
M106 S255
G1 X134.468 Y27.869 F160
M106 S0
M106 S255
G1 X135.639 Y28.488 F160
M106 S0
M106 S255
G1 X135.639 Y29.017 F160
M106 S0
M106 S255
G1 X136.461 Y29.017 F160
M106 S0
M106 S255
G1 X136.461 Y28.432 F160
M106 S0
M106 S255
G1 X137.587 Y27.476 F160
M106 S0
M106 S255
G1 X137.767 Y27.476 F160
M106 S0
M106 S255
G1 X138.015 Y27.813 F160
M106 S0
M106 S255
G1 X138.015 Y28.117 F160
M106 S0
M106 S255
G1 X138.623 Y28.117 F160
M106 S0
M106 S255
G1 X138.623 Y27.734 F160
M106 S0
M106 S255
G1 X139.041 Y27.565 F160
M106 S0
G0 X138.61 Y28.739 F6000
M106 S255
G1 X138.61 Y28.739 F160
M106 S0
M106 S255
G1 X138.61 Y29.048 F160
M106 S0
M106 S255
G1 X138.883 Y29.048 F160
M106 S0
M106 S255
G1 X138.883 Y29.582 F160
M106 S0
M106 S255
G1 X139.543 Y29.582 F160
M106 S0
M106 S255
G1 X139.543 Y29.877 F160
M106 S0
M106 S255
G1 X140.35 Y29.877 F160
M106 S0
M106 S255
G1 X140.35 Y29.604 F160
M106 S0
M106 S255
G1 X142.544 Y29.604 F160
M106 S0
M106 S255
G1 X142.544 Y30.047 F160
M106 S0
M106 S255
G1 X143.033 Y30.047 F160
M106 S0
M106 S255
G1 X143.033 Y29.82 F160
M106 S0
M106 S255
G1 X143.636 Y29.82 F160
M106 S0
M106 S255
G1 X143.636 Y30.286 F160
M106 S0
M106 S255
G1 X143.897 Y30.286 F160
M106 S0
M106 S255
G1 X143.897 Y29.65 F160
M106 S0
M106 S255
G1 X144.489 Y29.65 F160
M106 S0
M106 S255
G1 X144.489 Y31.297 F160
M106 S0
M106 S255
G1 X144.886 Y31.297 F160
M106 S0
M106 S255
G1 X144.886 Y29.627 F160
M106 S0
M106 S255
G1 X145.091 Y29.627 F160
M106 S0
M106 S255
G1 X145.091 Y30.127 F160
M106 S0
M106 S255
G1 X145.455 Y30.127 F160
M106 S0
M106 S255
G1 X145.455 Y29.684 F160
M106 S0
M106 S255
G1 X145.66 Y29.684 F160
M106 S0
M106 S255
G1 X145.66 Y30.15 F160
M106 S0
M106 S255
G1 X145.898 Y30.15 F160
M106 S0
M106 S255
G1 X145.898 Y29.661 F160
M106 S0
M106 S255
G1 X147.717 Y29.661 F160
M106 S0
G0 X82.088 Y30.671 F6000
M106 S255
G1 X82.088 Y30.671 F160
M106 S0
M106 S255
G1 X82.088 Y31.819 F160
M106 S0
M106 S255
G1 X77.787 Y31.819 F160
M106 S0
M106 S255
G1 X77.787 Y31.308 F160
M106 S0
M106 S255
G1 X77.591 Y31.308 F160
M106 S0
G0 X105.748 Y21.349 F6000
M106 S255
G1 X105.748 Y21.349 F160
M106 S0
M106 S255
G1 X105.748 Y24.398 F160
M106 S0
G0 X113.925 Y24.632 F6000
M106 S255
G1 X113.925 Y24.632 F160
M106 S0
M106 S255
G1 X113.925 Y20.004 F160
M106 S0
G0 X105.931 Y24.634 F6000
M106 S255
G1 X105.931 Y24.634 F160
M106 S0
M106 S255
G1 X109.135 Y25.004 F160
M106 S0
M106 S255
G1 X114.807 Y25.004 F160
M106 S0
M106 S255
G1 X113.925 Y24.632 F160
M106 S0
G0 X114.807 Y25.004 F6000
M106 S255
G1 X114.807 Y25.004 F160
M106 S0
M106 S255
G1 X117.667 Y24.725 F160
M106 S0
M106 S255
G1 X117.667 Y24.53 F160
M106 S0
G0 X122.497 Y24.627 F6000
M106 S255
G1 X122.497 Y24.627 F160
M106 S0
M106 S255
G1 X125.374 Y24.742 F160
M106 S0
M106 S255
G1 X125.374 Y20.055 F160
M106 S0
G0 X122.497 Y24.627 F6000
M106 S255
G1 X122.497 Y24.627 F160
M106 S0
M106 S255
G1 X122.497 Y20.233 F160
M106 S0
G0 X117.667 Y24.627 F6000
M106 S255
G1 X117.667 Y24.627 F160
M106 S0
M106 S255
G1 X120.198 Y25.302 F160
M106 S0
M106 S255
G1 X122.497 Y24.627 F160
M106 S0
G0 X120.198 Y25.302 F6000
M106 S255
G1 X120.198 Y25.302 F160
M106 S0
M106 S255
G1 X122.455 Y25.372 F160
M106 S0
M106 S255
G1 X125.374 Y24.742 F160
M106 S0
G0 X125.374 Y24.742 F6000
M106 S255
G1 X125.374 Y24.742 F160
M106 S0
M106 S255
G1 X126.654 Y24.742 F160
M106 S0
M106 S255
G1 X126.654 Y25.242 F160
M106 S0
M106 S255
G1 X127.274 Y26.162 F160
M106 S0
M106 S255
G1 X133.62 Y26.162 F160
M106 S0
M106 S255
G1 X134.2 Y26.162 F160
M106 S0
M106 S255
G1 X134.2 Y20.601 F160
M106 S0
G0 X133.62 Y26.162 F6000
M106 S255
G1 X133.62 Y26.162 F160
M106 S0
M106 S255
G1 X133.62 Y26.37 F160
M106 S0
M106 S255
G1 X133.794 Y26.37 F160
M106 S0
M106 S255
G1 X133.794 Y26.504 F160
M106 S0
M106 S255
G1 X134.06 Y26.504 F160
M106 S0
M106 S255
G1 X134.06 Y26.7 F160
M106 S0
M106 S255
G1 X134.351 Y26.7 F160
M106 S0
M106 S255
G1 X134.351 Y26.472 F160
M106 S0
M106 S255
G1 X135.81 Y26.472 F160
M106 S0
M106 S255
G1 X135.81 Y20.277 F160
M106 S0
G0 X135.81 Y26.25 F6000
M106 S255
G1 X135.81 Y26.25 F160
M106 S0
M106 S255
G1 X136.666 Y26.25 F160
M106 S0
M106 S255
G1 X136.666 Y20.236 F160
M106 S0
G0 X136.666 Y24.836 F6000
M106 S255
G1 X136.666 Y24.836 F160
M106 S0
M106 S255
G1 X137.906 Y24.836 F160
M106 S0
M106 S255
G1 X137.906 Y25.317 F160
M106 S0
M106 S255
G1 X138.396 Y25.317 F160
M106 S0
M106 S255
G1 X138.396 Y24.836 F160
M106 S0
M106 S255
G1 X139.568 Y24.836 F160
M106 S0
M106 S255
G1 X139.568 Y20.343 F160
M106 S0
G0 X139.041 Y27.565 F6000
M106 S255
G1 X139.041 Y27.565 F160
M106 S0
M106 S255
G1 X139.041 Y25.866 F160
M106 S0
G0 X72.5 Y40.521 F6000
M106 S255
G1 X72.5 Y40.521 F160
M106 S0
M106 S255
G1 X72.5 Y35.239 F160
M106 S0
G0 X-0.01 Y38.772 F6000
M106 S255
G1 X-0.01 Y38.772 F160
M106 S0
M106 S255
G1 X46.342 Y51.548 F160
M106 S0
G0 X7.292 Y18.67 F6000
M106 S255
G1 X7.292 Y18.67 F160
M106 S0
M106 S255
G1 X7.944 Y20.589 F160
M106 S0
M106 S255
G1 X7.944 Y18.67 F160
M106 S0
G0 X8.193 Y18.67 F6000
M106 S255
G1 X8.193 Y18.67 F160
M106 S0
M106 S255
G1 X8.193 Y20.14 F160
M106 S0
M106 S255
G1 X3.867 Y27.354 F160
M106 S0
M106 S255
G1 X3.486 Y27.51 F160
M106 S0
M106 S255
G1 X3.824 Y28.037 F160
M106 S0
M106 S255
G1 X4.377 Y27.795 F160
M106 S0
M106 S255
G1 X4.377 Y27.501 F160
M106 S0
M106 S255
G1 X8.07 Y22.005 F160
M106 S0
M106 S255
G1 X8.346 Y23.595 F160
M106 S0
M106 S255
G1 X8.346 Y24.615 F160
M106 S0
M106 S255
G1 X7.533 Y24.762 F160
M106 S0
M106 S255
G1 X8.554 Y25.669 F160
M106 S0
M106 S255
G1 X10.413 Y25.669 F160
M106 S0
M106 S255
G1 X10.413 Y25.159 F160
M106 S0
M106 S255
G1 X10.024 Y25.159 F160
M106 S0
M106 S255
G1 X10.024 Y24.459 F160
M106 S0
M106 S255
G1 X9.799 Y24.459 F160
M106 S0
M106 S255
G1 X9.799 Y25.133 F160
M106 S0
M106 S255
G1 X9.22 Y25.133 F160
M106 S0
M106 S255
G1 X9.22 Y21.772 F160
M106 S0
M106 S255
G1 X10.321 Y21.772 F160
M106 S0
M106 S255
G1 X10.321 Y20.63 F160
M106 S0
M106 S255
G1 X9.072 Y20.63 F160
M106 S0
M106 S255
G1 X8.901 Y18.67 F160
M106 S0
G0 X10.043 Y18.67 F6000
M106 S255
G1 X10.043 Y18.67 F160
M106 S0
M106 S255
G1 X10.043 Y20.63 F160
M106 S0
G0 X9.807 Y18.67 F6000
M106 S255
G1 X9.807 Y18.67 F160
M106 S0
M106 S255
G1 X9.807 Y20.63 F160
M106 S0
G0 X9.807 Y18.67 F6000
M106 S255
G1 X9.807 Y18.67 F160
M106 S0
M106 S255
G1 X9.384 Y20.63 F160
M106 S0
G0 X9.161 Y18.67 F6000
M106 S255
G1 X9.161 Y18.67 F160
M106 S0
M106 S255
G1 X9.303 Y19.496 F160
M106 S0
M106 S255
G1 X9.038 Y20.24 F160
M106 S0
G0 X7.205 Y23.292 F6000
M106 S255
G1 X7.205 Y23.292 F160
M106 S0
M106 S255
G1 X7.533 Y24.762 F160
M106 S0
G0 X7.59 Y22.718 F6000
M106 S255
G1 X7.59 Y22.718 F160
M106 S0
M106 S255
G1 X7.94 Y24.688 F160
M106 S0
G0 X8.321 Y23.45 F6000
M106 S255
G1 X8.321 Y23.45 F160
M106 S0
M106 S255
G1 X7.205 Y23.292 F160
M106 S0
G0 X3.867 Y27.354 F6000
M106 S255
G1 X3.867 Y27.354 F160
M106 S0
M106 S255
G1 X3.867 Y25.501 F160
M106 S0
M106 S255
G1 X3.692 Y25.501 F160
M106 S0
M106 S255
G1 X3.677 Y27.432 F160
M106 S0
G0 X3.692 Y25.501 F6000
M106 S255
G1 X3.692 Y25.501 F160
M106 S0
M106 S255
G1 X3.548 Y25.501 F160
M106 S0
M106 S255
G1 X3.548 Y25.172 F160
M106 S0
M106 S255
G1 X3.681 Y25.172 F160
M106 S0
M106 S255
G1 X3.681 Y24.977 F160
M106 S0
M106 S255
G1 X3.894 Y24.977 F160
M106 S0
M106 S255
G1 X3.894 Y25.172 F160
M106 S0
M106 S255
G1 X4.062 Y25.172 F160
M106 S0
M106 S255
G1 X4.062 Y25.501 F160
M106 S0
M106 S255
G1 X3.867 Y25.501 F160
M106 S0
G0 X15.736 Y18.67 F6000
M106 S255
G1 X15.736 Y18.67 F160
M106 S0
M106 S255
G1 X15.133 Y21.901 F160
M106 S0
M106 S255
G1 X14.314 Y21.901 F160
M106 S0
M106 S255
G1 X14.314 Y22.675 F160
M106 S0
M106 S255
G1 X15.088 Y22.675 F160
M106 S0
M106 S255
G1 X14.155 Y29.686 F160
M106 S0
M106 S255
G1 X13.795 Y29.686 F160
M106 S0
M106 S255
G1 X13.965 Y29.892 F160
M106 S0
M106 S255
G1 X13.867 Y31.764 F160
M106 S0
M106 S255
G1 X13.43 Y32.222 F160
M106 S0
M106 S255
G1 X13.43 Y32.489 F160
M106 S0
M106 S255
G1 X13.777 Y32.489 F160
M106 S0
M106 S255
G1 X13.777 Y32.971 F160
M106 S0
M106 S255
G1 X13.358 Y32.971 F160
M106 S0
M106 S255
G1 X13.358 Y33.256 F160
M106 S0
M106 S255
G1 X13.572 Y33.256 F160
M106 S0
M106 S255
G1 X13.572 Y33.452 F160
M106 S0
M106 S255
G1 X13.831 Y33.452 F160
M106 S0
M106 S255
G1 X13.831 Y33.247 F160
M106 S0
M106 S255
G1 X14.197 Y33.247 F160
M106 S0
M106 S255
G1 X14.197 Y32.605 F160
M106 S0
M106 S255
G1 X14.767 Y32.409 F160
M106 S0
M106 S255
G1 X14.767 Y32.231 F160
M106 S0
M106 S255
G1 X14.402 Y31.883 F160
M106 S0
M106 S255
G1 X14.663 Y30.295 F160
M106 S0
M106 S255
G1 X14.887 Y30.295 F160
M106 S0
M106 S255
G1 X14.887 Y30.004 F160
M106 S0
M106 S255
G1 X15.189 Y30.004 F160
M106 S0
M106 S255
G1 X15.189 Y29.735 F160
M106 S0
M106 S255
G1 X14.881 Y29.5 F160
M106 S0
M106 S255
G1 X15.476 Y25.968 F160
M106 S0
M106 S255
G1 X15.709 Y25.968 F160
M106 S0
M106 S255
G1 X15.709 Y26.667 F160
M106 S0
M106 S255
G1 X15.962 Y26.667 F160
M106 S0
M106 S255
G1 X16.824 Y24.509 F160
M106 S0
M106 S255
G1 X17.213 Y24.509 F160
M106 S0
M106 S255
G1 X17.213 Y23.84 F160
M106 S0
M106 S255
G1 X16.419 Y23.84 F160
M106 S0
M106 S255
G1 X16.419 Y23.103 F160
M106 S0
M106 S255
G1 X17.432 Y23.103 F160
M106 S0
M106 S255
G1 X17.432 Y22.901 F160
M106 S0
M106 S255
G1 X17.759 Y22.901 F160
M106 S0
M106 S255
G1 X17.759 Y21.843 F160
M106 S0
M106 S255
G1 X16.706 Y21.843 F160
M106 S0
M106 S255
G1 X16.173 Y18.67 F160
M106 S0
G0 X14.215 Y18.67 F6000
M106 S255
G1 X14.215 Y18.67 F160
M106 S0
M106 S255
G1 X15.133 Y21.901 F160
M106 S0
G0 X14.215 Y18.67 F6000
M106 S255
G1 X14.215 Y18.67 F160
M106 S0
M106 S255
G1 X15.288 Y21.071 F160
M106 S0
G0 X15.189 Y18.67 F6000
M106 S255
G1 X15.189 Y18.67 F160
M106 S0
M106 S255
G1 X14.885 Y20.169 F160
M106 S0
G0 X17.304 Y18.67 F6000
M106 S255
G1 X17.304 Y18.67 F160
M106 S0
M106 S255
G1 X16.706 Y21.843 F160
M106 S0
G0 X17.304 Y18.67 F6000
M106 S255
G1 X17.304 Y18.67 F160
M106 S0
M106 S255
G1 X16.479 Y20.49 F160
M106 S0
G0 X13.959 Y26.21 F6000
M106 S255
G1 X13.959 Y26.21 F160
M106 S0
M106 S255
G1 X13.638 Y26.21 F160
M106 S0
M106 S255
G1 X13.638 Y25.824 F160
M106 S0
M106 S255
G1 X13.904 Y25.824 F160
M106 S0
M106 S255
G1 X13.904 Y25.421 F160
M106 S0
M106 S255
G1 X14.088 Y25.421 F160
M106 S0
M106 S255
G1 X14.088 Y25.815 F160
M106 S0
M106 S255
G1 X14.345 Y25.815 F160
M106 S0
M106 S255
G1 X14.345 Y26.192 F160
M106 S0
M106 S255
G1 X14.067 Y26.192 F160
M106 S0
M106 S255
G1 X14.067 Y25.95 F160
M106 S0
M106 S255
G1 X13.959 Y25.95 F160
M106 S0
M106 S255
G1 X13.959 Y26.21 F160
M106 S0
G0 X13.798 Y26.21 F6000
M106 S255
G1 X13.798 Y26.21 F160
M106 S0
M106 S255
G1 X13.798 Y31.993 F160
M106 S0
G0 X14.206 Y26.192 F6000
M106 S255
G1 X14.206 Y26.192 F160
M106 S0
M106 S255
G1 X14.206 Y29.3 F160
M106 S0
G0 X114.118 Y26.975 F6000
M106 S255
G1 X114.118 Y26.975 F160
M106 S0
M106 S255
G1 X111.743 Y30.978 F160
M106 S0
M106 S255
G1 X110.249 Y34.049 F160
M106 S0
M106 S255
G1 X109.764 Y34.049 F160
M106 S0
M106 S255
G1 X109.764 Y34.346 F160
M106 S0
M106 S255
G1 X109.279 Y34.333 F160
M106 S0
M106 S255
G1 X109.279 Y34.618 F160
M106 S0
M106 S255
G1 X110.024 Y34.618 F160
M106 S0
M106 S255
G1 X110.889 Y34.653 F160
M106 S0
M106 S255
G1 X111.071 Y34.329 F160
M106 S0
M106 S255
G1 X115.712 Y27.01 F160
M106 S0
G0 X115.325 Y27.62 F6000
M106 S255
G1 X115.325 Y27.62 F160
M106 S0
M106 S255
G1 X116.115 Y29.676 F160
M106 S0
M106 S255
G1 X116.701 Y29.432 F160
M106 S0
M106 S255
G1 X115.712 Y27.01 F160
M106 S0
G0 X116.115 Y29.676 F6000
M106 S255
G1 X116.115 Y29.676 F160
M106 S0
M106 S255
G1 X111.071 Y34.329 F160
M106 S0
G0 X115.917 Y29.162 F6000
M106 S255
G1 X115.917 Y29.162 F160
M106 S0
M106 S255
G1 X111.071 Y34.329 F160
M106 S0
G0 X110.249 Y34.049 F6000
M106 S255
G1 X110.249 Y34.049 F160
M106 S0
M106 S255
G1 X110.249 Y27.235 F160
M106 S0
G0 X110.022 Y34.049 F6000
M106 S255
G1 X110.022 Y34.049 F160
M106 S0
M106 S255
G1 X110.022 Y27.235 F160
M106 S0
G0 X116.536 Y26.975 F6000
M106 S255
G1 X116.536 Y26.975 F160
M106 S0
M106 S255
G1 X116.536 Y29.027 F160
M106 S0
M106 S255
G1 X117.245 Y29.027 F160
M106 S0
M106 S255
G1 X117.245 Y26.975 F160
M106 S0
G0 X117.245 Y29.027 F6000
M106 S255
G1 X117.245 Y29.027 F160
M106 S0
M106 S255
G1 X117.96 Y29.108 F160
M106 S0
M106 S255
G1 X117.96 Y27.631 F160
M106 S0
G0 X115.289 Y26.975 F6000
M106 S255
G1 X115.289 Y26.975 F160
M106 S0
M106 S255
G1 X110.762 Y34.008 F160
M106 S0
M106 S255
G1 X110.269 Y34.008 F160
M106 S0
G0 X128.934 Y29.225 F6000
M106 S255
G1 X128.934 Y29.225 F160
M106 S0
M106 S255
G1 X130.593 Y36.363 F160
M106 S0
M106 S255
G1 X130.466 Y36.363 F160
M106 S0
M106 S255
G1 X130.466 Y36.55 F160
M106 S0
M106 S255
G1 X131.279 Y36.55 F160
M106 S0
M106 S255
G1 X131.279 Y36.366 F160
M106 S0
M106 S255
G1 X130.904 Y36.366 F160
M106 S0
M106 S255
G1 X129.813 Y28.927 F160
M106 S0
G0 X129.388 Y29.044 F6000
M106 S255
G1 X129.388 Y29.044 F160
M106 S0
M106 S255
G1 X130.775 Y36.36 F160
M106 S0
G0 X131.151 Y36.55 F6000
M106 S255
G1 X131.151 Y36.55 F160
M106 S0
M106 S255
G1 X131.711 Y37.343 F160
M106 S0
M106 S255
G1 X131.425 Y37.343 F160
M106 S0
M106 S255
G1 X130.699 Y36.55 F160
M106 S0
G0 X137.789 Y28.739 F6000
M106 S255
G1 X137.789 Y28.739 F160
M106 S0
M106 S255
G1 X140.783 Y37.594 F160
M106 S0
M106 S255
G1 X140.381 Y37.594 F160
M106 S0
M106 S255
G1 X140.624 Y38.196 F160
M106 S0
M106 S255
G1 X140.624 Y38.334 F160
M106 S0
M106 S255
G1 X140.286 Y38.334 F160
M106 S0
M106 S255
G1 X140.413 Y38.746 F160
M106 S0
M106 S255
G1 X141.037 Y38.746 F160
M106 S0
M106 S255
G1 X142.147 Y39.552 F160
M106 S0
M106 S255
G1 X142.147 Y39.161 F160
M106 S0
M106 S255
G1 X141.397 Y38.622 F160
M106 S0
M106 S255
G1 X141.397 Y38.39 F160
M106 S0
M106 S255
G1 X141.841 Y38.39 F160
M106 S0
M106 S255
G1 X141.841 Y38.157 F160
M106 S0
M106 S255
G1 X141.048 Y38.157 F160
M106 S0
M106 S255
G1 X141.048 Y37.471 F160
M106 S0
M106 S255
G1 X140.9 Y37.471 F160
M106 S0
M106 S255
G1 X138.24 Y28.739 F160
M106 S0
G0 X137.279 Y29.082 F6000
M106 S255
G1 X137.279 Y29.082 F160
M106 S0
M106 S255
G1 X140.582 Y37.594 F160
M106 S0
G0 X137.279 Y29.687 F6000
M106 S255
G1 X137.279 Y29.687 F160
M106 S0
M106 S255
G1 X140.381 Y37.594 F160
M106 S0
G0 X141.444 Y38.157 F6000
M106 S255
G1 X141.444 Y38.157 F160
M106 S0
M106 S255
G1 X141.444 Y29.604 F160
M106 S0
G0 X141.682 Y38.245 F6000
M106 S255
G1 X141.682 Y38.245 F160
M106 S0
M106 S255
G1 X141.682 Y29.604 F160
M106 S0
G0 X136.393 Y30.733 F6000
M106 S255
G1 X136.393 Y30.733 F160
M106 S0
M106 S255
G1 X140.286 Y38.334 F160
M106 S0
G0 X136.586 Y30.418 F6000
M106 S255
G1 X136.586 Y30.418 F160
M106 S0
M106 S255
G1 X140.286 Y38.334 F160
M106 S0
G0 X137.449 Y29.532 F6000
M106 S255
G1 X137.449 Y29.532 F160
M106 S0
M106 S255
G1 X138.057 Y29.532 F160
M106 S0
G0 X137.866 Y30.596 F6000
M106 S255
G1 X137.866 Y30.596 F160
M106 S0
M106 S255
G1 X138.417 Y30.596 F160
M106 S0
G0 X138.197 Y31.448 F6000
M106 S255
G1 X138.197 Y31.448 F160
M106 S0
M106 S255
G1 X138.705 Y31.448 F160
M106 S0
G0 X138.615 Y32.526 F6000
M106 S255
G1 X138.615 Y32.526 F160
M106 S0
M106 S255
G1 X139.069 Y32.526 F160
M106 S0
G0 X138.965 Y33.428 F6000
M106 S255
G1 X138.965 Y33.428 F160
M106 S0
M106 S255
G1 X139.374 Y33.428 F160
M106 S0
G0 X139.445 Y34.664 F6000
M106 S255
G1 X139.445 Y34.664 F160
M106 S0
M106 S255
G1 X139.792 Y34.664 F160
M106 S0
G0 X114.145 Y26.945 F6000
M106 S255
G1 X114.145 Y26.945 F160
M106 S0
M106 S255
G1 X114.145 Y28.72 F160
M106 S0
M106 S255
G1 X113.07 Y28.72 F160
M106 S0
M106 S255
G1 X113.07 Y30.428 F160
M106 S0
M106 S255
G1 X112.07 Y30.428 F160
M106 S0
M106 S255
G1 X112.07 Y31.985 F160
M106 S0
M106 S255
G1 X111.25 Y31.985 F160
M106 S0
M106 S255
G1 X111.25 Y33.233 F160
M106 S0
M106 S255
G1 X110.647 Y33.233 F160
M106 S0
G0 X114.167 Y28.711 F6000
M106 S255
G1 X114.167 Y28.711 F160
M106 S0
M106 S255
G1 X114.46 Y28.962 F160
M106 S0
G0 X113.069 Y30.433 F6000
M106 S255
G1 X113.069 Y30.433 F160
M106 S0
M106 S255
G1 X113.371 Y30.665 F160
M106 S0
G0 X112.059 Y31.986 F6000
M106 S255
G1 X112.059 Y31.986 F160
M106 S0
M106 S255
G1 X112.396 Y32.21 F160
M106 S0
G0 X111.252 Y33.241 F6000
M106 S255
G1 X111.252 Y33.241 F160
M106 S0
M106 S255
G1 X111.603 Y33.472 F160
M106 S0
G0 X110.747 Y33.991 F6000
M106 S255
G1 X110.747 Y33.991 F160
M106 S0
M106 S255
G1 X111.118 Y34.223 F160
M106 S0
G0 X113.648 Y27.767 F6000
M106 S255
G1 X113.648 Y27.767 F160
M106 S0
M106 S255
G1 X113.648 Y29.484 F160
M106 S0
M106 S255
G1 X112.629 Y29.484 F160
M106 S0
G0 X112.549 Y29.619 F6000
M106 S255
G1 X112.549 Y29.619 F160
M106 S0
M106 S255
G1 X112.549 Y31.177 F160
M106 S0
M106 S255
G1 X111.612 Y31.177 F160
M106 S0
M106 S255
G1 X111.612 Y32.654 F160
M106 S0
M106 S255
G1 X110.921 Y32.654 F160
M106 S0
M106 S255
G1 X110.921 Y33.763 F160
M106 S0
M106 S255
G1 X110.395 Y33.763 F160
M106 S0
G0 X101.667 Y17.281 F6000
M106 S255
G1 X101.667 Y17.281 F160
M106 S0
M106 S255
G1 X104.929 Y17.281 F160
M106 S0
M106 S255
G1 X110.848 Y18.951 F160
M106 S0
M106 S255
G1 X141.592 Y19.292 F160
M106 S0
M106 S255
G1 X141.732 Y21.094 F160
M106 S0
M106 S255
G1 X147.717 Y21.094 F160
M106 S0
G0 X75.399 Y11.524 F6000
M106 S255
G1 X75.399 Y11.524 F160
M106 S0
M106 S255
G1 X75.294 Y18.504 F160
M106 S0
G0 X74.47 Y11.524 F6000
M106 S255
G1 X74.47 Y11.524 F160
M106 S0
M106 S255
G1 X74.47 Y18.497 F160
M106 S0
G0 X72.657 Y11.524 F6000
M106 S255
G1 X72.657 Y11.524 F160
M106 S0
M106 S255
G1 X72.657 Y18.48 F160
M106 S0
G0 X71.658 Y11.524 F6000
M106 S255
G1 X71.658 Y11.524 F160
M106 S0
M106 S255
G1 X71.658 Y18.471 F160
M106 S0
G0 X-0.01 Y10.563 F6000
M106 S255
G1 X-0.01 Y10.563 F160
M106 S0
M106 S255
G1 X-0.042 Y10.561 F160
M106 S0
G0 X57.236 Y1.413 F6000
M106 S255
G1 X57.236 Y1.413 F160
M106 S0
M106 S255
G1 X58.34 Y2.639 F160
M106 S0
M106 S255
G1 X54.548 Y10.346 F160
M106 S0
M106 S255
G1 X58.109 Y18.635 F160
M106 S0
M106 S255
G1 X54.394 Y26.811 F160
M106 S0
M106 S255
G1 X57.902 Y34.707 F160
M106 S0
M106 S255
G1 X54.291 Y43.204 F160
M106 S0
M106 S255
G1 X55.891 Y46.77 F160
M106 S0
M106 S255
G1 X57.8 Y43.006 F160
M106 S0
M106 S255
G1 X54.318 Y39.037 F160
M106 S0
G0 X96.181 Y22.919 F6000
M106 S255
G1 X96.181 Y22.919 F160
M106 S0
M106 S255
G1 X96.181 Y19.029 F160
M106 S0
G0 X117.667 Y24.53 F6000
M106 S255
G1 X117.667 Y24.53 F160
M106 S0
M106 S255
G1 X117.667 Y20.147 F160
M106 S0
M106 S0
