;GCode generated by Numa's program v0.0
G0 X72.354 Y20.424 F6000
M106 S255
G1 X72.354 Y20.424 F150
M106 S0
M106 S255
G1 X72.354 Y27.054 F150
M106 S0
G0 X73.308 Y20.424 F6000
M106 S255
G1 X73.308 Y20.424 F150
M106 S0
M106 S255
G1 X73.308 Y27.063 F150
M106 S0
G0 X75.039 Y20.424 F6000
M106 S255
G1 X75.039 Y20.424 F150
M106 S0
M106 S255
G1 X75.039 Y27.079 F150
M106 S0
G0 X75.925 Y20.424 F6000
M106 S255
G1 X75.925 Y20.424 F150
M106 S0
M106 S255
G1 X75.825 Y27.086 F150
M106 S0
G0 X100.997 Y25.919 F6000
M106 S255
G1 X100.997 Y25.919 F150
M106 S0
M106 S255
G1 X104.111 Y25.919 F150
M106 S0
M106 S255
G1 X109.759 Y27.512 F150
M106 S0
M106 S255
G1 X139.103 Y27.838 F150
M106 S0
M106 S255
G1 X139.237 Y29.558 F150
M106 S0
M106 S255
G1 X144.95 Y29.558 F150
M106 S0
G0 X112.907 Y35.142 F6000
M106 S255
G1 X112.907 Y35.142 F150
M106 S0
M106 S255
G1 X112.907 Y35.17 F150
M106 S0
G0 X73.159 Y48.1 F6000
M106 S255
G1 X73.159 Y48.1 F150
M106 S0
M106 S255
G1 X73.159 Y43.059 F150
M106 S0
G0 X136.669 Y35.734 F6000
M106 S255
G1 X136.669 Y35.734 F150
M106 S0
M106 S255
G1 X136.669 Y34.113 F150
M106 S0
G0 X134.402 Y33.129 F6000
M106 S255
G1 X134.402 Y33.129 F150
M106 S0
M106 S255
G1 X135.586 Y33.129 F150
M106 S0
M106 S255
G1 X135.586 Y33.588 F150
M106 S0
M106 S255
G1 X136.053 Y33.588 F150
M106 S0
M106 S255
G1 X136.053 Y33.129 F150
M106 S0
M106 S255
G1 X137.171 Y33.129 F150
M106 S0
M106 S255
G1 X137.171 Y28.841 F150
M106 S0
G0 X133.585 Y34.479 F6000
M106 S255
G1 X133.585 Y34.479 F150
M106 S0
M106 S255
G1 X134.402 Y34.479 F150
M106 S0
M106 S255
G1 X134.402 Y28.738 F150
M106 S0
G0 X131.494 Y34.395 F6000
M106 S255
G1 X131.494 Y34.395 F150
M106 S0
M106 S255
G1 X131.494 Y34.594 F150
M106 S0
M106 S255
G1 X131.66 Y34.594 F150
M106 S0
M106 S255
G1 X131.66 Y34.721 F150
M106 S0
M106 S255
G1 X131.915 Y34.721 F150
M106 S0
M106 S255
G1 X131.915 Y34.908 F150
M106 S0
M106 S255
G1 X132.192 Y34.908 F150
M106 S0
M106 S255
G1 X132.192 Y34.691 F150
M106 S0
M106 S255
G1 X133.585 Y34.691 F150
M106 S0
M106 S255
G1 X133.585 Y28.778 F150
M106 S0
G0 X123.624 Y33.04 F6000
M106 S255
G1 X123.624 Y33.04 F150
M106 S0
M106 S255
G1 X124.846 Y33.04 F150
M106 S0
M106 S255
G1 X124.846 Y33.517 F150
M106 S0
M106 S255
G1 X125.438 Y34.395 F150
M106 S0
M106 S255
G1 X131.494 Y34.395 F150
M106 S0
M106 S255
G1 X132.048 Y34.395 F150
M106 S0
M106 S255
G1 X132.048 Y29.087 F150
M106 S0
G0 X118.684 Y33.574 F6000
M106 S255
G1 X118.684 Y33.574 F150
M106 S0
M106 S255
G1 X120.839 Y33.641 F150
M106 S0
M106 S255
G1 X123.624 Y33.04 F150
M106 S0
G0 X116.268 Y32.93 F6000
M106 S255
G1 X116.268 Y32.93 F150
M106 S0
M106 S255
G1 X118.684 Y33.574 F150
M106 S0
M106 S255
G1 X120.878 Y32.93 F150
M106 S0
G0 X120.878 Y32.93 F6000
M106 S255
G1 X120.878 Y32.93 F150
M106 S0
M106 S255
G1 X120.878 Y28.736 F150
M106 S0
G0 X116.268 Y32.93 F6000
M106 S255
G1 X116.268 Y32.93 F150
M106 S0
M106 S255
G1 X120.878 Y32.93 F150
M106 S0
M106 S255
G1 X123.624 Y33.04 F150
M106 S0
M106 S255
G1 X123.624 Y28.566 F150
M106 S0
G0 X113.538 Y33.289 F6000
M106 S255
G1 X113.538 Y33.289 F150
M106 S0
M106 S255
G1 X116.268 Y33.023 F150
M106 S0
M106 S255
G1 X116.268 Y32.837 F150
M106 S0
G0 X105.067 Y32.936 F6000
M106 S255
G1 X105.067 Y32.936 F150
M106 S0
M106 S255
G1 X108.125 Y33.289 F150
M106 S0
M106 S255
G1 X113.538 Y33.289 F150
M106 S0
M106 S255
G1 X112.697 Y32.934 F150
M106 S0
G0 X112.697 Y32.934 F6000
M106 S255
G1 X112.697 Y32.934 F150
M106 S0
M106 S255
G1 X112.697 Y28.517 F150
M106 S0
G0 X104.892 Y29.801 F6000
M106 S255
G1 X104.892 Y29.801 F150
M106 S0
M106 S255
G1 X104.892 Y32.711 F150
M106 S0
M106 S255
G1 X112.697 Y32.711 F150
M106 S0
M106 S255
G1 X116.268 Y32.837 F150
M106 S0
M106 S255
G1 X116.268 Y28.654 F150
M106 S0
G0 X82.309 Y38.699 F6000
M106 S255
G1 X82.309 Y38.699 F150
M106 S0
M106 S255
G1 X82.309 Y39.794 F150
M106 S0
M106 S255
G1 X78.204 Y39.794 F150
M106 S0
M106 S255
G1 X78.204 Y39.306 F150
M106 S0
M106 S255
G1 X78.018 Y39.306 F150
M106 S0
G0 X136.258 Y36.854 F6000
M106 S255
G1 X136.258 Y36.854 F150
M106 S0
M106 S255
G1 X136.258 Y37.149 F150
M106 S0
M106 S255
G1 X136.518 Y37.149 F150
M106 S0
M106 S255
G1 X136.518 Y37.659 F150
M106 S0
M106 S255
G1 X137.147 Y37.659 F150
M106 S0
M106 S255
G1 X137.147 Y37.941 F150
M106 S0
M106 S255
G1 X137.918 Y37.941 F150
M106 S0
M106 S255
G1 X137.918 Y37.68 F150
M106 S0
M106 S255
G1 X140.012 Y37.68 F150
M106 S0
M106 S255
G1 X140.012 Y38.103 F150
M106 S0
M106 S255
G1 X140.479 Y38.103 F150
M106 S0
M106 S255
G1 X140.479 Y37.886 F150
M106 S0
M106 S255
G1 X141.054 Y37.886 F150
M106 S0
M106 S255
G1 X141.054 Y38.331 F150
M106 S0
M106 S255
G1 X141.304 Y38.331 F150
M106 S0
M106 S255
G1 X141.304 Y37.724 F150
M106 S0
M106 S255
G1 X141.868 Y37.724 F150
M106 S0
M106 S255
G1 X141.868 Y39.296 F150
M106 S0
M106 S255
G1 X142.248 Y39.296 F150
M106 S0
M106 S255
G1 X142.248 Y37.702 F150
M106 S0
M106 S255
G1 X142.443 Y37.702 F150
M106 S0
M106 S255
G1 X142.443 Y38.179 F150
M106 S0
M106 S255
G1 X142.79 Y38.179 F150
M106 S0
M106 S255
G1 X142.79 Y37.756 F150
M106 S0
M106 S255
G1 X142.986 Y37.756 F150
M106 S0
M106 S255
G1 X142.986 Y38.201 F150
M106 S0
M106 S255
G1 X143.214 Y38.201 F150
M106 S0
M106 S255
G1 X143.214 Y37.735 F150
M106 S0
M106 S255
G1 X144.95 Y37.735 F150
M106 S0
G0 X132.304 Y34.691 F6000
M106 S255
G1 X132.304 Y34.691 F150
M106 S0
M106 S255
G1 X132.304 Y36.024 F150
M106 S0
M106 S255
G1 X133.422 Y36.615 F150
M106 S0
M106 S255
G1 X133.422 Y37.12 F150
M106 S0
M106 S255
G1 X134.206 Y37.12 F150
M106 S0
M106 S255
G1 X134.206 Y36.561 F150
M106 S0
M106 S255
G1 X135.281 Y35.649 F150
M106 S0
M106 S255
G1 X135.453 Y35.649 F150
M106 S0
M106 S255
G1 X135.689 Y35.971 F150
M106 S0
M106 S255
G1 X135.689 Y36.261 F150
M106 S0
M106 S255
G1 X136.27 Y36.261 F150
M106 S0
M106 S255
G1 X136.27 Y35.896 F150
M106 S0
M106 S255
G1 X136.669 Y35.734 F150
M106 S0
G0 X131.136 Y34.396 F6000
M106 S255
G1 X131.136 Y34.396 F150
M106 S0
M106 S255
G1 X131.136 Y35.903 F150
M106 S0
M106 S255
G1 X131.372 Y35.903 F150
M106 S0
M106 S255
G1 X131.372 Y37.389 F150
M106 S0
M106 S255
G1 X131.372 Y37.389 F150
M106 S0
M106 S255
G1 X131.372 Y38.383 F150
M106 S0
M106 S255
G1 X132.58 Y38.383 F150
M106 S0
M106 S255
G1 X133.66 Y39.302 F150
M106 S0
M106 S255
G1 X134.142 Y39.302 F150
M106 S0
M106 S255
G1 X134.142 Y38.457 F150
M106 S0
M106 S255
G1 X134.987 Y38.457 F150
M106 S0
M106 S255
G1 X134.987 Y36.854 F150
M106 S0
M106 S255
G1 X137.19 Y36.854 F150
M106 S0
M106 S255
G1 X137.19 Y35.992 F150
M106 S0
M106 S255
G1 X136.27 Y35.992 F150
M106 S0
G0 X127.751 Y37.027 F6000
M106 S255
G1 X127.751 Y37.027 F150
M106 S0
M106 S255
G1 X130.76 Y37.219 F150
M106 S0
M106 S255
G1 X130.76 Y35.853 F150
M106 S0
G0 X121.402 Y35.976 F6000
M106 S255
G1 X121.402 Y35.976 F150
M106 S0
M106 S255
G1 X121.402 Y36.544 F150
M106 S0
M106 S255
G1 X122.448 Y37.318 F150
M106 S0
M106 S255
G1 X123.282 Y37.318 F150
M106 S0
M106 S255
G1 X127.022 Y37.318 F150
M106 S0
M106 S255
G1 X129.092 Y36.49 F150
M106 S0
M106 S255
G1 X129.092 Y35.034 F150
M106 S0
G0 X105.067 Y32.729 F6000
M106 S255
G1 X105.067 Y32.729 F150
M106 S0
M106 S255
G1 X105.067 Y34.376 F150
M106 S0
M106 S255
G1 X107.25 Y34.376 F150
M106 S0
M106 S255
G1 X107.25 Y34.922 F150
M106 S0
M106 S255
G1 X107.927 Y34.922 F150
M106 S0
M106 S255
G1 X107.927 Y35.079 F150
M106 S0
M106 S255
G1 X108.37 Y35.079 F150
M106 S0
M106 S255
G1 X108.37 Y35.419 F150
M106 S0
M106 S255
G1 X111.968 Y35.419 F150
M106 S0
M106 S255
G1 X111.968 Y35.17 F150
M106 S0
M106 S255
G1 X115.188 Y35.17 F150
M106 S0
M106 S255
G1 X116.246 Y35.17 F150
M106 S0
M106 S255
G1 X116.246 Y35.688 F150
M106 S0
M106 S255
G1 X117.578 Y36.167 F150
M106 S0
M106 S255
G1 X119.069 Y36.167 F150
M106 S0
M106 S255
G1 X119.069 Y36.56 F150
M106 S0
M106 S255
G1 X119.536 Y36.56 F150
M106 S0
M106 S255
G1 X119.536 Y36.18 F150
M106 S0
M106 S255
G1 X120.656 Y36.18 F150
M106 S0
M106 S255
G1 X120.656 Y36.52 F150
M106 S0
M106 S255
G1 X121.12 Y36.52 F150
M106 S0
M106 S255
G1 X121.12 Y36.167 F150
M106 S0
M106 S255
G1 X124.347 Y36.167 F150
M106 S0
M106 S255
G1 X123.777 Y35.078 F150
M106 S0
G0 X99.058 Y34.946 F6000
M106 S255
G1 X99.058 Y34.946 F150
M106 S0
M106 S255
G1 X101.899 Y34.946 F150
M106 S0
M106 S255
G1 X101.899 Y27.585 F150
M106 S0
G0 X97.862 Y34.632 F6000
M106 S255
G1 X97.862 Y34.632 F150
M106 S0
M106 S255
G1 X97.862 Y31.816 F150
M106 S0
G0 X85.011 Y34.632 F6000
M106 S255
G1 X85.011 Y34.632 F150
M106 S0
M106 S255
G1 X97.862 Y34.632 F150
M106 S0
M106 S255
G1 X99.058 Y34.946 F150
M106 S0
M106 S255
G1 X99.058 Y31.816 F150
M106 S0
G0 X82.661 Y33.14 F6000
M106 S255
G1 X82.661 Y33.14 F150
M106 S0
M106 S255
G1 X85.788 Y33.06 F150
M106 S0
G0 X82.661 Y33.14 F6000
M106 S255
G1 X82.661 Y33.14 F150
M106 S0
M106 S255
G1 X82.661 Y30.598 F150
M106 S0
M106 S255
G1 X80.654 Y30.127 F150
M106 S0
G0 X95.761 Y31.3 F6000
M106 S255
G1 X95.761 Y31.3 F150
M106 S0
M106 S255
G1 X96.958 Y31.816 F150
M106 S0
G0 X88.286 Y31.3 F6000
M106 S255
G1 X88.286 Y31.3 F150
M106 S0
M106 S255
G1 X91.23 Y31.816 F150
M106 S0
M106 S255
G1 X99.889 Y31.816 F150
M106 S0
M106 S255
G1 X100.756 Y31.116 F150
M106 S0
M106 S255
G1 X100.756 Y27.587 F150
M106 S0
G0 X80.654 Y38.662 F6000
M106 S255
G1 X80.654 Y38.662 F150
M106 S0
M106 S255
G1 X80.654 Y30.127 F150
M106 S0
M106 S255
G1 X87.688 Y30.127 F150
M106 S0
M106 S255
G1 X87.688 Y30.999 F150
M106 S0
M106 S255
G1 X87.418 Y30.999 F150
M106 S0
M106 S255
G1 X87.418 Y31.3 F150
M106 S0
M106 S255
G1 X95.761 Y31.3 F150
M106 S0
M106 S255
G1 X95.761 Y27.587 F150
M106 S0
G0 X78.028 Y38.723 F6000
M106 S255
G1 X78.028 Y38.723 F150
M106 S0
M106 S255
G1 X80.654 Y38.662 F150
M106 S0
M106 S255
G1 X83.404 Y38.723 F150
M106 S0
M106 S255
G1 X83.373 Y33.227 F150
M106 S0
M106 S255
G1 X85.011 Y33.181 F150
M106 S0
M106 S255
G1 X85.011 Y34.632 F150
M106 S0
M106 S255
G1 X86.648 Y35.173 F150
M106 S0
M106 S255
G1 X86.741 Y35.188 F150
M106 S0
M106 S255
G1 X86.726 Y36.068 F150
M106 S0
M106 S255
G1 X86.973 Y36.084 F150
M106 S0
M106 S255
G1 X86.973 Y35.188 F150
M106 S0
M106 S255
G1 X87.143 Y35.173 F150
M106 S0
M106 S255
G1 X87.143 Y36.116 F150
M106 S0
M106 S255
G1 X87.386 Y36.116 F150
M106 S0
M106 S255
G1 X87.386 Y35.16 F150
M106 S0
M106 S255
G1 X87.931 Y35.16 F150
M106 S0
M106 S255
G1 X87.931 Y35.598 F150
M106 S0
M106 S255
G1 X88.435 Y35.598 F150
M106 S0
M106 S255
G1 X88.435 Y35.691 F150
M106 S0
M106 S255
G1 X88.978 Y35.691 F150
M106 S0
M106 S255
G1 X88.978 Y36.14 F150
M106 S0
M106 S255
G1 X89.319 Y36.14 F150
M106 S0
M106 S255
G1 X89.319 Y35.149 F150
M106 S0
M106 S255
G1 X89.443 Y35.149 F150
M106 S0
M106 S255
G1 X89.443 Y36.233 F150
M106 S0
M106 S255
G1 X90.016 Y36.233 F150
M106 S0
M106 S255
G1 X90.016 Y35.149 F150
M106 S0
M106 S255
G1 X93.457 Y35.149 F150
M106 S0
M106 S255
G1 X93.457 Y36.124 F150
M106 S0
M106 S255
G1 X93.736 Y36.124 F150
M106 S0
M106 S255
G1 X93.736 Y35.288 F150
M106 S0
M106 S255
G1 X93.86 Y35.288 F150
M106 S0
M106 S255
G1 X93.86 Y36.031 F150
M106 S0
M106 S255
G1 X94.062 Y36.031 F150
M106 S0
M106 S255
G1 X94.062 Y35.304 F150
M106 S0
M106 S255
G1 X94.682 Y35.304 F150
M106 S0
M106 S255
G1 X94.682 Y35.675 F150
M106 S0
M106 S255
G1 X95.007 Y35.675 F150
M106 S0
M106 S255
G1 X95.007 Y36.031 F150
M106 S0
M106 S255
G1 X95.27 Y36.031 F150
M106 S0
M106 S255
G1 X95.27 Y35.706 F150
M106 S0
M106 S255
G1 X95.772 Y35.706 F150
M106 S0
M106 S255
G1 X95.772 Y36.06 F150
M106 S0
M106 S255
G1 X95.992 Y36.06 F150
M106 S0
M106 S255
G1 X95.992 Y35.28 F150
M106 S0
M106 S255
G1 X96.181 Y35.28 F150
M106 S0
M106 S255
G1 X96.181 Y36.109 F150
M106 S0
M106 S255
G1 X96.882 Y36.109 F150
M106 S0
M106 S255
G1 X96.882 Y35.268 F150
M106 S0
M106 S255
G1 X98.169 Y35.268 F150
M106 S0
M106 S255
G1 X98.294 Y35.268 F150
M106 S0
M106 S255
G1 X98.294 Y35.781 F150
M106 S0
M106 S255
G1 X98.575 Y35.781 F150
M106 S0
M106 S255
G1 X98.575 Y35.578 F150
M106 S0
M106 S255
G1 X99.028 Y35.578 F150
M106 S0
M106 S255
G1 X99.028 Y35.329 F150
M106 S0
M106 S255
G1 X100.231 Y35.329 F150
M106 S0
M106 S255
G1 X100.231 Y35.719 F150
M106 S0
M106 S255
G1 X100.528 Y35.719 F150
M106 S0
M106 S255
G1 X100.528 Y35.329 F150
M106 S0
M106 S255
G1 X101.297 Y35.329 F150
M106 S0
M106 S255
G1 X101.297 Y35.8 F150
M106 S0
M106 S255
G1 X101.936 Y35.8 F150
M106 S0
M106 S255
G1 X101.936 Y35.211 F150
M106 S0
M106 S255
G1 X102.083 Y35.211 F150
M106 S0
M106 S255
G1 X102.083 Y35.905 F150
M106 S0
M106 S255
G1 X102.618 Y35.905 F150
M106 S0
M106 S255
G1 X102.618 Y35.137 F150
M106 S0
M106 S255
G1 X102.821 Y35.137 F150
M106 S0
M106 S255
G1 X102.821 Y35.763 F150
M106 S0
M106 S255
G1 X103.355 Y35.763 F150
M106 S0
M106 S255
G1 X103.355 Y35.137 F150
M106 S0
M106 S255
G1 X103.46 Y35.137 F150
M106 S0
M106 S255
G1 X103.46 Y35.604 F150
M106 S0
M106 S255
G1 X103.807 Y35.604 F150
M106 S0
M106 S255
G1 X103.807 Y35.768 F150
M106 S0
M106 S255
G1 X104.251 Y35.768 F150
M106 S0
M106 S255
G1 X104.251 Y35.041 F150
M106 S0
M106 S255
G1 X104.715 Y35.041 F150
M106 S0
M106 S255
G1 X104.715 Y31.992 F150
M106 S0
G0 X37.052 Y29.137 F6000
M106 S255
G1 X37.052 Y29.137 F150
M106 S0
M106 S255
G1 X38.05 Y29.398 F150
M106 S0
M106 S255
G1 X39.049 Y29.65 F150
M106 S0
M106 S255
G1 X40.538 Y29.991 F150
M106 S0
M106 S255
G1 X41.06 Y30.096 F150
M106 S0
M106 S255
G1 X42.073 Y30.279 F150
M106 S0
M106 S255
G1 X43.092 Y30.436 F150
M106 S0
M106 S255
G1 X44.114 Y30.573 F150
M106 S0
M106 S255
G1 X45.139 Y30.691 F150
M106 S0
M106 S255
G1 X46.166 Y30.794 F150
M106 S0
M106 S255
G1 X46.997 Y30.868 F150
M106 S0
M106 S255
G1 X48.221 Y30.965 F150
M106 S0
M106 S255
G1 X49.249 Y31.037 F150
M106 S0
M106 S255
G1 X50.277 Y31.1 F150
M106 S0
M106 S255
G1 X51.305 Y31.154 F150
M106 S0
M106 S255
G1 X52.335 Y31.201 F150
M106 S0
M106 S255
G1 X53.365 Y31.24 F150
M106 S0
M106 S255
G1 X54.265 Y31.268 F150
M106 S0
M106 S255
G1 X55.427 Y31.295 F150
M106 S0
M106 S255
G1 X56.459 Y31.31 F150
M106 S0
M106 S255
G1 X57.491 Y31.313 F150
M106 S0
M106 S255
G1 X58.523 Y31.303 F150
M106 S0
M106 S255
G1 X59.554 Y31.277 F150
M106 S0
M106 S255
G1 X60.584 Y31.234 F150
M106 S0
M106 S255
G1 X61.611 Y31.172 F150
M106 S0
M106 S255
G1 X62.765 Y31.076 F150
M106 S0
M106 S255
G1 X63.66 Y30.981 F150
M106 S0
M106 S255
G1 X64.68 Y30.852 F150
M106 S0
M106 S255
G1 X65.699 Y30.704 F150
M106 S0
M106 S255
G1 X66.715 Y30.539 F150
M106 S0
M106 S255
G1 X67.73 Y30.359 F150
M106 S0
M106 S255
G1 X68.743 Y30.168 F150
M106 S0
M106 S255
G1 X69.756 Y29.966 F150
M106 S0
M106 S255
G1 X70.767 Y29.758 F150
M106 S0
M106 S255
G1 X71.778 Y29.545 F150
M106 S0
M106 S255
G1 X72.789 Y29.329 F150
M106 S0
G0 X73.052 Y39.731 F6000
M106 S255
G1 X73.052 Y39.731 F150
M106 S0
M106 S255
G1 X73.135 Y39.789 F150
M106 S0
M106 S255
G1 X73.219 Y39.846 F150
M106 S0
M106 S255
G1 X73.303 Y39.9 F150
M106 S0
M106 S255
G1 X73.387 Y39.953 F150
M106 S0
M106 S255
G1 X73.473 Y40.001 F150
M106 S0
M106 S255
G1 X73.561 Y40.045 F150
M106 S0
M106 S255
G1 X73.649 Y40.083 F150
M106 S0
M106 S255
G1 X73.73 Y40.112 F150
M106 S0
M106 S255
G1 X73.833 Y40.14 F150
M106 S0
M106 S255
G1 X73.928 Y40.158 F150
M106 S0
M106 S255
G1 X74.025 Y40.171 F150
M106 S0
M106 S255
G1 X74.123 Y40.179 F150
M106 S0
M106 S255
G1 X74.222 Y40.183 F150
M106 S0
M106 S255
G1 X74.322 Y40.184 F150
M106 S0
M106 S255
G1 X74.423 Y40.182 F150
M106 S0
M106 S255
G1 X74.524 Y40.179 F150
M106 S0
M106 S255
G1 X74.626 Y40.175 F150
M106 S0
G0 X74.626 Y40.175 F6000
M106 S255
G1 X74.626 Y40.175 F150
M106 S0
M106 S255
G1 X74.712 Y27.587 F150
M106 S0
G0 X74.747 Y46.258 F6000
M106 S255
G1 X74.747 Y46.258 F150
M106 S0
M106 S255
G1 X74.976 Y27.601 F150
M106 S0
G0 X72.161 Y45.946 F6000
M106 S255
G1 X72.161 Y45.946 F150
M106 S0
M106 S255
G1 X72.153 Y48.042 F150
M106 S0
M106 S255
G1 X73.159 Y48.1 F150
M106 S0
M106 S255
G1 X74.884 Y48.068 F150
M106 S0
G0 X71.896 Y45.946 F6000
M106 S255
G1 X71.896 Y45.946 F150
M106 S0
M106 S255
G1 X71.991 Y29.499 F150
M106 S0
G0 X73.052 Y39.731 F6000
M106 S255
G1 X73.052 Y39.731 F150
M106 S0
M106 S255
G1 X73.104 Y28.934 F150
M106 S0
G0 X72.318 Y43.367 F6000
M106 S255
G1 X72.318 Y43.367 F150
M106 S0
M106 S255
G1 X72.302 Y29.433 F150
M106 S0
G0 X72.427 Y45.946 F6000
M106 S255
G1 X72.427 Y45.946 F150
M106 S0
M106 S255
G1 X71.896 Y45.946 F150
M106 S0
G0 X72.318 Y43.367 F6000
M106 S255
G1 X72.318 Y43.367 F150
M106 S0
M106 S255
G1 X73.159 Y43.372 F150
M106 S0
G0 X73.095 Y45.987 F6000
M106 S255
G1 X73.095 Y45.987 F150
M106 S0
M106 S255
G1 X72.427 Y45.946 F150
M106 S0
M106 S255
G1 X72.427 Y43.371 F150
M106 S0
G0 X75.448 Y46.258 F6000
M106 S255
G1 X75.448 Y46.258 F150
M106 S0
M106 S255
G1 X74.747 Y46.258 F150
M106 S0
M106 S255
G1 X74.258 Y46.258 F150
M106 S0
M106 S255
G1 X74.243 Y43.703 F150
M106 S0
M106 S255
G1 X73.484 Y43.717 F150
M106 S0
M106 S255
G1 X73.484 Y43.059 F150
M106 S0
M106 S255
G1 X73.159 Y43.059 F150
M106 S0
G0 X75.805 Y48.299 F6000
M106 S255
G1 X75.805 Y48.299 F150
M106 S0
M106 S255
G1 X74.884 Y48.068 F150
M106 S0
M106 S255
G1 X74.884 Y46.271 F150
M106 S0
G0 X78.622 Y27.587 F6000
M106 S255
G1 X78.622 Y27.587 F150
M106 S0
M106 S255
G1 X77.554 Y48.299 F150
M106 S0
M106 S255
G1 X75.805 Y48.299 F150
M106 S0
M106 S255
G1 X75.92 Y27.609 F150
M106 S0
G0 X78.622 Y27.587 F6000
M106 S255
G1 X78.622 Y27.587 F150
M106 S0
M106 S255
G1 X101.062 Y27.587 F150
M106 S0
G0 X35.946 Y27.263 F6000
M106 S255
G1 X35.946 Y27.263 F150
M106 S0
M106 S255
G1 X74.257 Y27.583 F150
M106 S0
G0 X30.284 Y27.242 F6000
M106 S255
G1 X30.284 Y27.242 F150
M106 S0
M106 S255
G1 X31.662 Y27.242 F150
M106 S0
G0 X93.596 Y25.919 F6000
M106 S255
G1 X93.596 Y25.919 F150
M106 S0
M106 S255
G1 X100.997 Y25.919 F150
M106 S0
G0 X95.293 Y20.424 F6000
M106 S255
G1 X95.293 Y20.424 F150
M106 S0
M106 S255
G1 X95.293 Y24.345 F150
M106 S0
M106 S255
G1 X96.192 Y23.957 F150
M106 S0
M106 S255
G1 X96.192 Y20.424 F150
M106 S0
G0 X93.003 Y25.939 F6000
M106 S255
G1 X93.003 Y25.939 F150
M106 S0
M106 S255
G1 X94.904 Y24.448 F150
M106 S0
M106 S255
G1 X94.904 Y20.424 F150
M106 S0
G0 X79.252 Y20.424 F6000
M106 S255
G1 X79.252 Y20.424 F150
M106 S0
M106 S255
G1 X79.053 Y21.835 F150
M106 S0
M106 S255
G1 X78.807 Y26.35 F150
M106 S0
M106 S255
G1 X92.73 Y26.35 F150
M106 S0
M106 S255
G1 X92.73 Y20.424 F150
M106 S0
G0 X35.967 Y20.424 F6000
M106 S255
G1 X35.967 Y20.424 F150
M106 S0
M106 S255
G1 X35.914 Y26.468 F150
M106 S0
G0 X31.961 Y20.424 F6000
M106 S255
G1 X31.961 Y20.424 F150
M106 S0
M106 S255
G1 X32.118 Y25.709 F150
M106 S0
G0 X29.92 Y20.424 F6000
M106 S255
G1 X29.92 Y20.424 F150
M106 S0
M106 S255
G1 X30.019 Y22.869 F150
M106 S0
M106 S255
G1 X31.312 Y22.869 F150
M106 S0
M106 S255
G1 X31.255 Y20.424 F150
M106 S0
G0 X29.163 Y20.424 F6000
M106 S255
G1 X29.163 Y20.424 F150
M106 S0
M106 S255
G1 X29.342 Y25.641 F150
M106 S0
M106 S255
G1 X12.754 Y25.641 F150
M106 S0
G0 X37.728 Y27.27 F6000
M106 S255
G1 X37.728 Y27.27 F150
M106 S0
M106 S255
G1 X39.039 Y29.645 F150
M106 S0
M106 S255
G1 X40.833 Y27.294 F150
M106 S0
M106 S255
G1 X42.8 Y30.374 F150
M106 S0
M106 S255
G1 X44.705 Y27.327 F150
M106 S0
M106 S255
G1 X46.561 Y30.819 F150
M106 S0
M106 S255
G1 X48.417 Y27.363 F150
M106 S0
M106 S255
G1 X50.05 Y31.054 F150
M106 S0
M106 S255
G1 X51.748 Y27.196 F150
M106 S0
M106 S255
G1 X53.876 Y31.214 F150
M106 S0
M106 S255
G1 X55.472 Y27.381 F150
M106 S0
M106 S255
G1 X57.505 Y31.276 F150
M106 S0
M106 S255
G1 X59.188 Y27.369 F150
M106 S0
M106 S255
G1 X60.759 Y31.214 F150
M106 S0
M106 S255
G1 X62.231 Y27.443 F150
M106 S0
M106 S255
G1 X64.235 Y30.88 F150
M106 S0
M106 S255
G1 X65.695 Y27.505 F150
M106 S0
M106 S255
G1 X67.801 Y30.326 F150
M106 S0
M106 S255
G1 X69.063 Y27.519 F150
M106 S0
M106 S255
G1 X70.51 Y29.782 F150
M106 S0
M106 S255
G1 X72.081 Y27.519 F150
M106 S0
G0 X37.026 Y29.14 F6000
M106 S255
G1 X37.026 Y29.14 F150
M106 S0
M106 S255
G1 X38.425 Y27.283 F150
M106 S0
M106 S255
G1 X39.257 Y27.29 F150
M106 S0
M106 S255
G1 X40.806 Y30.041 F150
M106 S0
M106 S255
G1 X42.671 Y27.319 F150
M106 S0
M106 S255
G1 X44.672 Y30.646 F150
M106 S0
M106 S255
G1 X46.598 Y27.335 F150
M106 S0
M106 S255
G1 X48.278 Y30.954 F150
M106 S0
M106 S255
G1 X50.044 Y27.376 F150
M106 S0
M106 S255
G1 X51.798 Y30.979 F150
M106 S0
M106 S255
G1 X53.848 Y27.397 F150
M106 S0
M106 S255
G1 X55.417 Y31.016 F150
M106 S0
M106 S255
G1 X57.187 Y27.449 F150
M106 S0
M106 S255
G1 X58.929 Y31.066 F150
M106 S0
M106 S255
G1 X60.534 Y27.463 F150
M106 S0
M106 S255
G1 X62.474 Y31.078 F150
M106 S0
M106 S255
G1 X64.231 Y27.512 F150
M106 S0
M106 S255
G1 X65.984 Y30.62 F150
M106 S0
M106 S255
G1 X67.673 Y27.528 F150
M106 S0
M106 S255
G1 X69.443 Y30.04 F150
M106 S0
M106 S255
G1 X71.11 Y27.556 F150
M106 S0
M106 S255
G1 X71.459 Y27.56 F150
M106 S0
M106 S255
G1 X72.781 Y29.314 F150
M106 S0
M106 S255
G1 X74.25 Y27.587 F150
M106 S0
G0 X35.934 Y27.301 F6000
M106 S255
G1 X35.934 Y27.301 F150
M106 S0
M106 S255
G1 X37.049 Y29.151 F150
M106 S0
G0 X31.336 Y48.618 F6000
M106 S255
G1 X31.336 Y48.618 F150
M106 S0
M106 S255
G1 X31.169 Y44.619 F150
M106 S0
M106 S255
G1 X32.583 Y44.619 F150
M106 S0
G0 X31.658 Y27.242 F6000
M106 S255
G1 X31.658 Y27.242 F150
M106 S0
M106 S255
G1 X32.389 Y43.413 F150
M106 S0
M106 S255
G1 X31.07 Y43.413 F150
M106 S0
M106 S255
G1 X30.276 Y27.244 F150
M106 S0
G0 X35.934 Y27.246 F6000
M106 S255
G1 X35.934 Y27.246 F150
M106 S0
M106 S255
G1 X36.054 Y46.792 F150
M106 S0
M106 S255
G1 X35.541 Y46.792 F150
M106 S0
M106 S255
G1 X35.45 Y48.966 F150
M106 S0
M106 S255
G1 X35.097 Y48.966 F150
M106 S0
M106 S255
G1 X35.097 Y49.142 F150
M106 S0
M106 S255
G1 X33.416 Y49.142 F150
M106 S0
M106 S255
G1 X32.264 Y27.113 F150
M106 S0
G0 X28.628 Y27.244 F6000
M106 S255
G1 X28.628 Y27.244 F150
M106 S0
M106 S255
G1 X30.591 Y48.755 F150
M106 S0
M106 S255
G1 X31.428 Y48.601 F150
M106 S0
M106 S255
G1 X32.79 Y48.601 F150
M106 S0
M106 S255
G1 X32.591 Y44.705 F150
M106 S0
G0 X12.718 Y26.523 F6000
M106 S255
G1 X12.718 Y26.523 F150
M106 S0
M106 S255
G1 X13.037 Y20.424 F150
M106 S0
G0 X12.718 Y26.513 F6000
M106 S255
G1 X12.718 Y26.513 F150
M106 S0
M106 S255
G1 X37.018 Y26.733 F150
M106 S0
M106 S255
G1 X75.825 Y27.086 F150
M106 S0
M106 S255
G1 X101.052 Y27.086 F150
M106 S0
G0 X3.951 Y40.471 F6000
M106 S255
G1 X3.951 Y40.471 F150
M106 S0
M106 S255
G1 X5.783 Y33.108 F150
M106 S0
M106 S255
G1 X5.783 Y27.244 F150
M106 S0
M106 S255
G1 X30.281 Y27.244 F150
M106 S0
G0 X48.049 Y15.419 F6000
M106 S255
G1 X48.049 Y15.419 F150
M106 S0
M106 S255
G1 X51.811 Y15.451 F150
M106 S0
M106 S255
G1 X55.983 Y15.466 F150
M106 S0
M106 S255
G1 X59.572 Y15.687 F150
M106 S0
M106 S255
G1 X56.061 Y15.813 F150
M106 S0
M106 S255
G1 X51.811 Y15.734 F150
M106 S0
M106 S255
G1 X48.049 Y15.435 F150
M106 S0
G0 X48.088 Y23.221 F6000
M106 S255
G1 X48.088 Y23.221 F150
M106 S0
M106 S255
G1 X51.822 Y23.19 F150
M106 S0
M106 S255
G1 X55.98 Y23.237 F150
M106 S0
M106 S255
G1 X59.479 Y23.362 F150
M106 S0
M106 S255
G1 X56.011 Y23.425 F150
M106 S0
M106 S255
G1 X51.822 Y23.441 F150
M106 S0
M106 S255
G1 X48.104 Y23.221 F150
M106 S0
G0 X49.592 Y31.058 F6000
M106 S255
G1 X49.592 Y31.058 F150
M106 S0
M106 S255
G1 X51.834 Y31.03 F150
M106 S0
M106 S255
G1 X55.92 Y31.061 F150
M106 S0
M106 S255
G1 X59.37 Y31.107 F150
M106 S0
G0 X48.102 Y19.248 F6000
M106 S255
G1 X48.102 Y19.248 F150
M106 S0
M106 S255
G1 X51.783 Y27.245 F150
M106 S0
M106 S255
G1 X49.905 Y31.077 F150
M106 S0
G0 X48.08 Y11.494 F6000
M106 S255
G1 X48.08 Y11.494 F150
M106 S0
M106 S255
G1 X51.81 Y19.688 F150
M106 S0
M106 S255
G1 X48.08 Y27.1 F150
M106 S0
M106 S255
G1 X49.943 Y31.079 F150
M106 S0
G0 X55.962 Y23.813 F6000
M106 S255
G1 X55.962 Y23.813 F150
M106 S0
M106 S255
G1 X59.444 Y27.299 F150
M106 S0
M106 S255
G1 X55.937 Y30.655 F150
M106 S0
G0 X56.061 Y16.155 F6000
M106 S255
G1 X56.061 Y16.155 F150
M106 S0
M106 S255
G1 X59.519 Y19.561 F150
M106 S0
M106 S255
G1 X56.011 Y23.048 F150
M106 S0
G0 X59.219 Y10.773 F6000
M106 S255
G1 X59.219 Y10.773 F150
M106 S0
M106 S255
G1 X59.618 Y11.91 F150
M106 S0
M106 S255
G1 X56.086 Y15.366 F150
M106 S0
G0 X56.437 Y10.773 F6000
M106 S255
G1 X56.437 Y10.773 F150
M106 S0
M106 S255
G1 X56.15 Y11.432 F150
M106 S0
M106 S255
G1 X59.547 Y19.624 F150
M106 S0
M106 S255
G1 X55.953 Y27.162 F150
M106 S0
M106 S255
G1 X57.751 Y31.31 F150
M106 S0
G0 X58.59 Y10.773 F6000
M106 S255
G1 X58.59 Y10.773 F150
M106 S0
M106 S255
G1 X59.643 Y11.943 F150
M106 S0
M106 S255
G1 X56.024 Y19.299 F150
M106 S0
M106 S255
G1 X59.423 Y27.21 F150
M106 S0
M106 S255
G1 X57.559 Y31.312 F150
M106 S0
G0 X52.897 Y10.773 F6000
M106 S255
G1 X52.897 Y10.773 F150
M106 S0
M106 S255
G1 X51.824 Y11.986 F150
M106 S0
M106 S255
G1 X55.946 Y15.812 F150
M106 S0
M106 S255
G1 X51.775 Y19.637 F150
M106 S0
M106 S255
G1 X55.725 Y23.446 F150
M106 S0
M106 S255
G1 X51.823 Y27.229 F150
M106 S0
M106 S255
G1 X55.651 Y31.103 F150
M106 S0
M106 S255
G1 X55.454 Y31.295 F150
M106 S0
G0 X51.828 Y23.288 F6000
M106 S255
G1 X51.828 Y23.288 F150
M106 S0
M106 S255
G1 X48.09 Y27.102 F150
M106 S0
M106 S255
G1 X51.867 Y31.071 F150
M106 S0
M106 S255
G1 X51.762 Y31.175 F150
M106 S0
G0 X55.352 Y10.773 F6000
M106 S255
G1 X55.352 Y10.773 F150
M106 S0
M106 S255
G1 X56.006 Y11.528 F150
M106 S0
M106 S255
G1 X51.839 Y15.568 F150
M106 S0
M106 S255
G1 X56.006 Y19.298 F150
M106 S0
M106 S255
G1 X51.901 Y23.152 F150
M106 S0
M106 S255
G1 X55.882 Y27.192 F150
M106 S0
M106 S255
G1 X51.839 Y31.046 F150
M106 S0
M106 S255
G1 X51.98 Y31.185 F150
M106 S0
G0 X51.347 Y10.773 F6000
M106 S255
G1 X51.347 Y10.773 F150
M106 S0
M106 S255
G1 X51.839 Y11.963 F150
M106 S0
M106 S255
G1 X48.044 Y19.049 F150
M106 S0
G0 X48.107 Y11.404 F6000
M106 S255
G1 X48.107 Y11.404 F150
M106 S0
M106 S255
G1 X51.839 Y15.568 F150
M106 S0
M106 S255
G1 X48.107 Y19.236 F150
M106 S0
M106 S255
G1 X51.777 Y23.09 F150
M106 S0
G0 X48.747 Y10.773 F6000
M106 S255
G1 X48.747 Y10.773 F150
M106 S0
M106 S255
G1 X48.169 Y11.466 F150
M106 S0
M106 S255
G1 X48.426 Y10.773 F150
M106 S0
G0 X59.641 Y10.773 F6000
M106 S255
G1 X59.641 Y10.773 F150
M106 S0
M106 S255
G1 X59.393 Y31.281 F150
M106 S0
G0 X48.049 Y10.773 F6000
M106 S255
G1 X48.049 Y10.773 F150
M106 S0
M106 S255
G1 X48.109 Y30.956 F150
M106 S0
G0 X55.939 Y31.302 F6000
M106 S255
G1 X55.939 Y31.302 F150
M106 S0
M106 S255
G1 X56.101 Y10.773 F150
M106 S0
G0 X51.814 Y31.177 F6000
M106 S255
G1 X51.814 Y31.177 F150
M106 S0
M106 S255
G1 X51.836 Y10.773 F150
M106 S0
M106 S0
