;GCode generated by Numa's program v0.0
G0 X3.951 Y40.471 F6000
M106 S255
G1 X3.951 Y40.471 F80
M106 S0
M106 S255
G1 X5.783 Y33.108 F80
M106 S0
M106 S255
G1 X5.783 Y27.244 F80
M106 S0
M106 S255
G1 X28.628 Y27.244 F80
M106 S0
M106 S255
G1 X30.591 Y48.755 F80
M106 S0
M106 S255
G1 X31.336 Y48.618 F80
M106 S0
M106 S255
G1 X32.79 Y48.601 F80
M106 S0
M106 S255
G1 X33.416 Y49.142 F80
M106 S0
M106 S255
G1 X35.097 Y49.142 F80
M106 S0
M106 S255
G1 X35.097 Y48.966 F80
M106 S0
M106 S255
G1 X35.45 Y48.966 F80
M106 S0
M106 S255
G1 X35.541 Y46.792 F80
M106 S0
M106 S255
G1 X36.054 Y46.792 F80
M106 S0
M106 S255
G1 X35.934 Y27.301 F80
M106 S0
M106 S255
G1 X37.035 Y29.128 F80
M106 S0
G0 X3.951 Y40.471 F6000
M106 S255
G1 X3.951 Y40.471 F80
M106 S0
M106 S255
G1 X5.783 Y33.108 F80
M106 S0
M106 S255
G1 X5.783 Y27.244 F80
M106 S0
M106 S255
G1 X28.628 Y27.244 F80
M106 S0
M106 S255
G1 X30.591 Y48.755 F80
M106 S0
M106 S255
G1 X31.336 Y48.618 F80
M106 S0
M106 S255
G1 X32.79 Y48.601 F80
M106 S0
M106 S255
G1 X33.416 Y49.142 F80
M106 S0
M106 S255
G1 X35.097 Y49.142 F80
M106 S0
M106 S255
G1 X35.097 Y48.966 F80
M106 S0
M106 S255
G1 X35.45 Y48.966 F80
M106 S0
M106 S255
G1 X35.541 Y46.792 F80
M106 S0
M106 S255
G1 X36.054 Y46.792 F80
M106 S0
M106 S255
G1 X35.934 Y27.301 F80
M106 S0
M106 S255
G1 X37.035 Y29.128 F80
M106 S0
G0 X3.951 Y40.471 F6000
M106 S255
G1 X3.951 Y40.471 F80
M106 S0
M106 S255
G1 X5.783 Y33.108 F80
M106 S0
M106 S255
G1 X5.783 Y27.244 F80
M106 S0
M106 S255
G1 X28.628 Y27.244 F80
M106 S0
M106 S255
G1 X30.591 Y48.755 F80
M106 S0
M106 S255
G1 X31.336 Y48.618 F80
M106 S0
M106 S255
G1 X32.79 Y48.601 F80
M106 S0
M106 S255
G1 X33.416 Y49.142 F80
M106 S0
M106 S255
G1 X35.097 Y49.142 F80
M106 S0
M106 S255
G1 X35.097 Y48.966 F80
M106 S0
M106 S255
G1 X35.45 Y48.966 F80
M106 S0
M106 S255
G1 X35.541 Y46.792 F80
M106 S0
M106 S255
G1 X36.054 Y46.792 F80
M106 S0
M106 S255
G1 X35.934 Y27.301 F80
M106 S0
M106 S255
G1 X37.035 Y29.128 F80
M106 S0
G0 X71.991 Y29.499 F6000
M106 S255
G1 X71.991 Y29.499 F80
M106 S0
M106 S255
G1 X71.896 Y45.946 F80
M106 S0
M106 S255
G1 X72.161 Y45.946 F80
M106 S0
M106 S255
G1 X72.153 Y48.042 F80
M106 S0
M106 S255
G1 X73.159 Y48.1 F80
M106 S0
M106 S255
G1 X74.884 Y48.068 F80
M106 S0
M106 S255
G1 X75.805 Y48.299 F80
M106 S0
M106 S255
G1 X77.554 Y48.299 F80
M106 S0
M106 S255
G1 X78.018 Y39.306 F80
M106 S0
M106 S255
G1 X78.204 Y39.306 F80
M106 S0
M106 S255
G1 X78.204 Y39.794 F80
M106 S0
M106 S255
G1 X82.309 Y39.794 F80
M106 S0
M106 S255
G1 X82.309 Y38.699 F80
M106 S0
M106 S255
G1 X83.404 Y38.723 F80
M106 S0
M106 S255
G1 X83.373 Y33.227 F80
M106 S0
M106 S255
G1 X85.011 Y33.181 F80
M106 S0
M106 S255
G1 X85.011 Y34.632 F80
M106 S0
G0 X71.991 Y29.499 F6000
M106 S255
G1 X71.991 Y29.499 F80
M106 S0
M106 S255
G1 X71.896 Y45.946 F80
M106 S0
M106 S255
G1 X72.161 Y45.946 F80
M106 S0
M106 S255
G1 X72.153 Y48.042 F80
M106 S0
M106 S255
G1 X73.159 Y48.1 F80
M106 S0
M106 S255
G1 X74.884 Y48.068 F80
M106 S0
M106 S255
G1 X75.805 Y48.299 F80
M106 S0
M106 S255
G1 X77.554 Y48.299 F80
M106 S0
M106 S255
G1 X78.018 Y39.306 F80
M106 S0
M106 S255
G1 X78.204 Y39.306 F80
M106 S0
M106 S255
G1 X78.204 Y39.794 F80
M106 S0
M106 S255
G1 X82.309 Y39.794 F80
M106 S0
M106 S255
G1 X82.309 Y38.699 F80
M106 S0
M106 S255
G1 X83.404 Y38.723 F80
M106 S0
M106 S255
G1 X83.373 Y33.227 F80
M106 S0
M106 S255
G1 X85.011 Y33.181 F80
M106 S0
M106 S255
G1 X85.011 Y34.632 F80
M106 S0
G0 X71.991 Y29.499 F6000
M106 S255
G1 X71.991 Y29.499 F80
M106 S0
M106 S255
G1 X71.896 Y45.946 F80
M106 S0
M106 S255
G1 X72.161 Y45.946 F80
M106 S0
M106 S255
G1 X72.153 Y48.042 F80
M106 S0
M106 S255
G1 X73.159 Y48.1 F80
M106 S0
M106 S255
G1 X74.884 Y48.068 F80
M106 S0
M106 S255
G1 X75.805 Y48.299 F80
M106 S0
M106 S255
G1 X77.554 Y48.299 F80
M106 S0
M106 S255
G1 X78.018 Y39.306 F80
M106 S0
M106 S255
G1 X78.204 Y39.306 F80
M106 S0
M106 S255
G1 X78.204 Y39.794 F80
M106 S0
M106 S255
G1 X82.309 Y39.794 F80
M106 S0
M106 S255
G1 X82.309 Y38.699 F80
M106 S0
M106 S255
G1 X83.404 Y38.723 F80
M106 S0
M106 S255
G1 X83.373 Y33.227 F80
M106 S0
M106 S255
G1 X85.011 Y33.181 F80
M106 S0
M106 S255
G1 X85.011 Y34.632 F80
M106 S0
G0 X37.052 Y29.137 F6000
M106 S255
G1 X37.052 Y29.137 F80
M106 S0
M106 S255
G1 X38.05 Y29.398 F80
M106 S0
M106 S255
G1 X39.049 Y29.65 F80
M106 S0
M106 S255
G1 X40.538 Y29.991 F80
M106 S0
M106 S255
G1 X41.06 Y30.096 F80
M106 S0
M106 S255
G1 X42.073 Y30.279 F80
M106 S0
M106 S255
G1 X43.092 Y30.436 F80
M106 S0
M106 S255
G1 X44.114 Y30.573 F80
M106 S0
M106 S255
G1 X45.139 Y30.691 F80
M106 S0
M106 S255
G1 X46.166 Y30.794 F80
M106 S0
M106 S255
G1 X46.997 Y30.868 F80
M106 S0
M106 S255
G1 X48.221 Y30.965 F80
M106 S0
M106 S255
G1 X49.249 Y31.037 F80
M106 S0
M106 S255
G1 X50.277 Y31.1 F80
M106 S0
M106 S255
G1 X51.305 Y31.154 F80
M106 S0
M106 S255
G1 X52.335 Y31.201 F80
M106 S0
M106 S255
G1 X53.365 Y31.24 F80
M106 S0
M106 S255
G1 X54.265 Y31.268 F80
M106 S0
M106 S255
G1 X55.427 Y31.295 F80
M106 S0
M106 S255
G1 X56.459 Y31.31 F80
M106 S0
M106 S255
G1 X57.491 Y31.313 F80
M106 S0
M106 S255
G1 X58.523 Y31.303 F80
M106 S0
M106 S255
G1 X59.554 Y31.277 F80
M106 S0
M106 S255
G1 X60.584 Y31.234 F80
M106 S0
M106 S255
G1 X61.611 Y31.172 F80
M106 S0
M106 S255
G1 X62.765 Y31.076 F80
M106 S0
M106 S255
G1 X63.66 Y30.981 F80
M106 S0
M106 S255
G1 X64.68 Y30.852 F80
M106 S0
M106 S255
G1 X65.699 Y30.704 F80
M106 S0
M106 S255
G1 X66.715 Y30.539 F80
M106 S0
M106 S255
G1 X67.73 Y30.359 F80
M106 S0
M106 S255
G1 X68.743 Y30.168 F80
M106 S0
M106 S255
G1 X69.756 Y29.966 F80
M106 S0
M106 S255
G1 X70.767 Y29.758 F80
M106 S0
M106 S255
G1 X71.778 Y29.545 F80
M106 S0
M106 S255
G1 X71.991 Y29.499 F80
M106 S0
G0 X37.052 Y29.137 F6000
M106 S255
G1 X37.052 Y29.137 F80
M106 S0
M106 S255
G1 X38.05 Y29.398 F80
M106 S0
M106 S255
G1 X39.049 Y29.65 F80
M106 S0
M106 S255
G1 X40.538 Y29.991 F80
M106 S0
M106 S255
G1 X41.06 Y30.096 F80
M106 S0
M106 S255
G1 X42.073 Y30.279 F80
M106 S0
M106 S255
G1 X43.092 Y30.436 F80
M106 S0
M106 S255
G1 X44.114 Y30.573 F80
M106 S0
M106 S255
G1 X45.139 Y30.691 F80
M106 S0
M106 S255
G1 X46.166 Y30.794 F80
M106 S0
M106 S255
G1 X46.997 Y30.868 F80
M106 S0
M106 S255
G1 X48.221 Y30.965 F80
M106 S0
M106 S255
G1 X49.249 Y31.037 F80
M106 S0
M106 S255
G1 X50.277 Y31.1 F80
M106 S0
M106 S255
G1 X51.305 Y31.154 F80
M106 S0
M106 S255
G1 X52.335 Y31.201 F80
M106 S0
M106 S255
G1 X53.365 Y31.24 F80
M106 S0
M106 S255
G1 X54.265 Y31.268 F80
M106 S0
M106 S255
G1 X55.427 Y31.295 F80
M106 S0
M106 S255
G1 X56.459 Y31.31 F80
M106 S0
M106 S255
G1 X57.491 Y31.313 F80
M106 S0
M106 S255
G1 X58.523 Y31.303 F80
M106 S0
M106 S255
G1 X59.554 Y31.277 F80
M106 S0
M106 S255
G1 X60.584 Y31.234 F80
M106 S0
M106 S255
G1 X61.611 Y31.172 F80
M106 S0
M106 S255
G1 X62.765 Y31.076 F80
M106 S0
M106 S255
G1 X63.66 Y30.981 F80
M106 S0
M106 S255
G1 X64.68 Y30.852 F80
M106 S0
M106 S255
G1 X65.699 Y30.704 F80
M106 S0
M106 S255
G1 X66.715 Y30.539 F80
M106 S0
M106 S255
G1 X67.73 Y30.359 F80
M106 S0
M106 S255
G1 X68.743 Y30.168 F80
M106 S0
M106 S255
G1 X69.756 Y29.966 F80
M106 S0
M106 S255
G1 X70.767 Y29.758 F80
M106 S0
M106 S255
G1 X71.778 Y29.545 F80
M106 S0
M106 S255
G1 X71.991 Y29.499 F80
M106 S0
G0 X37.052 Y29.137 F6000
M106 S255
G1 X37.052 Y29.137 F80
M106 S0
M106 S255
G1 X38.05 Y29.398 F80
M106 S0
M106 S255
G1 X39.049 Y29.65 F80
M106 S0
M106 S255
G1 X40.538 Y29.991 F80
M106 S0
M106 S255
G1 X41.06 Y30.096 F80
M106 S0
M106 S255
G1 X42.073 Y30.279 F80
M106 S0
M106 S255
G1 X43.092 Y30.436 F80
M106 S0
M106 S255
G1 X44.114 Y30.573 F80
M106 S0
M106 S255
G1 X45.139 Y30.691 F80
M106 S0
M106 S255
G1 X46.166 Y30.794 F80
M106 S0
M106 S255
G1 X46.997 Y30.868 F80
M106 S0
M106 S255
G1 X48.221 Y30.965 F80
M106 S0
M106 S255
G1 X49.249 Y31.037 F80
M106 S0
M106 S255
G1 X50.277 Y31.1 F80
M106 S0
M106 S255
G1 X51.305 Y31.154 F80
M106 S0
M106 S255
G1 X52.335 Y31.201 F80
M106 S0
M106 S255
G1 X53.365 Y31.24 F80
M106 S0
M106 S255
G1 X54.265 Y31.268 F80
M106 S0
M106 S255
G1 X55.427 Y31.295 F80
M106 S0
M106 S255
G1 X56.459 Y31.31 F80
M106 S0
M106 S255
G1 X57.491 Y31.313 F80
M106 S0
M106 S255
G1 X58.523 Y31.303 F80
M106 S0
M106 S255
G1 X59.554 Y31.277 F80
M106 S0
M106 S255
G1 X60.584 Y31.234 F80
M106 S0
M106 S255
G1 X61.611 Y31.172 F80
M106 S0
M106 S255
G1 X62.765 Y31.076 F80
M106 S0
M106 S255
G1 X63.66 Y30.981 F80
M106 S0
M106 S255
G1 X64.68 Y30.852 F80
M106 S0
M106 S255
G1 X65.699 Y30.704 F80
M106 S0
M106 S255
G1 X66.715 Y30.539 F80
M106 S0
M106 S255
G1 X67.73 Y30.359 F80
M106 S0
M106 S255
G1 X68.743 Y30.168 F80
M106 S0
M106 S255
G1 X69.756 Y29.966 F80
M106 S0
M106 S255
G1 X70.767 Y29.758 F80
M106 S0
M106 S255
G1 X71.778 Y29.545 F80
M106 S0
M106 S255
G1 X71.991 Y29.499 F80
M106 S0
G0 X105.067 Y32.729 F6000
M106 S255
G1 X105.067 Y32.729 F80
M106 S0
M106 S255
G1 X105.067 Y34.376 F80
M106 S0
M106 S255
G1 X107.25 Y34.376 F80
M106 S0
M106 S255
G1 X107.25 Y34.922 F80
M106 S0
M106 S255
G1 X107.927 Y34.922 F80
M106 S0
M106 S255
G1 X107.927 Y35.079 F80
M106 S0
M106 S255
G1 X108.37 Y35.079 F80
M106 S0
M106 S255
G1 X108.37 Y35.419 F80
M106 S0
M106 S255
G1 X111.968 Y35.419 F80
M106 S0
M106 S255
G1 X111.968 Y35.17 F80
M106 S0
M106 S255
G1 X115.188 Y35.17 F80
M106 S0
M106 S255
G1 X116.246 Y35.17 F80
M106 S0
M106 S255
G1 X116.246 Y35.688 F80
M106 S0
M106 S255
G1 X117.578 Y36.167 F80
M106 S0
M106 S255
G1 X119.069 Y36.167 F80
M106 S0
M106 S255
G1 X119.069 Y36.56 F80
M106 S0
M106 S255
G1 X119.536 Y36.56 F80
M106 S0
M106 S255
G1 X119.536 Y36.18 F80
M106 S0
M106 S255
G1 X120.656 Y36.18 F80
M106 S0
M106 S255
G1 X120.656 Y36.52 F80
M106 S0
M106 S255
G1 X121.12 Y36.52 F80
M106 S0
M106 S255
G1 X121.12 Y36.167 F80
M106 S0
M106 S255
G1 X121.402 Y36.167 F80
M106 S0
G0 X105.067 Y32.729 F6000
M106 S255
G1 X105.067 Y32.729 F80
M106 S0
M106 S255
G1 X105.067 Y34.376 F80
M106 S0
M106 S255
G1 X107.25 Y34.376 F80
M106 S0
M106 S255
G1 X107.25 Y34.922 F80
M106 S0
M106 S255
G1 X107.927 Y34.922 F80
M106 S0
M106 S255
G1 X107.927 Y35.079 F80
M106 S0
M106 S255
G1 X108.37 Y35.079 F80
M106 S0
M106 S255
G1 X108.37 Y35.419 F80
M106 S0
M106 S255
G1 X111.968 Y35.419 F80
M106 S0
M106 S255
G1 X111.968 Y35.17 F80
M106 S0
M106 S255
G1 X115.188 Y35.17 F80
M106 S0
M106 S255
G1 X116.246 Y35.17 F80
M106 S0
M106 S255
G1 X116.246 Y35.688 F80
M106 S0
M106 S255
G1 X117.578 Y36.167 F80
M106 S0
M106 S255
G1 X119.069 Y36.167 F80
M106 S0
M106 S255
G1 X119.069 Y36.56 F80
M106 S0
M106 S255
G1 X119.536 Y36.56 F80
M106 S0
M106 S255
G1 X119.536 Y36.18 F80
M106 S0
M106 S255
G1 X120.656 Y36.18 F80
M106 S0
M106 S255
G1 X120.656 Y36.52 F80
M106 S0
M106 S255
G1 X121.12 Y36.52 F80
M106 S0
M106 S255
G1 X121.12 Y36.167 F80
M106 S0
M106 S255
G1 X121.402 Y36.167 F80
M106 S0
G0 X105.067 Y32.729 F6000
M106 S255
G1 X105.067 Y32.729 F80
M106 S0
M106 S255
G1 X105.067 Y34.376 F80
M106 S0
M106 S255
G1 X107.25 Y34.376 F80
M106 S0
M106 S255
G1 X107.25 Y34.922 F80
M106 S0
M106 S255
G1 X107.927 Y34.922 F80
M106 S0
M106 S255
G1 X107.927 Y35.079 F80
M106 S0
M106 S255
G1 X108.37 Y35.079 F80
M106 S0
M106 S255
G1 X108.37 Y35.419 F80
M106 S0
M106 S255
G1 X111.968 Y35.419 F80
M106 S0
M106 S255
G1 X111.968 Y35.17 F80
M106 S0
M106 S255
G1 X115.188 Y35.17 F80
M106 S0
M106 S255
G1 X116.246 Y35.17 F80
M106 S0
M106 S255
G1 X116.246 Y35.688 F80
M106 S0
M106 S255
G1 X117.578 Y36.167 F80
M106 S0
M106 S255
G1 X119.069 Y36.167 F80
M106 S0
M106 S255
G1 X119.069 Y36.56 F80
M106 S0
M106 S255
G1 X119.536 Y36.56 F80
M106 S0
M106 S255
G1 X119.536 Y36.18 F80
M106 S0
M106 S255
G1 X120.656 Y36.18 F80
M106 S0
M106 S255
G1 X120.656 Y36.52 F80
M106 S0
M106 S255
G1 X121.12 Y36.52 F80
M106 S0
M106 S255
G1 X121.12 Y36.167 F80
M106 S0
M106 S255
G1 X121.402 Y36.167 F80
M106 S0
G0 X121.402 Y36.167 F6000
M106 S255
G1 X121.402 Y36.167 F80
M106 S0
M106 S255
G1 X121.402 Y36.544 F80
M106 S0
M106 S255
G1 X122.448 Y37.318 F80
M106 S0
M106 S255
G1 X123.282 Y37.318 F80
M106 S0
M106 S255
G1 X127.022 Y37.318 F80
M106 S0
M106 S255
G1 X127.751 Y37.027 F80
M106 S0
G0 X121.402 Y36.167 F6000
M106 S255
G1 X121.402 Y36.167 F80
M106 S0
M106 S255
G1 X121.402 Y36.544 F80
M106 S0
M106 S255
G1 X122.448 Y37.318 F80
M106 S0
M106 S255
G1 X123.282 Y37.318 F80
M106 S0
M106 S255
G1 X127.022 Y37.318 F80
M106 S0
M106 S255
G1 X127.751 Y37.027 F80
M106 S0
G0 X121.402 Y36.167 F6000
M106 S255
G1 X121.402 Y36.167 F80
M106 S0
M106 S255
G1 X121.402 Y36.544 F80
M106 S0
M106 S255
G1 X122.448 Y37.318 F80
M106 S0
M106 S255
G1 X123.282 Y37.318 F80
M106 S0
M106 S255
G1 X127.022 Y37.318 F80
M106 S0
M106 S255
G1 X127.751 Y37.027 F80
M106 S0
G0 X127.751 Y37.027 F6000
M106 S255
G1 X127.751 Y37.027 F80
M106 S0
M106 S255
G1 X130.76 Y37.219 F80
M106 S0
M106 S255
G1 X130.76 Y35.853 F80
M106 S0
G0 X127.751 Y37.027 F6000
M106 S255
G1 X127.751 Y37.027 F80
M106 S0
M106 S255
G1 X130.76 Y37.219 F80
M106 S0
M106 S255
G1 X130.76 Y35.853 F80
M106 S0
G0 X127.751 Y37.027 F6000
M106 S255
G1 X127.751 Y37.027 F80
M106 S0
M106 S255
G1 X130.76 Y37.219 F80
M106 S0
M106 S255
G1 X130.76 Y35.853 F80
M106 S0
G0 X131.136 Y34.396 F6000
M106 S255
G1 X131.136 Y34.396 F80
M106 S0
M106 S255
G1 X131.136 Y35.903 F80
M106 S0
M106 S255
G1 X131.372 Y35.903 F80
M106 S0
M106 S255
G1 X131.372 Y37.389 F80
M106 S0
M106 S255
G1 X131.372 Y37.389 F80
M106 S0
M106 S255
G1 X131.372 Y38.383 F80
M106 S0
M106 S255
G1 X132.58 Y38.383 F80
M106 S0
M106 S255
G1 X133.66 Y39.302 F80
M106 S0
M106 S255
G1 X134.142 Y39.302 F80
M106 S0
M106 S255
G1 X134.142 Y38.457 F80
M106 S0
M106 S255
G1 X134.987 Y38.457 F80
M106 S0
M106 S255
G1 X134.987 Y36.854 F80
M106 S0
M106 S255
G1 X136.258 Y36.854 F80
M106 S0
G0 X131.136 Y34.396 F6000
M106 S255
G1 X131.136 Y34.396 F80
M106 S0
M106 S255
G1 X131.136 Y35.903 F80
M106 S0
M106 S255
G1 X131.372 Y35.903 F80
M106 S0
M106 S255
G1 X131.372 Y37.389 F80
M106 S0
M106 S255
G1 X131.372 Y37.389 F80
M106 S0
M106 S255
G1 X131.372 Y38.383 F80
M106 S0
M106 S255
G1 X132.58 Y38.383 F80
M106 S0
M106 S255
G1 X133.66 Y39.302 F80
M106 S0
M106 S255
G1 X134.142 Y39.302 F80
M106 S0
M106 S255
G1 X134.142 Y38.457 F80
M106 S0
M106 S255
G1 X134.987 Y38.457 F80
M106 S0
M106 S255
G1 X134.987 Y36.854 F80
M106 S0
M106 S255
G1 X136.258 Y36.854 F80
M106 S0
G0 X131.136 Y34.396 F6000
M106 S255
G1 X131.136 Y34.396 F80
M106 S0
M106 S255
G1 X131.136 Y35.903 F80
M106 S0
M106 S255
G1 X131.372 Y35.903 F80
M106 S0
M106 S255
G1 X131.372 Y37.389 F80
M106 S0
M106 S255
G1 X131.372 Y37.389 F80
M106 S0
M106 S255
G1 X131.372 Y38.383 F80
M106 S0
M106 S255
G1 X132.58 Y38.383 F80
M106 S0
M106 S255
G1 X133.66 Y39.302 F80
M106 S0
M106 S255
G1 X134.142 Y39.302 F80
M106 S0
M106 S255
G1 X134.142 Y38.457 F80
M106 S0
M106 S255
G1 X134.987 Y38.457 F80
M106 S0
M106 S255
G1 X134.987 Y36.854 F80
M106 S0
M106 S255
G1 X136.258 Y36.854 F80
M106 S0
G0 X136.258 Y36.854 F6000
M106 S255
G1 X136.258 Y36.854 F80
M106 S0
M106 S255
G1 X136.258 Y37.149 F80
M106 S0
M106 S255
G1 X136.518 Y37.149 F80
M106 S0
M106 S255
G1 X136.518 Y37.659 F80
M106 S0
M106 S255
G1 X137.147 Y37.659 F80
M106 S0
M106 S255
G1 X137.147 Y37.941 F80
M106 S0
M106 S255
G1 X137.918 Y37.941 F80
M106 S0
M106 S255
G1 X137.918 Y37.68 F80
M106 S0
M106 S255
G1 X140.012 Y37.68 F80
M106 S0
M106 S255
G1 X140.012 Y38.103 F80
M106 S0
M106 S255
G1 X140.479 Y38.103 F80
M106 S0
M106 S255
G1 X140.479 Y37.886 F80
M106 S0
M106 S255
G1 X141.054 Y37.886 F80
M106 S0
M106 S255
G1 X141.054 Y38.331 F80
M106 S0
M106 S255
G1 X141.304 Y38.331 F80
M106 S0
M106 S255
G1 X141.304 Y37.724 F80
M106 S0
M106 S255
G1 X141.868 Y37.724 F80
M106 S0
M106 S255
G1 X141.868 Y39.296 F80
M106 S0
M106 S255
G1 X142.248 Y39.296 F80
M106 S0
M106 S255
G1 X142.248 Y37.702 F80
M106 S0
M106 S255
G1 X142.443 Y37.702 F80
M106 S0
M106 S255
G1 X142.443 Y38.179 F80
M106 S0
M106 S255
G1 X142.79 Y38.179 F80
M106 S0
M106 S255
G1 X142.79 Y37.756 F80
M106 S0
M106 S255
G1 X142.986 Y37.756 F80
M106 S0
M106 S255
G1 X142.986 Y38.201 F80
M106 S0
M106 S255
G1 X143.214 Y38.201 F80
M106 S0
M106 S255
G1 X143.214 Y37.735 F80
M106 S0
M106 S255
G1 X144.95 Y37.735 F80
M106 S0
G0 X136.258 Y36.854 F6000
M106 S255
G1 X136.258 Y36.854 F80
M106 S0
M106 S255
G1 X136.258 Y37.149 F80
M106 S0
M106 S255
G1 X136.518 Y37.149 F80
M106 S0
M106 S255
G1 X136.518 Y37.659 F80
M106 S0
M106 S255
G1 X137.147 Y37.659 F80
M106 S0
M106 S255
G1 X137.147 Y37.941 F80
M106 S0
M106 S255
G1 X137.918 Y37.941 F80
M106 S0
M106 S255
G1 X137.918 Y37.68 F80
M106 S0
M106 S255
G1 X140.012 Y37.68 F80
M106 S0
M106 S255
G1 X140.012 Y38.103 F80
M106 S0
M106 S255
G1 X140.479 Y38.103 F80
M106 S0
M106 S255
G1 X140.479 Y37.886 F80
M106 S0
M106 S255
G1 X141.054 Y37.886 F80
M106 S0
M106 S255
G1 X141.054 Y38.331 F80
M106 S0
M106 S255
G1 X141.304 Y38.331 F80
M106 S0
M106 S255
G1 X141.304 Y37.724 F80
M106 S0
M106 S255
G1 X141.868 Y37.724 F80
M106 S0
M106 S255
G1 X141.868 Y39.296 F80
M106 S0
M106 S255
G1 X142.248 Y39.296 F80
M106 S0
M106 S255
G1 X142.248 Y37.702 F80
M106 S0
M106 S255
G1 X142.443 Y37.702 F80
M106 S0
M106 S255
G1 X142.443 Y38.179 F80
M106 S0
M106 S255
G1 X142.79 Y38.179 F80
M106 S0
M106 S255
G1 X142.79 Y37.756 F80
M106 S0
M106 S255
G1 X142.986 Y37.756 F80
M106 S0
M106 S255
G1 X142.986 Y38.201 F80
M106 S0
M106 S255
G1 X143.214 Y38.201 F80
M106 S0
M106 S255
G1 X143.214 Y37.735 F80
M106 S0
M106 S255
G1 X144.95 Y37.735 F80
M106 S0
G0 X136.258 Y36.854 F6000
M106 S255
G1 X136.258 Y36.854 F80
M106 S0
M106 S255
G1 X136.258 Y37.149 F80
M106 S0
M106 S255
G1 X136.518 Y37.149 F80
M106 S0
M106 S255
G1 X136.518 Y37.659 F80
M106 S0
M106 S255
G1 X137.147 Y37.659 F80
M106 S0
M106 S255
G1 X137.147 Y37.941 F80
M106 S0
M106 S255
G1 X137.918 Y37.941 F80
M106 S0
M106 S255
G1 X137.918 Y37.68 F80
M106 S0
M106 S255
G1 X140.012 Y37.68 F80
M106 S0
M106 S255
G1 X140.012 Y38.103 F80
M106 S0
M106 S255
G1 X140.479 Y38.103 F80
M106 S0
M106 S255
G1 X140.479 Y37.886 F80
M106 S0
M106 S255
G1 X141.054 Y37.886 F80
M106 S0
M106 S255
G1 X141.054 Y38.331 F80
M106 S0
M106 S255
G1 X141.304 Y38.331 F80
M106 S0
M106 S255
G1 X141.304 Y37.724 F80
M106 S0
M106 S255
G1 X141.868 Y37.724 F80
M106 S0
M106 S255
G1 X141.868 Y39.296 F80
M106 S0
M106 S255
G1 X142.248 Y39.296 F80
M106 S0
M106 S255
G1 X142.248 Y37.702 F80
M106 S0
M106 S255
G1 X142.443 Y37.702 F80
M106 S0
M106 S255
G1 X142.443 Y38.179 F80
M106 S0
M106 S255
G1 X142.79 Y38.179 F80
M106 S0
M106 S255
G1 X142.79 Y37.756 F80
M106 S0
M106 S255
G1 X142.986 Y37.756 F80
M106 S0
M106 S255
G1 X142.986 Y38.201 F80
M106 S0
M106 S255
G1 X143.214 Y38.201 F80
M106 S0
M106 S255
G1 X143.214 Y37.735 F80
M106 S0
M106 S255
G1 X144.95 Y37.735 F80
M106 S0
G0 X85.011 Y34.632 F6000
M106 S255
G1 X85.011 Y34.632 F80
M106 S0
M106 S255
G1 X86.648 Y35.173 F80
M106 S0
M106 S255
G1 X86.741 Y35.188 F80
M106 S0
M106 S255
G1 X86.726 Y36.068 F80
M106 S0
M106 S255
G1 X86.973 Y36.084 F80
M106 S0
M106 S255
G1 X86.973 Y35.188 F80
M106 S0
M106 S255
G1 X87.143 Y35.173 F80
M106 S0
M106 S255
G1 X87.143 Y36.116 F80
M106 S0
M106 S255
G1 X87.386 Y36.116 F80
M106 S0
M106 S255
G1 X87.386 Y35.16 F80
M106 S0
M106 S255
G1 X87.931 Y35.16 F80
M106 S0
M106 S255
G1 X87.931 Y35.598 F80
M106 S0
M106 S255
G1 X88.435 Y35.598 F80
M106 S0
M106 S255
G1 X88.435 Y35.691 F80
M106 S0
M106 S255
G1 X88.978 Y35.691 F80
M106 S0
M106 S255
G1 X88.978 Y36.14 F80
M106 S0
M106 S255
G1 X89.319 Y36.14 F80
M106 S0
M106 S255
G1 X89.319 Y35.149 F80
M106 S0
M106 S255
G1 X89.443 Y35.149 F80
M106 S0
M106 S255
G1 X89.443 Y36.233 F80
M106 S0
M106 S255
G1 X90.016 Y36.233 F80
M106 S0
M106 S255
G1 X90.016 Y35.149 F80
M106 S0
M106 S255
G1 X93.457 Y35.149 F80
M106 S0
M106 S255
G1 X93.457 Y36.124 F80
M106 S0
M106 S255
G1 X93.736 Y36.124 F80
M106 S0
M106 S255
G1 X93.736 Y35.288 F80
M106 S0
M106 S255
G1 X93.86 Y35.288 F80
M106 S0
M106 S255
G1 X93.86 Y36.031 F80
M106 S0
M106 S255
G1 X94.062 Y36.031 F80
M106 S0
M106 S255
G1 X94.062 Y35.304 F80
M106 S0
M106 S255
G1 X94.682 Y35.304 F80
M106 S0
M106 S255
G1 X94.682 Y35.675 F80
M106 S0
M106 S255
G1 X95.007 Y35.675 F80
M106 S0
M106 S255
G1 X95.007 Y36.031 F80
M106 S0
M106 S255
G1 X95.27 Y36.031 F80
M106 S0
M106 S255
G1 X95.27 Y35.706 F80
M106 S0
M106 S255
G1 X95.772 Y35.706 F80
M106 S0
M106 S255
G1 X95.772 Y36.06 F80
M106 S0
M106 S255
G1 X95.992 Y36.06 F80
M106 S0
M106 S255
G1 X95.992 Y35.28 F80
M106 S0
M106 S255
G1 X96.181 Y35.28 F80
M106 S0
M106 S255
G1 X96.181 Y36.109 F80
M106 S0
M106 S255
G1 X96.882 Y36.109 F80
M106 S0
M106 S255
G1 X96.882 Y35.268 F80
M106 S0
M106 S255
G1 X98.169 Y35.268 F80
M106 S0
M106 S255
G1 X98.294 Y35.268 F80
M106 S0
M106 S255
G1 X98.294 Y35.781 F80
M106 S0
M106 S255
G1 X98.575 Y35.781 F80
M106 S0
M106 S255
G1 X98.575 Y35.578 F80
M106 S0
M106 S255
G1 X99.028 Y35.578 F80
M106 S0
M106 S255
G1 X99.028 Y35.329 F80
M106 S0
M106 S255
G1 X100.231 Y35.329 F80
M106 S0
M106 S255
G1 X100.231 Y35.719 F80
M106 S0
M106 S255
G1 X100.528 Y35.719 F80
M106 S0
M106 S255
G1 X100.528 Y35.329 F80
M106 S0
M106 S255
G1 X101.297 Y35.329 F80
M106 S0
M106 S255
G1 X101.297 Y35.8 F80
M106 S0
M106 S255
G1 X101.936 Y35.8 F80
M106 S0
M106 S255
G1 X101.936 Y35.211 F80
M106 S0
M106 S255
G1 X102.083 Y35.211 F80
M106 S0
M106 S255
G1 X102.083 Y35.905 F80
M106 S0
M106 S255
G1 X102.618 Y35.905 F80
M106 S0
M106 S255
G1 X102.618 Y35.137 F80
M106 S0
M106 S255
G1 X102.821 Y35.137 F80
M106 S0
M106 S255
G1 X102.821 Y35.763 F80
M106 S0
M106 S255
G1 X103.355 Y35.763 F80
M106 S0
M106 S255
G1 X103.355 Y35.137 F80
M106 S0
M106 S255
G1 X103.46 Y35.137 F80
M106 S0
M106 S255
G1 X103.46 Y35.604 F80
M106 S0
M106 S255
G1 X103.807 Y35.604 F80
M106 S0
M106 S255
G1 X103.807 Y35.768 F80
M106 S0
M106 S255
G1 X104.251 Y35.768 F80
M106 S0
M106 S255
G1 X104.251 Y35.041 F80
M106 S0
M106 S255
G1 X104.715 Y35.041 F80
M106 S0
M106 S255
G1 X104.715 Y31.992 F80
M106 S0
G0 X85.011 Y34.632 F6000
M106 S255
G1 X85.011 Y34.632 F80
M106 S0
M106 S255
G1 X86.648 Y35.173 F80
M106 S0
M106 S255
G1 X86.741 Y35.188 F80
M106 S0
M106 S255
G1 X86.726 Y36.068 F80
M106 S0
M106 S255
G1 X86.973 Y36.084 F80
M106 S0
M106 S255
G1 X86.973 Y35.188 F80
M106 S0
M106 S255
G1 X87.143 Y35.173 F80
M106 S0
M106 S255
G1 X87.143 Y36.116 F80
M106 S0
M106 S255
G1 X87.386 Y36.116 F80
M106 S0
M106 S255
G1 X87.386 Y35.16 F80
M106 S0
M106 S255
G1 X87.931 Y35.16 F80
M106 S0
M106 S255
G1 X87.931 Y35.598 F80
M106 S0
M106 S255
G1 X88.435 Y35.598 F80
M106 S0
M106 S255
G1 X88.435 Y35.691 F80
M106 S0
M106 S255
G1 X88.978 Y35.691 F80
M106 S0
M106 S255
G1 X88.978 Y36.14 F80
M106 S0
M106 S255
G1 X89.319 Y36.14 F80
M106 S0
M106 S255
G1 X89.319 Y35.149 F80
M106 S0
M106 S255
G1 X89.443 Y35.149 F80
M106 S0
M106 S255
G1 X89.443 Y36.233 F80
M106 S0
M106 S255
G1 X90.016 Y36.233 F80
M106 S0
M106 S255
G1 X90.016 Y35.149 F80
M106 S0
M106 S255
G1 X93.457 Y35.149 F80
M106 S0
M106 S255
G1 X93.457 Y36.124 F80
M106 S0
M106 S255
G1 X93.736 Y36.124 F80
M106 S0
M106 S255
G1 X93.736 Y35.288 F80
M106 S0
M106 S255
G1 X93.86 Y35.288 F80
M106 S0
M106 S255
G1 X93.86 Y36.031 F80
M106 S0
M106 S255
G1 X94.062 Y36.031 F80
M106 S0
M106 S255
G1 X94.062 Y35.304 F80
M106 S0
M106 S255
G1 X94.682 Y35.304 F80
M106 S0
M106 S255
G1 X94.682 Y35.675 F80
M106 S0
M106 S255
G1 X95.007 Y35.675 F80
M106 S0
M106 S255
G1 X95.007 Y36.031 F80
M106 S0
M106 S255
G1 X95.27 Y36.031 F80
M106 S0
M106 S255
G1 X95.27 Y35.706 F80
M106 S0
M106 S255
G1 X95.772 Y35.706 F80
M106 S0
M106 S255
G1 X95.772 Y36.06 F80
M106 S0
M106 S255
G1 X95.992 Y36.06 F80
M106 S0
M106 S255
G1 X95.992 Y35.28 F80
M106 S0
M106 S255
G1 X96.181 Y35.28 F80
M106 S0
M106 S255
G1 X96.181 Y36.109 F80
M106 S0
M106 S255
G1 X96.882 Y36.109 F80
M106 S0
M106 S255
G1 X96.882 Y35.268 F80
M106 S0
M106 S255
G1 X98.169 Y35.268 F80
M106 S0
M106 S255
G1 X98.294 Y35.268 F80
M106 S0
M106 S255
G1 X98.294 Y35.781 F80
M106 S0
M106 S255
G1 X98.575 Y35.781 F80
M106 S0
M106 S255
G1 X98.575 Y35.578 F80
M106 S0
M106 S255
G1 X99.028 Y35.578 F80
M106 S0
M106 S255
G1 X99.028 Y35.329 F80
M106 S0
M106 S255
G1 X100.231 Y35.329 F80
M106 S0
M106 S255
G1 X100.231 Y35.719 F80
M106 S0
M106 S255
G1 X100.528 Y35.719 F80
M106 S0
M106 S255
G1 X100.528 Y35.329 F80
M106 S0
M106 S255
G1 X101.297 Y35.329 F80
M106 S0
M106 S255
G1 X101.297 Y35.8 F80
M106 S0
M106 S255
G1 X101.936 Y35.8 F80
M106 S0
M106 S255
G1 X101.936 Y35.211 F80
M106 S0
M106 S255
G1 X102.083 Y35.211 F80
M106 S0
M106 S255
G1 X102.083 Y35.905 F80
M106 S0
M106 S255
G1 X102.618 Y35.905 F80
M106 S0
M106 S255
G1 X102.618 Y35.137 F80
M106 S0
M106 S255
G1 X102.821 Y35.137 F80
M106 S0
M106 S255
G1 X102.821 Y35.763 F80
M106 S0
M106 S255
G1 X103.355 Y35.763 F80
M106 S0
M106 S255
G1 X103.355 Y35.137 F80
M106 S0
M106 S255
G1 X103.46 Y35.137 F80
M106 S0
M106 S255
G1 X103.46 Y35.604 F80
M106 S0
M106 S255
G1 X103.807 Y35.604 F80
M106 S0
M106 S255
G1 X103.807 Y35.768 F80
M106 S0
M106 S255
G1 X104.251 Y35.768 F80
M106 S0
M106 S255
G1 X104.251 Y35.041 F80
M106 S0
M106 S255
G1 X104.715 Y35.041 F80
M106 S0
M106 S255
G1 X104.715 Y31.992 F80
M106 S0
G0 X85.011 Y34.632 F6000
M106 S255
G1 X85.011 Y34.632 F80
M106 S0
M106 S255
G1 X86.648 Y35.173 F80
M106 S0
M106 S255
G1 X86.741 Y35.188 F80
M106 S0
M106 S255
G1 X86.726 Y36.068 F80
M106 S0
M106 S255
G1 X86.973 Y36.084 F80
M106 S0
M106 S255
G1 X86.973 Y35.188 F80
M106 S0
M106 S255
G1 X87.143 Y35.173 F80
M106 S0
M106 S255
G1 X87.143 Y36.116 F80
M106 S0
M106 S255
G1 X87.386 Y36.116 F80
M106 S0
M106 S255
G1 X87.386 Y35.16 F80
M106 S0
M106 S255
G1 X87.931 Y35.16 F80
M106 S0
M106 S255
G1 X87.931 Y35.598 F80
M106 S0
M106 S255
G1 X88.435 Y35.598 F80
M106 S0
M106 S255
G1 X88.435 Y35.691 F80
M106 S0
M106 S255
G1 X88.978 Y35.691 F80
M106 S0
M106 S255
G1 X88.978 Y36.14 F80
M106 S0
M106 S255
G1 X89.319 Y36.14 F80
M106 S0
M106 S255
G1 X89.319 Y35.149 F80
M106 S0
M106 S255
G1 X89.443 Y35.149 F80
M106 S0
M106 S255
G1 X89.443 Y36.233 F80
M106 S0
M106 S255
G1 X90.016 Y36.233 F80
M106 S0
M106 S255
G1 X90.016 Y35.149 F80
M106 S0
M106 S255
G1 X93.457 Y35.149 F80
M106 S0
M106 S255
G1 X93.457 Y36.124 F80
M106 S0
M106 S255
G1 X93.736 Y36.124 F80
M106 S0
M106 S255
G1 X93.736 Y35.288 F80
M106 S0
M106 S255
G1 X93.86 Y35.288 F80
M106 S0
M106 S255
G1 X93.86 Y36.031 F80
M106 S0
M106 S255
G1 X94.062 Y36.031 F80
M106 S0
M106 S255
G1 X94.062 Y35.304 F80
M106 S0
M106 S255
G1 X94.682 Y35.304 F80
M106 S0
M106 S255
G1 X94.682 Y35.675 F80
M106 S0
M106 S255
G1 X95.007 Y35.675 F80
M106 S0
M106 S255
G1 X95.007 Y36.031 F80
M106 S0
M106 S255
G1 X95.27 Y36.031 F80
M106 S0
M106 S255
G1 X95.27 Y35.706 F80
M106 S0
M106 S255
G1 X95.772 Y35.706 F80
M106 S0
M106 S255
G1 X95.772 Y36.06 F80
M106 S0
M106 S255
G1 X95.992 Y36.06 F80
M106 S0
M106 S255
G1 X95.992 Y35.28 F80
M106 S0
M106 S255
G1 X96.181 Y35.28 F80
M106 S0
M106 S255
G1 X96.181 Y36.109 F80
M106 S0
M106 S255
G1 X96.882 Y36.109 F80
M106 S0
M106 S255
G1 X96.882 Y35.268 F80
M106 S0
M106 S255
G1 X98.169 Y35.268 F80
M106 S0
M106 S255
G1 X98.294 Y35.268 F80
M106 S0
M106 S255
G1 X98.294 Y35.781 F80
M106 S0
M106 S255
G1 X98.575 Y35.781 F80
M106 S0
M106 S255
G1 X98.575 Y35.578 F80
M106 S0
M106 S255
G1 X99.028 Y35.578 F80
M106 S0
M106 S255
G1 X99.028 Y35.329 F80
M106 S0
M106 S255
G1 X100.231 Y35.329 F80
M106 S0
M106 S255
G1 X100.231 Y35.719 F80
M106 S0
M106 S255
G1 X100.528 Y35.719 F80
M106 S0
M106 S255
G1 X100.528 Y35.329 F80
M106 S0
M106 S255
G1 X101.297 Y35.329 F80
M106 S0
M106 S255
G1 X101.297 Y35.8 F80
M106 S0
M106 S255
G1 X101.936 Y35.8 F80
M106 S0
M106 S255
G1 X101.936 Y35.211 F80
M106 S0
M106 S255
G1 X102.083 Y35.211 F80
M106 S0
M106 S255
G1 X102.083 Y35.905 F80
M106 S0
M106 S255
G1 X102.618 Y35.905 F80
M106 S0
M106 S255
G1 X102.618 Y35.137 F80
M106 S0
M106 S255
G1 X102.821 Y35.137 F80
M106 S0
M106 S255
G1 X102.821 Y35.763 F80
M106 S0
M106 S255
G1 X103.355 Y35.763 F80
M106 S0
M106 S255
G1 X103.355 Y35.137 F80
M106 S0
M106 S255
G1 X103.46 Y35.137 F80
M106 S0
M106 S255
G1 X103.46 Y35.604 F80
M106 S0
M106 S255
G1 X103.807 Y35.604 F80
M106 S0
M106 S255
G1 X103.807 Y35.768 F80
M106 S0
M106 S255
G1 X104.251 Y35.768 F80
M106 S0
M106 S255
G1 X104.251 Y35.041 F80
M106 S0
M106 S255
G1 X104.715 Y35.041 F80
M106 S0
M106 S255
G1 X104.715 Y31.992 F80
M106 S0
G0 X82.309 Y38.699 F6000
M106 S255
G1 X82.309 Y38.699 F80
M106 S0
M106 S255
G1 X83.404 Y38.723 F80
M106 S0
G0 X82.309 Y38.699 F6000
M106 S255
G1 X82.309 Y38.699 F80
M106 S0
M106 S255
G1 X83.404 Y38.723 F80
M106 S0
G0 X82.309 Y38.699 F6000
M106 S255
G1 X82.309 Y38.699 F80
M106 S0
M106 S255
G1 X83.404 Y38.723 F80
M106 S0
G0 X104.715 Y31.992 F6000
M106 S255
G1 X104.715 Y31.992 F80
M106 S0
M106 S255
G1 X104.892 Y31.992 F80
M106 S0
M106 S255
G1 X104.892 Y32.711 F80
M106 S0
M106 S255
G1 X105.067 Y32.711 F80
M106 S0
M106 S255
G1 X105.067 Y32.729 F80
M106 S0
G0 X104.715 Y31.992 F6000
M106 S255
G1 X104.715 Y31.992 F80
M106 S0
M106 S255
G1 X104.892 Y31.992 F80
M106 S0
M106 S255
G1 X104.892 Y32.711 F80
M106 S0
M106 S255
G1 X105.067 Y32.711 F80
M106 S0
M106 S255
G1 X105.067 Y32.729 F80
M106 S0
G0 X104.715 Y31.992 F6000
M106 S255
G1 X104.715 Y31.992 F80
M106 S0
M106 S255
G1 X104.892 Y31.992 F80
M106 S0
M106 S255
G1 X104.892 Y32.711 F80
M106 S0
M106 S255
G1 X105.067 Y32.711 F80
M106 S0
M106 S255
G1 X105.067 Y32.729 F80
M106 S0
G0 X130.76 Y35.853 F6000
M106 S255
G1 X130.76 Y35.853 F80
M106 S0
M106 S255
G1 X130.76 Y34.395 F80
M106 S0
M106 S255
G1 X131.136 Y34.396 F80
M106 S0
G0 X130.76 Y35.853 F6000
M106 S255
G1 X130.76 Y35.853 F80
M106 S0
M106 S255
G1 X130.76 Y34.395 F80
M106 S0
M106 S255
G1 X131.136 Y34.396 F80
M106 S0
G0 X130.76 Y35.853 F6000
M106 S255
G1 X130.76 Y35.853 F80
M106 S0
M106 S255
G1 X130.76 Y34.395 F80
M106 S0
M106 S255
G1 X131.136 Y34.396 F80
M106 S0
G0 X3.951 Y40.471 F6000
M106 S255
G1 X3.951 Y40.471 F80
M106 S0
M106 S255
G1 X-1.444 Y40.471 F80
M106 S0
G0 X3.951 Y40.471 F6000
M106 S255
G1 X3.951 Y40.471 F80
M106 S0
M106 S255
G1 X-1.444 Y40.471 F80
M106 S0
G0 X3.951 Y40.471 F6000
M106 S255
G1 X3.951 Y40.471 F80
M106 S0
M106 S255
G1 X-1.444 Y40.471 F80
M106 S0
G0 X144.95 Y37.735 F6000
M106 S255
G1 X144.95 Y37.735 F80
M106 S0
M106 S255
G1 X155.035 Y37.735 F80
M106 S0
G0 X144.95 Y37.735 F6000
M106 S255
G1 X144.95 Y37.735 F80
M106 S0
M106 S255
G1 X155.035 Y37.735 F80
M106 S0
G0 X144.95 Y37.735 F6000
M106 S255
G1 X144.95 Y37.735 F80
M106 S0
M106 S255
G1 X155.035 Y37.735 F80
M106 S0
M106 S0
