;GCode generated by Numa's program v0.0
G0 X3.951 Y47.513 F6000
M106 S255
G1 X3.951 Y47.513 F150
M106 S0
M106 S255
G1 X48.195 Y59.865 F150
M106 S0
G0 X3.951 Y52.079 F6000
M106 S255
G1 X3.951 Y52.079 F150
M106 S0
M106 S255
G1 X48.217 Y67.219 F150
M106 S0
G0 X3.951 Y52.753 F6000
M106 S255
G1 X3.951 Y52.753 F150
M106 S0
M106 S255
G1 X48.219 Y68.018 F150
M106 S0
G0 X48.226 Y70.344 F6000
M106 S255
G1 X48.226 Y70.344 F150
M106 S0
M106 S255
G1 X51.773 Y69.503 F150
M106 S0
M106 S255
G1 X51.814 Y31.177 F150
M106 S0
G0 X55.912 Y31.476 F6000
M106 S255
G1 X55.912 Y31.476 F150
M106 S0
M106 S255
G1 X59.32 Y34.956 F150
M106 S0
M106 S255
G1 X55.862 Y38.346 F150
M106 S0
G0 X55.911 Y39.136 F6000
M106 S255
G1 X55.911 Y39.136 F150
M106 S0
M106 S255
G1 X59.196 Y42.468 F150
M106 S0
M106 S255
G1 X55.812 Y45.982 F150
M106 S0
G0 X48.176 Y54.359 F6000
M106 S255
G1 X48.176 Y54.359 F150
M106 S0
M106 S255
G1 X51.733 Y53.989 F150
M106 S0
M106 S255
G1 X55.709 Y54.063 F150
M106 S0
M106 S255
G1 X59.068 Y54.211 F150
M106 S0
M106 S255
G1 X55.709 Y54.581 F150
M106 S0
M106 S255
G1 X51.807 Y54.507 F150
M106 S0
M106 S255
G1 X48.176 Y54.408 F150
M106 S0
G0 X48.131 Y38.808 F6000
M106 S255
G1 X48.131 Y38.808 F150
M106 S0
M106 S255
G1 X51.807 Y38.746 F150
M106 S0
M106 S255
G1 X55.887 Y38.762 F150
M106 S0
M106 S255
G1 X59.272 Y38.809 F150
M106 S0
M106 S255
G1 X55.859 Y38.902 F150
M106 S0
M106 S255
G1 X51.795 Y38.933 F150
M106 S0
M106 S255
G1 X48.149 Y38.809 F150
M106 S0
G0 X48.12 Y31.076 F6000
M106 S255
G1 X48.12 Y31.076 F150
M106 S0
M106 S255
G1 X49.592 Y31.058 F150
M106 S0
G0 X48.168 Y46.588 F6000
M106 S255
G1 X48.168 Y46.588 F150
M106 S0
M106 S255
G1 X51.806 Y46.45 F150
M106 S0
M106 S255
G1 X55.81 Y46.44 F150
M106 S0
M106 S255
G1 X59.203 Y46.509 F150
M106 S0
M106 S255
G1 X55.802 Y46.696 F150
M106 S0
M106 S255
G1 X51.798 Y46.706 F150
M106 S0
M106 S255
G1 X48.187 Y46.607 F150
M106 S0
G0 X48.202 Y62.26 F6000
M106 S255
G1 X48.202 Y62.26 F150
M106 S0
M106 S255
G1 X51.773 Y62.555 F150
M106 S0
M106 S255
G1 X55.727 Y62.656 F150
M106 S0
M106 S255
G1 X58.997 Y62.023 F150
M106 S0
M106 S255
G1 X55.676 Y61.795 F150
M106 S0
M106 S255
G1 X51.798 Y61.744 F150
M106 S0
M106 S255
G1 X48.202 Y62.206 F150
M106 S0
G0 X55.738 Y62.576 F6000
M106 S255
G1 X55.738 Y62.576 F150
M106 S0
M106 S255
G1 X58.917 Y67.572 F150
M106 S0
G0 X51.773 Y69.47 F6000
M106 S255
G1 X51.773 Y69.47 F150
M106 S0
M106 S255
G1 X58.927 Y69.726 F150
M106 S0
G0 X58.938 Y68.745 F6000
M106 S255
G1 X58.938 Y68.745 F150
M106 S0
M106 S255
G1 X144.903 Y57.011 F150
M106 S0
G0 X58.943 Y68.34 F6000
M106 S255
G1 X58.943 Y68.34 F150
M106 S0
M106 S255
G1 X144.984 Y56.089 F150
M106 S0
G0 X59.043 Y60.079 F6000
M106 S255
G1 X59.043 Y60.079 F150
M106 S0
M106 S255
G1 X144.923 Y50.348 F150
M106 S0
G0 X59.051 Y59.475 F6000
M106 S255
G1 X59.051 Y59.475 F150
M106 S0
M106 S255
G1 X144.927 Y49.613 F150
M106 S0
G0 X127.751 Y37.027 F6000
M106 S255
G1 X127.751 Y37.027 F150
M106 S0
M106 S255
G1 X130.76 Y37.219 F150
M106 S0
M106 S255
G1 X130.76 Y35.853 F150
M106 S0
G0 X136.258 Y36.854 F6000
M106 S255
G1 X136.258 Y36.854 F150
M106 S0
M106 S255
G1 X136.258 Y37.149 F150
M106 S0
M106 S255
G1 X136.518 Y37.149 F150
M106 S0
M106 S255
G1 X136.518 Y37.659 F150
M106 S0
M106 S255
G1 X137.147 Y37.659 F150
M106 S0
M106 S255
G1 X137.147 Y37.941 F150
M106 S0
M106 S255
G1 X137.918 Y37.941 F150
M106 S0
M106 S255
G1 X137.918 Y37.68 F150
M106 S0
M106 S255
G1 X140.012 Y37.68 F150
M106 S0
M106 S255
G1 X140.012 Y38.103 F150
M106 S0
M106 S255
G1 X140.479 Y38.103 F150
M106 S0
M106 S255
G1 X140.479 Y37.886 F150
M106 S0
M106 S255
G1 X141.054 Y37.886 F150
M106 S0
M106 S255
G1 X141.054 Y38.331 F150
M106 S0
M106 S255
G1 X141.304 Y38.331 F150
M106 S0
M106 S255
G1 X141.304 Y37.724 F150
M106 S0
M106 S255
G1 X141.868 Y37.724 F150
M106 S0
M106 S255
G1 X141.868 Y39.296 F150
M106 S0
M106 S255
G1 X142.248 Y39.296 F150
M106 S0
M106 S255
G1 X142.248 Y37.702 F150
M106 S0
M106 S255
G1 X142.443 Y37.702 F150
M106 S0
M106 S255
G1 X142.443 Y38.179 F150
M106 S0
M106 S255
G1 X142.79 Y38.179 F150
M106 S0
M106 S255
G1 X142.79 Y37.756 F150
M106 S0
M106 S255
G1 X142.986 Y37.756 F150
M106 S0
M106 S255
G1 X142.986 Y38.201 F150
M106 S0
M106 S255
G1 X143.214 Y38.201 F150
M106 S0
M106 S255
G1 X143.214 Y37.735 F150
M106 S0
M106 S255
G1 X144.95 Y37.735 F150
M106 S0
G0 X3.951 Y46.43 F6000
M106 S255
G1 X3.951 Y46.43 F150
M106 S0
M106 S255
G1 X48.192 Y58.625 F150
M106 S0
G0 X7.651 Y35.533 F6000
M106 S255
G1 X7.651 Y35.533 F150
M106 S0
M106 S255
G1 X7.651 Y33.764 F150
M106 S0
M106 S255
G1 X7.484 Y33.764 F150
M106 S0
M106 S255
G1 X7.47 Y35.607 F150
M106 S0
G0 X7.484 Y33.764 F6000
M106 S255
G1 X7.484 Y33.764 F150
M106 S0
M106 S255
G1 X7.347 Y33.764 F150
M106 S0
M106 S255
G1 X7.347 Y33.45 F150
M106 S0
M106 S255
G1 X7.474 Y33.45 F150
M106 S0
M106 S255
G1 X7.474 Y33.264 F150
M106 S0
M106 S255
G1 X7.677 Y33.264 F150
M106 S0
M106 S255
G1 X7.677 Y33.45 F150
M106 S0
M106 S255
G1 X7.837 Y33.45 F150
M106 S0
M106 S255
G1 X7.837 Y33.764 F150
M106 S0
M106 S255
G1 X7.651 Y33.764 F150
M106 S0
G0 X17.284 Y34.441 F6000
M106 S255
G1 X17.284 Y34.441 F150
M106 S0
M106 S255
G1 X16.977 Y34.441 F150
M106 S0
M106 S255
G1 X16.977 Y34.073 F150
M106 S0
M106 S255
G1 X17.231 Y34.073 F150
M106 S0
M106 S255
G1 X17.231 Y33.687 F150
M106 S0
M106 S255
G1 X17.406 Y33.687 F150
M106 S0
M106 S255
G1 X17.406 Y34.064 F150
M106 S0
M106 S255
G1 X17.652 Y34.064 F150
M106 S0
M106 S255
G1 X17.652 Y34.423 F150
M106 S0
M106 S255
G1 X17.387 Y34.423 F150
M106 S0
M106 S255
G1 X17.387 Y34.193 F150
M106 S0
M106 S255
G1 X17.284 Y34.193 F150
M106 S0
M106 S255
G1 X17.284 Y34.441 F150
M106 S0
G0 X17.13 Y34.441 F6000
M106 S255
G1 X17.13 Y34.441 F150
M106 S0
M106 S255
G1 X17.13 Y39.96 F150
M106 S0
G0 X17.519 Y34.423 F6000
M106 S255
G1 X17.519 Y34.423 F150
M106 S0
M106 S255
G1 X17.519 Y37.39 F150
M106 S0
G0 X112.881 Y35.17 F6000
M106 S255
G1 X112.881 Y35.17 F150
M106 S0
M106 S255
G1 X110.614 Y38.991 F150
M106 S0
M106 S255
G1 X109.188 Y41.923 F150
M106 S0
M106 S255
G1 X108.725 Y41.923 F150
M106 S0
M106 S255
G1 X108.725 Y42.207 F150
M106 S0
M106 S255
G1 X108.262 Y42.194 F150
M106 S0
M106 S255
G1 X108.262 Y42.466 F150
M106 S0
M106 S255
G1 X108.973 Y42.466 F150
M106 S0
M106 S255
G1 X109.799 Y42.499 F150
M106 S0
M106 S255
G1 X109.972 Y42.19 F150
M106 S0
M106 S255
G1 X114.402 Y35.204 F150
M106 S0
G0 X114.033 Y35.786 F6000
M106 S255
G1 X114.033 Y35.786 F150
M106 S0
M106 S255
G1 X114.787 Y37.749 F150
M106 S0
M106 S255
G1 X115.346 Y37.516 F150
M106 S0
M106 S255
G1 X114.402 Y35.204 F150
M106 S0
G0 X114.787 Y37.749 F6000
M106 S255
G1 X114.787 Y37.749 F150
M106 S0
M106 S255
G1 X109.972 Y42.19 F150
M106 S0
G0 X114.598 Y37.258 F6000
M106 S255
G1 X114.598 Y37.258 F150
M106 S0
M106 S255
G1 X109.972 Y42.19 F150
M106 S0
G0 X109.188 Y41.923 F6000
M106 S255
G1 X109.188 Y41.923 F150
M106 S0
M106 S255
G1 X109.188 Y35.419 F150
M106 S0
G0 X108.972 Y41.923 F6000
M106 S255
G1 X108.972 Y41.923 F150
M106 S0
M106 S255
G1 X108.972 Y35.419 F150
M106 S0
G0 X115.188 Y35.17 F6000
M106 S255
G1 X115.188 Y35.17 F150
M106 S0
M106 S255
G1 X115.188 Y37.129 F150
M106 S0
M106 S255
G1 X115.865 Y37.129 F150
M106 S0
M106 S255
G1 X115.865 Y35.17 F150
M106 S0
G0 X115.865 Y37.129 F6000
M106 S255
G1 X115.865 Y37.129 F150
M106 S0
M106 S255
G1 X116.547 Y37.206 F150
M106 S0
M106 S255
G1 X116.547 Y35.797 F150
M106 S0
G0 X113.999 Y35.17 F6000
M106 S255
G1 X113.999 Y35.17 F150
M106 S0
M106 S255
G1 X109.677 Y41.884 F150
M106 S0
M106 S255
G1 X109.207 Y41.884 F150
M106 S0
G0 X127.022 Y37.318 F6000
M106 S255
G1 X127.022 Y37.318 F150
M106 S0
M106 S255
G1 X128.605 Y44.131 F150
M106 S0
M106 S255
G1 X128.484 Y44.131 F150
M106 S0
M106 S255
G1 X128.484 Y44.31 F150
M106 S0
M106 S255
G1 X129.261 Y44.31 F150
M106 S0
M106 S255
G1 X129.261 Y44.134 F150
M106 S0
M106 S255
G1 X128.903 Y44.134 F150
M106 S0
M106 S255
G1 X127.861 Y37.034 F150
M106 S0
G0 X127.456 Y37.145 F6000
M106 S255
G1 X127.456 Y37.145 F150
M106 S0
M106 S255
G1 X128.779 Y44.128 F150
M106 S0
G0 X129.138 Y44.31 F6000
M106 S255
G1 X129.138 Y44.31 F150
M106 S0
M106 S255
G1 X129.672 Y45.067 F150
M106 S0
M106 S255
G1 X129.399 Y45.067 F150
M106 S0
M106 S255
G1 X128.707 Y44.31 F150
M106 S0
G0 X135.473 Y36.854 F6000
M106 S255
G1 X135.473 Y36.854 F150
M106 S0
M106 S255
G1 X138.331 Y45.306 F150
M106 S0
M106 S255
G1 X137.948 Y45.306 F150
M106 S0
M106 S255
G1 X138.18 Y45.881 F150
M106 S0
M106 S255
G1 X138.18 Y46.012 F150
M106 S0
M106 S255
G1 X137.857 Y46.012 F150
M106 S0
M106 S255
G1 X137.978 Y46.405 F150
M106 S0
M106 S255
G1 X138.573 Y46.405 F150
M106 S0
M106 S255
G1 X139.634 Y47.175 F150
M106 S0
M106 S255
G1 X139.634 Y46.802 F150
M106 S0
M106 S255
G1 X138.917 Y46.288 F150
M106 S0
M106 S255
G1 X138.917 Y46.066 F150
M106 S0
M106 S255
G1 X139.341 Y46.066 F150
M106 S0
M106 S255
G1 X139.341 Y45.844 F150
M106 S0
M106 S255
G1 X138.584 Y45.844 F150
M106 S0
M106 S255
G1 X138.584 Y45.188 F150
M106 S0
M106 S255
G1 X138.443 Y45.188 F150
M106 S0
M106 S255
G1 X135.904 Y36.854 F150
M106 S0
G0 X134.987 Y37.182 F6000
M106 S255
G1 X134.987 Y37.182 F150
M106 S0
M106 S255
G1 X138.139 Y45.306 F150
M106 S0
G0 X134.987 Y37.759 F6000
M106 S255
G1 X134.987 Y37.759 F150
M106 S0
M106 S255
G1 X137.948 Y45.306 F150
M106 S0
G0 X138.962 Y45.844 F6000
M106 S255
G1 X138.962 Y45.844 F150
M106 S0
M106 S255
G1 X138.962 Y37.68 F150
M106 S0
G0 X139.189 Y45.927 F6000
M106 S255
G1 X139.189 Y45.927 F150
M106 S0
M106 S255
G1 X139.189 Y37.68 F150
M106 S0
G0 X134.142 Y38.757 F6000
M106 S255
G1 X134.142 Y38.757 F150
M106 S0
M106 S255
G1 X137.857 Y46.012 F150
M106 S0
G0 X134.326 Y38.457 F6000
M106 S255
G1 X134.326 Y38.457 F150
M106 S0
M106 S255
G1 X137.857 Y46.012 F150
M106 S0
G0 X135.149 Y37.611 F6000
M106 S255
G1 X135.149 Y37.611 F150
M106 S0
M106 S255
G1 X135.729 Y37.611 F150
M106 S0
G0 X135.547 Y38.627 F6000
M106 S255
G1 X135.547 Y38.627 F150
M106 S0
M106 S255
G1 X136.073 Y38.627 F150
M106 S0
G0 X135.863 Y39.44 F6000
M106 S255
G1 X135.863 Y39.44 F150
M106 S0
M106 S255
G1 X136.348 Y39.44 F150
M106 S0
G0 X136.262 Y40.469 F6000
M106 S255
G1 X136.262 Y40.469 F150
M106 S0
M106 S255
G1 X136.696 Y40.469 F150
M106 S0
G0 X136.596 Y41.33 F6000
M106 S255
G1 X136.596 Y41.33 F150
M106 S0
M106 S255
G1 X136.987 Y41.33 F150
M106 S0
G0 X137.054 Y42.509 F6000
M106 S255
G1 X137.054 Y42.509 F150
M106 S0
M106 S255
G1 X137.385 Y42.509 F150
M106 S0
G0 X112.907 Y35.142 F6000
M106 S255
G1 X112.907 Y35.142 F150
M106 S0
M106 S255
G1 X112.907 Y36.837 F150
M106 S0
M106 S255
G1 X111.88 Y36.837 F150
M106 S0
M106 S255
G1 X111.88 Y38.466 F150
M106 S0
M106 S255
G1 X110.926 Y38.466 F150
M106 S0
M106 S255
G1 X110.926 Y39.952 F150
M106 S0
M106 S255
G1 X110.144 Y39.952 F150
M106 S0
M106 S255
G1 X110.144 Y41.143 F150
M106 S0
M106 S255
G1 X109.567 Y41.143 F150
M106 S0
G0 X112.927 Y36.828 F6000
M106 S255
G1 X112.927 Y36.828 F150
M106 S0
M106 S255
G1 X113.207 Y37.067 F150
M106 S0
G0 X111.88 Y38.472 F6000
M106 S255
G1 X111.88 Y38.472 F150
M106 S0
M106 S255
G1 X112.168 Y38.693 F150
M106 S0
G0 X110.915 Y39.953 F6000
M106 S255
G1 X110.915 Y39.953 F150
M106 S0
M106 S255
G1 X111.237 Y40.167 F150
M106 S0
G0 X110.145 Y41.151 F6000
M106 S255
G1 X110.145 Y41.151 F150
M106 S0
M106 S255
G1 X110.48 Y41.372 F150
M106 S0
G0 X109.663 Y41.868 F6000
M106 S255
G1 X109.663 Y41.868 F150
M106 S0
M106 S255
G1 X110.018 Y42.088 F150
M106 S0
G0 X112.432 Y35.926 F6000
M106 S255
G1 X112.432 Y35.926 F150
M106 S0
M106 S255
G1 X112.432 Y37.566 F150
M106 S0
M106 S255
G1 X111.46 Y37.566 F150
M106 S0
G0 X111.383 Y37.695 F6000
M106 S255
G1 X111.383 Y37.695 F150
M106 S0
M106 S255
G1 X111.383 Y39.181 F150
M106 S0
M106 S255
G1 X110.489 Y39.181 F150
M106 S0
M106 S255
G1 X110.489 Y40.591 F150
M106 S0
M106 S255
G1 X109.83 Y40.591 F150
M106 S0
M106 S255
G1 X109.83 Y41.649 F150
M106 S0
M106 S255
G1 X109.327 Y41.649 F150
M106 S0
G0 X59.393 Y31.281 F6000
M106 S255
G1 X59.393 Y31.281 F150
M106 S0
M106 S255
G1 X58.926 Y69.752 F150
M106 S0
M106 S255
G1 X55.629 Y70.702 F150
M106 S0
G0 X50.05 Y31.054 F6000
M106 S255
G1 X50.05 Y31.054 F150
M106 S0
M106 S255
G1 X50.05 Y31.052 F150
M106 S0
G0 X48.109 Y30.956 F6000
M106 S255
G1 X48.109 Y30.956 F150
M106 S0
M106 S255
G1 X48.227 Y70.422 F150
M106 S0
M106 S255
G1 X55.629 Y70.733 F150
M106 S0
M106 S255
G1 X55.939 Y31.302 F150
M106 S0
G0 X49.943 Y31.079 F6000
M106 S255
G1 X49.943 Y31.079 F150
M106 S0
M106 S255
G1 X51.735 Y34.908 F150
M106 S0
M106 S255
G1 X48.128 Y42.619 F150
M106 S0
M106 S255
G1 X51.784 Y50.13 F150
M106 S0
M106 S255
G1 X50.079 Y54.062 F150
M106 S0
M106 S255
G1 X48.201 Y50.582 F150
M106 S0
G0 X49.905 Y31.077 F6000
M106 S255
G1 X49.905 Y31.077 F150
M106 S0
M106 S255
G1 X48.127 Y34.708 F150
M106 S0
M106 S255
G1 X51.758 Y42.523 F150
M106 S0
M106 S255
G1 X48.152 Y50.576 F150
M106 S0
G0 X51.762 Y31.175 F6000
M106 S255
G1 X51.762 Y31.175 F150
M106 S0
M106 S255
G1 X48.129 Y34.768 F150
M106 S0
M106 S255
G1 X51.828 Y38.737 F150
M106 S0
M106 S255
G1 X48.166 Y42.639 F150
M106 S0
M106 S255
G1 X51.827 Y46.57 F150
M106 S0
M106 S255
G1 X48.166 Y50.591 F150
M106 S0
M106 S255
G1 X51.826 Y54.444 F150
M106 S0
M106 S255
G1 X48.166 Y58.919 F150
M106 S0
M106 S255
G1 X51.71 Y62.703 F150
M106 S0
M106 S255
G1 X48.205 Y67.49 F150
M106 S0
M106 S255
G1 X50.932 Y69.642 F150
M106 S0
G0 X51.98 Y31.185 F6000
M106 S255
G1 X51.98 Y31.185 F150
M106 S0
M106 S255
G1 X55.882 Y35.024 F150
M106 S0
M106 S255
G1 X51.839 Y38.754 F150
M106 S0
M106 S255
G1 X55.82 Y42.794 F150
M106 S0
M106 S255
G1 X51.837 Y46.545 F150
M106 S0
M106 S255
G1 X55.756 Y50.647 F150
M106 S0
M106 S255
G1 X51.837 Y54.439 F150
M106 S0
M106 S255
G1 X55.694 Y59.66 F150
M106 S0
M106 S255
G1 X51.712 Y62.665 F150
M106 S0
M106 S255
G1 X55.631 Y68.197 F150
M106 S0
G0 X55.454 Y31.295 F6000
M106 S255
G1 X55.454 Y31.295 F150
M106 S0
M106 S255
G1 X51.772 Y34.887 F150
M106 S0
M106 S255
G1 X55.528 Y38.816 F150
M106 S0
M106 S255
G1 X51.773 Y42.519 F150
M106 S0
M106 S255
G1 X55.503 Y46.498 F150
M106 S0
M106 S255
G1 X51.748 Y50.11 F150
M106 S0
M106 S255
G1 X55.454 Y54.132 F150
M106 S0
M106 S255
G1 X51.749 Y58.309 F150
M106 S0
M106 S255
G1 X55.356 Y61.864 F150
M106 S0
M106 S255
G1 X51.749 Y66.776 F150
M106 S0
G0 X57.559 Y31.312 F6000
M106 S255
G1 X57.559 Y31.312 F150
M106 S0
M106 S255
G1 X55.877 Y35.014 F150
M106 S0
M106 S255
G1 X59.225 Y42.551 F150
M106 S0
M106 S255
G1 X55.779 Y50.661 F150
M106 S0
M106 S255
G1 X57.306 Y54.064 F150
M106 S0
M106 S255
G1 X59.128 Y50.472 F150
M106 S0
M106 S255
G1 X55.804 Y46.684 F150
M106 S0
G0 X57.751 Y31.31 F6000
M106 S255
G1 X57.751 Y31.31 F150
M106 S0
M106 S255
G1 X59.35 Y34.997 F150
M106 S0
M106 S255
G1 X55.829 Y42.804 F150
M106 S0
M106 S255
G1 X59.128 Y50.394 F150
M106 S0
M106 S255
G1 X55.83 Y53.567 F150
M106 S0
G0 X69.436 Y30.03 F6000
M106 S255
G1 X69.436 Y30.03 F150
M106 S0
M106 S255
G1 X69.443 Y30.04 F150
M106 S0
M106 S255
G1 X69.451 Y30.027 F150
M106 S0
M106 S0
