;GCode generated by Numa's program v0.0
G0 X8.0 Y40.0 F6000
M106 S255
G1 X8.0 Y40.0 F50
M106 S0
M106 S255
G1 X8.0 Y60.0 F50
M106 S0
M106 S255
G1 X28.0 Y60.0 F50
M106 S0
M106 S255
G1 X28.0 Y40.0 F50
M106 S0
M106 S255
G1 X8.0 Y40.0 F50
M106 S0
G0 X8.0 Y40.0 F6000
M106 S255
G1 X8.0 Y40.0 F50
M106 S0
M106 S255
G1 X8.0 Y60.0 F50
M106 S0
M106 S255
G1 X28.0 Y60.0 F50
M106 S0
M106 S255
G1 X28.0 Y40.0 F50
M106 S0
M106 S255
G1 X8.0 Y40.0 F50
M106 S0
G0 X8.0 Y40.0 F6000
M106 S255
G1 X8.0 Y40.0 F50
M106 S0
M106 S255
G1 X8.0 Y60.0 F50
M106 S0
M106 S255
G1 X28.0 Y60.0 F50
M106 S0
M106 S255
G1 X28.0 Y40.0 F50
M106 S0
M106 S255
G1 X8.0 Y40.0 F50
M106 S0
G0 X8.0 Y40.0 F6000
M106 S255
G1 X8.0 Y40.0 F50
M106 S0
M106 S255
G1 X8.0 Y60.0 F50
M106 S0
M106 S255
G1 X28.0 Y60.0 F50
M106 S0
M106 S255
G1 X28.0 Y40.0 F50
M106 S0
M106 S255
G1 X8.0 Y40.0 F50
M106 S0
M106 S0
