;GCode generated by Numa's program v0.0
G0 X0.0 Y0.0 F6000
M106 S255
G1 X0.0 Y0.0 F160
M106 S0
M106 S255
G1 X0.0 Y150.0 F160
M106 S0
M106 S255
G1 X150.0 Y150.0 F160
M106 S0
M106 S255
G1 X150.0 Y0.0 F160
M106 S0
M106 S255
G1 X-0.0 Y0.0 F160
M106 S0
G0 X5.0 Y5.0 F6000
M106 S255
G1 X5.0 Y5.0 F160
M106 S0
M106 S255
G1 X5.0 Y145.0 F160
M106 S0
M106 S255
G1 X145.0 Y145.0 F160
M106 S0
M106 S255
G1 X145.0 Y5.0 F160
M106 S0
M106 S255
G1 X5.0 Y5.0 F160
M106 S0
G0 X5.0 Y22.5 F6000
M106 S255
G1 X5.0 Y22.5 F160
M106 S0
M106 S255
G1 X145.0 Y22.5 F160
M106 S0
G0 X5.0 Y40.0 F6000
M106 S255
G1 X5.0 Y40.0 F160
M106 S0
M106 S255
G1 X145.0 Y40.0 F160
M106 S0
G0 X5.0 Y57.5 F6000
M106 S255
G1 X5.0 Y57.5 F160
M106 S0
M106 S255
G1 X145.0 Y57.5 F160
M106 S0
G0 X5.0 Y92.5 F6000
M106 S255
G1 X5.0 Y92.5 F160
M106 S0
M106 S255
G1 X145.0 Y92.5 F160
M106 S0
G0 X5.0 Y75.0 F6000
M106 S255
G1 X5.0 Y75.0 F160
M106 S0
M106 S255
G1 X145.0 Y75.0 F160
M106 S0
G0 X5.0 Y127.5 F6000
M106 S255
G1 X5.0 Y127.5 F160
M106 S0
M106 S255
G1 X145.0 Y127.5 F160
M106 S0
G0 X5.0 Y110.0 F6000
M106 S255
G1 X5.0 Y110.0 F160
M106 S0
M106 S255
G1 X145.0 Y110.0 F160
M106 S0
G0 X22.5 Y145.0 F6000
M106 S255
G1 X22.5 Y145.0 F160
M106 S0
M106 S255
G1 X22.5 Y5.0 F160
M106 S0
G0 X22.5 Y145.0 F6000
M106 S255
G1 X22.5 Y145.0 F160
M106 S0
M106 S255
G1 X40.0 Y145.0 F160
M106 S0
M106 S255
G1 X40.0 Y5.0 F160
M106 S0
G0 X57.5 Y145.0 F6000
M106 S255
G1 X57.5 Y145.0 F160
M106 S0
M106 S255
G1 X57.5 Y5.0 F160
M106 S0
G0 X92.5 Y145.0 F6000
M106 S255
G1 X92.5 Y145.0 F160
M106 S0
M106 S255
G1 X92.5 Y5.0 F160
M106 S0
G0 X92.5 Y145.0 F6000
M106 S255
G1 X92.5 Y145.0 F160
M106 S0
M106 S255
G1 X75.0 Y145.0 F160
M106 S0
M106 S255
G1 X75.0 Y5.0 F160
M106 S0
G0 X127.5 Y145.0 F6000
M106 S255
G1 X127.5 Y145.0 F160
M106 S0
M106 S255
G1 X127.5 Y5.0 F160
M106 S0
G0 X92.5 Y145.0 F6000
M106 S255
G1 X92.5 Y145.0 F160
M106 S0
M106 S255
G1 X110.0 Y145.0 F160
M106 S0
M106 S255
G1 X110.0 Y5.0 F160
M106 S0
G0 X11.601 Y0.508 F6000
M106 S255
G1 X11.601 Y0.508 F160
M106 S0
M106 S255
G1 X13.136 Y4.521 F160
M106 S0
M106 S255
G1 X14.649 Y0.508 F160
M106 S0
G0 X12.172 Y1.846 F6000
M106 S255
G1 X12.172 Y1.846 F160
M106 S0
M106 S255
G1 X14.079 Y1.846 F160
M106 S0
G0 X29.1 Y0.508 F6000
M106 S255
G1 X29.1 Y0.508 F160
M106 S0
M106 S255
G1 X29.1 Y4.521 F160
M106 S0
M106 S255
G1 X30.81 Y4.521 F160
M106 S0
M106 S255
G1 X31.381 Y4.324 F160
M106 S0
M106 S255
G1 X31.578 Y4.126 F160
M106 S0
M106 S255
G1 X31.753 Y3.753 F160
M106 S0
M106 S255
G1 X31.753 Y3.381 F160
M106 S0
M106 S255
G1 X31.578 Y2.986 F160
M106 S0
M106 S255
G1 X31.381 Y2.811 F160
M106 S0
M106 S255
G1 X30.81 Y2.613 F160
M106 S0
M106 S255
G1 X29.1 Y2.613 F160
M106 S0
G0 X30.81 Y2.613 F6000
M106 S255
G1 X30.81 Y2.613 F160
M106 S0
M106 S255
G1 X31.381 Y2.416 F160
M106 S0
M106 S255
G1 X31.578 Y2.24 F160
M106 S0
M106 S255
G1 X31.753 Y1.846 F160
M106 S0
M106 S255
G1 X31.753 Y1.276 F160
M106 S0
M106 S255
G1 X31.578 Y0.903 F160
M106 S0
M106 S255
G1 X31.381 Y0.705 F160
M106 S0
M106 S255
G1 X30.81 Y0.508 F160
M106 S0
M106 S255
G1 X29.1 Y0.508 F160
M106 S0
G0 X49.449 Y3.556 F6000
M106 S255
G1 X49.449 Y3.556 F160
M106 S0
M106 S255
G1 X49.252 Y3.951 F160
M106 S0
M106 S255
G1 X48.879 Y4.324 F160
M106 S0
M106 S255
G1 X48.485 Y4.521 F160
M106 S0
M106 S255
G1 X47.739 Y4.521 F160
M106 S0
M106 S255
G1 X47.344 Y4.324 F160
M106 S0
M106 S255
G1 X46.971 Y3.951 F160
M106 S0
M106 S255
G1 X46.774 Y3.556 F160
M106 S0
M106 S255
G1 X46.577 Y2.986 F160
M106 S0
M106 S255
G1 X46.577 Y2.043 F160
M106 S0
M106 S255
G1 X46.774 Y1.473 F160
M106 S0
M106 S255
G1 X46.971 Y1.1 F160
M106 S0
M106 S255
G1 X47.344 Y0.705 F160
M106 S0
M106 S255
G1 X47.739 Y0.508 F160
M106 S0
M106 S255
G1 X48.485 Y0.508 F160
M106 S0
M106 S255
G1 X48.879 Y0.705 F160
M106 S0
M106 S255
G1 X49.252 Y1.1 F160
M106 S0
M106 S255
G1 X49.449 Y1.473 F160
M106 S0
G0 X64.075 Y0.508 F6000
M106 S255
G1 X64.075 Y0.508 F160
M106 S0
M106 S255
G1 X64.075 Y4.521 F160
M106 S0
M106 S255
G1 X65.413 Y4.521 F160
M106 S0
M106 S255
G1 X65.983 Y4.324 F160
M106 S0
M106 S255
G1 X66.356 Y3.951 F160
M106 S0
M106 S255
G1 X66.553 Y3.556 F160
M106 S0
M106 S255
G1 X66.729 Y2.986 F160
M106 S0
M106 S255
G1 X66.729 Y2.043 F160
M106 S0
M106 S255
G1 X66.553 Y1.473 F160
M106 S0
M106 S255
G1 X66.356 Y1.1 F160
M106 S0
M106 S255
G1 X65.983 Y0.705 F160
M106 S0
M106 S255
G1 X65.413 Y0.508 F160
M106 S0
M106 S255
G1 X64.075 Y0.508 F160
M106 S0
M106 S255
G1 X64.075 Y0.508 F160
M106 S0
G0 X81.552 Y0.508 F6000
M106 S255
G1 X81.552 Y0.508 F160
M106 S0
M106 S255
G1 X81.552 Y4.521 F160
M106 S0
M106 S255
G1 X84.03 Y4.521 F160
M106 S0
G0 X81.552 Y2.613 F6000
M106 S255
G1 X81.552 Y2.613 F160
M106 S0
M106 S255
G1 X83.087 Y2.613 F160
M106 S0
G0 X81.552 Y0.508 F6000
M106 S255
G1 X81.552 Y0.508 F160
M106 S0
M106 S255
G1 X84.03 Y0.508 F160
M106 S0
G0 X99.051 Y0.508 F6000
M106 S255
G1 X99.051 Y0.508 F160
M106 S0
M106 S255
G1 X99.051 Y4.521 F160
M106 S0
M106 S255
G1 X101.529 Y4.521 F160
M106 S0
G0 X99.051 Y2.613 F6000
M106 S255
G1 X99.051 Y2.613 F160
M106 S0
M106 S255
G1 X100.564 Y2.613 F160
M106 S0
G0 X119.4 Y3.556 F6000
M106 S255
G1 X119.4 Y3.556 F160
M106 S0
M106 S255
G1 X119.203 Y3.951 F160
M106 S0
M106 S255
G1 X118.83 Y4.324 F160
M106 S0
M106 S255
G1 X118.435 Y4.521 F160
M106 S0
M106 S255
G1 X117.69 Y4.521 F160
M106 S0
M106 S255
G1 X117.295 Y4.324 F160
M106 S0
M106 S255
G1 X116.922 Y3.951 F160
M106 S0
M106 S255
G1 X116.725 Y3.556 F160
M106 S0
M106 S255
G1 X116.528 Y2.986 F160
M106 S0
M106 S255
G1 X116.528 Y2.043 F160
M106 S0
M106 S255
G1 X116.725 Y1.473 F160
M106 S0
M106 S255
G1 X116.922 Y1.1 F160
M106 S0
M106 S255
G1 X117.295 Y0.705 F160
M106 S0
M106 S255
G1 X117.69 Y0.508 F160
M106 S0
M106 S255
G1 X118.435 Y0.508 F160
M106 S0
M106 S255
G1 X118.83 Y0.705 F160
M106 S0
M106 S255
G1 X119.203 Y1.1 F160
M106 S0
M106 S255
G1 X119.4 Y1.473 F160
M106 S0
M106 S255
G1 X119.4 Y2.043 F160
M106 S0
M106 S255
G1 X118.435 Y2.043 F160
M106 S0
G0 X134.026 Y0.508 F6000
M106 S255
G1 X134.026 Y0.508 F160
M106 S0
M106 S255
G1 X134.026 Y4.521 F160
M106 S0
G0 X136.679 Y4.521 F6000
M106 S255
G1 X136.679 Y4.521 F160
M106 S0
M106 S255
G1 X136.679 Y0.508 F160
M106 S0
G0 X134.026 Y2.613 F6000
M106 S255
G1 X134.026 Y2.613 F160
M106 S0
M106 S255
G1 X136.679 Y2.613 F160
M106 S0
G0 X15.329 Y149.51 F6000
M106 S255
G1 X15.329 Y149.51 F160
M106 S0
M106 S255
G1 X13.816 Y145.497 F160
M106 S0
M106 S255
G1 X12.281 Y149.51 F160
M106 S0
G0 X14.759 Y148.172 F6000
M106 S255
G1 X14.759 Y148.172 F160
M106 S0
M106 S255
G1 X12.851 Y148.172 F160
M106 S0
G0 X32.937 Y149.51 F6000
M106 S255
G1 X32.937 Y149.51 F160
M106 S0
M106 S255
G1 X32.937 Y145.497 F160
M106 S0
M106 S255
G1 X31.227 Y145.497 F160
M106 S0
M106 S255
G1 X30.657 Y145.694 F160
M106 S0
M106 S255
G1 X30.46 Y145.892 F160
M106 S0
M106 S255
G1 X30.262 Y146.264 F160
M106 S0
M106 S255
G1 X30.262 Y146.659 F160
M106 S0
M106 S255
G1 X30.46 Y147.032 F160
M106 S0
M106 S255
G1 X30.657 Y147.229 F160
M106 S0
M106 S255
G1 X31.227 Y147.405 F160
M106 S0
M106 S255
G1 X32.937 Y147.405 F160
M106 S0
G0 X31.227 Y147.405 F6000
M106 S255
G1 X31.227 Y147.405 F160
M106 S0
M106 S255
G1 X30.657 Y147.602 F160
M106 S0
M106 S255
G1 X30.46 Y147.799 F160
M106 S0
M106 S255
G1 X30.262 Y148.172 F160
M106 S0
M106 S255
G1 X30.262 Y148.742 F160
M106 S0
M106 S255
G1 X30.46 Y149.137 F160
M106 S0
M106 S255
G1 X30.657 Y149.312 F160
M106 S0
M106 S255
G1 X31.227 Y149.51 F160
M106 S0
M106 S255
G1 X32.937 Y149.51 F160
M106 S0
G0 X47.827 Y146.462 F6000
M106 S255
G1 X47.827 Y146.462 F160
M106 S0
M106 S255
G1 X48.002 Y146.089 F160
M106 S0
M106 S255
G1 X48.397 Y145.694 F160
M106 S0
M106 S255
G1 X48.77 Y145.497 F160
M106 S0
M106 S255
G1 X49.537 Y145.497 F160
M106 S0
M106 S255
G1 X49.91 Y145.694 F160
M106 S0
M106 S255
G1 X50.305 Y146.089 F160
M106 S0
M106 S255
G1 X50.48 Y146.462 F160
M106 S0
M106 S255
G1 X50.677 Y147.032 F160
M106 S0
M106 S255
G1 X50.677 Y147.975 F160
M106 S0
M106 S255
G1 X50.48 Y148.545 F160
M106 S0
M106 S255
G1 X50.305 Y148.94 F160
M106 S0
M106 S255
G1 X49.91 Y149.312 F160
M106 S0
M106 S255
G1 X49.537 Y149.51 F160
M106 S0
M106 S255
G1 X48.77 Y149.51 F160
M106 S0
M106 S255
G1 X48.397 Y149.312 F160
M106 S0
M106 S255
G1 X48.002 Y148.94 F160
M106 S0
M106 S255
G1 X47.827 Y148.545 F160
M106 S0
G0 X68.242 Y149.51 F6000
M106 S255
G1 X68.242 Y149.51 F160
M106 S0
M106 S255
G1 X68.242 Y145.497 F160
M106 S0
M106 S255
G1 X66.904 Y145.497 F160
M106 S0
M106 S255
G1 X66.334 Y145.694 F160
M106 S0
M106 S255
G1 X65.961 Y146.089 F160
M106 S0
M106 S255
G1 X65.764 Y146.462 F160
M106 S0
M106 S255
G1 X65.567 Y147.032 F160
M106 S0
M106 S255
G1 X65.567 Y147.975 F160
M106 S0
M106 S255
G1 X65.764 Y148.545 F160
M106 S0
M106 S255
G1 X65.961 Y148.94 F160
M106 S0
M106 S255
G1 X66.334 Y149.312 F160
M106 S0
M106 S255
G1 X66.904 Y149.51 F160
M106 S0
M106 S255
G1 X68.242 Y149.51 F160
M106 S0
M106 S255
G1 X68.242 Y149.51 F160
M106 S0
G0 X85.433 Y149.51 F6000
M106 S255
G1 X85.433 Y149.51 F160
M106 S0
M106 S255
G1 X85.433 Y145.497 F160
M106 S0
M106 S255
G1 X82.956 Y145.497 F160
M106 S0
G0 X85.433 Y147.405 F6000
M106 S255
G1 X85.433 Y147.405 F160
M106 S0
M106 S255
G1 X83.898 Y147.405 F160
M106 S0
G0 X85.433 Y149.51 F6000
M106 S255
G1 X85.433 Y149.51 F160
M106 S0
M106 S255
G1 X82.956 Y149.51 F160
M106 S0
G0 X102.669 Y149.51 F6000
M106 S255
G1 X102.669 Y149.51 F160
M106 S0
M106 S255
G1 X102.669 Y145.497 F160
M106 S0
M106 S255
G1 X100.191 Y145.497 F160
M106 S0
G0 X102.669 Y147.405 F6000
M106 S255
G1 X102.669 Y147.405 F160
M106 S0
M106 S255
G1 X101.134 Y147.405 F160
M106 S0
G0 X117.975 Y146.462 F6000
M106 S255
G1 X117.975 Y146.462 F160
M106 S0
M106 S255
G1 X118.172 Y146.089 F160
M106 S0
M106 S255
G1 X118.545 Y145.694 F160
M106 S0
M106 S255
G1 X118.918 Y145.497 F160
M106 S0
M106 S255
G1 X119.685 Y145.497 F160
M106 S0
M106 S255
G1 X120.058 Y145.694 F160
M106 S0
M106 S255
G1 X120.453 Y146.089 F160
M106 S0
M106 S255
G1 X120.628 Y146.462 F160
M106 S0
M106 S255
G1 X120.825 Y147.032 F160
M106 S0
M106 S255
G1 X120.825 Y147.975 F160
M106 S0
M106 S255
G1 X120.628 Y148.545 F160
M106 S0
M106 S255
G1 X120.453 Y148.94 F160
M106 S0
M106 S255
G1 X120.058 Y149.312 F160
M106 S0
M106 S255
G1 X119.685 Y149.51 F160
M106 S0
M106 S255
G1 X118.918 Y149.51 F160
M106 S0
M106 S255
G1 X118.545 Y149.312 F160
M106 S0
M106 S255
G1 X118.172 Y148.94 F160
M106 S0
M106 S255
G1 X117.975 Y148.545 F160
M106 S0
M106 S255
G1 X117.975 Y147.975 F160
M106 S0
M106 S255
G1 X118.918 Y147.975 F160
M106 S0
G0 X138.061 Y149.51 F6000
M106 S255
G1 X138.061 Y149.51 F160
M106 S0
M106 S255
G1 X138.061 Y145.497 F160
M106 S0
G0 X135.386 Y145.497 F6000
M106 S255
G1 X135.386 Y145.497 F160
M106 S0
M106 S255
G1 X135.386 Y149.51 F160
M106 S0
G0 X138.061 Y147.405 F6000
M106 S255
G1 X138.061 Y147.405 F160
M106 S0
M106 S255
G1 X135.386 Y147.405 F160
M106 S0
G0 X1.12 Y15.266 F6000
M106 S255
G1 X1.12 Y15.266 F160
M106 S0
M106 S255
G1 X1.493 Y15.441 F160
M106 S0
M106 S255
G1 X2.063 Y16.011 F160
M106 S0
M106 S255
G1 X2.063 Y12.02 F160
M106 S0
G0 X1.317 Y32.567 F6000
M106 S255
G1 X1.317 Y32.567 F160
M106 S0
M106 S255
G1 X1.317 Y32.764 F160
M106 S0
M106 S255
G1 X1.493 Y33.137 F160
M106 S0
M106 S255
G1 X1.69 Y33.334 F160
M106 S0
M106 S255
G1 X2.063 Y33.51 F160
M106 S0
M106 S255
G1 X2.83 Y33.51 F160
M106 S0
M106 S255
G1 X3.203 Y33.334 F160
M106 S0
M106 S255
G1 X3.4 Y33.137 F160
M106 S0
M106 S255
G1 X3.598 Y32.764 F160
M106 S0
M106 S255
G1 X3.598 Y32.37 F160
M106 S0
M106 S255
G1 X3.4 Y31.997 F160
M106 S0
M106 S255
G1 X3.028 Y31.427 F160
M106 S0
M106 S255
G1 X1.12 Y29.519 F160
M106 S0
M106 S255
G1 X3.773 Y29.519 F160
M106 S0
G0 X1.493 Y51.009 F6000
M106 S255
G1 X1.493 Y51.009 F160
M106 S0
M106 S255
G1 X3.598 Y51.009 F160
M106 S0
M106 S255
G1 X2.457 Y49.496 F160
M106 S0
M106 S255
G1 X3.028 Y49.496 F160
M106 S0
M106 S255
G1 X3.4 Y49.298 F160
M106 S0
M106 S255
G1 X3.598 Y49.101 F160
M106 S0
M106 S255
G1 X3.773 Y48.531 F160
M106 S0
M106 S255
G1 X3.773 Y48.158 F160
M106 S0
M106 S255
G1 X3.598 Y47.588 F160
M106 S0
M106 S255
G1 X3.203 Y47.215 F160
M106 S0
M106 S255
G1 X2.633 Y47.018 F160
M106 S0
M106 S255
G1 X2.063 Y47.018 F160
M106 S0
M106 S255
G1 X1.493 Y47.215 F160
M106 S0
M106 S255
G1 X1.317 Y47.39 F160
M106 S0
M106 S255
G1 X1.12 Y47.785 F160
M106 S0
G0 X3.028 Y68.507 F6000
M106 S255
G1 X3.028 Y68.507 F160
M106 S0
M106 S255
G1 X1.12 Y65.854 F160
M106 S0
M106 S255
G1 X3.97 Y65.854 F160
M106 S0
G0 X3.028 Y68.507 F6000
M106 S255
G1 X3.028 Y68.507 F160
M106 S0
M106 S255
G1 X3.028 Y64.516 F160
M106 S0
G0 X3.4 Y86.006 F6000
M106 S255
G1 X3.4 Y86.006 F160
M106 S0
M106 S255
G1 X1.493 Y86.006 F160
M106 S0
M106 S255
G1 X1.317 Y84.295 F160
M106 S0
M106 S255
G1 X1.493 Y84.493 F160
M106 S0
M106 S255
G1 X2.063 Y84.668 F160
M106 S0
M106 S255
G1 X2.633 Y84.668 F160
M106 S0
M106 S255
G1 X3.203 Y84.493 F160
M106 S0
M106 S255
G1 X3.598 Y84.098 F160
M106 S0
M106 S255
G1 X3.773 Y83.528 F160
M106 S0
M106 S255
G1 X3.773 Y83.155 F160
M106 S0
M106 S255
G1 X3.598 Y82.585 F160
M106 S0
M106 S255
G1 X3.203 Y82.212 F160
M106 S0
M106 S255
G1 X2.633 Y82.015 F160
M106 S0
M106 S255
G1 X2.063 Y82.015 F160
M106 S0
M106 S255
G1 X1.493 Y82.212 F160
M106 S0
M106 S255
G1 X1.317 Y82.388 F160
M106 S0
M106 S255
G1 X1.12 Y82.782 F160
M106 S0
G0 X3.4 Y102.934 F6000
M106 S255
G1 X3.4 Y102.934 F160
M106 S0
M106 S255
G1 X3.203 Y103.329 F160
M106 S0
M106 S255
G1 X2.633 Y103.504 F160
M106 S0
M106 S255
G1 X2.26 Y103.504 F160
M106 S0
M106 S255
G1 X1.69 Y103.329 F160
M106 S0
M106 S255
G1 X1.317 Y102.759 F160
M106 S0
M106 S255
G1 X1.12 Y101.794 F160
M106 S0
M106 S255
G1 X1.12 Y100.851 F160
M106 S0
M106 S255
G1 X1.317 Y100.084 F160
M106 S0
M106 S255
G1 X1.69 Y99.711 F160
M106 S0
M106 S255
G1 X2.26 Y99.514 F160
M106 S0
M106 S255
G1 X2.457 Y99.514 F160
M106 S0
M106 S255
G1 X3.028 Y99.711 F160
M106 S0
M106 S255
G1 X3.4 Y100.084 F160
M106 S0
M106 S255
G1 X3.598 Y100.654 F160
M106 S0
M106 S255
G1 X3.598 Y100.851 F160
M106 S0
M106 S255
G1 X3.4 Y101.421 F160
M106 S0
M106 S255
G1 X3.028 Y101.794 F160
M106 S0
M106 S255
G1 X2.457 Y101.991 F160
M106 S0
M106 S255
G1 X2.26 Y101.991 F160
M106 S0
M106 S255
G1 X1.69 Y101.794 F160
M106 S0
M106 S255
G1 X1.317 Y101.421 F160
M106 S0
M106 S255
G1 X1.12 Y100.851 F160
M106 S0
G0 X1.12 Y121.003 F6000
M106 S255
G1 X1.12 Y121.003 F160
M106 S0
M106 S255
G1 X3.773 Y121.003 F160
M106 S0
M106 S255
G1 X1.887 Y117.012 F160
M106 S0
G0 X2.063 Y138.502 F6000
M106 S255
G1 X2.063 Y138.502 F160
M106 S0
M106 S255
G1 X1.493 Y138.326 F160
M106 S0
M106 S255
G1 X1.317 Y137.932 F160
M106 S0
M106 S255
G1 X1.317 Y137.559 F160
M106 S0
M106 S255
G1 X1.493 Y137.164 F160
M106 S0
M106 S255
G1 X1.887 Y136.989 F160
M106 S0
M106 S255
G1 X2.633 Y136.791 F160
M106 S0
M106 S255
G1 X3.203 Y136.594 F160
M106 S0
M106 S255
G1 X3.598 Y136.221 F160
M106 S0
M106 S255
G1 X3.773 Y135.848 F160
M106 S0
M106 S255
G1 X3.773 Y135.278 F160
M106 S0
M106 S255
G1 X3.598 Y134.884 F160
M106 S0
M106 S255
G1 X3.4 Y134.708 F160
M106 S0
M106 S255
G1 X2.83 Y134.511 F160
M106 S0
M106 S255
G1 X2.063 Y134.511 F160
M106 S0
M106 S255
G1 X1.493 Y134.708 F160
M106 S0
M106 S255
G1 X1.317 Y134.884 F160
M106 S0
M106 S255
G1 X1.12 Y135.278 F160
M106 S0
M106 S255
G1 X1.12 Y135.848 F160
M106 S0
M106 S255
G1 X1.317 Y136.221 F160
M106 S0
M106 S255
G1 X1.69 Y136.594 F160
M106 S0
M106 S255
G1 X2.26 Y136.791 F160
M106 S0
M106 S255
G1 X3.028 Y136.989 F160
M106 S0
M106 S255
G1 X3.4 Y137.164 F160
M106 S0
M106 S255
G1 X3.598 Y137.559 F160
M106 S0
M106 S255
G1 X3.598 Y137.932 F160
M106 S0
M106 S255
G1 X3.4 Y138.326 F160
M106 S0
M106 S255
G1 X2.83 Y138.502 F160
M106 S0
M106 S255
G1 X2.063 Y138.502 F160
M106 S0
M106 S255
G1 X2.063 Y138.502 F160
M106 S0
G0 X148.775 Y12.788 F6000
M106 S255
G1 X148.775 Y12.788 F160
M106 S0
M106 S255
G1 X148.38 Y12.59 F160
M106 S0
M106 S255
G1 X147.81 Y12.02 F160
M106 S0
M106 S255
G1 X147.81 Y16.011 F160
M106 S0
G0 X148.578 Y30.462 F6000
M106 S255
G1 X148.578 Y30.462 F160
M106 S0
M106 S255
G1 X148.578 Y30.286 F160
M106 S0
M106 S255
G1 X148.38 Y29.892 F160
M106 S0
M106 S255
G1 X148.183 Y29.716 F160
M106 S0
M106 S255
G1 X147.81 Y29.519 F160
M106 S0
M106 S255
G1 X147.043 Y29.519 F160
M106 S0
M106 S255
G1 X146.67 Y29.716 F160
M106 S0
M106 S255
G1 X146.473 Y29.892 F160
M106 S0
M106 S255
G1 X146.297 Y30.286 F160
M106 S0
M106 S255
G1 X146.297 Y30.659 F160
M106 S0
M106 S255
G1 X146.473 Y31.032 F160
M106 S0
M106 S255
G1 X146.867 Y31.602 F160
M106 S0
M106 S255
G1 X148.775 Y33.51 F160
M106 S0
M106 S255
G1 X146.1 Y33.51 F160
M106 S0
G0 X148.38 Y47.018 F6000
M106 S255
G1 X148.38 Y47.018 F160
M106 S0
M106 S255
G1 X146.297 Y47.018 F160
M106 S0
M106 S255
G1 X147.437 Y48.531 F160
M106 S0
M106 S255
G1 X146.867 Y48.531 F160
M106 S0
M106 S255
G1 X146.473 Y48.728 F160
M106 S0
M106 S255
G1 X146.297 Y48.925 F160
M106 S0
M106 S255
G1 X146.1 Y49.496 F160
M106 S0
M106 S255
G1 X146.1 Y49.868 F160
M106 S0
M106 S255
G1 X146.297 Y50.438 F160
M106 S0
M106 S255
G1 X146.67 Y50.833 F160
M106 S0
M106 S255
G1 X147.24 Y51.009 F160
M106 S0
M106 S255
G1 X147.81 Y51.009 F160
M106 S0
M106 S255
G1 X148.38 Y50.833 F160
M106 S0
M106 S255
G1 X148.578 Y50.636 F160
M106 S0
M106 S255
G1 X148.775 Y50.263 F160
M106 S0
G0 X146.867 Y64.516 F6000
M106 S255
G1 X146.867 Y64.516 F160
M106 S0
M106 S255
G1 X148.775 Y67.17 F160
M106 S0
M106 S255
G1 X145.902 Y67.17 F160
M106 S0
G0 X146.867 Y64.516 F6000
M106 S255
G1 X146.867 Y64.516 F160
M106 S0
M106 S255
G1 X146.867 Y68.507 F160
M106 S0
G0 X146.473 Y82.015 F6000
M106 S255
G1 X146.473 Y82.015 F160
M106 S0
M106 S255
G1 X148.38 Y82.015 F160
M106 S0
M106 S255
G1 X148.578 Y83.725 F160
M106 S0
M106 S255
G1 X148.38 Y83.528 F160
M106 S0
M106 S255
G1 X147.81 Y83.353 F160
M106 S0
M106 S255
G1 X147.24 Y83.353 F160
M106 S0
M106 S255
G1 X146.67 Y83.528 F160
M106 S0
M106 S255
G1 X146.297 Y83.923 F160
M106 S0
M106 S255
G1 X146.1 Y84.493 F160
M106 S0
M106 S255
G1 X146.1 Y84.866 F160
M106 S0
M106 S255
G1 X146.297 Y85.436 F160
M106 S0
M106 S255
G1 X146.67 Y85.83 F160
M106 S0
M106 S255
G1 X147.24 Y86.006 F160
M106 S0
M106 S255
G1 X147.81 Y86.006 F160
M106 S0
M106 S255
G1 X148.38 Y85.83 F160
M106 S0
M106 S255
G1 X148.578 Y85.633 F160
M106 S0
M106 S255
G1 X148.775 Y85.26 F160
M106 S0
G0 X146.473 Y100.084 F6000
M106 S255
G1 X146.473 Y100.084 F160
M106 S0
M106 S255
G1 X146.67 Y99.711 F160
M106 S0
M106 S255
G1 X147.24 Y99.514 F160
M106 S0
M106 S255
G1 X147.613 Y99.514 F160
M106 S0
M106 S255
G1 X148.183 Y99.711 F160
M106 S0
M106 S255
G1 X148.578 Y100.281 F160
M106 S0
M106 S255
G1 X148.775 Y101.224 F160
M106 S0
M106 S255
G1 X148.775 Y102.167 F160
M106 S0
M106 S255
G1 X148.578 Y102.934 F160
M106 S0
M106 S255
G1 X148.183 Y103.329 F160
M106 S0
M106 S255
G1 X147.613 Y103.504 F160
M106 S0
M106 S255
G1 X147.437 Y103.504 F160
M106 S0
M106 S255
G1 X146.867 Y103.329 F160
M106 S0
M106 S255
G1 X146.473 Y102.934 F160
M106 S0
M106 S255
G1 X146.297 Y102.364 F160
M106 S0
M106 S255
G1 X146.297 Y102.167 F160
M106 S0
M106 S255
G1 X146.473 Y101.597 F160
M106 S0
M106 S255
G1 X146.867 Y101.224 F160
M106 S0
M106 S255
G1 X147.437 Y101.027 F160
M106 S0
M106 S255
G1 X147.613 Y101.027 F160
M106 S0
M106 S255
G1 X148.183 Y101.224 F160
M106 S0
M106 S255
G1 X148.578 Y101.597 F160
M106 S0
M106 S255
G1 X148.775 Y102.167 F160
M106 S0
G0 X148.775 Y117.012 F6000
M106 S255
G1 X148.775 Y117.012 F160
M106 S0
M106 S255
G1 X146.1 Y117.012 F160
M106 S0
M106 S255
G1 X148.008 Y121.003 F160
M106 S0
G0 X147.81 Y134.511 F6000
M106 S255
G1 X147.81 Y134.511 F160
M106 S0
M106 S255
G1 X148.38 Y134.708 F160
M106 S0
M106 S255
G1 X148.578 Y135.081 F160
M106 S0
M106 S255
G1 X148.578 Y135.454 F160
M106 S0
M106 S255
G1 X148.38 Y135.848 F160
M106 S0
M106 S255
G1 X148.008 Y136.024 F160
M106 S0
M106 S255
G1 X147.24 Y136.221 F160
M106 S0
M106 S255
G1 X146.67 Y136.419 F160
M106 S0
M106 S255
G1 X146.297 Y136.791 F160
M106 S0
M106 S255
G1 X146.1 Y137.164 F160
M106 S0
M106 S255
G1 X146.1 Y137.756 F160
M106 S0
M106 S255
G1 X146.297 Y138.129 F160
M106 S0
M106 S255
G1 X146.473 Y138.326 F160
M106 S0
M106 S255
G1 X147.043 Y138.502 F160
M106 S0
M106 S255
G1 X147.81 Y138.502 F160
M106 S0
M106 S255
G1 X148.38 Y138.326 F160
M106 S0
M106 S255
G1 X148.578 Y138.129 F160
M106 S0
M106 S255
G1 X148.775 Y137.756 F160
M106 S0
M106 S255
G1 X148.775 Y137.164 F160
M106 S0
M106 S255
G1 X148.578 Y136.791 F160
M106 S0
M106 S255
G1 X148.183 Y136.419 F160
M106 S0
M106 S255
G1 X147.613 Y136.221 F160
M106 S0
M106 S255
G1 X146.867 Y136.024 F160
M106 S0
M106 S255
G1 X146.473 Y135.848 F160
M106 S0
M106 S255
G1 X146.297 Y135.454 F160
M106 S0
M106 S255
G1 X146.297 Y135.081 F160
M106 S0
M106 S255
G1 X146.473 Y134.708 F160
M106 S0
M106 S255
G1 X147.043 Y134.511 F160
M106 S0
M106 S255
G1 X147.81 Y134.511 F160
M106 S0
M106 S255
G1 X147.81 Y134.511 F160
M106 S0
G0 X145.0 Y142.368 F6000
M106 S255
G1 X145.0 Y142.368 F160
M106 S0
M106 S255
G1 X142.368 Y145.0 F160
M106 S0
G0 X145.0 Y137.878 F6000
M106 S255
G1 X145.0 Y137.878 F160
M106 S0
M106 S255
G1 X137.878 Y145.0 F160
M106 S0
G0 X145.0 Y133.388 F6000
M106 S255
G1 X145.0 Y133.388 F160
M106 S0
M106 S255
G1 X133.388 Y145.0 F160
M106 S0
G0 X145.0 Y128.898 F6000
M106 S255
G1 X145.0 Y128.898 F160
M106 S0
M106 S255
G1 X128.898 Y145.0 F160
M106 S0
G0 X141.908 Y127.5 F6000
M106 S255
G1 X141.908 Y127.5 F160
M106 S0
M106 S255
G1 X127.5 Y141.908 F160
M106 S0
G0 X137.418 Y127.5 F6000
M106 S255
G1 X137.418 Y127.5 F160
M106 S0
M106 S255
G1 X127.5 Y137.418 F160
M106 S0
G0 X132.927 Y127.5 F6000
M106 S255
G1 X132.927 Y127.5 F160
M106 S0
M106 S255
G1 X127.5 Y132.927 F160
M106 S0
G0 X128.437 Y127.5 F6000
M106 S255
G1 X128.437 Y127.5 F160
M106 S0
M106 S255
G1 X127.5 Y128.437 F160
M106 S0
G0 X127.5 Y123.947 F6000
M106 S255
G1 X127.5 Y123.947 F160
M106 S0
M106 S255
G1 X123.947 Y127.5 F160
M106 S0
G0 X110.0 Y141.447 F6000
M106 S255
G1 X110.0 Y141.447 F160
M106 S0
M106 S255
G1 X106.447 Y145.0 F160
M106 S0
G0 X145.0 Y106.447 F6000
M106 S255
G1 X145.0 Y106.447 F160
M106 S0
M106 S255
G1 X141.447 Y110.0 F160
M106 S0
G0 X127.5 Y119.457 F6000
M106 S255
G1 X127.5 Y119.457 F160
M106 S0
M106 S255
G1 X119.457 Y127.5 F160
M106 S0
G0 X110.0 Y136.957 F6000
M106 S255
G1 X110.0 Y136.957 F160
M106 S0
M106 S255
G1 X101.957 Y145.0 F160
M106 S0
G0 X145.0 Y101.957 F6000
M106 S255
G1 X145.0 Y101.957 F160
M106 S0
M106 S255
G1 X136.957 Y110.0 F160
M106 S0
G0 X127.5 Y114.967 F6000
M106 S255
G1 X127.5 Y114.967 F160
M106 S0
M106 S255
G1 X114.967 Y127.5 F160
M106 S0
G0 X110.0 Y132.467 F6000
M106 S255
G1 X110.0 Y132.467 F160
M106 S0
M106 S255
G1 X97.467 Y145.0 F160
M106 S0
G0 X145.0 Y97.467 F6000
M106 S255
G1 X145.0 Y97.467 F160
M106 S0
M106 S255
G1 X132.467 Y110.0 F160
M106 S0
G0 X127.5 Y110.477 F6000
M106 S255
G1 X127.5 Y110.477 F160
M106 S0
M106 S255
G1 X110.477 Y127.5 F160
M106 S0
G0 X110.0 Y127.977 F6000
M106 S255
G1 X110.0 Y127.977 F160
M106 S0
M106 S255
G1 X92.977 Y145.0 F160
M106 S0
G0 X145.0 Y92.977 F6000
M106 S255
G1 X145.0 Y92.977 F160
M106 S0
M106 S255
G1 X127.977 Y110.0 F160
M106 S0
G0 X123.487 Y110.0 F6000
M106 S255
G1 X123.487 Y110.0 F160
M106 S0
M106 S255
G1 X110.0 Y123.487 F160
M106 S0
G0 X105.987 Y127.5 F6000
M106 S255
G1 X105.987 Y127.5 F160
M106 S0
M106 S255
G1 X92.5 Y140.987 F160
M106 S0
G0 X140.987 Y92.5 F6000
M106 S255
G1 X140.987 Y92.5 F160
M106 S0
M106 S255
G1 X127.5 Y105.987 F160
M106 S0
G0 X118.997 Y110.0 F6000
M106 S255
G1 X118.997 Y110.0 F160
M106 S0
M106 S255
G1 X110.0 Y118.997 F160
M106 S0
G0 X101.497 Y127.5 F6000
M106 S255
G1 X101.497 Y127.5 F160
M106 S0
M106 S255
G1 X92.5 Y136.497 F160
M106 S0
G0 X136.497 Y92.5 F6000
M106 S255
G1 X136.497 Y92.5 F160
M106 S0
M106 S255
G1 X127.5 Y101.497 F160
M106 S0
G0 X114.506 Y110.0 F6000
M106 S255
G1 X114.506 Y110.0 F160
M106 S0
M106 S255
G1 X110.0 Y114.506 F160
M106 S0
G0 X97.006 Y127.5 F6000
M106 S255
G1 X97.006 Y127.5 F160
M106 S0
M106 S255
G1 X92.5 Y132.006 F160
M106 S0
G0 X132.006 Y92.5 F6000
M106 S255
G1 X132.006 Y92.5 F160
M106 S0
M106 S255
G1 X127.5 Y97.006 F160
M106 S0
G0 X110.016 Y110.0 F6000
M106 S255
G1 X110.016 Y110.0 F160
M106 S0
M106 S255
G1 X110.0 Y110.016 F160
M106 S0
G0 X92.516 Y127.5 F6000
M106 S255
G1 X92.516 Y127.5 F160
M106 S0
M106 S255
G1 X92.5 Y127.516 F160
M106 S0
G0 X127.516 Y92.5 F6000
M106 S255
G1 X127.516 Y92.5 F160
M106 S0
M106 S255
G1 X127.5 Y92.516 F160
M106 S0
G0 X110.0 Y105.526 F6000
M106 S255
G1 X110.0 Y105.526 F160
M106 S0
M106 S255
G1 X105.526 Y110.0 F160
M106 S0
G0 X92.5 Y123.026 F6000
M106 S255
G1 X92.5 Y123.026 F160
M106 S0
M106 S255
G1 X88.026 Y127.5 F160
M106 S0
G0 X127.5 Y88.026 F6000
M106 S255
G1 X127.5 Y88.026 F160
M106 S0
M106 S255
G1 X123.026 Y92.5 F160
M106 S0
G0 X75.0 Y140.526 F6000
M106 S255
G1 X75.0 Y140.526 F160
M106 S0
M106 S255
G1 X70.526 Y145.0 F160
M106 S0
G0 X145.0 Y70.526 F6000
M106 S255
G1 X145.0 Y70.526 F160
M106 S0
M106 S255
G1 X140.526 Y75.0 F160
M106 S0
G0 X110.0 Y101.036 F6000
M106 S255
G1 X110.0 Y101.036 F160
M106 S0
M106 S255
G1 X101.036 Y110.0 F160
M106 S0
G0 X92.5 Y118.536 F6000
M106 S255
G1 X92.5 Y118.536 F160
M106 S0
M106 S255
G1 X83.536 Y127.5 F160
M106 S0
G0 X127.5 Y83.536 F6000
M106 S255
G1 X127.5 Y83.536 F160
M106 S0
M106 S255
G1 X118.536 Y92.5 F160
M106 S0
G0 X75.0 Y136.036 F6000
M106 S255
G1 X75.0 Y136.036 F160
M106 S0
M106 S255
G1 X66.036 Y145.0 F160
M106 S0
G0 X145.0 Y66.036 F6000
M106 S255
G1 X145.0 Y66.036 F160
M106 S0
M106 S255
G1 X136.036 Y75.0 F160
M106 S0
G0 X110.0 Y96.546 F6000
M106 S255
G1 X110.0 Y96.546 F160
M106 S0
M106 S255
G1 X96.546 Y110.0 F160
M106 S0
G0 X92.5 Y114.046 F6000
M106 S255
G1 X92.5 Y114.046 F160
M106 S0
M106 S255
G1 X79.046 Y127.5 F160
M106 S0
G0 X127.5 Y79.046 F6000
M106 S255
G1 X127.5 Y79.046 F160
M106 S0
M106 S255
G1 X114.046 Y92.5 F160
M106 S0
G0 X75.0 Y131.546 F6000
M106 S255
G1 X75.0 Y131.546 F160
M106 S0
M106 S255
G1 X61.546 Y145.0 F160
M106 S0
G0 X145.0 Y61.546 F6000
M106 S255
G1 X145.0 Y61.546 F160
M106 S0
M106 S255
G1 X131.546 Y75.0 F160
M106 S0
G0 X109.556 Y92.5 F6000
M106 S255
G1 X109.556 Y92.5 F160
M106 S0
M106 S255
G1 X92.5 Y109.556 F160
M106 S0
G0 X92.056 Y110.0 F6000
M106 S255
G1 X92.056 Y110.0 F160
M106 S0
M106 S255
G1 X75.0 Y127.056 F160
M106 S0
G0 X127.056 Y75.0 F6000
M106 S255
G1 X127.056 Y75.0 F160
M106 S0
M106 S255
G1 X110.0 Y92.056 F160
M106 S0
G0 X74.556 Y127.5 F6000
M106 S255
G1 X74.556 Y127.5 F160
M106 S0
M106 S255
G1 X57.5 Y144.556 F160
M106 S0
G0 X144.556 Y57.5 F6000
M106 S255
G1 X144.556 Y57.5 F160
M106 S0
M106 S255
G1 X127.5 Y74.556 F160
M106 S0
G0 X105.066 Y92.5 F6000
M106 S255
G1 X105.066 Y92.5 F160
M106 S0
M106 S255
G1 X92.5 Y105.066 F160
M106 S0
G0 X87.566 Y110.0 F6000
M106 S255
G1 X87.566 Y110.0 F160
M106 S0
M106 S255
G1 X75.0 Y122.566 F160
M106 S0
G0 X122.566 Y75.0 F6000
M106 S255
G1 X122.566 Y75.0 F160
M106 S0
M106 S255
G1 X110.0 Y87.566 F160
M106 S0
G0 X70.066 Y127.5 F6000
M106 S255
G1 X70.066 Y127.5 F160
M106 S0
M106 S255
G1 X57.5 Y140.066 F160
M106 S0
G0 X140.066 Y57.5 F6000
M106 S255
G1 X140.066 Y57.5 F160
M106 S0
M106 S255
G1 X127.5 Y70.066 F160
M106 S0
G0 X100.576 Y92.5 F6000
M106 S255
G1 X100.576 Y92.5 F160
M106 S0
M106 S255
G1 X92.5 Y100.576 F160
M106 S0
G0 X83.076 Y110.0 F6000
M106 S255
G1 X83.076 Y110.0 F160
M106 S0
M106 S255
G1 X75.0 Y118.076 F160
M106 S0
G0 X118.076 Y75.0 F6000
M106 S255
G1 X118.076 Y75.0 F160
M106 S0
M106 S255
G1 X110.0 Y83.076 F160
M106 S0
G0 X65.576 Y127.5 F6000
M106 S255
G1 X65.576 Y127.5 F160
M106 S0
M106 S255
G1 X57.5 Y135.576 F160
M106 S0
G0 X135.576 Y57.5 F6000
M106 S255
G1 X135.576 Y57.5 F160
M106 S0
M106 S255
G1 X127.5 Y65.576 F160
M106 S0
G0 X96.085 Y92.5 F6000
M106 S255
G1 X96.085 Y92.5 F160
M106 S0
M106 S255
G1 X92.5 Y96.085 F160
M106 S0
G0 X78.585 Y110.0 F6000
M106 S255
G1 X78.585 Y110.0 F160
M106 S0
M106 S255
G1 X75.0 Y113.585 F160
M106 S0
G0 X113.585 Y75.0 F6000
M106 S255
G1 X113.585 Y75.0 F160
M106 S0
M106 S255
G1 X110.0 Y78.585 F160
M106 S0
G0 X61.085 Y127.5 F6000
M106 S255
G1 X61.085 Y127.5 F160
M106 S0
M106 S255
G1 X57.5 Y131.085 F160
M106 S0
G0 X131.085 Y57.5 F6000
M106 S255
G1 X131.085 Y57.5 F160
M106 S0
M106 S255
G1 X127.5 Y61.085 F160
M106 S0
G0 X92.5 Y91.595 F6000
M106 S255
G1 X92.5 Y91.595 F160
M106 S0
M106 S255
G1 X91.595 Y92.5 F160
M106 S0
G0 X75.0 Y109.095 F6000
M106 S255
G1 X75.0 Y109.095 F160
M106 S0
M106 S255
G1 X74.095 Y110.0 F160
M106 S0
G0 X110.0 Y74.095 F6000
M106 S255
G1 X110.0 Y74.095 F160
M106 S0
M106 S255
G1 X109.095 Y75.0 F160
M106 S0
G0 X57.5 Y126.595 F6000
M106 S255
G1 X57.5 Y126.595 F160
M106 S0
M106 S255
G1 X56.595 Y127.5 F160
M106 S0
G0 X127.5 Y56.595 F6000
M106 S255
G1 X127.5 Y56.595 F160
M106 S0
M106 S255
G1 X126.595 Y57.5 F160
M106 S0
G0 X40.0 Y144.095 F6000
M106 S255
G1 X40.0 Y144.095 F160
M106 S0
M106 S255
G1 X39.095 Y145.0 F160
M106 S0
G0 X145.0 Y39.095 F6000
M106 S255
G1 X145.0 Y39.095 F160
M106 S0
M106 S255
G1 X144.095 Y40.0 F160
M106 S0
G0 X92.5 Y87.105 F6000
M106 S255
G1 X92.5 Y87.105 F160
M106 S0
M106 S255
G1 X87.105 Y92.5 F160
M106 S0
G0 X75.0 Y104.605 F6000
M106 S255
G1 X75.0 Y104.605 F160
M106 S0
M106 S255
G1 X69.605 Y110.0 F160
M106 S0
G0 X110.0 Y69.605 F6000
M106 S255
G1 X110.0 Y69.605 F160
M106 S0
M106 S255
G1 X104.605 Y75.0 F160
M106 S0
G0 X57.5 Y122.105 F6000
M106 S255
G1 X57.5 Y122.105 F160
M106 S0
M106 S255
G1 X52.105 Y127.5 F160
M106 S0
G0 X127.5 Y52.105 F6000
M106 S255
G1 X127.5 Y52.105 F160
M106 S0
M106 S255
G1 X122.105 Y57.5 F160
M106 S0
G0 X40.0 Y139.605 F6000
M106 S255
G1 X40.0 Y139.605 F160
M106 S0
M106 S255
G1 X34.605 Y145.0 F160
M106 S0
G0 X145.0 Y34.605 F6000
M106 S255
G1 X145.0 Y34.605 F160
M106 S0
M106 S255
G1 X139.605 Y40.0 F160
M106 S0
G0 X92.5 Y82.615 F6000
M106 S255
G1 X92.5 Y82.615 F160
M106 S0
M106 S255
G1 X82.615 Y92.5 F160
M106 S0
G0 X75.0 Y100.115 F6000
M106 S255
G1 X75.0 Y100.115 F160
M106 S0
M106 S255
G1 X65.115 Y110.0 F160
M106 S0
G0 X110.0 Y65.115 F6000
M106 S255
G1 X110.0 Y65.115 F160
M106 S0
M106 S255
G1 X100.115 Y75.0 F160
M106 S0
G0 X57.5 Y117.615 F6000
M106 S255
G1 X57.5 Y117.615 F160
M106 S0
M106 S255
G1 X47.615 Y127.5 F160
M106 S0
G0 X127.5 Y47.615 F6000
M106 S255
G1 X127.5 Y47.615 F160
M106 S0
M106 S255
G1 X117.615 Y57.5 F160
M106 S0
G0 X40.0 Y135.115 F6000
M106 S255
G1 X40.0 Y135.115 F160
M106 S0
M106 S255
G1 X30.115 Y145.0 F160
M106 S0
G0 X145.0 Y30.115 F6000
M106 S255
G1 X145.0 Y30.115 F160
M106 S0
M106 S255
G1 X135.115 Y40.0 F160
M106 S0
G0 X92.5 Y78.125 F6000
M106 S255
G1 X92.5 Y78.125 F160
M106 S0
M106 S255
G1 X78.125 Y92.5 F160
M106 S0
G0 X75.0 Y95.625 F6000
M106 S255
G1 X75.0 Y95.625 F160
M106 S0
M106 S255
G1 X60.625 Y110.0 F160
M106 S0
G0 X110.0 Y60.625 F6000
M106 S255
G1 X110.0 Y60.625 F160
M106 S0
M106 S255
G1 X95.625 Y75.0 F160
M106 S0
G0 X57.5 Y113.125 F6000
M106 S255
G1 X57.5 Y113.125 F160
M106 S0
M106 S255
G1 X43.125 Y127.5 F160
M106 S0
G0 X127.5 Y43.125 F6000
M106 S255
G1 X127.5 Y43.125 F160
M106 S0
M106 S255
G1 X113.125 Y57.5 F160
M106 S0
G0 X40.0 Y130.625 F6000
M106 S255
G1 X40.0 Y130.625 F160
M106 S0
M106 S255
G1 X25.625 Y145.0 F160
M106 S0
G0 X145.0 Y25.625 F6000
M106 S255
G1 X145.0 Y25.625 F160
M106 S0
M106 S255
G1 X130.625 Y40.0 F160
M106 S0
G0 X91.135 Y75.0 F6000
M106 S255
G1 X91.135 Y75.0 F160
M106 S0
M106 S255
G1 X75.0 Y91.135 F160
M106 S0
G0 X73.635 Y92.5 F6000
M106 S255
G1 X73.635 Y92.5 F160
M106 S0
M106 S255
G1 X57.5 Y108.635 F160
M106 S0
G0 X108.635 Y57.5 F6000
M106 S255
G1 X108.635 Y57.5 F160
M106 S0
M106 S255
G1 X92.5 Y73.635 F160
M106 S0
G0 X56.135 Y110.0 F6000
M106 S255
G1 X56.135 Y110.0 F160
M106 S0
M106 S255
G1 X40.0 Y126.135 F160
M106 S0
G0 X126.135 Y40.0 F6000
M106 S255
G1 X126.135 Y40.0 F160
M106 S0
M106 S255
G1 X110.0 Y56.135 F160
M106 S0
G0 X38.635 Y127.5 F6000
M106 S255
G1 X38.635 Y127.5 F160
M106 S0
M106 S255
G1 X22.5 Y143.635 F160
M106 S0
G0 X143.635 Y22.5 F6000
M106 S255
G1 X143.635 Y22.5 F160
M106 S0
M106 S255
G1 X127.5 Y38.635 F160
M106 S0
G0 X86.645 Y75.0 F6000
M106 S255
G1 X86.645 Y75.0 F160
M106 S0
M106 S255
G1 X75.0 Y86.645 F160
M106 S0
G0 X69.145 Y92.5 F6000
M106 S255
G1 X69.145 Y92.5 F160
M106 S0
M106 S255
G1 X57.5 Y104.145 F160
M106 S0
G0 X104.145 Y57.5 F6000
M106 S255
G1 X104.145 Y57.5 F160
M106 S0
M106 S255
G1 X92.5 Y69.145 F160
M106 S0
G0 X51.645 Y110.0 F6000
M106 S255
G1 X51.645 Y110.0 F160
M106 S0
M106 S255
G1 X40.0 Y121.645 F160
M106 S0
G0 X121.645 Y40.0 F6000
M106 S255
G1 X121.645 Y40.0 F160
M106 S0
M106 S255
G1 X110.0 Y51.645 F160
M106 S0
G0 X34.145 Y127.5 F6000
M106 S255
G1 X34.145 Y127.5 F160
M106 S0
M106 S255
G1 X22.5 Y139.145 F160
M106 S0
G0 X139.145 Y22.5 F6000
M106 S255
G1 X139.145 Y22.5 F160
M106 S0
M106 S255
G1 X127.5 Y34.145 F160
M106 S0
G0 X82.154 Y75.0 F6000
M106 S255
G1 X82.154 Y75.0 F160
M106 S0
M106 S255
G1 X75.0 Y82.154 F160
M106 S0
G0 X64.654 Y92.5 F6000
M106 S255
G1 X64.654 Y92.5 F160
M106 S0
M106 S255
G1 X57.5 Y99.654 F160
M106 S0
G0 X99.654 Y57.5 F6000
M106 S255
G1 X99.654 Y57.5 F160
M106 S0
M106 S255
G1 X92.5 Y64.654 F160
M106 S0
G0 X47.154 Y110.0 F6000
M106 S255
G1 X47.154 Y110.0 F160
M106 S0
M106 S255
G1 X40.0 Y117.154 F160
M106 S0
G0 X117.154 Y40.0 F6000
M106 S255
G1 X117.154 Y40.0 F160
M106 S0
M106 S255
G1 X110.0 Y47.154 F160
M106 S0
G0 X29.654 Y127.5 F6000
M106 S255
G1 X29.654 Y127.5 F160
M106 S0
M106 S255
G1 X22.5 Y134.654 F160
M106 S0
G0 X134.654 Y22.5 F6000
M106 S255
G1 X134.654 Y22.5 F160
M106 S0
M106 S255
G1 X127.5 Y29.654 F160
M106 S0
G0 X77.664 Y75.0 F6000
M106 S255
G1 X77.664 Y75.0 F160
M106 S0
M106 S255
G1 X75.0 Y77.664 F160
M106 S0
G0 X60.164 Y92.5 F6000
M106 S255
G1 X60.164 Y92.5 F160
M106 S0
M106 S255
G1 X57.5 Y95.164 F160
M106 S0
G0 X95.164 Y57.5 F6000
M106 S255
G1 X95.164 Y57.5 F160
M106 S0
M106 S255
G1 X92.5 Y60.164 F160
M106 S0
G0 X42.664 Y110.0 F6000
M106 S255
G1 X42.664 Y110.0 F160
M106 S0
M106 S255
G1 X40.0 Y112.664 F160
M106 S0
G0 X112.664 Y40.0 F6000
M106 S255
G1 X112.664 Y40.0 F160
M106 S0
M106 S255
G1 X110.0 Y42.664 F160
M106 S0
G0 X25.164 Y127.5 F6000
M106 S255
G1 X25.164 Y127.5 F160
M106 S0
M106 S255
G1 X22.5 Y130.164 F160
M106 S0
G0 X130.164 Y22.5 F6000
M106 S255
G1 X130.164 Y22.5 F160
M106 S0
M106 S255
G1 X127.5 Y25.164 F160
M106 S0
G0 X75.0 Y73.174 F6000
M106 S255
G1 X75.0 Y73.174 F160
M106 S0
M106 S255
G1 X73.174 Y75.0 F160
M106 S0
G0 X57.5 Y90.674 F6000
M106 S255
G1 X57.5 Y90.674 F160
M106 S0
M106 S255
G1 X55.674 Y92.5 F160
M106 S0
G0 X92.5 Y55.674 F6000
M106 S255
G1 X92.5 Y55.674 F160
M106 S0
M106 S255
G1 X90.674 Y57.5 F160
M106 S0
G0 X40.0 Y108.174 F6000
M106 S255
G1 X40.0 Y108.174 F160
M106 S0
M106 S255
G1 X38.174 Y110.0 F160
M106 S0
G0 X110.0 Y38.174 F6000
M106 S255
G1 X110.0 Y38.174 F160
M106 S0
M106 S255
G1 X108.174 Y40.0 F160
M106 S0
G0 X22.5 Y125.674 F6000
M106 S255
G1 X22.5 Y125.674 F160
M106 S0
M106 S255
G1 X20.674 Y127.5 F160
M106 S0
G0 X127.5 Y20.674 F6000
M106 S255
G1 X127.5 Y20.674 F160
M106 S0
M106 S255
G1 X125.674 Y22.5 F160
M106 S0
G0 X75.0 Y68.684 F6000
M106 S255
G1 X75.0 Y68.684 F160
M106 S0
M106 S255
G1 X68.684 Y75.0 F160
M106 S0
G0 X57.5 Y86.184 F6000
M106 S255
G1 X57.5 Y86.184 F160
M106 S0
M106 S255
G1 X51.184 Y92.5 F160
M106 S0
G0 X92.5 Y51.184 F6000
M106 S255
G1 X92.5 Y51.184 F160
M106 S0
M106 S255
G1 X86.184 Y57.5 F160
M106 S0
G0 X40.0 Y103.684 F6000
M106 S255
G1 X40.0 Y103.684 F160
M106 S0
M106 S255
G1 X33.684 Y110.0 F160
M106 S0
G0 X110.0 Y33.684 F6000
M106 S255
G1 X110.0 Y33.684 F160
M106 S0
M106 S255
G1 X103.684 Y40.0 F160
M106 S0
G0 X22.5 Y121.184 F6000
M106 S255
G1 X22.5 Y121.184 F160
M106 S0
M106 S255
G1 X16.184 Y127.5 F160
M106 S0
G0 X127.5 Y16.184 F6000
M106 S255
G1 X127.5 Y16.184 F160
M106 S0
M106 S255
G1 X121.184 Y22.5 F160
M106 S0
G0 X75.0 Y64.194 F6000
M106 S255
G1 X75.0 Y64.194 F160
M106 S0
M106 S255
G1 X64.194 Y75.0 F160
M106 S0
G0 X57.5 Y81.694 F6000
M106 S255
G1 X57.5 Y81.694 F160
M106 S0
M106 S255
G1 X46.694 Y92.5 F160
M106 S0
G0 X92.5 Y46.694 F6000
M106 S255
G1 X92.5 Y46.694 F160
M106 S0
M106 S255
G1 X81.694 Y57.5 F160
M106 S0
G0 X40.0 Y99.194 F6000
M106 S255
G1 X40.0 Y99.194 F160
M106 S0
M106 S255
G1 X29.194 Y110.0 F160
M106 S0
G0 X110.0 Y29.194 F6000
M106 S255
G1 X110.0 Y29.194 F160
M106 S0
M106 S255
G1 X99.194 Y40.0 F160
M106 S0
G0 X22.5 Y116.694 F6000
M106 S255
G1 X22.5 Y116.694 F160
M106 S0
M106 S255
G1 X11.694 Y127.5 F160
M106 S0
G0 X127.5 Y11.694 F6000
M106 S255
G1 X127.5 Y11.694 F160
M106 S0
M106 S255
G1 X116.694 Y22.5 F160
M106 S0
G0 X75.0 Y59.704 F6000
M106 S255
G1 X75.0 Y59.704 F160
M106 S0
M106 S255
G1 X59.704 Y75.0 F160
M106 S0
G0 X57.5 Y77.204 F6000
M106 S255
G1 X57.5 Y77.204 F160
M106 S0
M106 S255
G1 X42.204 Y92.5 F160
M106 S0
G0 X92.5 Y42.204 F6000
M106 S255
G1 X92.5 Y42.204 F160
M106 S0
M106 S255
G1 X77.204 Y57.5 F160
M106 S0
G0 X40.0 Y94.704 F6000
M106 S255
G1 X40.0 Y94.704 F160
M106 S0
M106 S255
G1 X24.704 Y110.0 F160
M106 S0
G0 X110.0 Y24.704 F6000
M106 S255
G1 X110.0 Y24.704 F160
M106 S0
M106 S255
G1 X94.704 Y40.0 F160
M106 S0
G0 X22.5 Y112.204 F6000
M106 S255
G1 X22.5 Y112.204 F160
M106 S0
M106 S255
G1 X7.204 Y127.5 F160
M106 S0
G0 X127.5 Y7.204 F6000
M106 S255
G1 X127.5 Y7.204 F160
M106 S0
M106 S255
G1 X112.204 Y22.5 F160
M106 S0
G0 X72.714 Y57.5 F6000
M106 S255
G1 X72.714 Y57.5 F160
M106 S0
M106 S255
G1 X57.5 Y72.714 F160
M106 S0
G0 X55.214 Y75.0 F6000
M106 S255
G1 X55.214 Y75.0 F160
M106 S0
M106 S255
G1 X40.0 Y90.214 F160
M106 S0
G0 X90.214 Y40.0 F6000
M106 S255
G1 X90.214 Y40.0 F160
M106 S0
M106 S255
G1 X75.0 Y55.214 F160
M106 S0
G0 X37.714 Y92.5 F6000
M106 S255
G1 X37.714 Y92.5 F160
M106 S0
M106 S255
G1 X22.5 Y107.714 F160
M106 S0
G0 X107.714 Y22.5 F6000
M106 S255
G1 X107.714 Y22.5 F160
M106 S0
M106 S255
G1 X92.5 Y37.714 F160
M106 S0
G0 X20.214 Y110.0 F6000
M106 S255
G1 X20.214 Y110.0 F160
M106 S0
M106 S255
G1 X5.0 Y125.214 F160
M106 S0
G0 X125.214 Y5.0 F6000
M106 S255
G1 X125.214 Y5.0 F160
M106 S0
M106 S255
G1 X110.0 Y20.214 F160
M106 S0
G0 X68.224 Y57.5 F6000
M106 S255
G1 X68.224 Y57.5 F160
M106 S0
M106 S255
G1 X57.5 Y68.224 F160
M106 S0
G0 X50.724 Y75.0 F6000
M106 S255
G1 X50.724 Y75.0 F160
M106 S0
M106 S255
G1 X40.0 Y85.724 F160
M106 S0
G0 X85.724 Y40.0 F6000
M106 S255
G1 X85.724 Y40.0 F160
M106 S0
M106 S255
G1 X75.0 Y50.724 F160
M106 S0
G0 X33.224 Y92.5 F6000
M106 S255
G1 X33.224 Y92.5 F160
M106 S0
M106 S255
G1 X22.5 Y103.224 F160
M106 S0
G0 X103.224 Y22.5 F6000
M106 S255
G1 X103.224 Y22.5 F160
M106 S0
M106 S255
G1 X92.5 Y33.224 F160
M106 S0
G0 X15.724 Y110.0 F6000
M106 S255
G1 X15.724 Y110.0 F160
M106 S0
M106 S255
G1 X5.0 Y120.724 F160
M106 S0
G0 X120.724 Y5.0 F6000
M106 S255
G1 X120.724 Y5.0 F160
M106 S0
M106 S255
G1 X110.0 Y15.724 F160
M106 S0
G0 X63.733 Y57.5 F6000
M106 S255
G1 X63.733 Y57.5 F160
M106 S0
M106 S255
G1 X57.5 Y63.733 F160
M106 S0
G0 X46.233 Y75.0 F6000
M106 S255
G1 X46.233 Y75.0 F160
M106 S0
M106 S255
G1 X40.0 Y81.233 F160
M106 S0
G0 X81.233 Y40.0 F6000
M106 S255
G1 X81.233 Y40.0 F160
M106 S0
M106 S255
G1 X75.0 Y46.233 F160
M106 S0
G0 X28.733 Y92.5 F6000
M106 S255
G1 X28.733 Y92.5 F160
M106 S0
M106 S255
G1 X22.5 Y98.733 F160
M106 S0
G0 X98.733 Y22.5 F6000
M106 S255
G1 X98.733 Y22.5 F160
M106 S0
M106 S255
G1 X92.5 Y28.733 F160
M106 S0
G0 X11.233 Y110.0 F6000
M106 S255
G1 X11.233 Y110.0 F160
M106 S0
M106 S255
G1 X5.0 Y116.233 F160
M106 S0
G0 X116.233 Y5.0 F6000
M106 S255
G1 X116.233 Y5.0 F160
M106 S0
M106 S255
G1 X110.0 Y11.233 F160
M106 S0
G0 X59.243 Y57.5 F6000
M106 S255
G1 X59.243 Y57.5 F160
M106 S0
M106 S255
G1 X57.5 Y59.243 F160
M106 S0
G0 X41.743 Y75.0 F6000
M106 S255
G1 X41.743 Y75.0 F160
M106 S0
M106 S255
G1 X40.0 Y76.743 F160
M106 S0
G0 X76.743 Y40.0 F6000
M106 S255
G1 X76.743 Y40.0 F160
M106 S0
M106 S255
G1 X75.0 Y41.743 F160
M106 S0
G0 X24.243 Y92.5 F6000
M106 S255
G1 X24.243 Y92.5 F160
M106 S0
M106 S255
G1 X22.5 Y94.243 F160
M106 S0
G0 X94.243 Y22.5 F6000
M106 S255
G1 X94.243 Y22.5 F160
M106 S0
M106 S255
G1 X92.5 Y24.243 F160
M106 S0
G0 X6.743 Y110.0 F6000
M106 S255
G1 X6.743 Y110.0 F160
M106 S0
M106 S255
G1 X5.0 Y111.743 F160
M106 S0
G0 X111.743 Y5.0 F6000
M106 S255
G1 X111.743 Y5.0 F160
M106 S0
M106 S255
G1 X110.0 Y6.743 F160
M106 S0
G0 X57.5 Y54.753 F6000
M106 S255
G1 X57.5 Y54.753 F160
M106 S0
M106 S255
G1 X54.753 Y57.5 F160
M106 S0
G0 X40.0 Y72.253 F6000
M106 S255
G1 X40.0 Y72.253 F160
M106 S0
M106 S255
G1 X37.253 Y75.0 F160
M106 S0
G0 X75.0 Y37.253 F6000
M106 S255
G1 X75.0 Y37.253 F160
M106 S0
M106 S255
G1 X72.253 Y40.0 F160
M106 S0
G0 X22.5 Y89.753 F6000
M106 S255
G1 X22.5 Y89.753 F160
M106 S0
M106 S255
G1 X19.753 Y92.5 F160
M106 S0
G0 X92.5 Y19.753 F6000
M106 S255
G1 X92.5 Y19.753 F160
M106 S0
M106 S255
G1 X89.753 Y22.5 F160
M106 S0
G0 X57.5 Y50.263 F6000
M106 S255
G1 X57.5 Y50.263 F160
M106 S0
M106 S255
G1 X50.263 Y57.5 F160
M106 S0
G0 X40.0 Y67.763 F6000
M106 S255
G1 X40.0 Y67.763 F160
M106 S0
M106 S255
G1 X32.763 Y75.0 F160
M106 S0
G0 X75.0 Y32.763 F6000
M106 S255
G1 X75.0 Y32.763 F160
M106 S0
M106 S255
G1 X67.763 Y40.0 F160
M106 S0
G0 X22.5 Y85.263 F6000
M106 S255
G1 X22.5 Y85.263 F160
M106 S0
M106 S255
G1 X15.263 Y92.5 F160
M106 S0
G0 X92.5 Y15.263 F6000
M106 S255
G1 X92.5 Y15.263 F160
M106 S0
M106 S255
G1 X85.263 Y22.5 F160
M106 S0
G0 X57.5 Y45.773 F6000
M106 S255
G1 X57.5 Y45.773 F160
M106 S0
M106 S255
G1 X45.773 Y57.5 F160
M106 S0
G0 X40.0 Y63.273 F6000
M106 S255
G1 X40.0 Y63.273 F160
M106 S0
M106 S255
G1 X28.273 Y75.0 F160
M106 S0
G0 X75.0 Y28.273 F6000
M106 S255
G1 X75.0 Y28.273 F160
M106 S0
M106 S255
G1 X63.273 Y40.0 F160
M106 S0
G0 X22.5 Y80.773 F6000
M106 S255
G1 X22.5 Y80.773 F160
M106 S0
M106 S255
G1 X10.773 Y92.5 F160
M106 S0
G0 X92.5 Y10.773 F6000
M106 S255
G1 X92.5 Y10.773 F160
M106 S0
M106 S255
G1 X80.773 Y22.5 F160
M106 S0
G0 X57.5 Y41.283 F6000
M106 S255
G1 X57.5 Y41.283 F160
M106 S0
M106 S255
G1 X41.283 Y57.5 F160
M106 S0
G0 X40.0 Y58.783 F6000
M106 S255
G1 X40.0 Y58.783 F160
M106 S0
M106 S255
G1 X23.783 Y75.0 F160
M106 S0
G0 X75.0 Y23.783 F6000
M106 S255
G1 X75.0 Y23.783 F160
M106 S0
M106 S255
G1 X58.783 Y40.0 F160
M106 S0
G0 X22.5 Y76.283 F6000
M106 S255
G1 X22.5 Y76.283 F160
M106 S0
M106 S255
G1 X6.283 Y92.5 F160
M106 S0
G0 X92.5 Y6.283 F6000
M106 S255
G1 X92.5 Y6.283 F160
M106 S0
M106 S255
G1 X76.283 Y22.5 F160
M106 S0
G0 X54.293 Y40.0 F6000
M106 S255
G1 X54.293 Y40.0 F160
M106 S0
M106 S255
G1 X40.0 Y54.293 F160
M106 S0
G0 X36.793 Y57.5 F6000
M106 S255
G1 X36.793 Y57.5 F160
M106 S0
M106 S255
G1 X22.5 Y71.793 F160
M106 S0
G0 X71.793 Y22.5 F6000
M106 S255
G1 X71.793 Y22.5 F160
M106 S0
M106 S255
G1 X57.5 Y36.793 F160
M106 S0
G0 X19.293 Y75.0 F6000
M106 S255
G1 X19.293 Y75.0 F160
M106 S0
M106 S255
G1 X5.0 Y89.293 F160
M106 S0
G0 X89.293 Y5.0 F6000
M106 S255
G1 X89.293 Y5.0 F160
M106 S0
M106 S255
G1 X75.0 Y19.293 F160
M106 S0
G0 X49.803 Y40.0 F6000
M106 S255
G1 X49.803 Y40.0 F160
M106 S0
M106 S255
G1 X40.0 Y49.803 F160
M106 S0
G0 X32.303 Y57.5 F6000
M106 S255
G1 X32.303 Y57.5 F160
M106 S0
M106 S255
G1 X22.5 Y67.303 F160
M106 S0
G0 X67.303 Y22.5 F6000
M106 S255
G1 X67.303 Y22.5 F160
M106 S0
M106 S255
G1 X57.5 Y32.303 F160
M106 S0
G0 X14.803 Y75.0 F6000
M106 S255
G1 X14.803 Y75.0 F160
M106 S0
M106 S255
G1 X5.0 Y84.803 F160
M106 S0
G0 X84.803 Y5.0 F6000
M106 S255
G1 X84.803 Y5.0 F160
M106 S0
M106 S255
G1 X75.0 Y14.803 F160
M106 S0
G0 X45.312 Y40.0 F6000
M106 S255
G1 X45.312 Y40.0 F160
M106 S0
M106 S255
G1 X40.0 Y45.312 F160
M106 S0
G0 X27.812 Y57.5 F6000
M106 S255
G1 X27.812 Y57.5 F160
M106 S0
M106 S255
G1 X22.5 Y62.812 F160
M106 S0
G0 X62.812 Y22.5 F6000
M106 S255
G1 X62.812 Y22.5 F160
M106 S0
M106 S255
G1 X57.5 Y27.812 F160
M106 S0
G0 X10.312 Y75.0 F6000
M106 S255
G1 X10.312 Y75.0 F160
M106 S0
M106 S255
G1 X5.0 Y80.312 F160
M106 S0
G0 X80.312 Y5.0 F6000
M106 S255
G1 X80.312 Y5.0 F160
M106 S0
M106 S255
G1 X75.0 Y10.312 F160
M106 S0
G0 X40.822 Y40.0 F6000
M106 S255
G1 X40.822 Y40.0 F160
M106 S0
M106 S255
G1 X40.0 Y40.822 F160
M106 S0
G0 X23.322 Y57.5 F6000
M106 S255
G1 X23.322 Y57.5 F160
M106 S0
M106 S255
G1 X22.5 Y58.322 F160
M106 S0
G0 X58.322 Y22.5 F6000
M106 S255
G1 X58.322 Y22.5 F160
M106 S0
M106 S255
G1 X57.5 Y23.322 F160
M106 S0
G0 X5.822 Y75.0 F6000
M106 S255
G1 X5.822 Y75.0 F160
M106 S0
M106 S255
G1 X5.0 Y75.822 F160
M106 S0
G0 X75.822 Y5.0 F6000
M106 S255
G1 X75.822 Y5.0 F160
M106 S0
M106 S255
G1 X75.0 Y5.822 F160
M106 S0
G0 X40.0 Y36.332 F6000
M106 S255
G1 X40.0 Y36.332 F160
M106 S0
M106 S255
G1 X36.332 Y40.0 F160
M106 S0
G0 X22.5 Y53.832 F6000
M106 S255
G1 X22.5 Y53.832 F160
M106 S0
M106 S255
G1 X18.832 Y57.5 F160
M106 S0
G0 X57.5 Y18.832 F6000
M106 S255
G1 X57.5 Y18.832 F160
M106 S0
M106 S255
G1 X53.832 Y22.5 F160
M106 S0
G0 X40.0 Y31.842 F6000
M106 S255
G1 X40.0 Y31.842 F160
M106 S0
M106 S255
G1 X31.842 Y40.0 F160
M106 S0
G0 X22.5 Y49.342 F6000
M106 S255
G1 X22.5 Y49.342 F160
M106 S0
M106 S255
G1 X14.342 Y57.5 F160
M106 S0
G0 X57.5 Y14.342 F6000
M106 S255
G1 X57.5 Y14.342 F160
M106 S0
M106 S255
G1 X49.342 Y22.5 F160
M106 S0
G0 X40.0 Y27.352 F6000
M106 S255
G1 X40.0 Y27.352 F160
M106 S0
M106 S255
G1 X27.352 Y40.0 F160
M106 S0
G0 X22.5 Y44.852 F6000
M106 S255
G1 X22.5 Y44.852 F160
M106 S0
M106 S255
G1 X9.852 Y57.5 F160
M106 S0
G0 X57.5 Y9.852 F6000
M106 S255
G1 X57.5 Y9.852 F160
M106 S0
M106 S255
G1 X44.852 Y22.5 F160
M106 S0
G0 X40.0 Y22.862 F6000
M106 S255
G1 X40.0 Y22.862 F160
M106 S0
M106 S255
G1 X22.862 Y40.0 F160
M106 S0
G0 X22.5 Y40.362 F6000
M106 S255
G1 X22.5 Y40.362 F160
M106 S0
M106 S255
G1 X5.362 Y57.5 F160
M106 S0
G0 X57.5 Y5.362 F6000
M106 S255
G1 X57.5 Y5.362 F160
M106 S0
M106 S255
G1 X40.362 Y22.5 F160
M106 S0
G0 X35.872 Y22.5 F6000
M106 S255
G1 X35.872 Y22.5 F160
M106 S0
M106 S255
G1 X22.5 Y35.872 F160
M106 S0
G0 X18.372 Y40.0 F6000
M106 S255
G1 X18.372 Y40.0 F160
M106 S0
M106 S255
G1 X5.0 Y53.372 F160
M106 S0
G0 X53.372 Y5.0 F6000
M106 S255
G1 X53.372 Y5.0 F160
M106 S0
M106 S255
G1 X40.0 Y18.372 F160
M106 S0
G0 X31.382 Y22.5 F6000
M106 S255
G1 X31.382 Y22.5 F160
M106 S0
M106 S255
G1 X22.5 Y31.382 F160
M106 S0
G0 X13.882 Y40.0 F6000
M106 S255
G1 X13.882 Y40.0 F160
M106 S0
M106 S255
G1 X5.0 Y48.882 F160
M106 S0
G0 X48.882 Y5.0 F6000
M106 S255
G1 X48.882 Y5.0 F160
M106 S0
M106 S255
G1 X40.0 Y13.882 F160
M106 S0
G0 X26.891 Y22.5 F6000
M106 S255
G1 X26.891 Y22.5 F160
M106 S0
M106 S255
G1 X22.5 Y26.891 F160
M106 S0
G0 X9.391 Y40.0 F6000
M106 S255
G1 X9.391 Y40.0 F160
M106 S0
M106 S255
G1 X5.0 Y44.391 F160
M106 S0
G0 X44.391 Y5.0 F6000
M106 S255
G1 X44.391 Y5.0 F160
M106 S0
M106 S255
G1 X40.0 Y9.391 F160
M106 S0
G0 X22.5 Y22.401 F6000
M106 S255
G1 X22.5 Y22.401 F160
M106 S0
M106 S255
G1 X22.401 Y22.5 F160
M106 S0
G0 X22.5 Y17.911 F6000
M106 S255
G1 X22.5 Y17.911 F160
M106 S0
M106 S255
G1 X17.911 Y22.5 F160
M106 S0
G0 X22.5 Y13.421 F6000
M106 S255
G1 X22.5 Y13.421 F160
M106 S0
M106 S255
G1 X13.421 Y22.5 F160
M106 S0
G0 X22.5 Y8.931 F6000
M106 S255
G1 X22.5 Y8.931 F160
M106 S0
M106 S255
G1 X8.931 Y22.5 F160
M106 S0
G0 X21.941 Y5.0 F6000
M106 S255
G1 X21.941 Y5.0 F160
M106 S0
M106 S255
G1 X5.0 Y21.941 F160
M106 S0
G0 X17.451 Y5.0 F6000
M106 S255
G1 X17.451 Y5.0 F160
M106 S0
M106 S255
G1 X5.0 Y17.451 F160
M106 S0
G0 X12.961 Y5.0 F6000
M106 S255
G1 X12.961 Y5.0 F160
M106 S0
M106 S255
G1 X5.0 Y12.961 F160
M106 S0
G0 X8.47 Y5.0 F6000
M106 S255
G1 X8.47 Y5.0 F160
M106 S0
M106 S255
G1 X5.0 Y8.47 F160
M106 S0
G0 X143.733 Y22.5 F6000
M106 S255
G1 X143.733 Y22.5 F160
M106 S0
M106 S255
G1 X145.0 Y23.767 F160
M106 S0
G0 X126.233 Y5.0 F6000
M106 S255
G1 X126.233 Y5.0 F160
M106 S0
M106 S255
G1 X127.5 Y6.267 F160
M106 S0
G0 X139.243 Y22.5 F6000
M106 S255
G1 X139.243 Y22.5 F160
M106 S0
M106 S255
G1 X145.0 Y28.257 F160
M106 S0
G0 X121.743 Y5.0 F6000
M106 S255
G1 X121.743 Y5.0 F160
M106 S0
M106 S255
G1 X127.5 Y10.757 F160
M106 S0
G0 X134.753 Y22.5 F6000
M106 S255
G1 X134.753 Y22.5 F160
M106 S0
M106 S255
G1 X145.0 Y32.747 F160
M106 S0
G0 X117.253 Y5.0 F6000
M106 S255
G1 X117.253 Y5.0 F160
M106 S0
M106 S255
G1 X127.5 Y15.247 F160
M106 S0
G0 X130.263 Y22.5 F6000
M106 S255
G1 X130.263 Y22.5 F160
M106 S0
M106 S255
G1 X145.0 Y37.237 F160
M106 S0
G0 X112.763 Y5.0 F6000
M106 S255
G1 X112.763 Y5.0 F160
M106 S0
M106 S255
G1 X127.5 Y19.737 F160
M106 S0
G0 X127.5 Y24.227 F6000
M106 S255
G1 X127.5 Y24.227 F160
M106 S0
M106 S255
G1 X143.273 Y40.0 F160
M106 S0
G0 X110.0 Y6.727 F6000
M106 S255
G1 X110.0 Y6.727 F160
M106 S0
M106 S255
G1 X125.773 Y22.5 F160
M106 S0
G0 X127.5 Y28.717 F6000
M106 S255
G1 X127.5 Y28.717 F160
M106 S0
M106 S255
G1 X138.783 Y40.0 F160
M106 S0
G0 X110.0 Y11.217 F6000
M106 S255
G1 X110.0 Y11.217 F160
M106 S0
M106 S255
G1 X121.283 Y22.5 F160
M106 S0
G0 X127.5 Y33.207 F6000
M106 S255
G1 X127.5 Y33.207 F160
M106 S0
M106 S255
G1 X134.293 Y40.0 F160
M106 S0
G0 X110.0 Y15.707 F6000
M106 S255
G1 X110.0 Y15.707 F160
M106 S0
M106 S255
G1 X116.793 Y22.5 F160
M106 S0
G0 X127.5 Y37.697 F6000
M106 S255
G1 X127.5 Y37.697 F160
M106 S0
M106 S255
G1 X129.803 Y40.0 F160
M106 S0
G0 X110.0 Y20.197 F6000
M106 S255
G1 X110.0 Y20.197 F160
M106 S0
M106 S255
G1 X112.303 Y22.5 F160
M106 S0
G0 X125.312 Y40.0 F6000
M106 S255
G1 X125.312 Y40.0 F160
M106 S0
M106 S255
G1 X127.5 Y42.188 F160
M106 S0
G0 X107.812 Y22.5 F6000
M106 S255
G1 X107.812 Y22.5 F160
M106 S0
M106 S255
G1 X110.0 Y24.688 F160
M106 S0
G0 X142.812 Y57.5 F6000
M106 S255
G1 X142.812 Y57.5 F160
M106 S0
M106 S255
G1 X145.0 Y59.688 F160
M106 S0
G0 X90.312 Y5.0 F6000
M106 S255
G1 X90.312 Y5.0 F160
M106 S0
M106 S255
G1 X92.5 Y7.188 F160
M106 S0
G0 X120.822 Y40.0 F6000
M106 S255
G1 X120.822 Y40.0 F160
M106 S0
M106 S255
G1 X127.5 Y46.678 F160
M106 S0
G0 X103.322 Y22.5 F6000
M106 S255
G1 X103.322 Y22.5 F160
M106 S0
M106 S255
G1 X110.0 Y29.178 F160
M106 S0
G0 X138.322 Y57.5 F6000
M106 S255
G1 X138.322 Y57.5 F160
M106 S0
M106 S255
G1 X145.0 Y64.178 F160
M106 S0
G0 X85.822 Y5.0 F6000
M106 S255
G1 X85.822 Y5.0 F160
M106 S0
M106 S255
G1 X92.5 Y11.678 F160
M106 S0
G0 X116.332 Y40.0 F6000
M106 S255
G1 X116.332 Y40.0 F160
M106 S0
M106 S255
G1 X127.5 Y51.168 F160
M106 S0
G0 X98.832 Y22.5 F6000
M106 S255
G1 X98.832 Y22.5 F160
M106 S0
M106 S255
G1 X110.0 Y33.668 F160
M106 S0
G0 X133.832 Y57.5 F6000
M106 S255
G1 X133.832 Y57.5 F160
M106 S0
M106 S255
G1 X145.0 Y68.668 F160
M106 S0
G0 X81.332 Y5.0 F6000
M106 S255
G1 X81.332 Y5.0 F160
M106 S0
M106 S255
G1 X92.5 Y16.168 F160
M106 S0
G0 X111.842 Y40.0 F6000
M106 S255
G1 X111.842 Y40.0 F160
M106 S0
M106 S255
G1 X127.5 Y55.658 F160
M106 S0
G0 X94.342 Y22.5 F6000
M106 S255
G1 X94.342 Y22.5 F160
M106 S0
M106 S255
G1 X110.0 Y38.158 F160
M106 S0
G0 X129.342 Y57.5 F6000
M106 S255
G1 X129.342 Y57.5 F160
M106 S0
M106 S255
G1 X145.0 Y73.158 F160
M106 S0
G0 X76.842 Y5.0 F6000
M106 S255
G1 X76.842 Y5.0 F160
M106 S0
M106 S255
G1 X92.5 Y20.658 F160
M106 S0
G0 X110.0 Y42.648 F6000
M106 S255
G1 X110.0 Y42.648 F160
M106 S0
M106 S255
G1 X124.852 Y57.5 F160
M106 S0
G0 X92.5 Y25.148 F6000
M106 S255
G1 X92.5 Y25.148 F160
M106 S0
M106 S255
G1 X107.352 Y40.0 F160
M106 S0
G0 X127.5 Y60.148 F6000
M106 S255
G1 X127.5 Y60.148 F160
M106 S0
M106 S255
G1 X142.352 Y75.0 F160
M106 S0
G0 X75.0 Y7.648 F6000
M106 S255
G1 X75.0 Y7.648 F160
M106 S0
M106 S255
G1 X89.852 Y22.5 F160
M106 S0
G0 X110.0 Y47.138 F6000
M106 S255
G1 X110.0 Y47.138 F160
M106 S0
M106 S255
G1 X120.362 Y57.5 F160
M106 S0
G0 X92.5 Y29.638 F6000
M106 S255
G1 X92.5 Y29.638 F160
M106 S0
M106 S255
G1 X102.862 Y40.0 F160
M106 S0
G0 X127.5 Y64.638 F6000
M106 S255
G1 X127.5 Y64.638 F160
M106 S0
M106 S255
G1 X137.862 Y75.0 F160
M106 S0
G0 X75.0 Y12.138 F6000
M106 S255
G1 X75.0 Y12.138 F160
M106 S0
M106 S255
G1 X85.362 Y22.5 F160
M106 S0
G0 X110.0 Y51.628 F6000
M106 S255
G1 X110.0 Y51.628 F160
M106 S0
M106 S255
G1 X115.872 Y57.5 F160
M106 S0
G0 X92.5 Y34.128 F6000
M106 S255
G1 X92.5 Y34.128 F160
M106 S0
M106 S255
G1 X98.372 Y40.0 F160
M106 S0
G0 X127.5 Y69.128 F6000
M106 S255
G1 X127.5 Y69.128 F160
M106 S0
M106 S255
G1 X133.372 Y75.0 F160
M106 S0
G0 X75.0 Y16.628 F6000
M106 S255
G1 X75.0 Y16.628 F160
M106 S0
M106 S255
G1 X80.872 Y22.5 F160
M106 S0
G0 X110.0 Y56.118 F6000
M106 S255
G1 X110.0 Y56.118 F160
M106 S0
M106 S255
G1 X111.382 Y57.5 F160
M106 S0
G0 X92.5 Y38.618 F6000
M106 S255
G1 X92.5 Y38.618 F160
M106 S0
M106 S255
G1 X93.882 Y40.0 F160
M106 S0
G0 X127.5 Y73.618 F6000
M106 S255
G1 X127.5 Y73.618 F160
M106 S0
M106 S255
G1 X128.882 Y75.0 F160
M106 S0
G0 X75.0 Y21.118 F6000
M106 S255
G1 X75.0 Y21.118 F160
M106 S0
M106 S255
G1 X76.382 Y22.5 F160
M106 S0
G0 X106.891 Y57.5 F6000
M106 S255
G1 X106.891 Y57.5 F160
M106 S0
M106 S255
G1 X110.0 Y60.609 F160
M106 S0
G0 X89.391 Y40.0 F6000
M106 S255
G1 X89.391 Y40.0 F160
M106 S0
M106 S255
G1 X92.5 Y43.109 F160
M106 S0
G0 X124.391 Y75.0 F6000
M106 S255
G1 X124.391 Y75.0 F160
M106 S0
M106 S255
G1 X127.5 Y78.109 F160
M106 S0
G0 X71.891 Y22.5 F6000
M106 S255
G1 X71.891 Y22.5 F160
M106 S0
M106 S255
G1 X75.0 Y25.609 F160
M106 S0
G0 X141.891 Y92.5 F6000
M106 S255
G1 X141.891 Y92.5 F160
M106 S0
M106 S255
G1 X145.0 Y95.609 F160
M106 S0
G0 X54.391 Y5.0 F6000
M106 S255
G1 X54.391 Y5.0 F160
M106 S0
M106 S255
G1 X57.5 Y8.109 F160
M106 S0
G0 X102.401 Y57.5 F6000
M106 S255
G1 X102.401 Y57.5 F160
M106 S0
M106 S255
G1 X110.0 Y65.099 F160
M106 S0
G0 X84.901 Y40.0 F6000
M106 S255
G1 X84.901 Y40.0 F160
M106 S0
M106 S255
G1 X92.5 Y47.599 F160
M106 S0
G0 X119.901 Y75.0 F6000
M106 S255
G1 X119.901 Y75.0 F160
M106 S0
M106 S255
G1 X127.5 Y82.599 F160
M106 S0
G0 X67.401 Y22.5 F6000
M106 S255
G1 X67.401 Y22.5 F160
M106 S0
M106 S255
G1 X75.0 Y30.099 F160
M106 S0
G0 X137.401 Y92.5 F6000
M106 S255
G1 X137.401 Y92.5 F160
M106 S0
M106 S255
G1 X145.0 Y100.099 F160
M106 S0
G0 X49.901 Y5.0 F6000
M106 S255
G1 X49.901 Y5.0 F160
M106 S0
M106 S255
G1 X57.5 Y12.599 F160
M106 S0
G0 X97.911 Y57.5 F6000
M106 S255
G1 X97.911 Y57.5 F160
M106 S0
M106 S255
G1 X110.0 Y69.589 F160
M106 S0
G0 X80.411 Y40.0 F6000
M106 S255
G1 X80.411 Y40.0 F160
M106 S0
M106 S255
G1 X92.5 Y52.089 F160
M106 S0
G0 X115.411 Y75.0 F6000
M106 S255
G1 X115.411 Y75.0 F160
M106 S0
M106 S255
G1 X127.5 Y87.089 F160
M106 S0
G0 X62.911 Y22.5 F6000
M106 S255
G1 X62.911 Y22.5 F160
M106 S0
M106 S255
G1 X75.0 Y34.589 F160
M106 S0
G0 X132.911 Y92.5 F6000
M106 S255
G1 X132.911 Y92.5 F160
M106 S0
M106 S255
G1 X145.0 Y104.589 F160
M106 S0
G0 X45.411 Y5.0 F6000
M106 S255
G1 X45.411 Y5.0 F160
M106 S0
M106 S255
G1 X57.5 Y17.089 F160
M106 S0
G0 X93.421 Y57.5 F6000
M106 S255
G1 X93.421 Y57.5 F160
M106 S0
M106 S255
G1 X110.0 Y74.079 F160
M106 S0
G0 X75.921 Y40.0 F6000
M106 S255
G1 X75.921 Y40.0 F160
M106 S0
M106 S255
G1 X92.5 Y56.579 F160
M106 S0
G0 X110.921 Y75.0 F6000
M106 S255
G1 X110.921 Y75.0 F160
M106 S0
M106 S255
G1 X127.5 Y91.579 F160
M106 S0
G0 X58.421 Y22.5 F6000
M106 S255
G1 X58.421 Y22.5 F160
M106 S0
M106 S255
G1 X75.0 Y39.079 F160
M106 S0
G0 X128.421 Y92.5 F6000
M106 S255
G1 X128.421 Y92.5 F160
M106 S0
M106 S255
G1 X145.0 Y109.079 F160
M106 S0
G0 X40.921 Y5.0 F6000
M106 S255
G1 X40.921 Y5.0 F160
M106 S0
M106 S255
G1 X57.5 Y21.579 F160
M106 S0
G0 X92.5 Y61.069 F6000
M106 S255
G1 X92.5 Y61.069 F160
M106 S0
M106 S255
G1 X106.431 Y75.0 F160
M106 S0
G0 X75.0 Y43.569 F6000
M106 S255
G1 X75.0 Y43.569 F160
M106 S0
M106 S255
G1 X88.931 Y57.5 F160
M106 S0
G0 X110.0 Y78.569 F6000
M106 S255
G1 X110.0 Y78.569 F160
M106 S0
M106 S255
G1 X123.931 Y92.5 F160
M106 S0
G0 X57.5 Y26.069 F6000
M106 S255
G1 X57.5 Y26.069 F160
M106 S0
M106 S255
G1 X71.431 Y40.0 F160
M106 S0
G0 X127.5 Y96.069 F6000
M106 S255
G1 X127.5 Y96.069 F160
M106 S0
M106 S255
G1 X141.431 Y110.0 F160
M106 S0
G0 X40.0 Y8.569 F6000
M106 S255
G1 X40.0 Y8.569 F160
M106 S0
M106 S255
G1 X53.931 Y22.5 F160
M106 S0
G0 X92.5 Y65.559 F6000
M106 S255
G1 X92.5 Y65.559 F160
M106 S0
M106 S255
G1 X101.941 Y75.0 F160
M106 S0
G0 X75.0 Y48.059 F6000
M106 S255
G1 X75.0 Y48.059 F160
M106 S0
M106 S255
G1 X84.441 Y57.5 F160
M106 S0
G0 X110.0 Y83.059 F6000
M106 S255
G1 X110.0 Y83.059 F160
M106 S0
M106 S255
G1 X119.441 Y92.5 F160
M106 S0
G0 X57.5 Y30.559 F6000
M106 S255
G1 X57.5 Y30.559 F160
M106 S0
M106 S255
G1 X66.941 Y40.0 F160
M106 S0
G0 X127.5 Y100.559 F6000
M106 S255
G1 X127.5 Y100.559 F160
M106 S0
M106 S255
G1 X136.941 Y110.0 F160
M106 S0
G0 X40.0 Y13.059 F6000
M106 S255
G1 X40.0 Y13.059 F160
M106 S0
M106 S255
G1 X49.441 Y22.5 F160
M106 S0
G0 X92.5 Y70.049 F6000
M106 S255
G1 X92.5 Y70.049 F160
M106 S0
M106 S255
G1 X97.451 Y75.0 F160
M106 S0
G0 X75.0 Y52.549 F6000
M106 S255
G1 X75.0 Y52.549 F160
M106 S0
M106 S255
G1 X79.951 Y57.5 F160
M106 S0
G0 X110.0 Y87.549 F6000
M106 S255
G1 X110.0 Y87.549 F160
M106 S0
M106 S255
G1 X114.951 Y92.5 F160
M106 S0
G0 X57.5 Y35.049 F6000
M106 S255
G1 X57.5 Y35.049 F160
M106 S0
M106 S255
G1 X62.451 Y40.0 F160
M106 S0
G0 X127.5 Y105.049 F6000
M106 S255
G1 X127.5 Y105.049 F160
M106 S0
M106 S255
G1 X132.451 Y110.0 F160
M106 S0
G0 X40.0 Y17.549 F6000
M106 S255
G1 X40.0 Y17.549 F160
M106 S0
M106 S255
G1 X44.951 Y22.5 F160
M106 S0
G0 X92.5 Y74.539 F6000
M106 S255
G1 X92.5 Y74.539 F160
M106 S0
M106 S255
G1 X92.961 Y75.0 F160
M106 S0
G0 X75.0 Y57.039 F6000
M106 S255
G1 X75.0 Y57.039 F160
M106 S0
M106 S255
G1 X75.461 Y57.5 F160
M106 S0
G0 X110.0 Y92.039 F6000
M106 S255
G1 X110.0 Y92.039 F160
M106 S0
M106 S255
G1 X110.461 Y92.5 F160
M106 S0
G0 X57.5 Y39.539 F6000
M106 S255
G1 X57.5 Y39.539 F160
M106 S0
M106 S255
G1 X57.961 Y40.0 F160
M106 S0
G0 X127.5 Y109.539 F6000
M106 S255
G1 X127.5 Y109.539 F160
M106 S0
M106 S255
G1 X127.961 Y110.0 F160
M106 S0
G0 X40.0 Y22.039 F6000
M106 S255
G1 X40.0 Y22.039 F160
M106 S0
M106 S255
G1 X40.461 Y22.5 F160
M106 S0
G0 X88.47 Y75.0 F6000
M106 S255
G1 X88.47 Y75.0 F160
M106 S0
M106 S255
G1 X92.5 Y79.03 F160
M106 S0
G0 X70.97 Y57.5 F6000
M106 S255
G1 X70.97 Y57.5 F160
M106 S0
M106 S255
G1 X75.0 Y61.53 F160
M106 S0
G0 X105.97 Y92.5 F6000
M106 S255
G1 X105.97 Y92.5 F160
M106 S0
M106 S255
G1 X110.0 Y96.53 F160
M106 S0
G0 X53.47 Y40.0 F6000
M106 S255
G1 X53.47 Y40.0 F160
M106 S0
M106 S255
G1 X57.5 Y44.03 F160
M106 S0
G0 X123.47 Y110.0 F6000
M106 S255
G1 X123.47 Y110.0 F160
M106 S0
M106 S255
G1 X127.5 Y114.03 F160
M106 S0
G0 X35.97 Y22.5 F6000
M106 S255
G1 X35.97 Y22.5 F160
M106 S0
M106 S255
G1 X40.0 Y26.53 F160
M106 S0
G0 X140.97 Y127.5 F6000
M106 S255
G1 X140.97 Y127.5 F160
M106 S0
M106 S255
G1 X145.0 Y131.53 F160
M106 S0
G0 X18.47 Y5.0 F6000
M106 S255
G1 X18.47 Y5.0 F160
M106 S0
M106 S255
G1 X22.5 Y9.03 F160
M106 S0
G0 X83.98 Y75.0 F6000
M106 S255
G1 X83.98 Y75.0 F160
M106 S0
M106 S255
G1 X92.5 Y83.52 F160
M106 S0
G0 X66.48 Y57.5 F6000
M106 S255
G1 X66.48 Y57.5 F160
M106 S0
M106 S255
G1 X75.0 Y66.02 F160
M106 S0
G0 X101.48 Y92.5 F6000
M106 S255
G1 X101.48 Y92.5 F160
M106 S0
M106 S255
G1 X110.0 Y101.02 F160
M106 S0
G0 X48.98 Y40.0 F6000
M106 S255
G1 X48.98 Y40.0 F160
M106 S0
M106 S255
G1 X57.5 Y48.52 F160
M106 S0
G0 X118.98 Y110.0 F6000
M106 S255
G1 X118.98 Y110.0 F160
M106 S0
M106 S255
G1 X127.5 Y118.52 F160
M106 S0
G0 X31.48 Y22.5 F6000
M106 S255
G1 X31.48 Y22.5 F160
M106 S0
M106 S255
G1 X40.0 Y31.02 F160
M106 S0
G0 X136.48 Y127.5 F6000
M106 S255
G1 X136.48 Y127.5 F160
M106 S0
M106 S255
G1 X145.0 Y136.02 F160
M106 S0
G0 X13.98 Y5.0 F6000
M106 S255
G1 X13.98 Y5.0 F160
M106 S0
M106 S255
G1 X22.5 Y13.52 F160
M106 S0
G0 X79.49 Y75.0 F6000
M106 S255
G1 X79.49 Y75.0 F160
M106 S0
M106 S255
G1 X92.5 Y88.01 F160
M106 S0
G0 X61.99 Y57.5 F6000
M106 S255
G1 X61.99 Y57.5 F160
M106 S0
M106 S255
G1 X75.0 Y70.51 F160
M106 S0
G0 X96.99 Y92.5 F6000
M106 S255
G1 X96.99 Y92.5 F160
M106 S0
M106 S255
G1 X110.0 Y105.51 F160
M106 S0
G0 X44.49 Y40.0 F6000
M106 S255
G1 X44.49 Y40.0 F160
M106 S0
M106 S255
G1 X57.5 Y53.01 F160
M106 S0
G0 X114.49 Y110.0 F6000
M106 S255
G1 X114.49 Y110.0 F160
M106 S0
M106 S255
G1 X127.5 Y123.01 F160
M106 S0
G0 X26.99 Y22.5 F6000
M106 S255
G1 X26.99 Y22.5 F160
M106 S0
M106 S255
G1 X40.0 Y35.51 F160
M106 S0
G0 X131.99 Y127.5 F6000
M106 S255
G1 X131.99 Y127.5 F160
M106 S0
M106 S255
G1 X145.0 Y140.51 F160
M106 S0
G0 X9.49 Y5.0 F6000
M106 S255
G1 X9.49 Y5.0 F160
M106 S0
M106 S255
G1 X22.5 Y18.01 F160
M106 S0
G0 X75.0 Y75.0 F6000
M106 S255
G1 X75.0 Y75.0 F160
M106 S0
M106 S255
G1 X92.5 Y92.5 F160
M106 S0
G0 X57.5 Y57.5 F6000
M106 S255
G1 X57.5 Y57.5 F160
M106 S0
M106 S255
G1 X75.0 Y75.0 F160
M106 S0
G0 X92.5 Y92.5 F6000
M106 S255
G1 X92.5 Y92.5 F160
M106 S0
M106 S255
G1 X110.0 Y110.0 F160
M106 S0
G0 X40.0 Y40.0 F6000
M106 S255
G1 X40.0 Y40.0 F160
M106 S0
M106 S255
G1 X57.5 Y57.5 F160
M106 S0
G0 X110.0 Y110.0 F6000
M106 S255
G1 X110.0 Y110.0 F160
M106 S0
M106 S255
G1 X127.5 Y127.5 F160
M106 S0
G0 X22.5 Y22.5 F6000
M106 S255
G1 X22.5 Y22.5 F160
M106 S0
M106 S255
G1 X40.0 Y40.0 F160
M106 S0
G0 X127.5 Y127.5 F6000
M106 S255
G1 X127.5 Y127.5 F160
M106 S0
M106 S255
G1 X145.0 Y145.0 F160
M106 S0
G0 X5.0 Y5.0 F6000
M106 S255
G1 X5.0 Y5.0 F160
M106 S0
M106 S255
G1 X22.5 Y22.5 F160
M106 S0
G0 X75.0 Y79.49 F6000
M106 S255
G1 X75.0 Y79.49 F160
M106 S0
M106 S255
G1 X88.01 Y92.5 F160
M106 S0
G0 X57.5 Y61.99 F6000
M106 S255
G1 X57.5 Y61.99 F160
M106 S0
M106 S255
G1 X70.51 Y75.0 F160
M106 S0
G0 X92.5 Y96.99 F6000
M106 S255
G1 X92.5 Y96.99 F160
M106 S0
M106 S255
G1 X105.51 Y110.0 F160
M106 S0
G0 X40.0 Y44.49 F6000
M106 S255
G1 X40.0 Y44.49 F160
M106 S0
M106 S255
G1 X53.01 Y57.5 F160
M106 S0
G0 X110.0 Y114.49 F6000
M106 S255
G1 X110.0 Y114.49 F160
M106 S0
M106 S255
G1 X123.01 Y127.5 F160
M106 S0
G0 X22.5 Y26.99 F6000
M106 S255
G1 X22.5 Y26.99 F160
M106 S0
M106 S255
G1 X35.51 Y40.0 F160
M106 S0
G0 X127.5 Y131.99 F6000
M106 S255
G1 X127.5 Y131.99 F160
M106 S0
M106 S255
G1 X140.51 Y145.0 F160
M106 S0
G0 X5.0 Y9.49 F6000
M106 S255
G1 X5.0 Y9.49 F160
M106 S0
M106 S255
G1 X18.01 Y22.5 F160
M106 S0
G0 X75.0 Y83.98 F6000
M106 S255
G1 X75.0 Y83.98 F160
M106 S0
M106 S255
G1 X83.52 Y92.5 F160
M106 S0
G0 X57.5 Y66.48 F6000
M106 S255
G1 X57.5 Y66.48 F160
M106 S0
M106 S255
G1 X66.02 Y75.0 F160
M106 S0
G0 X92.5 Y101.48 F6000
M106 S255
G1 X92.5 Y101.48 F160
M106 S0
M106 S255
G1 X101.02 Y110.0 F160
M106 S0
G0 X40.0 Y48.98 F6000
M106 S255
G1 X40.0 Y48.98 F160
M106 S0
M106 S255
G1 X48.52 Y57.5 F160
M106 S0
G0 X110.0 Y118.98 F6000
M106 S255
G1 X110.0 Y118.98 F160
M106 S0
M106 S255
G1 X118.52 Y127.5 F160
M106 S0
G0 X22.5 Y31.48 F6000
M106 S255
G1 X22.5 Y31.48 F160
M106 S0
M106 S255
G1 X31.02 Y40.0 F160
M106 S0
G0 X127.5 Y136.48 F6000
M106 S255
G1 X127.5 Y136.48 F160
M106 S0
M106 S255
G1 X136.02 Y145.0 F160
M106 S0
G0 X5.0 Y13.98 F6000
M106 S255
G1 X5.0 Y13.98 F160
M106 S0
M106 S255
G1 X13.52 Y22.5 F160
M106 S0
G0 X75.0 Y88.47 F6000
M106 S255
G1 X75.0 Y88.47 F160
M106 S0
M106 S255
G1 X79.03 Y92.5 F160
M106 S0
G0 X57.5 Y70.97 F6000
M106 S255
G1 X57.5 Y70.97 F160
M106 S0
M106 S255
G1 X61.53 Y75.0 F160
M106 S0
G0 X92.5 Y105.97 F6000
M106 S255
G1 X92.5 Y105.97 F160
M106 S0
M106 S255
G1 X96.53 Y110.0 F160
M106 S0
G0 X40.0 Y53.47 F6000
M106 S255
G1 X40.0 Y53.47 F160
M106 S0
M106 S255
G1 X44.03 Y57.5 F160
M106 S0
G0 X110.0 Y123.47 F6000
M106 S255
G1 X110.0 Y123.47 F160
M106 S0
M106 S255
G1 X114.03 Y127.5 F160
M106 S0
G0 X22.5 Y35.97 F6000
M106 S255
G1 X22.5 Y35.97 F160
M106 S0
M106 S255
G1 X26.53 Y40.0 F160
M106 S0
G0 X127.5 Y140.97 F6000
M106 S255
G1 X127.5 Y140.97 F160
M106 S0
M106 S255
G1 X131.53 Y145.0 F160
M106 S0
G0 X5.0 Y18.47 F6000
M106 S255
G1 X5.0 Y18.47 F160
M106 S0
M106 S255
G1 X9.03 Y22.5 F160
M106 S0
G0 X74.539 Y92.5 F6000
M106 S255
G1 X74.539 Y92.5 F160
M106 S0
M106 S255
G1 X75.0 Y92.961 F160
M106 S0
G0 X57.039 Y75.0 F6000
M106 S255
G1 X57.039 Y75.0 F160
M106 S0
M106 S255
G1 X57.5 Y75.461 F160
M106 S0
G0 X92.039 Y110.0 F6000
M106 S255
G1 X92.039 Y110.0 F160
M106 S0
M106 S255
G1 X92.5 Y110.461 F160
M106 S0
G0 X39.539 Y57.5 F6000
M106 S255
G1 X39.539 Y57.5 F160
M106 S0
M106 S255
G1 X40.0 Y57.961 F160
M106 S0
G0 X109.539 Y127.5 F6000
M106 S255
G1 X109.539 Y127.5 F160
M106 S0
M106 S255
G1 X110.0 Y127.961 F160
M106 S0
G0 X22.039 Y40.0 F6000
M106 S255
G1 X22.039 Y40.0 F160
M106 S0
M106 S255
G1 X22.5 Y40.461 F160
M106 S0
G0 X70.049 Y92.5 F6000
M106 S255
G1 X70.049 Y92.5 F160
M106 S0
M106 S255
G1 X75.0 Y97.451 F160
M106 S0
G0 X52.549 Y75.0 F6000
M106 S255
G1 X52.549 Y75.0 F160
M106 S0
M106 S255
G1 X57.5 Y79.951 F160
M106 S0
G0 X87.549 Y110.0 F6000
M106 S255
G1 X87.549 Y110.0 F160
M106 S0
M106 S255
G1 X92.5 Y114.951 F160
M106 S0
G0 X35.049 Y57.5 F6000
M106 S255
G1 X35.049 Y57.5 F160
M106 S0
M106 S255
G1 X40.0 Y62.451 F160
M106 S0
G0 X105.049 Y127.5 F6000
M106 S255
G1 X105.049 Y127.5 F160
M106 S0
M106 S255
G1 X110.0 Y132.451 F160
M106 S0
G0 X17.549 Y40.0 F6000
M106 S255
G1 X17.549 Y40.0 F160
M106 S0
M106 S255
G1 X22.5 Y44.951 F160
M106 S0
G0 X65.559 Y92.5 F6000
M106 S255
G1 X65.559 Y92.5 F160
M106 S0
M106 S255
G1 X75.0 Y101.941 F160
M106 S0
G0 X48.059 Y75.0 F6000
M106 S255
G1 X48.059 Y75.0 F160
M106 S0
M106 S255
G1 X57.5 Y84.441 F160
M106 S0
G0 X83.059 Y110.0 F6000
M106 S255
G1 X83.059 Y110.0 F160
M106 S0
M106 S255
G1 X92.5 Y119.441 F160
M106 S0
G0 X30.559 Y57.5 F6000
M106 S255
G1 X30.559 Y57.5 F160
M106 S0
M106 S255
G1 X40.0 Y66.941 F160
M106 S0
G0 X100.559 Y127.5 F6000
M106 S255
G1 X100.559 Y127.5 F160
M106 S0
M106 S255
G1 X110.0 Y136.941 F160
M106 S0
G0 X13.059 Y40.0 F6000
M106 S255
G1 X13.059 Y40.0 F160
M106 S0
M106 S255
G1 X22.5 Y49.441 F160
M106 S0
G0 X61.069 Y92.5 F6000
M106 S255
G1 X61.069 Y92.5 F160
M106 S0
M106 S255
G1 X75.0 Y106.431 F160
M106 S0
G0 X43.569 Y75.0 F6000
M106 S255
G1 X43.569 Y75.0 F160
M106 S0
M106 S255
G1 X57.5 Y88.931 F160
M106 S0
G0 X78.569 Y110.0 F6000
M106 S255
G1 X78.569 Y110.0 F160
M106 S0
M106 S255
G1 X92.5 Y123.931 F160
M106 S0
G0 X26.069 Y57.5 F6000
M106 S255
G1 X26.069 Y57.5 F160
M106 S0
M106 S255
G1 X40.0 Y71.431 F160
M106 S0
G0 X96.069 Y127.5 F6000
M106 S255
G1 X96.069 Y127.5 F160
M106 S0
M106 S255
G1 X110.0 Y141.431 F160
M106 S0
G0 X8.569 Y40.0 F6000
M106 S255
G1 X8.569 Y40.0 F160
M106 S0
M106 S255
G1 X22.5 Y53.931 F160
M106 S0
G0 X57.5 Y93.421 F6000
M106 S255
G1 X57.5 Y93.421 F160
M106 S0
M106 S255
G1 X74.079 Y110.0 F160
M106 S0
G0 X40.0 Y75.921 F6000
M106 S255
G1 X40.0 Y75.921 F160
M106 S0
M106 S255
G1 X56.579 Y92.5 F160
M106 S0
G0 X75.0 Y110.921 F6000
M106 S255
G1 X75.0 Y110.921 F160
M106 S0
M106 S255
G1 X91.579 Y127.5 F160
M106 S0
G0 X22.5 Y58.421 F6000
M106 S255
G1 X22.5 Y58.421 F160
M106 S0
M106 S255
G1 X39.079 Y75.0 F160
M106 S0
G0 X92.5 Y128.421 F6000
M106 S255
G1 X92.5 Y128.421 F160
M106 S0
M106 S255
G1 X109.079 Y145.0 F160
M106 S0
G0 X5.0 Y40.921 F6000
M106 S255
G1 X5.0 Y40.921 F160
M106 S0
M106 S255
G1 X21.579 Y57.5 F160
M106 S0
G0 X57.5 Y97.911 F6000
M106 S255
G1 X57.5 Y97.911 F160
M106 S0
M106 S255
G1 X69.589 Y110.0 F160
M106 S0
G0 X40.0 Y80.411 F6000
M106 S255
G1 X40.0 Y80.411 F160
M106 S0
M106 S255
G1 X52.089 Y92.5 F160
M106 S0
G0 X75.0 Y115.411 F6000
M106 S255
G1 X75.0 Y115.411 F160
M106 S0
M106 S255
G1 X87.089 Y127.5 F160
M106 S0
G0 X22.5 Y62.911 F6000
M106 S255
G1 X22.5 Y62.911 F160
M106 S0
M106 S255
G1 X34.589 Y75.0 F160
M106 S0
G0 X92.5 Y132.911 F6000
M106 S255
G1 X92.5 Y132.911 F160
M106 S0
M106 S255
G1 X104.589 Y145.0 F160
M106 S0
G0 X5.0 Y45.411 F6000
M106 S255
G1 X5.0 Y45.411 F160
M106 S0
M106 S255
G1 X17.089 Y57.5 F160
M106 S0
G0 X57.5 Y102.401 F6000
M106 S255
G1 X57.5 Y102.401 F160
M106 S0
M106 S255
G1 X65.099 Y110.0 F160
M106 S0
G0 X40.0 Y84.901 F6000
M106 S255
G1 X40.0 Y84.901 F160
M106 S0
M106 S255
G1 X47.599 Y92.5 F160
M106 S0
G0 X75.0 Y119.901 F6000
M106 S255
G1 X75.0 Y119.901 F160
M106 S0
M106 S255
G1 X82.599 Y127.5 F160
M106 S0
G0 X22.5 Y67.401 F6000
M106 S255
G1 X22.5 Y67.401 F160
M106 S0
M106 S255
G1 X30.099 Y75.0 F160
M106 S0
G0 X92.5 Y137.401 F6000
M106 S255
G1 X92.5 Y137.401 F160
M106 S0
M106 S255
G1 X100.099 Y145.0 F160
M106 S0
G0 X5.0 Y49.901 F6000
M106 S255
G1 X5.0 Y49.901 F160
M106 S0
M106 S255
G1 X12.599 Y57.5 F160
M106 S0
G0 X57.5 Y106.891 F6000
M106 S255
G1 X57.5 Y106.891 F160
M106 S0
M106 S255
G1 X60.609 Y110.0 F160
M106 S0
G0 X40.0 Y89.391 F6000
M106 S255
G1 X40.0 Y89.391 F160
M106 S0
M106 S255
G1 X43.109 Y92.5 F160
M106 S0
G0 X75.0 Y124.391 F6000
M106 S255
G1 X75.0 Y124.391 F160
M106 S0
M106 S255
G1 X78.109 Y127.5 F160
M106 S0
G0 X22.5 Y71.891 F6000
M106 S255
G1 X22.5 Y71.891 F160
M106 S0
M106 S255
G1 X25.609 Y75.0 F160
M106 S0
G0 X92.5 Y141.891 F6000
M106 S255
G1 X92.5 Y141.891 F160
M106 S0
M106 S255
G1 X95.609 Y145.0 F160
M106 S0
G0 X5.0 Y54.391 F6000
M106 S255
G1 X5.0 Y54.391 F160
M106 S0
M106 S255
G1 X8.109 Y57.5 F160
M106 S0
G0 X56.118 Y110.0 F6000
M106 S255
G1 X56.118 Y110.0 F160
M106 S0
M106 S255
G1 X57.5 Y111.382 F160
M106 S0
G0 X38.618 Y92.5 F6000
M106 S255
G1 X38.618 Y92.5 F160
M106 S0
M106 S255
G1 X40.0 Y93.882 F160
M106 S0
G0 X73.618 Y127.5 F6000
M106 S255
G1 X73.618 Y127.5 F160
M106 S0
M106 S255
G1 X75.0 Y128.882 F160
M106 S0
G0 X21.118 Y75.0 F6000
M106 S255
G1 X21.118 Y75.0 F160
M106 S0
M106 S255
G1 X22.5 Y76.382 F160
M106 S0
G0 X51.628 Y110.0 F6000
M106 S255
G1 X51.628 Y110.0 F160
M106 S0
M106 S255
G1 X57.5 Y115.872 F160
M106 S0
G0 X34.128 Y92.5 F6000
M106 S255
G1 X34.128 Y92.5 F160
M106 S0
M106 S255
G1 X40.0 Y98.372 F160
M106 S0
G0 X69.128 Y127.5 F6000
M106 S255
G1 X69.128 Y127.5 F160
M106 S0
M106 S255
G1 X75.0 Y133.372 F160
M106 S0
G0 X16.628 Y75.0 F6000
M106 S255
G1 X16.628 Y75.0 F160
M106 S0
M106 S255
G1 X22.5 Y80.872 F160
M106 S0
G0 X47.138 Y110.0 F6000
M106 S255
G1 X47.138 Y110.0 F160
M106 S0
M106 S255
G1 X57.5 Y120.362 F160
M106 S0
G0 X29.638 Y92.5 F6000
M106 S255
G1 X29.638 Y92.5 F160
M106 S0
M106 S255
G1 X40.0 Y102.862 F160
M106 S0
G0 X64.638 Y127.5 F6000
M106 S255
G1 X64.638 Y127.5 F160
M106 S0
M106 S255
G1 X75.0 Y137.862 F160
M106 S0
G0 X12.138 Y75.0 F6000
M106 S255
G1 X12.138 Y75.0 F160
M106 S0
M106 S255
G1 X22.5 Y85.362 F160
M106 S0
G0 X42.648 Y110.0 F6000
M106 S255
G1 X42.648 Y110.0 F160
M106 S0
M106 S255
G1 X57.5 Y124.852 F160
M106 S0
G0 X25.148 Y92.5 F6000
M106 S255
G1 X25.148 Y92.5 F160
M106 S0
M106 S255
G1 X40.0 Y107.352 F160
M106 S0
G0 X60.148 Y127.5 F6000
M106 S255
G1 X60.148 Y127.5 F160
M106 S0
M106 S255
G1 X75.0 Y142.352 F160
M106 S0
G0 X7.648 Y75.0 F6000
M106 S255
G1 X7.648 Y75.0 F160
M106 S0
M106 S255
G1 X22.5 Y89.852 F160
M106 S0
G0 X40.0 Y111.842 F6000
M106 S255
G1 X40.0 Y111.842 F160
M106 S0
M106 S255
G1 X55.658 Y127.5 F160
M106 S0
G0 X22.5 Y94.342 F6000
M106 S255
G1 X22.5 Y94.342 F160
M106 S0
M106 S255
G1 X38.158 Y110.0 F160
M106 S0
G0 X57.5 Y129.342 F6000
M106 S255
G1 X57.5 Y129.342 F160
M106 S0
M106 S255
G1 X73.158 Y145.0 F160
M106 S0
G0 X5.0 Y76.842 F6000
M106 S255
G1 X5.0 Y76.842 F160
M106 S0
M106 S255
G1 X20.658 Y92.5 F160
M106 S0
G0 X40.0 Y116.332 F6000
M106 S255
G1 X40.0 Y116.332 F160
M106 S0
M106 S255
G1 X51.168 Y127.5 F160
M106 S0
G0 X22.5 Y98.832 F6000
M106 S255
G1 X22.5 Y98.832 F160
M106 S0
M106 S255
G1 X33.668 Y110.0 F160
M106 S0
G0 X57.5 Y133.832 F6000
M106 S255
G1 X57.5 Y133.832 F160
M106 S0
M106 S255
G1 X68.668 Y145.0 F160
M106 S0
G0 X5.0 Y81.332 F6000
M106 S255
G1 X5.0 Y81.332 F160
M106 S0
M106 S255
G1 X16.168 Y92.5 F160
M106 S0
G0 X40.0 Y120.822 F6000
M106 S255
G1 X40.0 Y120.822 F160
M106 S0
M106 S255
G1 X46.678 Y127.5 F160
M106 S0
G0 X22.5 Y103.322 F6000
M106 S255
G1 X22.5 Y103.322 F160
M106 S0
M106 S255
G1 X29.178 Y110.0 F160
M106 S0
G0 X57.5 Y138.322 F6000
M106 S255
G1 X57.5 Y138.322 F160
M106 S0
M106 S255
G1 X64.178 Y145.0 F160
M106 S0
G0 X5.0 Y85.822 F6000
M106 S255
G1 X5.0 Y85.822 F160
M106 S0
M106 S255
G1 X11.678 Y92.5 F160
M106 S0
G0 X40.0 Y125.312 F6000
M106 S255
G1 X40.0 Y125.312 F160
M106 S0
M106 S255
G1 X42.188 Y127.5 F160
M106 S0
G0 X22.5 Y107.812 F6000
M106 S255
G1 X22.5 Y107.812 F160
M106 S0
M106 S255
G1 X24.688 Y110.0 F160
M106 S0
G0 X57.5 Y142.812 F6000
M106 S255
G1 X57.5 Y142.812 F160
M106 S0
M106 S255
G1 X59.688 Y145.0 F160
M106 S0
G0 X5.0 Y90.312 F6000
M106 S255
G1 X5.0 Y90.312 F160
M106 S0
M106 S255
G1 X7.188 Y92.5 F160
M106 S0
G0 X37.697 Y127.5 F6000
M106 S255
G1 X37.697 Y127.5 F160
M106 S0
M106 S255
G1 X40.0 Y129.803 F160
M106 S0
G0 X20.197 Y110.0 F6000
M106 S255
G1 X20.197 Y110.0 F160
M106 S0
M106 S255
G1 X22.5 Y112.303 F160
M106 S0
G0 X33.207 Y127.5 F6000
M106 S255
G1 X33.207 Y127.5 F160
M106 S0
M106 S255
G1 X40.0 Y134.293 F160
M106 S0
G0 X15.707 Y110.0 F6000
M106 S255
G1 X15.707 Y110.0 F160
M106 S0
M106 S255
G1 X22.5 Y116.793 F160
M106 S0
G0 X28.717 Y127.5 F6000
M106 S255
G1 X28.717 Y127.5 F160
M106 S0
M106 S255
G1 X40.0 Y138.783 F160
M106 S0
G0 X11.217 Y110.0 F6000
M106 S255
G1 X11.217 Y110.0 F160
M106 S0
M106 S255
G1 X22.5 Y121.283 F160
M106 S0
G0 X24.227 Y127.5 F6000
M106 S255
G1 X24.227 Y127.5 F160
M106 S0
M106 S255
G1 X40.0 Y143.273 F160
M106 S0
G0 X6.727 Y110.0 F6000
M106 S255
G1 X6.727 Y110.0 F160
M106 S0
M106 S255
G1 X22.5 Y125.773 F160
M106 S0
G0 X22.5 Y130.263 F6000
M106 S255
G1 X22.5 Y130.263 F160
M106 S0
M106 S255
G1 X37.237 Y145.0 F160
M106 S0
G0 X5.0 Y112.763 F6000
M106 S255
G1 X5.0 Y112.763 F160
M106 S0
M106 S255
G1 X19.737 Y127.5 F160
M106 S0
G0 X22.5 Y134.753 F6000
M106 S255
G1 X22.5 Y134.753 F160
M106 S0
M106 S255
G1 X32.747 Y145.0 F160
M106 S0
G0 X5.0 Y117.253 F6000
M106 S255
G1 X5.0 Y117.253 F160
M106 S0
M106 S255
G1 X15.247 Y127.5 F160
M106 S0
G0 X22.5 Y139.243 F6000
M106 S255
G1 X22.5 Y139.243 F160
M106 S0
M106 S255
G1 X28.257 Y145.0 F160
M106 S0
G0 X5.0 Y121.743 F6000
M106 S255
G1 X5.0 Y121.743 F160
M106 S0
M106 S255
G1 X10.757 Y127.5 F160
M106 S0
G0 X22.5 Y143.733 F6000
M106 S255
G1 X22.5 Y143.733 F160
M106 S0
M106 S255
G1 X23.767 Y145.0 F160
M106 S0
G0 X5.0 Y126.233 F6000
M106 S255
G1 X5.0 Y126.233 F160
M106 S0
M106 S255
G1 X6.267 Y127.5 F160
M106 S0
M106 S0
