;GCode generated by Numa's program v0.0
G0 X13.543 Y15.534 F6000
M106 S255
G1 X13.543 Y15.534 F400
M106 S0
M106 S255
G1 X13.784 Y15.253 F400
M106 S0
M106 S255
G1 X14.055 Y15.008 F400
M106 S0
M106 S255
G1 X14.655 Y14.595 F400
M106 S0
M106 S255
G1 X15.185 Y14.297 F400
M106 S0
M106 S255
G1 X15.73 Y14.028 F400
M106 S0
M106 S255
G1 X16.86 Y13.569 F400
M106 S0
M106 S255
G1 X17.897 Y13.214 F400
M106 S0
M106 S255
G1 X18.392 Y12.988 F400
M106 S0
M106 S255
G1 X18.846 Y12.681 F400
M106 S0
M106 S255
G1 X19.37 Y12.287 F400
M106 S0
M106 S255
G1 X19.594 Y12.051 F400
M106 S0
M106 S255
G1 X19.679 Y11.907 F400
M106 S0
M106 S255
G1 X19.739 Y11.741 F400
M106 S0
G0 X13.543 Y15.534 F6000
M106 S255
G1 X13.543 Y15.534 F400
M106 S0
M106 S255
G1 X13.784 Y15.253 F400
M106 S0
M106 S255
G1 X14.055 Y15.008 F400
M106 S0
M106 S255
G1 X14.655 Y14.595 F400
M106 S0
M106 S255
G1 X15.185 Y14.297 F400
M106 S0
M106 S255
G1 X15.73 Y14.028 F400
M106 S0
M106 S255
G1 X16.86 Y13.569 F400
M106 S0
M106 S255
G1 X17.897 Y13.214 F400
M106 S0
M106 S255
G1 X18.392 Y12.988 F400
M106 S0
M106 S255
G1 X18.846 Y12.681 F400
M106 S0
M106 S255
G1 X19.37 Y12.287 F400
M106 S0
M106 S255
G1 X19.594 Y12.051 F400
M106 S0
M106 S255
G1 X19.679 Y11.907 F400
M106 S0
M106 S255
G1 X19.739 Y11.741 F400
M106 S0
G0 X13.543 Y15.534 F6000
M106 S255
G1 X13.543 Y15.534 F400
M106 S0
M106 S255
G1 X13.784 Y15.253 F400
M106 S0
M106 S255
G1 X14.055 Y15.008 F400
M106 S0
M106 S255
G1 X14.655 Y14.595 F400
M106 S0
M106 S255
G1 X15.185 Y14.297 F400
M106 S0
M106 S255
G1 X15.73 Y14.028 F400
M106 S0
M106 S255
G1 X16.86 Y13.569 F400
M106 S0
M106 S255
G1 X17.897 Y13.214 F400
M106 S0
M106 S255
G1 X18.392 Y12.988 F400
M106 S0
M106 S255
G1 X18.846 Y12.681 F400
M106 S0
M106 S255
G1 X19.37 Y12.287 F400
M106 S0
M106 S255
G1 X19.594 Y12.051 F400
M106 S0
M106 S255
G1 X19.679 Y11.907 F400
M106 S0
M106 S255
G1 X19.739 Y11.741 F400
M106 S0
G0 X49.168 Y15.882 F6000
M106 S255
G1 X49.168 Y15.882 F400
M106 S0
M106 S255
G1 X49.077 Y15.6 F400
M106 S0
M106 S255
G1 X49.019 Y15.467 F400
M106 S0
M106 S255
G1 X48.93 Y15.243 F400
M106 S0
M106 S255
G1 X48.96 Y15.03 F400
M106 S0
M106 S255
G1 X49.093 Y14.845 F400
M106 S0
M106 S255
G1 X49.286 Y14.658 F400
M106 S0
M106 S255
G1 X49.389 Y14.463 F400
M106 S0
M106 S255
G1 X49.381 Y14.24 F400
M106 S0
M106 S255
G1 X49.338 Y14.108 F400
M106 S0
M106 S255
G1 X49.307 Y14.03 F400
M106 S0
M106 S255
G1 X49.201 Y13.788 F400
M106 S0
M106 S255
G1 X49.108 Y13.66 F400
M106 S0
M106 S255
G1 X49.013 Y13.459 F400
M106 S0
M106 S255
G1 X49.015 Y13.25 F400
M106 S0
M106 S255
G1 X49.104 Y13.037 F400
M106 S0
G0 X49.168 Y15.882 F6000
M106 S255
G1 X49.168 Y15.882 F400
M106 S0
M106 S255
G1 X49.077 Y15.6 F400
M106 S0
M106 S255
G1 X49.019 Y15.467 F400
M106 S0
M106 S255
G1 X48.93 Y15.243 F400
M106 S0
M106 S255
G1 X48.96 Y15.03 F400
M106 S0
M106 S255
G1 X49.093 Y14.845 F400
M106 S0
M106 S255
G1 X49.286 Y14.658 F400
M106 S0
M106 S255
G1 X49.389 Y14.463 F400
M106 S0
M106 S255
G1 X49.381 Y14.24 F400
M106 S0
M106 S255
G1 X49.338 Y14.108 F400
M106 S0
M106 S255
G1 X49.307 Y14.03 F400
M106 S0
M106 S255
G1 X49.201 Y13.788 F400
M106 S0
M106 S255
G1 X49.108 Y13.66 F400
M106 S0
M106 S255
G1 X49.013 Y13.459 F400
M106 S0
M106 S255
G1 X49.015 Y13.25 F400
M106 S0
M106 S255
G1 X49.104 Y13.037 F400
M106 S0
G0 X49.168 Y15.882 F6000
M106 S255
G1 X49.168 Y15.882 F400
M106 S0
M106 S255
G1 X49.077 Y15.6 F400
M106 S0
M106 S255
G1 X49.019 Y15.467 F400
M106 S0
M106 S255
G1 X48.93 Y15.243 F400
M106 S0
M106 S255
G1 X48.96 Y15.03 F400
M106 S0
M106 S255
G1 X49.093 Y14.845 F400
M106 S0
M106 S255
G1 X49.286 Y14.658 F400
M106 S0
M106 S255
G1 X49.389 Y14.463 F400
M106 S0
M106 S255
G1 X49.381 Y14.24 F400
M106 S0
M106 S255
G1 X49.338 Y14.108 F400
M106 S0
M106 S255
G1 X49.307 Y14.03 F400
M106 S0
M106 S255
G1 X49.201 Y13.788 F400
M106 S0
M106 S255
G1 X49.108 Y13.66 F400
M106 S0
M106 S255
G1 X49.013 Y13.459 F400
M106 S0
M106 S255
G1 X49.015 Y13.25 F400
M106 S0
M106 S255
G1 X49.104 Y13.037 F400
M106 S0
G0 X53.245 Y15.534 F6000
M106 S255
G1 X53.245 Y15.534 F400
M106 S0
M106 S255
G1 X51.841 Y14.959 F400
M106 S0
M106 S255
G1 X51.512 Y14.763 F400
M106 S0
M106 S255
G1 X51.38 Y14.669 F400
M106 S0
M106 S255
G1 X51.302 Y14.61 F400
M106 S0
M106 S255
G1 X51.0 Y14.365 F400
M106 S0
M106 S255
G1 X50.696 Y14.123 F400
M106 S0
M106 S255
G1 X50.451 Y13.93 F400
M106 S0
M106 S255
G1 X50.302 Y13.715 F400
M106 S0
M106 S255
G1 X50.242 Y13.448 F400
M106 S0
G0 X53.245 Y15.534 F6000
M106 S255
G1 X53.245 Y15.534 F400
M106 S0
M106 S255
G1 X51.841 Y14.959 F400
M106 S0
M106 S255
G1 X51.512 Y14.763 F400
M106 S0
M106 S255
G1 X51.38 Y14.669 F400
M106 S0
M106 S255
G1 X51.302 Y14.61 F400
M106 S0
M106 S255
G1 X51.0 Y14.365 F400
M106 S0
M106 S255
G1 X50.696 Y14.123 F400
M106 S0
M106 S255
G1 X50.451 Y13.93 F400
M106 S0
M106 S255
G1 X50.302 Y13.715 F400
M106 S0
M106 S255
G1 X50.242 Y13.448 F400
M106 S0
G0 X53.245 Y15.534 F6000
M106 S255
G1 X53.245 Y15.534 F400
M106 S0
M106 S255
G1 X51.841 Y14.959 F400
M106 S0
M106 S255
G1 X51.512 Y14.763 F400
M106 S0
M106 S255
G1 X51.38 Y14.669 F400
M106 S0
M106 S255
G1 X51.302 Y14.61 F400
M106 S0
M106 S255
G1 X51.0 Y14.365 F400
M106 S0
M106 S255
G1 X50.696 Y14.123 F400
M106 S0
M106 S255
G1 X50.451 Y13.93 F400
M106 S0
M106 S255
G1 X50.302 Y13.715 F400
M106 S0
M106 S255
G1 X50.242 Y13.448 F400
M106 S0
G0 X25.586 Y49.483 F6000
M106 S255
G1 X25.586 Y49.483 F400
M106 S0
M106 S255
G1 X25.599 Y48.939 F400
M106 S0
M106 S255
G1 X25.637 Y48.395 F400
M106 S0
M106 S255
G1 X25.673 Y47.941 F400
M106 S0
M106 S255
G1 X25.587 Y47.584 F400
M106 S0
M106 S255
G1 X25.364 Y47.272 F400
M106 S0
M106 S255
G1 X25.102 Y47.028 F400
M106 S0
M106 S255
G1 X24.835 Y46.789 F400
M106 S0
M106 S255
G1 X24.599 Y46.57 F400
M106 S0
M106 S255
G1 X24.454 Y46.339 F400
M106 S0
M106 S255
G1 X24.385 Y46.069 F400
M106 S0
G0 X25.586 Y49.483 F6000
M106 S255
G1 X25.586 Y49.483 F400
M106 S0
M106 S255
G1 X25.599 Y48.939 F400
M106 S0
M106 S255
G1 X25.637 Y48.395 F400
M106 S0
M106 S255
G1 X25.673 Y47.941 F400
M106 S0
M106 S255
G1 X25.587 Y47.584 F400
M106 S0
M106 S255
G1 X25.364 Y47.272 F400
M106 S0
M106 S255
G1 X25.102 Y47.028 F400
M106 S0
M106 S255
G1 X24.835 Y46.789 F400
M106 S0
M106 S255
G1 X24.599 Y46.57 F400
M106 S0
M106 S255
G1 X24.454 Y46.339 F400
M106 S0
M106 S255
G1 X24.385 Y46.069 F400
M106 S0
G0 X25.586 Y49.483 F6000
M106 S255
G1 X25.586 Y49.483 F400
M106 S0
M106 S255
G1 X25.599 Y48.939 F400
M106 S0
M106 S255
G1 X25.637 Y48.395 F400
M106 S0
M106 S255
G1 X25.673 Y47.941 F400
M106 S0
M106 S255
G1 X25.587 Y47.584 F400
M106 S0
M106 S255
G1 X25.364 Y47.272 F400
M106 S0
M106 S255
G1 X25.102 Y47.028 F400
M106 S0
M106 S255
G1 X24.835 Y46.789 F400
M106 S0
M106 S255
G1 X24.599 Y46.57 F400
M106 S0
M106 S255
G1 X24.454 Y46.339 F400
M106 S0
M106 S255
G1 X24.385 Y46.069 F400
M106 S0
G0 X42.529 Y43.067 F6000
M106 S255
G1 X42.529 Y43.067 F400
M106 S0
M106 S255
G1 X42.785 Y42.662 F400
M106 S0
M106 S255
G1 X42.991 Y42.232 F400
M106 S0
M106 S255
G1 X43.08 Y42.008 F400
M106 S0
M106 S255
G1 X43.128 Y41.875 F400
M106 S0
M106 S255
G1 X43.199 Y41.708 F400
M106 S0
M106 S255
G1 X43.569 Y41.092 F400
M106 S0
M106 S255
G1 X43.998 Y40.51 F400
M106 S0
M106 S255
G1 X44.103 Y40.363 F400
M106 S0
M106 S255
G1 X44.143 Y40.303 F400
M106 S0
M106 S255
G1 X44.164 Y40.274 F400
M106 S0
M106 S255
G1 X44.25 Y40.154 F400
M106 S0
M106 S255
G1 X44.384 Y39.896 F400
M106 S0
M106 S255
G1 X44.401 Y39.751 F400
M106 S0
M106 S255
G1 X44.363 Y39.589 F400
M106 S0
G0 X42.529 Y43.067 F6000
M106 S255
G1 X42.529 Y43.067 F400
M106 S0
M106 S255
G1 X42.785 Y42.662 F400
M106 S0
M106 S255
G1 X42.991 Y42.232 F400
M106 S0
M106 S255
G1 X43.08 Y42.008 F400
M106 S0
M106 S255
G1 X43.128 Y41.875 F400
M106 S0
M106 S255
G1 X43.199 Y41.708 F400
M106 S0
M106 S255
G1 X43.569 Y41.092 F400
M106 S0
M106 S255
G1 X43.998 Y40.51 F400
M106 S0
M106 S255
G1 X44.103 Y40.363 F400
M106 S0
M106 S255
G1 X44.143 Y40.303 F400
M106 S0
M106 S255
G1 X44.164 Y40.274 F400
M106 S0
M106 S255
G1 X44.25 Y40.154 F400
M106 S0
M106 S255
G1 X44.384 Y39.896 F400
M106 S0
M106 S255
G1 X44.401 Y39.751 F400
M106 S0
M106 S255
G1 X44.363 Y39.589 F400
M106 S0
G0 X42.529 Y43.067 F6000
M106 S255
G1 X42.529 Y43.067 F400
M106 S0
M106 S255
G1 X42.785 Y42.662 F400
M106 S0
M106 S255
G1 X42.991 Y42.232 F400
M106 S0
M106 S255
G1 X43.08 Y42.008 F400
M106 S0
M106 S255
G1 X43.128 Y41.875 F400
M106 S0
M106 S255
G1 X43.199 Y41.708 F400
M106 S0
M106 S255
G1 X43.569 Y41.092 F400
M106 S0
M106 S255
G1 X43.998 Y40.51 F400
M106 S0
M106 S255
G1 X44.103 Y40.363 F400
M106 S0
M106 S255
G1 X44.143 Y40.303 F400
M106 S0
M106 S255
G1 X44.164 Y40.274 F400
M106 S0
M106 S255
G1 X44.25 Y40.154 F400
M106 S0
M106 S255
G1 X44.384 Y39.896 F400
M106 S0
M106 S255
G1 X44.401 Y39.751 F400
M106 S0
M106 S255
G1 X44.363 Y39.589 F400
M106 S0
G0 X41.012 Y45.469 F6000
M106 S255
G1 X41.012 Y45.469 F400
M106 S0
M106 S255
G1 X40.83 Y45.355 F400
M106 S0
M106 S255
G1 X40.634 Y45.296 F400
M106 S0
M106 S255
G1 X40.222 Y45.283 F400
M106 S0
M106 S255
G1 X39.449 Y45.352 F400
M106 S0
M106 S255
G1 X38.673 Y45.374 F400
M106 S0
M106 S255
G1 X38.346 Y45.331 F400
M106 S0
M106 S255
G1 X38.049 Y45.228 F400
M106 S0
M106 S255
G1 X37.786 Y45.058 F400
M106 S0
M106 S255
G1 X37.561 Y44.809 F400
M106 S0
M106 S255
G1 X37.472 Y44.615 F400
M106 S0
G0 X41.012 Y45.469 F6000
M106 S255
G1 X41.012 Y45.469 F400
M106 S0
M106 S255
G1 X40.83 Y45.355 F400
M106 S0
M106 S255
G1 X40.634 Y45.296 F400
M106 S0
M106 S255
G1 X40.222 Y45.283 F400
M106 S0
M106 S255
G1 X39.449 Y45.352 F400
M106 S0
M106 S255
G1 X38.673 Y45.374 F400
M106 S0
M106 S255
G1 X38.346 Y45.331 F400
M106 S0
M106 S255
G1 X38.049 Y45.228 F400
M106 S0
M106 S255
G1 X37.786 Y45.058 F400
M106 S0
M106 S255
G1 X37.561 Y44.809 F400
M106 S0
M106 S255
G1 X37.472 Y44.615 F400
M106 S0
G0 X41.012 Y45.469 F6000
M106 S255
G1 X41.012 Y45.469 F400
M106 S0
M106 S255
G1 X40.83 Y45.355 F400
M106 S0
M106 S255
G1 X40.634 Y45.296 F400
M106 S0
M106 S255
G1 X40.222 Y45.283 F400
M106 S0
M106 S255
G1 X39.449 Y45.352 F400
M106 S0
M106 S255
G1 X38.673 Y45.374 F400
M106 S0
M106 S255
G1 X38.346 Y45.331 F400
M106 S0
M106 S255
G1 X38.049 Y45.228 F400
M106 S0
M106 S255
G1 X37.786 Y45.058 F400
M106 S0
M106 S255
G1 X37.561 Y44.809 F400
M106 S0
M106 S255
G1 X37.472 Y44.615 F400
M106 S0
G0 X19.991 Y16.735 F6000
M106 S255
G1 X19.991 Y16.735 F400
M106 S0
M106 S255
G1 X20.018 Y16.608 F400
M106 S0
M106 S255
G1 X20.087 Y16.499 F400
M106 S0
M106 S255
G1 X20.147 Y16.383 F400
M106 S0
M106 S255
G1 X20.17 Y16.259 F400
M106 S0
M106 S255
G1 X20.183 Y16.1 F400
M106 S0
M106 S255
G1 X20.146 Y15.803 F400
M106 S0
M106 S255
G1 X19.997 Y15.535 F400
M106 S0
M106 S255
G1 X19.54 Y15.116 F400
M106 S0
M106 S255
G1 X19.326 Y14.905 F400
M106 S0
M106 S255
G1 X19.225 Y14.794 F400
M106 S0
M106 S255
G1 X19.073 Y14.601 F400
M106 S0
M106 S255
G1 X18.825 Y14.136 F400
M106 S0
M106 S255
G1 X18.654 Y13.636 F400
M106 S0
M106 S255
G1 X18.581 Y13.38 F400
M106 S0
M106 S255
G1 X18.545 Y13.252 F400
M106 S0
M106 S255
G1 X18.533 Y13.211 F400
M106 S0
M106 S255
G1 X18.513 Y13.132 F400
M106 S0
M106 S255
G1 X18.474 Y12.974 F400
M106 S0
G0 X19.991 Y16.735 F6000
M106 S255
G1 X19.991 Y16.735 F400
M106 S0
M106 S255
G1 X20.018 Y16.608 F400
M106 S0
M106 S255
G1 X20.087 Y16.499 F400
M106 S0
M106 S255
G1 X20.147 Y16.383 F400
M106 S0
M106 S255
G1 X20.17 Y16.259 F400
M106 S0
M106 S255
G1 X20.183 Y16.1 F400
M106 S0
M106 S255
G1 X20.146 Y15.803 F400
M106 S0
M106 S255
G1 X19.997 Y15.535 F400
M106 S0
M106 S255
G1 X19.54 Y15.116 F400
M106 S0
M106 S255
G1 X19.326 Y14.905 F400
M106 S0
M106 S255
G1 X19.225 Y14.794 F400
M106 S0
M106 S255
G1 X19.073 Y14.601 F400
M106 S0
M106 S255
G1 X18.825 Y14.136 F400
M106 S0
M106 S255
G1 X18.654 Y13.636 F400
M106 S0
M106 S255
G1 X18.581 Y13.38 F400
M106 S0
M106 S255
G1 X18.545 Y13.252 F400
M106 S0
M106 S255
G1 X18.533 Y13.211 F400
M106 S0
M106 S255
G1 X18.513 Y13.132 F400
M106 S0
M106 S255
G1 X18.474 Y12.974 F400
M106 S0
G0 X19.991 Y16.735 F6000
M106 S255
G1 X19.991 Y16.735 F400
M106 S0
M106 S255
G1 X20.018 Y16.608 F400
M106 S0
M106 S255
G1 X20.087 Y16.499 F400
M106 S0
M106 S255
G1 X20.147 Y16.383 F400
M106 S0
M106 S255
G1 X20.17 Y16.259 F400
M106 S0
M106 S255
G1 X20.183 Y16.1 F400
M106 S0
M106 S255
G1 X20.146 Y15.803 F400
M106 S0
M106 S255
G1 X19.997 Y15.535 F400
M106 S0
M106 S255
G1 X19.54 Y15.116 F400
M106 S0
M106 S255
G1 X19.326 Y14.905 F400
M106 S0
M106 S255
G1 X19.225 Y14.794 F400
M106 S0
M106 S255
G1 X19.073 Y14.601 F400
M106 S0
M106 S255
G1 X18.825 Y14.136 F400
M106 S0
M106 S255
G1 X18.654 Y13.636 F400
M106 S0
M106 S255
G1 X18.581 Y13.38 F400
M106 S0
M106 S255
G1 X18.545 Y13.252 F400
M106 S0
M106 S255
G1 X18.533 Y13.211 F400
M106 S0
M106 S255
G1 X18.513 Y13.132 F400
M106 S0
M106 S255
G1 X18.474 Y12.974 F400
M106 S0
G0 X35.607 Y49.23 F6000
M106 S255
G1 X35.607 Y49.23 F400
M106 S0
M106 S255
G1 X35.52 Y49.002 F400
M106 S0
M106 S255
G1 X35.402 Y48.816 F400
M106 S0
M106 S255
G1 X35.259 Y48.668 F400
M106 S0
M106 S255
G1 X35.094 Y48.553 F400
M106 S0
M106 S255
G1 X34.909 Y48.465 F400
M106 S0
M106 S255
G1 X34.709 Y48.4 F400
M106 S0
M106 S255
G1 X34.279 Y48.316 F400
M106 S0
M106 S255
G1 X33.834 Y48.274 F400
M106 S0
M106 S255
G1 X33.397 Y48.21 F400
M106 S0
M106 S255
G1 X33.194 Y48.149 F400
M106 S0
M106 S255
G1 X32.999 Y48.065 F400
M106 S0
M106 S255
G1 X32.819 Y47.946 F400
M106 S0
M106 S255
G1 X32.66 Y47.782 F400
M106 S0
M106 S255
G1 X32.282 Y47.278 F400
M106 S0
M106 S255
G1 X32.131 Y47.006 F400
M106 S0
M106 S255
G1 X32.035 Y46.702 F400
M106 S0
G0 X35.607 Y49.23 F6000
M106 S255
G1 X35.607 Y49.23 F400
M106 S0
M106 S255
G1 X35.52 Y49.002 F400
M106 S0
M106 S255
G1 X35.402 Y48.816 F400
M106 S0
M106 S255
G1 X35.259 Y48.668 F400
M106 S0
M106 S255
G1 X35.094 Y48.553 F400
M106 S0
M106 S255
G1 X34.909 Y48.465 F400
M106 S0
M106 S255
G1 X34.709 Y48.4 F400
M106 S0
M106 S255
G1 X34.279 Y48.316 F400
M106 S0
M106 S255
G1 X33.834 Y48.274 F400
M106 S0
M106 S255
G1 X33.397 Y48.21 F400
M106 S0
M106 S255
G1 X33.194 Y48.149 F400
M106 S0
M106 S255
G1 X32.999 Y48.065 F400
M106 S0
M106 S255
G1 X32.819 Y47.946 F400
M106 S0
M106 S255
G1 X32.66 Y47.782 F400
M106 S0
M106 S255
G1 X32.282 Y47.278 F400
M106 S0
M106 S255
G1 X32.131 Y47.006 F400
M106 S0
M106 S255
G1 X32.035 Y46.702 F400
M106 S0
G0 X35.607 Y49.23 F6000
M106 S255
G1 X35.607 Y49.23 F400
M106 S0
M106 S255
G1 X35.52 Y49.002 F400
M106 S0
M106 S255
G1 X35.402 Y48.816 F400
M106 S0
M106 S255
G1 X35.259 Y48.668 F400
M106 S0
M106 S255
G1 X35.094 Y48.553 F400
M106 S0
M106 S255
G1 X34.909 Y48.465 F400
M106 S0
M106 S255
G1 X34.709 Y48.4 F400
M106 S0
M106 S255
G1 X34.279 Y48.316 F400
M106 S0
M106 S255
G1 X33.834 Y48.274 F400
M106 S0
M106 S255
G1 X33.397 Y48.21 F400
M106 S0
M106 S255
G1 X33.194 Y48.149 F400
M106 S0
M106 S255
G1 X32.999 Y48.065 F400
M106 S0
M106 S255
G1 X32.819 Y47.946 F400
M106 S0
M106 S255
G1 X32.66 Y47.782 F400
M106 S0
M106 S255
G1 X32.282 Y47.278 F400
M106 S0
M106 S255
G1 X32.131 Y47.006 F400
M106 S0
M106 S255
G1 X32.035 Y46.702 F400
M106 S0
G0 X16.388 Y45.88 F6000
M106 S255
G1 X16.388 Y45.88 F400
M106 S0
M106 S255
G1 X16.463 Y45.647 F400
M106 S0
M106 S255
G1 X16.566 Y45.44 F400
M106 S0
M106 S255
G1 X16.696 Y45.257 F400
M106 S0
M106 S255
G1 X16.853 Y45.097 F400
M106 S0
M106 S255
G1 X17.036 Y44.959 F400
M106 S0
M106 S255
G1 X17.244 Y44.842 F400
M106 S0
M106 S255
G1 X17.343 Y44.797 F400
M106 S0
M106 S255
G1 X17.387 Y44.777 F400
M106 S0
M106 S255
G1 X17.474 Y44.734 F400
M106 S0
M106 S255
G1 X17.807 Y44.53 F400
M106 S0
M106 S255
G1 X17.848 Y44.504 F400
M106 S0
M106 S255
G1 X17.915 Y44.461 F400
M106 S0
M106 S255
G1 X18.097 Y44.315 F400
M106 S0
M106 S255
G1 X18.231 Y44.152 F400
M106 S0
M106 S255
G1 X18.317 Y43.974 F400
M106 S0
M106 S255
G1 X18.353 Y43.783 F400
M106 S0
M106 S255
G1 X18.337 Y43.58 F400
M106 S0
M106 S255
G1 X18.267 Y43.366 F400
M106 S0
M106 S255
G1 X18.201 Y43.214 F400
M106 S0
M106 S255
G1 X18.164 Y42.963 F400
M106 S0
M106 S255
G1 X18.228 Y42.734 F400
M106 S0
M106 S255
G1 X18.297 Y42.626 F400
M106 S0
M106 S255
G1 X18.398 Y42.51 F400
M106 S0
M106 S255
G1 X18.642 Y42.25 F400
M106 S0
M106 S255
G1 X19.138 Y41.739 F400
M106 S0
G0 X16.388 Y45.88 F6000
M106 S255
G1 X16.388 Y45.88 F400
M106 S0
M106 S255
G1 X16.463 Y45.647 F400
M106 S0
M106 S255
G1 X16.566 Y45.44 F400
M106 S0
M106 S255
G1 X16.696 Y45.257 F400
M106 S0
M106 S255
G1 X16.853 Y45.097 F400
M106 S0
M106 S255
G1 X17.036 Y44.959 F400
M106 S0
M106 S255
G1 X17.244 Y44.842 F400
M106 S0
M106 S255
G1 X17.343 Y44.797 F400
M106 S0
M106 S255
G1 X17.387 Y44.777 F400
M106 S0
M106 S255
G1 X17.474 Y44.734 F400
M106 S0
M106 S255
G1 X17.807 Y44.53 F400
M106 S0
M106 S255
G1 X17.848 Y44.504 F400
M106 S0
M106 S255
G1 X17.915 Y44.461 F400
M106 S0
M106 S255
G1 X18.097 Y44.315 F400
M106 S0
M106 S255
G1 X18.231 Y44.152 F400
M106 S0
M106 S255
G1 X18.317 Y43.974 F400
M106 S0
M106 S255
G1 X18.353 Y43.783 F400
M106 S0
M106 S255
G1 X18.337 Y43.58 F400
M106 S0
M106 S255
G1 X18.267 Y43.366 F400
M106 S0
M106 S255
G1 X18.201 Y43.214 F400
M106 S0
M106 S255
G1 X18.164 Y42.963 F400
M106 S0
M106 S255
G1 X18.228 Y42.734 F400
M106 S0
M106 S255
G1 X18.297 Y42.626 F400
M106 S0
M106 S255
G1 X18.398 Y42.51 F400
M106 S0
M106 S255
G1 X18.642 Y42.25 F400
M106 S0
M106 S255
G1 X19.138 Y41.739 F400
M106 S0
G0 X16.388 Y45.88 F6000
M106 S255
G1 X16.388 Y45.88 F400
M106 S0
M106 S255
G1 X16.463 Y45.647 F400
M106 S0
M106 S255
G1 X16.566 Y45.44 F400
M106 S0
M106 S255
G1 X16.696 Y45.257 F400
M106 S0
M106 S255
G1 X16.853 Y45.097 F400
M106 S0
M106 S255
G1 X17.036 Y44.959 F400
M106 S0
M106 S255
G1 X17.244 Y44.842 F400
M106 S0
M106 S255
G1 X17.343 Y44.797 F400
M106 S0
M106 S255
G1 X17.387 Y44.777 F400
M106 S0
M106 S255
G1 X17.474 Y44.734 F400
M106 S0
M106 S255
G1 X17.807 Y44.53 F400
M106 S0
M106 S255
G1 X17.848 Y44.504 F400
M106 S0
M106 S255
G1 X17.915 Y44.461 F400
M106 S0
M106 S255
G1 X18.097 Y44.315 F400
M106 S0
M106 S255
G1 X18.231 Y44.152 F400
M106 S0
M106 S255
G1 X18.317 Y43.974 F400
M106 S0
M106 S255
G1 X18.353 Y43.783 F400
M106 S0
M106 S255
G1 X18.337 Y43.58 F400
M106 S0
M106 S255
G1 X18.267 Y43.366 F400
M106 S0
M106 S255
G1 X18.201 Y43.214 F400
M106 S0
M106 S255
G1 X18.164 Y42.963 F400
M106 S0
M106 S255
G1 X18.228 Y42.734 F400
M106 S0
M106 S255
G1 X18.297 Y42.626 F400
M106 S0
M106 S255
G1 X18.398 Y42.51 F400
M106 S0
M106 S255
G1 X18.642 Y42.25 F400
M106 S0
M106 S255
G1 X19.138 Y41.739 F400
M106 S0
G0 X10.319 Y26.851 F6000
M106 S255
G1 X10.319 Y26.851 F400
M106 S0
M106 S255
G1 X10.252 Y26.867 F400
M106 S0
M106 S255
G1 X10.229 Y26.88 F400
M106 S0
M106 S255
G1 X10.227 Y26.882 F400
M106 S0
M106 S255
G1 X10.227 Y26.883 F400
M106 S0
M106 S255
G1 X10.214 Y26.909 F400
M106 S0
M106 S255
G1 X10.149 Y27.035 F400
M106 S0
M106 S255
G1 X10.004 Y27.278 F400
M106 S0
M106 S255
G1 X9.362 Y28.207 F400
M106 S0
M106 S255
G1 X9.229 Y28.439 F400
M106 S0
M106 S255
G1 X9.152 Y28.631 F400
M106 S0
M106 S255
G1 X9.106 Y28.828 F400
M106 S0
M106 S255
G1 X9.087 Y29.029 F400
M106 S0
M106 S255
G1 X9.116 Y29.428 F400
M106 S0
M106 S255
G1 X9.155 Y29.622 F400
M106 S0
M106 S255
G1 X9.169 Y29.677 F400
M106 S0
M106 S255
G1 X9.187 Y29.76 F400
M106 S0
M106 S255
G1 X9.212 Y29.922 F400
M106 S0
M106 S255
G1 X9.215 Y30.226 F400
M106 S0
M106 S255
G1 X9.161 Y30.509 F400
M106 S0
M106 S255
G1 X9.058 Y30.773 F400
M106 S0
M106 S255
G1 X8.913 Y31.022 F400
M106 S0
M106 S255
G1 X8.733 Y31.262 F400
M106 S0
M106 S255
G1 X8.632 Y31.378 F400
M106 S0
M106 S255
G1 X8.602 Y31.411 F400
M106 S0
M106 S255
G1 X8.588 Y31.424 F400
M106 S0
M106 S255
G1 X8.464 Y31.475 F400
M106 S0
M106 S255
G1 X8.201 Y31.434 F400
M106 S0
G0 X10.319 Y26.851 F6000
M106 S255
G1 X10.319 Y26.851 F400
M106 S0
M106 S255
G1 X10.252 Y26.867 F400
M106 S0
M106 S255
G1 X10.229 Y26.88 F400
M106 S0
M106 S255
G1 X10.227 Y26.882 F400
M106 S0
M106 S255
G1 X10.227 Y26.883 F400
M106 S0
M106 S255
G1 X10.214 Y26.909 F400
M106 S0
M106 S255
G1 X10.149 Y27.035 F400
M106 S0
M106 S255
G1 X10.004 Y27.278 F400
M106 S0
M106 S255
G1 X9.362 Y28.207 F400
M106 S0
M106 S255
G1 X9.229 Y28.439 F400
M106 S0
M106 S255
G1 X9.152 Y28.631 F400
M106 S0
M106 S255
G1 X9.106 Y28.828 F400
M106 S0
M106 S255
G1 X9.087 Y29.029 F400
M106 S0
M106 S255
G1 X9.116 Y29.428 F400
M106 S0
M106 S255
G1 X9.155 Y29.622 F400
M106 S0
M106 S255
G1 X9.169 Y29.677 F400
M106 S0
M106 S255
G1 X9.187 Y29.76 F400
M106 S0
M106 S255
G1 X9.212 Y29.922 F400
M106 S0
M106 S255
G1 X9.215 Y30.226 F400
M106 S0
M106 S255
G1 X9.161 Y30.509 F400
M106 S0
M106 S255
G1 X9.058 Y30.773 F400
M106 S0
M106 S255
G1 X8.913 Y31.022 F400
M106 S0
M106 S255
G1 X8.733 Y31.262 F400
M106 S0
M106 S255
G1 X8.632 Y31.378 F400
M106 S0
M106 S255
G1 X8.602 Y31.411 F400
M106 S0
M106 S255
G1 X8.588 Y31.424 F400
M106 S0
M106 S255
G1 X8.464 Y31.475 F400
M106 S0
M106 S255
G1 X8.201 Y31.434 F400
M106 S0
G0 X10.319 Y26.851 F6000
M106 S255
G1 X10.319 Y26.851 F400
M106 S0
M106 S255
G1 X10.252 Y26.867 F400
M106 S0
M106 S255
G1 X10.229 Y26.88 F400
M106 S0
M106 S255
G1 X10.227 Y26.882 F400
M106 S0
M106 S255
G1 X10.227 Y26.883 F400
M106 S0
M106 S255
G1 X10.214 Y26.909 F400
M106 S0
M106 S255
G1 X10.149 Y27.035 F400
M106 S0
M106 S255
G1 X10.004 Y27.278 F400
M106 S0
M106 S255
G1 X9.362 Y28.207 F400
M106 S0
M106 S255
G1 X9.229 Y28.439 F400
M106 S0
M106 S255
G1 X9.152 Y28.631 F400
M106 S0
M106 S255
G1 X9.106 Y28.828 F400
M106 S0
M106 S255
G1 X9.087 Y29.029 F400
M106 S0
M106 S255
G1 X9.116 Y29.428 F400
M106 S0
M106 S255
G1 X9.155 Y29.622 F400
M106 S0
M106 S255
G1 X9.169 Y29.677 F400
M106 S0
M106 S255
G1 X9.187 Y29.76 F400
M106 S0
M106 S255
G1 X9.212 Y29.922 F400
M106 S0
M106 S255
G1 X9.215 Y30.226 F400
M106 S0
M106 S255
G1 X9.161 Y30.509 F400
M106 S0
M106 S255
G1 X9.058 Y30.773 F400
M106 S0
M106 S255
G1 X8.913 Y31.022 F400
M106 S0
M106 S255
G1 X8.733 Y31.262 F400
M106 S0
M106 S255
G1 X8.632 Y31.378 F400
M106 S0
M106 S255
G1 X8.602 Y31.411 F400
M106 S0
M106 S255
G1 X8.588 Y31.424 F400
M106 S0
M106 S255
G1 X8.464 Y31.475 F400
M106 S0
M106 S255
G1 X8.201 Y31.434 F400
M106 S0
G0 X37.409 Y40.727 F6000
M106 S255
G1 X37.409 Y40.727 F400
M106 S0
M106 S255
G1 X37.837 Y40.468 F400
M106 S0
M106 S255
G1 X38.213 Y40.152 F400
M106 S0
M106 S255
G1 X38.499 Y39.746 F400
M106 S0
M106 S255
G1 X38.547 Y39.64 F400
M106 S0
M106 S255
G1 X38.569 Y39.584 F400
M106 S0
M106 S255
G1 X38.611 Y39.47 F400
M106 S0
M106 S255
G1 X38.707 Y38.994 F400
M106 S0
M106 S255
G1 X38.709 Y38.932 F400
M106 S0
M106 S255
G1 X38.706 Y38.83 F400
M106 S0
M106 S255
G1 X38.7 Y38.508 F400
M106 S0
M106 S255
G1 X38.723 Y37.868 F400
M106 S0
M106 S255
G1 X38.833 Y37.24 F400
M106 S0
M106 S255
G1 X38.936 Y36.933 F400
M106 S0
M106 S255
G1 X38.98 Y36.83 F400
M106 S0
M106 S255
G1 X39.01 Y36.76 F400
M106 S0
M106 S255
G1 X39.236 Y36.19 F400
M106 S0
M106 S255
G1 X39.312 Y35.917 F400
M106 S0
M106 S255
G1 X39.345 Y35.735 F400
M106 S0
M106 S255
G1 X39.334 Y35.556 F400
M106 S0
M106 S255
G1 X39.242 Y35.385 F400
M106 S0
G0 X37.409 Y40.727 F6000
M106 S255
G1 X37.409 Y40.727 F400
M106 S0
M106 S255
G1 X37.837 Y40.468 F400
M106 S0
M106 S255
G1 X38.213 Y40.152 F400
M106 S0
M106 S255
G1 X38.499 Y39.746 F400
M106 S0
M106 S255
G1 X38.547 Y39.64 F400
M106 S0
M106 S255
G1 X38.569 Y39.584 F400
M106 S0
M106 S255
G1 X38.611 Y39.47 F400
M106 S0
M106 S255
G1 X38.707 Y38.994 F400
M106 S0
M106 S255
G1 X38.709 Y38.932 F400
M106 S0
M106 S255
G1 X38.706 Y38.83 F400
M106 S0
M106 S255
G1 X38.7 Y38.508 F400
M106 S0
M106 S255
G1 X38.723 Y37.868 F400
M106 S0
M106 S255
G1 X38.833 Y37.24 F400
M106 S0
M106 S255
G1 X38.936 Y36.933 F400
M106 S0
M106 S255
G1 X38.98 Y36.83 F400
M106 S0
M106 S255
G1 X39.01 Y36.76 F400
M106 S0
M106 S255
G1 X39.236 Y36.19 F400
M106 S0
M106 S255
G1 X39.312 Y35.917 F400
M106 S0
M106 S255
G1 X39.345 Y35.735 F400
M106 S0
M106 S255
G1 X39.334 Y35.556 F400
M106 S0
M106 S255
G1 X39.242 Y35.385 F400
M106 S0
G0 X37.409 Y40.727 F6000
M106 S255
G1 X37.409 Y40.727 F400
M106 S0
M106 S255
G1 X37.837 Y40.468 F400
M106 S0
M106 S255
G1 X38.213 Y40.152 F400
M106 S0
M106 S255
G1 X38.499 Y39.746 F400
M106 S0
M106 S255
G1 X38.547 Y39.64 F400
M106 S0
M106 S255
G1 X38.569 Y39.584 F400
M106 S0
M106 S255
G1 X38.611 Y39.47 F400
M106 S0
M106 S255
G1 X38.707 Y38.994 F400
M106 S0
M106 S255
G1 X38.709 Y38.932 F400
M106 S0
M106 S255
G1 X38.706 Y38.83 F400
M106 S0
M106 S255
G1 X38.7 Y38.508 F400
M106 S0
M106 S255
G1 X38.723 Y37.868 F400
M106 S0
M106 S255
G1 X38.833 Y37.24 F400
M106 S0
M106 S255
G1 X38.936 Y36.933 F400
M106 S0
M106 S255
G1 X38.98 Y36.83 F400
M106 S0
M106 S255
G1 X39.01 Y36.76 F400
M106 S0
M106 S255
G1 X39.236 Y36.19 F400
M106 S0
M106 S255
G1 X39.312 Y35.917 F400
M106 S0
M106 S255
G1 X39.345 Y35.735 F400
M106 S0
M106 S255
G1 X39.334 Y35.556 F400
M106 S0
M106 S255
G1 X39.242 Y35.385 F400
M106 S0
G0 X31.498 Y44.426 F6000
M106 S255
G1 X31.498 Y44.426 F400
M106 S0
M106 S255
G1 X31.418 Y44.548 F400
M106 S0
M106 S255
G1 X31.366 Y44.683 F400
M106 S0
M106 S255
G1 X31.264 Y44.958 F400
M106 S0
M106 S255
G1 X31.224 Y45.021 F400
M106 S0
M106 S255
G1 X31.202 Y45.049 F400
M106 S0
M106 S255
G1 X31.165 Y45.094 F400
M106 S0
M106 S255
G1 X31.088 Y45.175 F400
M106 S0
M106 S255
G1 X30.927 Y45.31 F400
M106 S0
M106 S255
G1 X30.756 Y45.413 F400
M106 S0
M106 S255
G1 X30.576 Y45.487 F400
M106 S0
M106 S255
G1 X30.389 Y45.537 F400
M106 S0
M106 S255
G1 X29.998 Y45.575 F400
M106 S0
M106 S255
G1 X29.596 Y45.56 F400
M106 S0
M106 S255
G1 X29.481 Y45.551 F400
M106 S0
M106 S255
G1 X29.347 Y45.536 F400
M106 S0
M106 S255
G1 X29.083 Y45.495 F400
M106 S0
M106 S255
G1 X28.561 Y45.379 F400
M106 S0
M106 S255
G1 X28.046 Y45.232 F400
M106 S0
M106 S255
G1 X27.534 Y45.071 F400
M106 S0
M106 S255
G1 X27.278 Y44.991 F400
M106 S0
M106 S255
G1 X27.156 Y44.954 F400
M106 S0
M106 S255
G1 X27.068 Y44.928 F400
M106 S0
M106 S255
G1 X26.717 Y44.843 F400
M106 S0
M106 S255
G1 X26.367 Y44.793 F400
M106 S0
M106 S255
G1 X26.014 Y44.789 F400
M106 S0
M106 S255
G1 X25.657 Y44.84 F400
M106 S0
M106 S255
G1 X25.492 Y44.881 F400
M106 S0
M106 S255
G1 X25.347 Y44.904 F400
M106 S0
M106 S255
G1 X25.066 Y44.898 F400
M106 S0
M106 S255
G1 X24.8 Y44.83 F400
M106 S0
M106 S255
G1 X24.554 Y44.709 F400
M106 S0
M106 S255
G1 X24.441 Y44.632 F400
M106 S0
M106 S255
G1 X24.323 Y44.536 F400
M106 S0
M106 S255
G1 X24.027 Y44.335 F400
M106 S0
M106 S255
G1 X23.717 Y44.201 F400
M106 S0
M106 S255
G1 X23.392 Y44.126 F400
M106 S0
M106 S255
G1 X23.051 Y44.106 F400
M106 S0
M106 S255
G1 X22.887 Y44.112 F400
M106 S0
M106 S255
G1 X22.8 Y44.114 F400
M106 S0
M106 S255
G1 X22.448 Y44.1 F400
M106 S0
M106 S255
G1 X22.275 Y44.126 F400
M106 S0
M106 S255
G1 X22.109 Y44.204 F400
M106 S0
G0 X31.498 Y44.426 F6000
M106 S255
G1 X31.498 Y44.426 F400
M106 S0
M106 S255
G1 X31.418 Y44.548 F400
M106 S0
M106 S255
G1 X31.366 Y44.683 F400
M106 S0
M106 S255
G1 X31.264 Y44.958 F400
M106 S0
M106 S255
G1 X31.224 Y45.021 F400
M106 S0
M106 S255
G1 X31.202 Y45.049 F400
M106 S0
M106 S255
G1 X31.165 Y45.094 F400
M106 S0
M106 S255
G1 X31.088 Y45.175 F400
M106 S0
M106 S255
G1 X30.927 Y45.31 F400
M106 S0
M106 S255
G1 X30.756 Y45.413 F400
M106 S0
M106 S255
G1 X30.576 Y45.487 F400
M106 S0
M106 S255
G1 X30.389 Y45.537 F400
M106 S0
M106 S255
G1 X29.998 Y45.575 F400
M106 S0
M106 S255
G1 X29.596 Y45.56 F400
M106 S0
M106 S255
G1 X29.481 Y45.551 F400
M106 S0
M106 S255
G1 X29.347 Y45.536 F400
M106 S0
M106 S255
G1 X29.083 Y45.495 F400
M106 S0
M106 S255
G1 X28.561 Y45.379 F400
M106 S0
M106 S255
G1 X28.046 Y45.232 F400
M106 S0
M106 S255
G1 X27.534 Y45.071 F400
M106 S0
M106 S255
G1 X27.278 Y44.991 F400
M106 S0
M106 S255
G1 X27.156 Y44.954 F400
M106 S0
M106 S255
G1 X27.068 Y44.928 F400
M106 S0
M106 S255
G1 X26.717 Y44.843 F400
M106 S0
M106 S255
G1 X26.367 Y44.793 F400
M106 S0
M106 S255
G1 X26.014 Y44.789 F400
M106 S0
M106 S255
G1 X25.657 Y44.84 F400
M106 S0
M106 S255
G1 X25.492 Y44.881 F400
M106 S0
M106 S255
G1 X25.347 Y44.904 F400
M106 S0
M106 S255
G1 X25.066 Y44.898 F400
M106 S0
M106 S255
G1 X24.8 Y44.83 F400
M106 S0
M106 S255
G1 X24.554 Y44.709 F400
M106 S0
M106 S255
G1 X24.441 Y44.632 F400
M106 S0
M106 S255
G1 X24.323 Y44.536 F400
M106 S0
M106 S255
G1 X24.027 Y44.335 F400
M106 S0
M106 S255
G1 X23.717 Y44.201 F400
M106 S0
M106 S255
G1 X23.392 Y44.126 F400
M106 S0
M106 S255
G1 X23.051 Y44.106 F400
M106 S0
M106 S255
G1 X22.887 Y44.112 F400
M106 S0
M106 S255
G1 X22.8 Y44.114 F400
M106 S0
M106 S255
G1 X22.448 Y44.1 F400
M106 S0
M106 S255
G1 X22.275 Y44.126 F400
M106 S0
M106 S255
G1 X22.109 Y44.204 F400
M106 S0
G0 X31.498 Y44.426 F6000
M106 S255
G1 X31.498 Y44.426 F400
M106 S0
M106 S255
G1 X31.418 Y44.548 F400
M106 S0
M106 S255
G1 X31.366 Y44.683 F400
M106 S0
M106 S255
G1 X31.264 Y44.958 F400
M106 S0
M106 S255
G1 X31.224 Y45.021 F400
M106 S0
M106 S255
G1 X31.202 Y45.049 F400
M106 S0
M106 S255
G1 X31.165 Y45.094 F400
M106 S0
M106 S255
G1 X31.088 Y45.175 F400
M106 S0
M106 S255
G1 X30.927 Y45.31 F400
M106 S0
M106 S255
G1 X30.756 Y45.413 F400
M106 S0
M106 S255
G1 X30.576 Y45.487 F400
M106 S0
M106 S255
G1 X30.389 Y45.537 F400
M106 S0
M106 S255
G1 X29.998 Y45.575 F400
M106 S0
M106 S255
G1 X29.596 Y45.56 F400
M106 S0
M106 S255
G1 X29.481 Y45.551 F400
M106 S0
M106 S255
G1 X29.347 Y45.536 F400
M106 S0
M106 S255
G1 X29.083 Y45.495 F400
M106 S0
M106 S255
G1 X28.561 Y45.379 F400
M106 S0
M106 S255
G1 X28.046 Y45.232 F400
M106 S0
M106 S255
G1 X27.534 Y45.071 F400
M106 S0
M106 S255
G1 X27.278 Y44.991 F400
M106 S0
M106 S255
G1 X27.156 Y44.954 F400
M106 S0
M106 S255
G1 X27.068 Y44.928 F400
M106 S0
M106 S255
G1 X26.717 Y44.843 F400
M106 S0
M106 S255
G1 X26.367 Y44.793 F400
M106 S0
M106 S255
G1 X26.014 Y44.789 F400
M106 S0
M106 S255
G1 X25.657 Y44.84 F400
M106 S0
M106 S255
G1 X25.492 Y44.881 F400
M106 S0
M106 S255
G1 X25.347 Y44.904 F400
M106 S0
M106 S255
G1 X25.066 Y44.898 F400
M106 S0
M106 S255
G1 X24.8 Y44.83 F400
M106 S0
M106 S255
G1 X24.554 Y44.709 F400
M106 S0
M106 S255
G1 X24.441 Y44.632 F400
M106 S0
M106 S255
G1 X24.323 Y44.536 F400
M106 S0
M106 S255
G1 X24.027 Y44.335 F400
M106 S0
M106 S255
G1 X23.717 Y44.201 F400
M106 S0
M106 S255
G1 X23.392 Y44.126 F400
M106 S0
M106 S255
G1 X23.051 Y44.106 F400
M106 S0
M106 S255
G1 X22.887 Y44.112 F400
M106 S0
M106 S255
G1 X22.8 Y44.114 F400
M106 S0
M106 S255
G1 X22.448 Y44.1 F400
M106 S0
M106 S255
G1 X22.275 Y44.126 F400
M106 S0
M106 S255
G1 X22.109 Y44.204 F400
M106 S0
G0 X45.28 Y44.299 F6000
M106 S255
G1 X45.28 Y44.299 F400
M106 S0
M106 S255
G1 X45.997 Y44.007 F400
M106 S0
M106 S255
G1 X46.172 Y43.923 F400
M106 S0
M106 S255
G1 X46.216 Y43.9 F400
M106 S0
M106 S255
G1 X46.245 Y43.883 F400
M106 S0
M106 S255
G1 X46.289 Y43.857 F400
M106 S0
M106 S255
G1 X46.447 Y43.75 F400
M106 S0
M106 S255
G1 X46.577 Y43.636 F400
M106 S0
M106 S255
G1 X46.677 Y43.515 F400
M106 S0
M106 S255
G1 X46.748 Y43.389 F400
M106 S0
M106 S255
G1 X46.79 Y43.258 F400
M106 S0
M106 S255
G1 X46.803 Y43.12 F400
M106 S0
M106 S255
G1 X46.785 Y42.978 F400
M106 S0
M106 S255
G1 X46.738 Y42.83 F400
M106 S0
M106 S255
G1 X46.662 Y42.677 F400
M106 S0
M106 S255
G1 X46.555 Y42.519 F400
M106 S0
M106 S255
G1 X46.524 Y42.479 F400
M106 S0
M106 S255
G1 X46.507 Y42.459 F400
M106 S0
M106 S255
G1 X46.491 Y42.438 F400
M106 S0
M106 S255
G1 X46.425 Y42.355 F400
M106 S0
M106 S255
G1 X46.164 Y42.024 F400
M106 S0
M106 S255
G1 X46.06 Y41.886 F400
M106 S0
M106 S255
G1 X45.98 Y41.746 F400
M106 S0
M106 S255
G1 X45.884 Y41.46 F400
M106 S0
M106 S255
G1 X45.864 Y41.168 F400
M106 S0
M106 S255
G1 X45.907 Y40.873 F400
M106 S0
M106 S255
G1 X46.002 Y40.576 F400
M106 S0
M106 S255
G1 X46.033 Y40.501 F400
M106 S0
M106 S255
G1 X46.055 Y40.451 F400
M106 S0
M106 S255
G1 X46.091 Y40.375 F400
M106 S0
M106 S255
G1 X46.263 Y40.08 F400
M106 S0
M106 S255
G1 X46.428 Y39.784 F400
M106 S0
M106 S255
G1 X46.495 Y39.621 F400
M106 S0
M106 S255
G1 X46.561 Y39.437 F400
M106 S0
M106 S255
G1 X46.611 Y39.249 F400
M106 S0
M106 S255
G1 X46.63 Y39.059 F400
M106 S0
M106 S255
G1 X46.602 Y38.866 F400
M106 S0
M106 S255
G1 X46.512 Y38.673 F400
M106 S0
G0 X45.28 Y44.299 F6000
M106 S255
G1 X45.28 Y44.299 F400
M106 S0
M106 S255
G1 X45.997 Y44.007 F400
M106 S0
M106 S255
G1 X46.172 Y43.923 F400
M106 S0
M106 S255
G1 X46.216 Y43.9 F400
M106 S0
M106 S255
G1 X46.245 Y43.883 F400
M106 S0
M106 S255
G1 X46.289 Y43.857 F400
M106 S0
M106 S255
G1 X46.447 Y43.75 F400
M106 S0
M106 S255
G1 X46.577 Y43.636 F400
M106 S0
M106 S255
G1 X46.677 Y43.515 F400
M106 S0
M106 S255
G1 X46.748 Y43.389 F400
M106 S0
M106 S255
G1 X46.79 Y43.258 F400
M106 S0
M106 S255
G1 X46.803 Y43.12 F400
M106 S0
M106 S255
G1 X46.785 Y42.978 F400
M106 S0
M106 S255
G1 X46.738 Y42.83 F400
M106 S0
M106 S255
G1 X46.662 Y42.677 F400
M106 S0
M106 S255
G1 X46.555 Y42.519 F400
M106 S0
M106 S255
G1 X46.524 Y42.479 F400
M106 S0
M106 S255
G1 X46.507 Y42.459 F400
M106 S0
M106 S255
G1 X46.491 Y42.438 F400
M106 S0
M106 S255
G1 X46.425 Y42.355 F400
M106 S0
M106 S255
G1 X46.164 Y42.024 F400
M106 S0
M106 S255
G1 X46.06 Y41.886 F400
M106 S0
M106 S255
G1 X45.98 Y41.746 F400
M106 S0
M106 S255
G1 X45.884 Y41.46 F400
M106 S0
M106 S255
G1 X45.864 Y41.168 F400
M106 S0
M106 S255
G1 X45.907 Y40.873 F400
M106 S0
M106 S255
G1 X46.002 Y40.576 F400
M106 S0
M106 S255
G1 X46.033 Y40.501 F400
M106 S0
M106 S255
G1 X46.055 Y40.451 F400
M106 S0
M106 S255
G1 X46.091 Y40.375 F400
M106 S0
M106 S255
G1 X46.263 Y40.08 F400
M106 S0
M106 S255
G1 X46.428 Y39.784 F400
M106 S0
M106 S255
G1 X46.495 Y39.621 F400
M106 S0
M106 S255
G1 X46.561 Y39.437 F400
M106 S0
M106 S255
G1 X46.611 Y39.249 F400
M106 S0
M106 S255
G1 X46.63 Y39.059 F400
M106 S0
M106 S255
G1 X46.602 Y38.866 F400
M106 S0
M106 S255
G1 X46.512 Y38.673 F400
M106 S0
G0 X45.28 Y44.299 F6000
M106 S255
G1 X45.28 Y44.299 F400
M106 S0
M106 S255
G1 X45.997 Y44.007 F400
M106 S0
M106 S255
G1 X46.172 Y43.923 F400
M106 S0
M106 S255
G1 X46.216 Y43.9 F400
M106 S0
M106 S255
G1 X46.245 Y43.883 F400
M106 S0
M106 S255
G1 X46.289 Y43.857 F400
M106 S0
M106 S255
G1 X46.447 Y43.75 F400
M106 S0
M106 S255
G1 X46.577 Y43.636 F400
M106 S0
M106 S255
G1 X46.677 Y43.515 F400
M106 S0
M106 S255
G1 X46.748 Y43.389 F400
M106 S0
M106 S255
G1 X46.79 Y43.258 F400
M106 S0
M106 S255
G1 X46.803 Y43.12 F400
M106 S0
M106 S255
G1 X46.785 Y42.978 F400
M106 S0
M106 S255
G1 X46.738 Y42.83 F400
M106 S0
M106 S255
G1 X46.662 Y42.677 F400
M106 S0
M106 S255
G1 X46.555 Y42.519 F400
M106 S0
M106 S255
G1 X46.524 Y42.479 F400
M106 S0
M106 S255
G1 X46.507 Y42.459 F400
M106 S0
M106 S255
G1 X46.491 Y42.438 F400
M106 S0
M106 S255
G1 X46.425 Y42.355 F400
M106 S0
M106 S255
G1 X46.164 Y42.024 F400
M106 S0
M106 S255
G1 X46.06 Y41.886 F400
M106 S0
M106 S255
G1 X45.98 Y41.746 F400
M106 S0
M106 S255
G1 X45.884 Y41.46 F400
M106 S0
M106 S255
G1 X45.864 Y41.168 F400
M106 S0
M106 S255
G1 X45.907 Y40.873 F400
M106 S0
M106 S255
G1 X46.002 Y40.576 F400
M106 S0
M106 S255
G1 X46.033 Y40.501 F400
M106 S0
M106 S255
G1 X46.055 Y40.451 F400
M106 S0
M106 S255
G1 X46.091 Y40.375 F400
M106 S0
M106 S255
G1 X46.263 Y40.08 F400
M106 S0
M106 S255
G1 X46.428 Y39.784 F400
M106 S0
M106 S255
G1 X46.495 Y39.621 F400
M106 S0
M106 S255
G1 X46.561 Y39.437 F400
M106 S0
M106 S255
G1 X46.611 Y39.249 F400
M106 S0
M106 S255
G1 X46.63 Y39.059 F400
M106 S0
M106 S255
G1 X46.602 Y38.866 F400
M106 S0
M106 S255
G1 X46.512 Y38.673 F400
M106 S0
G0 X40.412 Y14.333 F6000
M106 S255
G1 X40.412 Y14.333 F400
M106 S0
M106 S255
G1 X40.446 Y14.113 F400
M106 S0
M106 S255
G1 X40.448 Y13.89 F400
M106 S0
M106 S255
G1 X40.455 Y13.667 F400
M106 S0
M106 S255
G1 X40.502 Y13.446 F400
M106 S0
M106 S255
G1 X40.585 Y13.262 F400
M106 S0
M106 S255
G1 X40.694 Y13.104 F400
M106 S0
M106 S255
G1 X40.835 Y12.987 F400
M106 S0
M106 S255
G1 X41.014 Y12.922 F400
M106 S0
M106 S255
G1 X41.366 Y12.863 F400
M106 S0
M106 S255
G1 X41.742 Y12.854 F400
M106 S0
M106 S255
G1 X42.194 Y12.892 F400
M106 S0
M106 S255
G1 X42.648 Y12.887 F400
M106 S0
M106 S255
G1 X42.871 Y12.855 F400
M106 S0
M106 S255
G1 X43.091 Y12.794 F400
M106 S0
M106 S255
G1 X43.305 Y12.7 F400
M106 S0
M106 S255
G1 X43.513 Y12.567 F400
M106 S0
M106 S255
G1 X43.648 Y12.449 F400
M106 S0
M106 S255
G1 X43.749 Y12.318 F400
M106 S0
M106 S255
G1 X43.81 Y12.168 F400
M106 S0
M106 S255
G1 X43.823 Y11.994 F400
M106 S0
M106 S255
G1 X43.85 Y11.827 F400
M106 S0
M106 S255
G1 X43.921 Y11.678 F400
M106 S0
M106 S255
G1 X44.134 Y11.21 F400
M106 S0
M106 S255
G1 X44.2 Y10.963 F400
M106 S0
M106 S255
G1 X44.212 Y10.697 F400
M106 S0
M106 S255
G1 X44.24 Y10.493 F400
M106 S0
M106 S255
G1 X44.3 Y10.287 F400
M106 S0
G0 X40.412 Y14.333 F6000
M106 S255
G1 X40.412 Y14.333 F400
M106 S0
M106 S255
G1 X40.446 Y14.113 F400
M106 S0
M106 S255
G1 X40.448 Y13.89 F400
M106 S0
M106 S255
G1 X40.455 Y13.667 F400
M106 S0
M106 S255
G1 X40.502 Y13.446 F400
M106 S0
M106 S255
G1 X40.585 Y13.262 F400
M106 S0
M106 S255
G1 X40.694 Y13.104 F400
M106 S0
M106 S255
G1 X40.835 Y12.987 F400
M106 S0
M106 S255
G1 X41.014 Y12.922 F400
M106 S0
M106 S255
G1 X41.366 Y12.863 F400
M106 S0
M106 S255
G1 X41.742 Y12.854 F400
M106 S0
M106 S255
G1 X42.194 Y12.892 F400
M106 S0
M106 S255
G1 X42.648 Y12.887 F400
M106 S0
M106 S255
G1 X42.871 Y12.855 F400
M106 S0
M106 S255
G1 X43.091 Y12.794 F400
M106 S0
M106 S255
G1 X43.305 Y12.7 F400
M106 S0
M106 S255
G1 X43.513 Y12.567 F400
M106 S0
M106 S255
G1 X43.648 Y12.449 F400
M106 S0
M106 S255
G1 X43.749 Y12.318 F400
M106 S0
M106 S255
G1 X43.81 Y12.168 F400
M106 S0
M106 S255
G1 X43.823 Y11.994 F400
M106 S0
M106 S255
G1 X43.85 Y11.827 F400
M106 S0
M106 S255
G1 X43.921 Y11.678 F400
M106 S0
M106 S255
G1 X44.134 Y11.21 F400
M106 S0
M106 S255
G1 X44.2 Y10.963 F400
M106 S0
M106 S255
G1 X44.212 Y10.697 F400
M106 S0
M106 S255
G1 X44.24 Y10.493 F400
M106 S0
M106 S255
G1 X44.3 Y10.287 F400
M106 S0
G0 X40.412 Y14.333 F6000
M106 S255
G1 X40.412 Y14.333 F400
M106 S0
M106 S255
G1 X40.446 Y14.113 F400
M106 S0
M106 S255
G1 X40.448 Y13.89 F400
M106 S0
M106 S255
G1 X40.455 Y13.667 F400
M106 S0
M106 S255
G1 X40.502 Y13.446 F400
M106 S0
M106 S255
G1 X40.585 Y13.262 F400
M106 S0
M106 S255
G1 X40.694 Y13.104 F400
M106 S0
M106 S255
G1 X40.835 Y12.987 F400
M106 S0
M106 S255
G1 X41.014 Y12.922 F400
M106 S0
M106 S255
G1 X41.366 Y12.863 F400
M106 S0
M106 S255
G1 X41.742 Y12.854 F400
M106 S0
M106 S255
G1 X42.194 Y12.892 F400
M106 S0
M106 S255
G1 X42.648 Y12.887 F400
M106 S0
M106 S255
G1 X42.871 Y12.855 F400
M106 S0
M106 S255
G1 X43.091 Y12.794 F400
M106 S0
M106 S255
G1 X43.305 Y12.7 F400
M106 S0
M106 S255
G1 X43.513 Y12.567 F400
M106 S0
M106 S255
G1 X43.648 Y12.449 F400
M106 S0
M106 S255
G1 X43.749 Y12.318 F400
M106 S0
M106 S255
G1 X43.81 Y12.168 F400
M106 S0
M106 S255
G1 X43.823 Y11.994 F400
M106 S0
M106 S255
G1 X43.85 Y11.827 F400
M106 S0
M106 S255
G1 X43.921 Y11.678 F400
M106 S0
M106 S255
G1 X44.134 Y11.21 F400
M106 S0
M106 S255
G1 X44.2 Y10.963 F400
M106 S0
M106 S255
G1 X44.212 Y10.697 F400
M106 S0
M106 S255
G1 X44.24 Y10.493 F400
M106 S0
M106 S255
G1 X44.3 Y10.287 F400
M106 S0
G0 X29.696 Y29.269 F6000
M106 S255
G1 X29.696 Y29.269 F400
M106 S0
M106 S255
G1 X29.769 Y29.042 F400
M106 S0
M106 S255
G1 X29.799 Y28.82 F400
M106 S0
M106 S255
G1 X29.791 Y28.602 F400
M106 S0
M106 S255
G1 X29.748 Y28.388 F400
M106 S0
M106 S255
G1 X29.675 Y28.18 F400
M106 S0
M106 S255
G1 X29.577 Y27.977 F400
M106 S0
M106 S255
G1 X29.337 Y27.59 F400
M106 S0
M106 S255
G1 X28.818 Y26.843 F400
M106 S0
M106 S255
G1 X28.755 Y26.748 F400
M106 S0
M106 S255
G1 X28.724 Y26.701 F400
M106 S0
M106 S255
G1 X28.697 Y26.659 F400
M106 S0
M106 S255
G1 X28.664 Y26.605 F400
M106 S0
M106 S255
G1 X28.544 Y26.387 F400
M106 S0
M106 S255
G1 X28.444 Y26.166 F400
M106 S0
M106 S255
G1 X28.362 Y25.944 F400
M106 S0
M106 S255
G1 X28.298 Y25.719 F400
M106 S0
M106 S255
G1 X28.251 Y25.491 F400
M106 S0
M106 S255
G1 X28.221 Y25.262 F400
M106 S0
M106 S255
G1 X28.206 Y24.798 F400
M106 S0
M106 S255
G1 X28.249 Y24.327 F400
M106 S0
M106 S255
G1 X28.342 Y23.848 F400
M106 S0
M106 S255
G1 X28.37 Y23.734 F400
M106 S0
M106 S255
G1 X28.395 Y23.643 F400
M106 S0
M106 S255
G1 X28.447 Y23.461 F400
M106 S0
M106 S255
G1 X28.688 Y22.747 F400
M106 S0
M106 S255
G1 X28.949 Y22.041 F400
M106 S0
M106 S255
G1 X29.075 Y21.687 F400
M106 S0
M106 S255
G1 X29.135 Y21.509 F400
M106 S0
M106 S255
G1 X29.152 Y21.458 F400
M106 S0
M106 S255
G1 X29.175 Y21.383 F400
M106 S0
M106 S255
G1 X29.222 Y21.232 F400
M106 S0
M106 S255
G1 X29.388 Y20.628 F400
M106 S0
M106 S255
G1 X29.511 Y20.021 F400
M106 S0
M106 S255
G1 X29.576 Y19.41 F400
M106 S0
M106 S255
G1 X29.583 Y19.103 F400
M106 S0
M106 S255
G1 X29.571 Y18.795 F400
M106 S0
M106 S255
G1 X29.537 Y18.486 F400
M106 S0
M106 S255
G1 X29.48 Y18.177 F400
M106 S0
M106 S255
G1 X29.398 Y17.866 F400
M106 S0
M106 S255
G1 X29.29 Y17.555 F400
M106 S0
M106 S255
G1 X29.132 Y17.218 F400
M106 S0
M106 S255
G1 X28.956 Y16.892 F400
M106 S0
M106 S255
G1 X28.797 Y16.556 F400
M106 S0
M106 S255
G1 X28.731 Y16.366 F400
M106 S0
M106 S255
G1 X28.684 Y16.169 F400
M106 S0
M106 S255
G1 X28.657 Y15.973 F400
M106 S0
M106 S255
G1 X28.647 Y15.777 F400
M106 S0
M106 S255
G1 X28.676 Y15.379 F400
M106 S0
M106 S255
G1 X28.74 Y14.953 F400
M106 S0
M106 S255
G1 X28.752 Y14.733 F400
M106 S0
M106 S255
G1 X28.744 Y14.514 F400
M106 S0
M106 S255
G1 X28.712 Y14.295 F400
M106 S0
M106 S255
G1 X28.65 Y14.079 F400
M106 S0
M106 S255
G1 X28.555 Y13.866 F400
M106 S0
M106 S255
G1 X28.433 Y13.649 F400
M106 S0
M106 S255
G1 X28.216 Y13.199 F400
M106 S0
M106 S255
G1 X28.137 Y12.965 F400
M106 S0
M106 S255
G1 X28.086 Y12.721 F400
M106 S0
M106 S255
G1 X28.071 Y12.468 F400
M106 S0
M106 S255
G1 X28.078 Y12.336 F400
M106 S0
M106 S255
G1 X28.081 Y12.309 F400
M106 S0
M106 S255
G1 X28.082 Y12.305 F400
M106 S0
M106 S255
G1 X28.082 Y12.298 F400
M106 S0
M106 S255
G1 X28.078 Y12.239 F400
M106 S0
M106 S255
G1 X28.052 Y12.12 F400
M106 S0
G0 X29.696 Y29.269 F6000
M106 S255
G1 X29.696 Y29.269 F400
M106 S0
M106 S255
G1 X29.769 Y29.042 F400
M106 S0
M106 S255
G1 X29.799 Y28.82 F400
M106 S0
M106 S255
G1 X29.791 Y28.602 F400
M106 S0
M106 S255
G1 X29.748 Y28.388 F400
M106 S0
M106 S255
G1 X29.675 Y28.18 F400
M106 S0
M106 S255
G1 X29.577 Y27.977 F400
M106 S0
M106 S255
G1 X29.337 Y27.59 F400
M106 S0
M106 S255
G1 X28.818 Y26.843 F400
M106 S0
M106 S255
G1 X28.755 Y26.748 F400
M106 S0
M106 S255
G1 X28.724 Y26.701 F400
M106 S0
M106 S255
G1 X28.697 Y26.659 F400
M106 S0
M106 S255
G1 X28.664 Y26.605 F400
M106 S0
M106 S255
G1 X28.544 Y26.387 F400
M106 S0
M106 S255
G1 X28.444 Y26.166 F400
M106 S0
M106 S255
G1 X28.362 Y25.944 F400
M106 S0
M106 S255
G1 X28.298 Y25.719 F400
M106 S0
M106 S255
G1 X28.251 Y25.491 F400
M106 S0
M106 S255
G1 X28.221 Y25.262 F400
M106 S0
M106 S255
G1 X28.206 Y24.798 F400
M106 S0
M106 S255
G1 X28.249 Y24.327 F400
M106 S0
M106 S255
G1 X28.342 Y23.848 F400
M106 S0
M106 S255
G1 X28.37 Y23.734 F400
M106 S0
M106 S255
G1 X28.395 Y23.643 F400
M106 S0
M106 S255
G1 X28.447 Y23.461 F400
M106 S0
M106 S255
G1 X28.688 Y22.747 F400
M106 S0
M106 S255
G1 X28.949 Y22.041 F400
M106 S0
M106 S255
G1 X29.075 Y21.687 F400
M106 S0
M106 S255
G1 X29.135 Y21.509 F400
M106 S0
M106 S255
G1 X29.152 Y21.458 F400
M106 S0
M106 S255
G1 X29.175 Y21.383 F400
M106 S0
M106 S255
G1 X29.222 Y21.232 F400
M106 S0
M106 S255
G1 X29.388 Y20.628 F400
M106 S0
M106 S255
G1 X29.511 Y20.021 F400
M106 S0
M106 S255
G1 X29.576 Y19.41 F400
M106 S0
M106 S255
G1 X29.583 Y19.103 F400
M106 S0
M106 S255
G1 X29.571 Y18.795 F400
M106 S0
M106 S255
G1 X29.537 Y18.486 F400
M106 S0
M106 S255
G1 X29.48 Y18.177 F400
M106 S0
M106 S255
G1 X29.398 Y17.866 F400
M106 S0
M106 S255
G1 X29.29 Y17.555 F400
M106 S0
M106 S255
G1 X29.132 Y17.218 F400
M106 S0
M106 S255
G1 X28.956 Y16.892 F400
M106 S0
M106 S255
G1 X28.797 Y16.556 F400
M106 S0
M106 S255
G1 X28.731 Y16.366 F400
M106 S0
M106 S255
G1 X28.684 Y16.169 F400
M106 S0
M106 S255
G1 X28.657 Y15.973 F400
M106 S0
M106 S255
G1 X28.647 Y15.777 F400
M106 S0
M106 S255
G1 X28.676 Y15.379 F400
M106 S0
M106 S255
G1 X28.74 Y14.953 F400
M106 S0
M106 S255
G1 X28.752 Y14.733 F400
M106 S0
M106 S255
G1 X28.744 Y14.514 F400
M106 S0
M106 S255
G1 X28.712 Y14.295 F400
M106 S0
M106 S255
G1 X28.65 Y14.079 F400
M106 S0
M106 S255
G1 X28.555 Y13.866 F400
M106 S0
M106 S255
G1 X28.433 Y13.649 F400
M106 S0
M106 S255
G1 X28.216 Y13.199 F400
M106 S0
M106 S255
G1 X28.137 Y12.965 F400
M106 S0
M106 S255
G1 X28.086 Y12.721 F400
M106 S0
M106 S255
G1 X28.071 Y12.468 F400
M106 S0
M106 S255
G1 X28.078 Y12.336 F400
M106 S0
M106 S255
G1 X28.081 Y12.309 F400
M106 S0
M106 S255
G1 X28.082 Y12.305 F400
M106 S0
M106 S255
G1 X28.082 Y12.298 F400
M106 S0
M106 S255
G1 X28.078 Y12.239 F400
M106 S0
M106 S255
G1 X28.052 Y12.12 F400
M106 S0
G0 X29.696 Y29.269 F6000
M106 S255
G1 X29.696 Y29.269 F400
M106 S0
M106 S255
G1 X29.769 Y29.042 F400
M106 S0
M106 S255
G1 X29.799 Y28.82 F400
M106 S0
M106 S255
G1 X29.791 Y28.602 F400
M106 S0
M106 S255
G1 X29.748 Y28.388 F400
M106 S0
M106 S255
G1 X29.675 Y28.18 F400
M106 S0
M106 S255
G1 X29.577 Y27.977 F400
M106 S0
M106 S255
G1 X29.337 Y27.59 F400
M106 S0
M106 S255
G1 X28.818 Y26.843 F400
M106 S0
M106 S255
G1 X28.755 Y26.748 F400
M106 S0
M106 S255
G1 X28.724 Y26.701 F400
M106 S0
M106 S255
G1 X28.697 Y26.659 F400
M106 S0
M106 S255
G1 X28.664 Y26.605 F400
M106 S0
M106 S255
G1 X28.544 Y26.387 F400
M106 S0
M106 S255
G1 X28.444 Y26.166 F400
M106 S0
M106 S255
G1 X28.362 Y25.944 F400
M106 S0
M106 S255
G1 X28.298 Y25.719 F400
M106 S0
M106 S255
G1 X28.251 Y25.491 F400
M106 S0
M106 S255
G1 X28.221 Y25.262 F400
M106 S0
M106 S255
G1 X28.206 Y24.798 F400
M106 S0
M106 S255
G1 X28.249 Y24.327 F400
M106 S0
M106 S255
G1 X28.342 Y23.848 F400
M106 S0
M106 S255
G1 X28.37 Y23.734 F400
M106 S0
M106 S255
G1 X28.395 Y23.643 F400
M106 S0
M106 S255
G1 X28.447 Y23.461 F400
M106 S0
M106 S255
G1 X28.688 Y22.747 F400
M106 S0
M106 S255
G1 X28.949 Y22.041 F400
M106 S0
M106 S255
G1 X29.075 Y21.687 F400
M106 S0
M106 S255
G1 X29.135 Y21.509 F400
M106 S0
M106 S255
G1 X29.152 Y21.458 F400
M106 S0
M106 S255
G1 X29.175 Y21.383 F400
M106 S0
M106 S255
G1 X29.222 Y21.232 F400
M106 S0
M106 S255
G1 X29.388 Y20.628 F400
M106 S0
M106 S255
G1 X29.511 Y20.021 F400
M106 S0
M106 S255
G1 X29.576 Y19.41 F400
M106 S0
M106 S255
G1 X29.583 Y19.103 F400
M106 S0
M106 S255
G1 X29.571 Y18.795 F400
M106 S0
M106 S255
G1 X29.537 Y18.486 F400
M106 S0
M106 S255
G1 X29.48 Y18.177 F400
M106 S0
M106 S255
G1 X29.398 Y17.866 F400
M106 S0
M106 S255
G1 X29.29 Y17.555 F400
M106 S0
M106 S255
G1 X29.132 Y17.218 F400
M106 S0
M106 S255
G1 X28.956 Y16.892 F400
M106 S0
M106 S255
G1 X28.797 Y16.556 F400
M106 S0
M106 S255
G1 X28.731 Y16.366 F400
M106 S0
M106 S255
G1 X28.684 Y16.169 F400
M106 S0
M106 S255
G1 X28.657 Y15.973 F400
M106 S0
M106 S255
G1 X28.647 Y15.777 F400
M106 S0
M106 S255
G1 X28.676 Y15.379 F400
M106 S0
M106 S255
G1 X28.74 Y14.953 F400
M106 S0
M106 S255
G1 X28.752 Y14.733 F400
M106 S0
M106 S255
G1 X28.744 Y14.514 F400
M106 S0
M106 S255
G1 X28.712 Y14.295 F400
M106 S0
M106 S255
G1 X28.65 Y14.079 F400
M106 S0
M106 S255
G1 X28.555 Y13.866 F400
M106 S0
M106 S255
G1 X28.433 Y13.649 F400
M106 S0
M106 S255
G1 X28.216 Y13.199 F400
M106 S0
M106 S255
G1 X28.137 Y12.965 F400
M106 S0
M106 S255
G1 X28.086 Y12.721 F400
M106 S0
M106 S255
G1 X28.071 Y12.468 F400
M106 S0
M106 S255
G1 X28.078 Y12.336 F400
M106 S0
M106 S255
G1 X28.081 Y12.309 F400
M106 S0
M106 S255
G1 X28.082 Y12.305 F400
M106 S0
M106 S255
G1 X28.082 Y12.298 F400
M106 S0
M106 S255
G1 X28.078 Y12.239 F400
M106 S0
M106 S255
G1 X28.052 Y12.12 F400
M106 S0
G0 X44.647 Y26.645 F6000
M106 S255
G1 X44.647 Y26.645 F400
M106 S0
M106 S255
G1 X44.543 Y26.509 F400
M106 S0
M106 S255
G1 X44.468 Y26.345 F400
M106 S0
M106 S255
G1 X44.426 Y26.164 F400
M106 S0
M106 S255
G1 X44.418 Y25.974 F400
M106 S0
M106 S255
G1 X44.444 Y25.785 F400
M106 S0
M106 S255
G1 X44.507 Y25.607 F400
M106 S0
M106 S255
G1 X44.607 Y25.448 F400
M106 S0
M106 S255
G1 X44.778 Y25.224 F400
M106 S0
M106 S255
G1 X44.838 Y25.116 F400
M106 S0
M106 S255
G1 X44.88 Y25.012 F400
M106 S0
M106 S255
G1 X44.904 Y24.913 F400
M106 S0
M106 S255
G1 X44.913 Y24.817 F400
M106 S0
M106 S255
G1 X44.889 Y24.635 F400
M106 S0
M106 S255
G1 X44.818 Y24.461 F400
M106 S0
M106 S255
G1 X44.71 Y24.289 F400
M106 S0
M106 S255
G1 X44.576 Y24.115 F400
M106 S0
M106 S255
G1 X44.33 Y23.787 F400
M106 S0
M106 S255
G1 X44.13 Y23.445 F400
M106 S0
M106 S255
G1 X43.977 Y23.084 F400
M106 S0
M106 S255
G1 X43.919 Y22.896 F400
M106 S0
M106 S255
G1 X43.898 Y22.811 F400
M106 S0
M106 S255
G1 X43.885 Y22.747 F400
M106 S0
M106 S255
G1 X43.872 Y22.617 F400
M106 S0
M106 S255
G1 X43.876 Y22.485 F400
M106 S0
M106 S255
G1 X43.899 Y22.356 F400
M106 S0
M106 S255
G1 X43.941 Y22.23 F400
M106 S0
M106 S255
G1 X44.006 Y22.11 F400
M106 S0
M106 S255
G1 X44.095 Y21.998 F400
M106 S0
M106 S255
G1 X44.194 Y21.907 F400
M106 S0
M106 S255
G1 X44.289 Y21.846 F400
M106 S0
M106 S255
G1 X44.384 Y21.808 F400
M106 S0
M106 S255
G1 X44.48 Y21.793 F400
M106 S0
M106 S255
G1 X44.577 Y21.801 F400
M106 S0
M106 S255
G1 X44.677 Y21.83 F400
M106 S0
M106 S255
G1 X44.78 Y21.88 F400
M106 S0
M106 S255
G1 X44.891 Y21.953 F400
M106 S0
M106 S255
G1 X45.318 Y22.329 F400
M106 S0
M106 S255
G1 X45.543 Y22.505 F400
M106 S0
M106 S255
G1 X45.678 Y22.585 F400
M106 S0
M106 S255
G1 X45.818 Y22.656 F400
M106 S0
M106 S255
G1 X45.936 Y22.699 F400
M106 S0
M106 S255
G1 X46.04 Y22.713 F400
M106 S0
M106 S255
G1 X46.138 Y22.698 F400
M106 S0
M106 S255
G1 X46.239 Y22.652 F400
M106 S0
M106 S255
G1 X46.35 Y22.573 F400
M106 S0
M106 S255
G1 X46.413 Y22.521 F400
M106 S0
M106 S255
G1 X46.446 Y22.492 F400
M106 S0
M106 S255
G1 X46.465 Y22.476 F400
M106 S0
M106 S255
G1 X46.608 Y22.377 F400
M106 S0
M106 S255
G1 X46.766 Y22.31 F400
M106 S0
M106 S255
G1 X46.937 Y22.271 F400
M106 S0
M106 S255
G1 X47.036 Y22.26 F400
M106 S0
M106 S255
G1 X47.201 Y22.244 F400
M106 S0
M106 S255
G1 X47.53 Y22.202 F400
M106 S0
M106 S255
G1 X48.188 Y22.109 F400
M106 S0
G0 X44.647 Y26.645 F6000
M106 S255
G1 X44.647 Y26.645 F400
M106 S0
M106 S255
G1 X44.543 Y26.509 F400
M106 S0
M106 S255
G1 X44.468 Y26.345 F400
M106 S0
M106 S255
G1 X44.426 Y26.164 F400
M106 S0
M106 S255
G1 X44.418 Y25.974 F400
M106 S0
M106 S255
G1 X44.444 Y25.785 F400
M106 S0
M106 S255
G1 X44.507 Y25.607 F400
M106 S0
M106 S255
G1 X44.607 Y25.448 F400
M106 S0
M106 S255
G1 X44.778 Y25.224 F400
M106 S0
M106 S255
G1 X44.838 Y25.116 F400
M106 S0
M106 S255
G1 X44.88 Y25.012 F400
M106 S0
M106 S255
G1 X44.904 Y24.913 F400
M106 S0
M106 S255
G1 X44.913 Y24.817 F400
M106 S0
M106 S255
G1 X44.889 Y24.635 F400
M106 S0
M106 S255
G1 X44.818 Y24.461 F400
M106 S0
M106 S255
G1 X44.71 Y24.289 F400
M106 S0
M106 S255
G1 X44.576 Y24.115 F400
M106 S0
M106 S255
G1 X44.33 Y23.787 F400
M106 S0
M106 S255
G1 X44.13 Y23.445 F400
M106 S0
M106 S255
G1 X43.977 Y23.084 F400
M106 S0
M106 S255
G1 X43.919 Y22.896 F400
M106 S0
M106 S255
G1 X43.898 Y22.811 F400
M106 S0
M106 S255
G1 X43.885 Y22.747 F400
M106 S0
M106 S255
G1 X43.872 Y22.617 F400
M106 S0
M106 S255
G1 X43.876 Y22.485 F400
M106 S0
M106 S255
G1 X43.899 Y22.356 F400
M106 S0
M106 S255
G1 X43.941 Y22.23 F400
M106 S0
M106 S255
G1 X44.006 Y22.11 F400
M106 S0
M106 S255
G1 X44.095 Y21.998 F400
M106 S0
M106 S255
G1 X44.194 Y21.907 F400
M106 S0
M106 S255
G1 X44.289 Y21.846 F400
M106 S0
M106 S255
G1 X44.384 Y21.808 F400
M106 S0
M106 S255
G1 X44.48 Y21.793 F400
M106 S0
M106 S255
G1 X44.577 Y21.801 F400
M106 S0
M106 S255
G1 X44.677 Y21.83 F400
M106 S0
M106 S255
G1 X44.78 Y21.88 F400
M106 S0
M106 S255
G1 X44.891 Y21.953 F400
M106 S0
M106 S255
G1 X45.318 Y22.329 F400
M106 S0
M106 S255
G1 X45.543 Y22.505 F400
M106 S0
M106 S255
G1 X45.678 Y22.585 F400
M106 S0
M106 S255
G1 X45.818 Y22.656 F400
M106 S0
M106 S255
G1 X45.936 Y22.699 F400
M106 S0
M106 S255
G1 X46.04 Y22.713 F400
M106 S0
M106 S255
G1 X46.138 Y22.698 F400
M106 S0
M106 S255
G1 X46.239 Y22.652 F400
M106 S0
M106 S255
G1 X46.35 Y22.573 F400
M106 S0
M106 S255
G1 X46.413 Y22.521 F400
M106 S0
M106 S255
G1 X46.446 Y22.492 F400
M106 S0
M106 S255
G1 X46.465 Y22.476 F400
M106 S0
M106 S255
G1 X46.608 Y22.377 F400
M106 S0
M106 S255
G1 X46.766 Y22.31 F400
M106 S0
M106 S255
G1 X46.937 Y22.271 F400
M106 S0
M106 S255
G1 X47.036 Y22.26 F400
M106 S0
M106 S255
G1 X47.201 Y22.244 F400
M106 S0
M106 S255
G1 X47.53 Y22.202 F400
M106 S0
M106 S255
G1 X48.188 Y22.109 F400
M106 S0
G0 X44.647 Y26.645 F6000
M106 S255
G1 X44.647 Y26.645 F400
M106 S0
M106 S255
G1 X44.543 Y26.509 F400
M106 S0
M106 S255
G1 X44.468 Y26.345 F400
M106 S0
M106 S255
G1 X44.426 Y26.164 F400
M106 S0
M106 S255
G1 X44.418 Y25.974 F400
M106 S0
M106 S255
G1 X44.444 Y25.785 F400
M106 S0
M106 S255
G1 X44.507 Y25.607 F400
M106 S0
M106 S255
G1 X44.607 Y25.448 F400
M106 S0
M106 S255
G1 X44.778 Y25.224 F400
M106 S0
M106 S255
G1 X44.838 Y25.116 F400
M106 S0
M106 S255
G1 X44.88 Y25.012 F400
M106 S0
M106 S255
G1 X44.904 Y24.913 F400
M106 S0
M106 S255
G1 X44.913 Y24.817 F400
M106 S0
M106 S255
G1 X44.889 Y24.635 F400
M106 S0
M106 S255
G1 X44.818 Y24.461 F400
M106 S0
M106 S255
G1 X44.71 Y24.289 F400
M106 S0
M106 S255
G1 X44.576 Y24.115 F400
M106 S0
M106 S255
G1 X44.33 Y23.787 F400
M106 S0
M106 S255
G1 X44.13 Y23.445 F400
M106 S0
M106 S255
G1 X43.977 Y23.084 F400
M106 S0
M106 S255
G1 X43.919 Y22.896 F400
M106 S0
M106 S255
G1 X43.898 Y22.811 F400
M106 S0
M106 S255
G1 X43.885 Y22.747 F400
M106 S0
M106 S255
G1 X43.872 Y22.617 F400
M106 S0
M106 S255
G1 X43.876 Y22.485 F400
M106 S0
M106 S255
G1 X43.899 Y22.356 F400
M106 S0
M106 S255
G1 X43.941 Y22.23 F400
M106 S0
M106 S255
G1 X44.006 Y22.11 F400
M106 S0
M106 S255
G1 X44.095 Y21.998 F400
M106 S0
M106 S255
G1 X44.194 Y21.907 F400
M106 S0
M106 S255
G1 X44.289 Y21.846 F400
M106 S0
M106 S255
G1 X44.384 Y21.808 F400
M106 S0
M106 S255
G1 X44.48 Y21.793 F400
M106 S0
M106 S255
G1 X44.577 Y21.801 F400
M106 S0
M106 S255
G1 X44.677 Y21.83 F400
M106 S0
M106 S255
G1 X44.78 Y21.88 F400
M106 S0
M106 S255
G1 X44.891 Y21.953 F400
M106 S0
M106 S255
G1 X45.318 Y22.329 F400
M106 S0
M106 S255
G1 X45.543 Y22.505 F400
M106 S0
M106 S255
G1 X45.678 Y22.585 F400
M106 S0
M106 S255
G1 X45.818 Y22.656 F400
M106 S0
M106 S255
G1 X45.936 Y22.699 F400
M106 S0
M106 S255
G1 X46.04 Y22.713 F400
M106 S0
M106 S255
G1 X46.138 Y22.698 F400
M106 S0
M106 S255
G1 X46.239 Y22.652 F400
M106 S0
M106 S255
G1 X46.35 Y22.573 F400
M106 S0
M106 S255
G1 X46.413 Y22.521 F400
M106 S0
M106 S255
G1 X46.446 Y22.492 F400
M106 S0
M106 S255
G1 X46.465 Y22.476 F400
M106 S0
M106 S255
G1 X46.608 Y22.377 F400
M106 S0
M106 S255
G1 X46.766 Y22.31 F400
M106 S0
M106 S255
G1 X46.937 Y22.271 F400
M106 S0
M106 S255
G1 X47.036 Y22.26 F400
M106 S0
M106 S255
G1 X47.201 Y22.244 F400
M106 S0
M106 S255
G1 X47.53 Y22.202 F400
M106 S0
M106 S255
G1 X48.188 Y22.109 F400
M106 S0
G0 X9.402 Y35.101 F6000
M106 S255
G1 X9.402 Y35.101 F400
M106 S0
M106 S255
G1 X9.652 Y34.172 F400
M106 S0
M106 S255
G1 X9.968 Y33.266 F400
M106 S0
M106 S255
G1 X10.644 Y31.469 F400
M106 S0
M106 S255
G1 X10.856 Y30.777 F400
M106 S0
M106 S255
G1 X11.004 Y30.079 F400
M106 S0
M106 S255
G1 X11.079 Y29.371 F400
M106 S0
M106 S255
G1 X11.072 Y28.653 F400
M106 S0
M106 S255
G1 X11.003 Y28.226 F400
M106 S0
M106 S255
G1 X10.872 Y27.818 F400
M106 S0
M106 S255
G1 X10.697 Y27.425 F400
M106 S0
M106 S255
G1 X10.498 Y27.046 F400
M106 S0
M106 S255
G1 X10.343 Y26.684 F400
M106 S0
M106 S255
G1 X10.273 Y26.322 F400
M106 S0
M106 S255
G1 X10.279 Y25.957 F400
M106 S0
M106 S255
G1 X10.356 Y25.588 F400
M106 S0
M106 S255
G1 X10.534 Y25.039 F400
M106 S0
M106 S255
G1 X10.769 Y24.516 F400
M106 S0
M106 S255
G1 X10.911 Y24.22 F400
M106 S0
M106 S255
G1 X11.01 Y23.925 F400
M106 S0
M106 S255
G1 X11.068 Y23.633 F400
M106 S0
M106 S255
G1 X11.085 Y23.341 F400
M106 S0
M106 S255
G1 X11.063 Y23.049 F400
M106 S0
M106 S255
G1 X11.002 Y22.757 F400
M106 S0
M106 S255
G1 X10.904 Y22.464 F400
M106 S0
M106 S255
G1 X10.768 Y22.169 F400
M106 S0
M106 S255
G1 X10.6 Y21.775 F400
M106 S0
M106 S255
G1 X10.507 Y21.35 F400
M106 S0
M106 S255
G1 X10.422 Y21.095 F400
M106 S0
M106 S255
G1 X10.287 Y20.86 F400
M106 S0
G0 X9.402 Y35.101 F6000
M106 S255
G1 X9.402 Y35.101 F400
M106 S0
M106 S255
G1 X9.652 Y34.172 F400
M106 S0
M106 S255
G1 X9.968 Y33.266 F400
M106 S0
M106 S255
G1 X10.644 Y31.469 F400
M106 S0
M106 S255
G1 X10.856 Y30.777 F400
M106 S0
M106 S255
G1 X11.004 Y30.079 F400
M106 S0
M106 S255
G1 X11.079 Y29.371 F400
M106 S0
M106 S255
G1 X11.072 Y28.653 F400
M106 S0
M106 S255
G1 X11.003 Y28.226 F400
M106 S0
M106 S255
G1 X10.872 Y27.818 F400
M106 S0
M106 S255
G1 X10.697 Y27.425 F400
M106 S0
M106 S255
G1 X10.498 Y27.046 F400
M106 S0
M106 S255
G1 X10.343 Y26.684 F400
M106 S0
M106 S255
G1 X10.273 Y26.322 F400
M106 S0
M106 S255
G1 X10.279 Y25.957 F400
M106 S0
M106 S255
G1 X10.356 Y25.588 F400
M106 S0
M106 S255
G1 X10.534 Y25.039 F400
M106 S0
M106 S255
G1 X10.769 Y24.516 F400
M106 S0
M106 S255
G1 X10.911 Y24.22 F400
M106 S0
M106 S255
G1 X11.01 Y23.925 F400
M106 S0
M106 S255
G1 X11.068 Y23.633 F400
M106 S0
M106 S255
G1 X11.085 Y23.341 F400
M106 S0
M106 S255
G1 X11.063 Y23.049 F400
M106 S0
M106 S255
G1 X11.002 Y22.757 F400
M106 S0
M106 S255
G1 X10.904 Y22.464 F400
M106 S0
M106 S255
G1 X10.768 Y22.169 F400
M106 S0
M106 S255
G1 X10.6 Y21.775 F400
M106 S0
M106 S255
G1 X10.507 Y21.35 F400
M106 S0
M106 S255
G1 X10.422 Y21.095 F400
M106 S0
M106 S255
G1 X10.287 Y20.86 F400
M106 S0
G0 X9.402 Y35.101 F6000
M106 S255
G1 X9.402 Y35.101 F400
M106 S0
M106 S255
G1 X9.652 Y34.172 F400
M106 S0
M106 S255
G1 X9.968 Y33.266 F400
M106 S0
M106 S255
G1 X10.644 Y31.469 F400
M106 S0
M106 S255
G1 X10.856 Y30.777 F400
M106 S0
M106 S255
G1 X11.004 Y30.079 F400
M106 S0
M106 S255
G1 X11.079 Y29.371 F400
M106 S0
M106 S255
G1 X11.072 Y28.653 F400
M106 S0
M106 S255
G1 X11.003 Y28.226 F400
M106 S0
M106 S255
G1 X10.872 Y27.818 F400
M106 S0
M106 S255
G1 X10.697 Y27.425 F400
M106 S0
M106 S255
G1 X10.498 Y27.046 F400
M106 S0
M106 S255
G1 X10.343 Y26.684 F400
M106 S0
M106 S255
G1 X10.273 Y26.322 F400
M106 S0
M106 S255
G1 X10.279 Y25.957 F400
M106 S0
M106 S255
G1 X10.356 Y25.588 F400
M106 S0
M106 S255
G1 X10.534 Y25.039 F400
M106 S0
M106 S255
G1 X10.769 Y24.516 F400
M106 S0
M106 S255
G1 X10.911 Y24.22 F400
M106 S0
M106 S255
G1 X11.01 Y23.925 F400
M106 S0
M106 S255
G1 X11.068 Y23.633 F400
M106 S0
M106 S255
G1 X11.085 Y23.341 F400
M106 S0
M106 S255
G1 X11.063 Y23.049 F400
M106 S0
M106 S255
G1 X11.002 Y22.757 F400
M106 S0
M106 S255
G1 X10.904 Y22.464 F400
M106 S0
M106 S255
G1 X10.768 Y22.169 F400
M106 S0
M106 S255
G1 X10.6 Y21.775 F400
M106 S0
M106 S255
G1 X10.507 Y21.35 F400
M106 S0
M106 S255
G1 X10.422 Y21.095 F400
M106 S0
M106 S255
G1 X10.287 Y20.86 F400
M106 S0
G0 X39.748 Y33.109 F6000
M106 S255
G1 X39.748 Y33.109 F400
M106 S0
M106 S255
G1 X39.307 Y33.817 F400
M106 S0
M106 S255
G1 X39.173 Y33.981 F400
M106 S0
M106 S255
G1 X39.09 Y34.068 F400
M106 S0
M106 S255
G1 X38.986 Y34.165 F400
M106 S0
M106 S255
G1 X38.766 Y34.334 F400
M106 S0
M106 S255
G1 X38.533 Y34.471 F400
M106 S0
M106 S255
G1 X38.287 Y34.575 F400
M106 S0
M106 S255
G1 X38.029 Y34.648 F400
M106 S0
M106 S255
G1 X37.742 Y34.697 F400
M106 S0
M106 S255
G1 X37.432 Y34.77 F400
M106 S0
M106 S255
G1 X37.138 Y34.875 F400
M106 S0
M106 S255
G1 X36.859 Y35.008 F400
M106 S0
M106 S255
G1 X36.332 Y35.351 F400
M106 S0
M106 S255
G1 X36.031 Y35.563 F400
M106 S0
M106 S255
G1 X35.709 Y35.738 F400
M106 S0
M106 S255
G1 X35.538 Y35.805 F400
M106 S0
M106 S255
G1 X35.494 Y35.82 F400
M106 S0
M106 S255
G1 X35.418 Y35.841 F400
M106 S0
M106 S255
G1 X35.236 Y35.882 F400
M106 S0
M106 S255
G1 X34.881 Y35.916 F400
M106 S0
M106 S255
G1 X34.537 Y35.884 F400
M106 S0
M106 S255
G1 X34.204 Y35.786 F400
M106 S0
M106 S255
G1 X33.885 Y35.624 F400
M106 S0
M106 S255
G1 X33.73 Y35.519 F400
M106 S0
M106 S255
G1 X33.664 Y35.469 F400
M106 S0
M106 S255
G1 X33.621 Y35.436 F400
M106 S0
M106 S255
G1 X33.447 Y35.308 F400
M106 S0
M106 S255
G1 X33.079 Y35.087 F400
M106 S0
M106 S255
G1 X32.668 Y34.939 F400
M106 S0
M106 S255
G1 X32.389 Y34.889 F400
M106 S0
M106 S255
G1 X32.113 Y34.868 F400
M106 S0
M106 S255
G1 X31.839 Y34.879 F400
M106 S0
M106 S255
G1 X31.569 Y34.923 F400
M106 S0
M106 S255
G1 X31.302 Y35.005 F400
M106 S0
M106 S255
G1 X31.07 Y35.104 F400
M106 S0
M106 S255
G1 X30.643 Y35.304 F400
M106 S0
M106 S255
G1 X30.217 Y35.508 F400
M106 S0
M106 S255
G1 X30.11 Y35.558 F400
M106 S0
M106 S255
G1 X30.084 Y35.57 F400
M106 S0
M106 S255
G1 X30.037 Y35.591 F400
M106 S0
M106 S255
G1 X29.924 Y35.638 F400
M106 S0
M106 S255
G1 X29.472 Y35.769 F400
M106 S0
M106 S255
G1 X29.022 Y35.815 F400
M106 S0
M106 S255
G1 X28.572 Y35.787 F400
M106 S0
M106 S255
G1 X28.122 Y35.694 F400
M106 S0
M106 S255
G1 X27.672 Y35.546 F400
M106 S0
M106 S255
G1 X27.076 Y35.277 F400
M106 S0
M106 S255
G1 X26.504 Y34.964 F400
M106 S0
M106 S255
G1 X26.22 Y34.804 F400
M106 S0
M106 S255
G1 X25.897 Y34.627 F400
M106 S0
M106 S255
G1 X25.204 Y34.277 F400
M106 S0
M106 S255
G1 X24.48 Y33.997 F400
M106 S0
M106 S255
G1 X24.292 Y33.943 F400
M106 S0
M106 S255
G1 X24.21 Y33.923 F400
M106 S0
M106 S255
G1 X24.157 Y33.911 F400
M106 S0
M106 S255
G1 X23.945 Y33.874 F400
M106 S0
M106 S255
G1 X23.518 Y33.84 F400
M106 S0
M106 S255
G1 X23.089 Y33.836 F400
M106 S0
G0 X39.748 Y33.109 F6000
M106 S255
G1 X39.748 Y33.109 F400
M106 S0
M106 S255
G1 X39.307 Y33.817 F400
M106 S0
M106 S255
G1 X39.173 Y33.981 F400
M106 S0
M106 S255
G1 X39.09 Y34.068 F400
M106 S0
M106 S255
G1 X38.986 Y34.165 F400
M106 S0
M106 S255
G1 X38.766 Y34.334 F400
M106 S0
M106 S255
G1 X38.533 Y34.471 F400
M106 S0
M106 S255
G1 X38.287 Y34.575 F400
M106 S0
M106 S255
G1 X38.029 Y34.648 F400
M106 S0
M106 S255
G1 X37.742 Y34.697 F400
M106 S0
M106 S255
G1 X37.432 Y34.77 F400
M106 S0
M106 S255
G1 X37.138 Y34.875 F400
M106 S0
M106 S255
G1 X36.859 Y35.008 F400
M106 S0
M106 S255
G1 X36.332 Y35.351 F400
M106 S0
M106 S255
G1 X36.031 Y35.563 F400
M106 S0
M106 S255
G1 X35.709 Y35.738 F400
M106 S0
M106 S255
G1 X35.538 Y35.805 F400
M106 S0
M106 S255
G1 X35.494 Y35.82 F400
M106 S0
M106 S255
G1 X35.418 Y35.841 F400
M106 S0
M106 S255
G1 X35.236 Y35.882 F400
M106 S0
M106 S255
G1 X34.881 Y35.916 F400
M106 S0
M106 S255
G1 X34.537 Y35.884 F400
M106 S0
M106 S255
G1 X34.204 Y35.786 F400
M106 S0
M106 S255
G1 X33.885 Y35.624 F400
M106 S0
M106 S255
G1 X33.73 Y35.519 F400
M106 S0
M106 S255
G1 X33.664 Y35.469 F400
M106 S0
M106 S255
G1 X33.621 Y35.436 F400
M106 S0
M106 S255
G1 X33.447 Y35.308 F400
M106 S0
M106 S255
G1 X33.079 Y35.087 F400
M106 S0
M106 S255
G1 X32.668 Y34.939 F400
M106 S0
M106 S255
G1 X32.389 Y34.889 F400
M106 S0
M106 S255
G1 X32.113 Y34.868 F400
M106 S0
M106 S255
G1 X31.839 Y34.879 F400
M106 S0
M106 S255
G1 X31.569 Y34.923 F400
M106 S0
M106 S255
G1 X31.302 Y35.005 F400
M106 S0
M106 S255
G1 X31.07 Y35.104 F400
M106 S0
M106 S255
G1 X30.643 Y35.304 F400
M106 S0
M106 S255
G1 X30.217 Y35.508 F400
M106 S0
M106 S255
G1 X30.11 Y35.558 F400
M106 S0
M106 S255
G1 X30.084 Y35.57 F400
M106 S0
M106 S255
G1 X30.037 Y35.591 F400
M106 S0
M106 S255
G1 X29.924 Y35.638 F400
M106 S0
M106 S255
G1 X29.472 Y35.769 F400
M106 S0
M106 S255
G1 X29.022 Y35.815 F400
M106 S0
M106 S255
G1 X28.572 Y35.787 F400
M106 S0
M106 S255
G1 X28.122 Y35.694 F400
M106 S0
M106 S255
G1 X27.672 Y35.546 F400
M106 S0
M106 S255
G1 X27.076 Y35.277 F400
M106 S0
M106 S255
G1 X26.504 Y34.964 F400
M106 S0
M106 S255
G1 X26.22 Y34.804 F400
M106 S0
M106 S255
G1 X25.897 Y34.627 F400
M106 S0
M106 S255
G1 X25.204 Y34.277 F400
M106 S0
M106 S255
G1 X24.48 Y33.997 F400
M106 S0
M106 S255
G1 X24.292 Y33.943 F400
M106 S0
M106 S255
G1 X24.21 Y33.923 F400
M106 S0
M106 S255
G1 X24.157 Y33.911 F400
M106 S0
M106 S255
G1 X23.945 Y33.874 F400
M106 S0
M106 S255
G1 X23.518 Y33.84 F400
M106 S0
M106 S255
G1 X23.089 Y33.836 F400
M106 S0
G0 X39.748 Y33.109 F6000
M106 S255
G1 X39.748 Y33.109 F400
M106 S0
M106 S255
G1 X39.307 Y33.817 F400
M106 S0
M106 S255
G1 X39.173 Y33.981 F400
M106 S0
M106 S255
G1 X39.09 Y34.068 F400
M106 S0
M106 S255
G1 X38.986 Y34.165 F400
M106 S0
M106 S255
G1 X38.766 Y34.334 F400
M106 S0
M106 S255
G1 X38.533 Y34.471 F400
M106 S0
M106 S255
G1 X38.287 Y34.575 F400
M106 S0
M106 S255
G1 X38.029 Y34.648 F400
M106 S0
M106 S255
G1 X37.742 Y34.697 F400
M106 S0
M106 S255
G1 X37.432 Y34.77 F400
M106 S0
M106 S255
G1 X37.138 Y34.875 F400
M106 S0
M106 S255
G1 X36.859 Y35.008 F400
M106 S0
M106 S255
G1 X36.332 Y35.351 F400
M106 S0
M106 S255
G1 X36.031 Y35.563 F400
M106 S0
M106 S255
G1 X35.709 Y35.738 F400
M106 S0
M106 S255
G1 X35.538 Y35.805 F400
M106 S0
M106 S255
G1 X35.494 Y35.82 F400
M106 S0
M106 S255
G1 X35.418 Y35.841 F400
M106 S0
M106 S255
G1 X35.236 Y35.882 F400
M106 S0
M106 S255
G1 X34.881 Y35.916 F400
M106 S0
M106 S255
G1 X34.537 Y35.884 F400
M106 S0
M106 S255
G1 X34.204 Y35.786 F400
M106 S0
M106 S255
G1 X33.885 Y35.624 F400
M106 S0
M106 S255
G1 X33.73 Y35.519 F400
M106 S0
M106 S255
G1 X33.664 Y35.469 F400
M106 S0
M106 S255
G1 X33.621 Y35.436 F400
M106 S0
M106 S255
G1 X33.447 Y35.308 F400
M106 S0
M106 S255
G1 X33.079 Y35.087 F400
M106 S0
M106 S255
G1 X32.668 Y34.939 F400
M106 S0
M106 S255
G1 X32.389 Y34.889 F400
M106 S0
M106 S255
G1 X32.113 Y34.868 F400
M106 S0
M106 S255
G1 X31.839 Y34.879 F400
M106 S0
M106 S255
G1 X31.569 Y34.923 F400
M106 S0
M106 S255
G1 X31.302 Y35.005 F400
M106 S0
M106 S255
G1 X31.07 Y35.104 F400
M106 S0
M106 S255
G1 X30.643 Y35.304 F400
M106 S0
M106 S255
G1 X30.217 Y35.508 F400
M106 S0
M106 S255
G1 X30.11 Y35.558 F400
M106 S0
M106 S255
G1 X30.084 Y35.57 F400
M106 S0
M106 S255
G1 X30.037 Y35.591 F400
M106 S0
M106 S255
G1 X29.924 Y35.638 F400
M106 S0
M106 S255
G1 X29.472 Y35.769 F400
M106 S0
M106 S255
G1 X29.022 Y35.815 F400
M106 S0
M106 S255
G1 X28.572 Y35.787 F400
M106 S0
M106 S255
G1 X28.122 Y35.694 F400
M106 S0
M106 S255
G1 X27.672 Y35.546 F400
M106 S0
M106 S255
G1 X27.076 Y35.277 F400
M106 S0
M106 S255
G1 X26.504 Y34.964 F400
M106 S0
M106 S255
G1 X26.22 Y34.804 F400
M106 S0
M106 S255
G1 X25.897 Y34.627 F400
M106 S0
M106 S255
G1 X25.204 Y34.277 F400
M106 S0
M106 S255
G1 X24.48 Y33.997 F400
M106 S0
M106 S255
G1 X24.292 Y33.943 F400
M106 S0
M106 S255
G1 X24.21 Y33.923 F400
M106 S0
M106 S255
G1 X24.157 Y33.911 F400
M106 S0
M106 S255
G1 X23.945 Y33.874 F400
M106 S0
M106 S255
G1 X23.518 Y33.84 F400
M106 S0
M106 S255
G1 X23.089 Y33.836 F400
M106 S0
G0 X3.775 Y40.822 F6000
M106 S255
G1 X3.775 Y40.822 F400
M106 S0
M106 S255
G1 X3.896 Y40.772 F400
M106 S0
M106 S255
G1 X3.965 Y40.681 F400
M106 S0
M106 S255
G1 X4.048 Y40.46 F400
M106 S0
M106 S255
G1 X4.077 Y40.41 F400
M106 S0
M106 S255
G1 X4.081 Y40.405 F400
M106 S0
M106 S255
G1 X4.107 Y40.37 F400
M106 S0
M106 S255
G1 X4.167 Y40.29 F400
M106 S0
M106 S255
G1 X4.287 Y40.131 F400
M106 S0
M106 S255
G1 X4.762 Y39.493 F400
M106 S0
M106 S255
G1 X5.672 Y38.187 F400
M106 S0
M106 S255
G1 X6.093 Y37.51 F400
M106 S0
M106 S255
G1 X6.545 Y36.694 F400
M106 S0
M106 S255
G1 X6.953 Y35.837 F400
M106 S0
M106 S255
G1 X7.303 Y34.958 F400
M106 S0
M106 S255
G1 X7.591 Y34.055 F400
M106 S0
M106 S255
G1 X7.711 Y33.593 F400
M106 S0
M106 S255
G1 X7.76 Y33.378 F400
M106 S0
M106 S255
G1 X7.785 Y33.271 F400
M106 S0
M106 S255
G1 X7.983 Y32.416 F400
M106 S0
M106 S255
G1 X8.142 Y31.556 F400
M106 S0
M106 S255
G1 X8.17 Y31.316 F400
M106 S0
M106 S255
G1 X8.205 Y31.044 F400
M106 S0
M106 S255
G1 X8.28 Y30.5 F400
M106 S0
M106 S255
G1 X8.41 Y29.409 F400
M106 S0
M106 S255
G1 X8.429 Y29.134 F400
M106 S0
M106 S255
G1 X8.435 Y28.996 F400
M106 S0
M106 S255
G1 X8.439 Y28.885 F400
M106 S0
M106 S255
G1 X8.442 Y28.523 F400
M106 S0
M106 S255
G1 X8.411 Y27.805 F400
M106 S0
M106 S255
G1 X8.376 Y27.447 F400
M106 S0
M106 S255
G1 X8.356 Y27.279 F400
M106 S0
M106 S255
G1 X8.34 Y27.184 F400
M106 S0
M106 S255
G1 X8.212 Y26.837 F400
M106 S0
M106 S255
G1 X8.1 Y26.69 F400
M106 S0
M106 S255
G1 X7.948 Y26.566 F400
M106 S0
G0 X3.775 Y40.822 F6000
M106 S255
G1 X3.775 Y40.822 F400
M106 S0
M106 S255
G1 X3.896 Y40.772 F400
M106 S0
M106 S255
G1 X3.965 Y40.681 F400
M106 S0
M106 S255
G1 X4.048 Y40.46 F400
M106 S0
M106 S255
G1 X4.077 Y40.41 F400
M106 S0
M106 S255
G1 X4.081 Y40.405 F400
M106 S0
M106 S255
G1 X4.107 Y40.37 F400
M106 S0
M106 S255
G1 X4.167 Y40.29 F400
M106 S0
M106 S255
G1 X4.287 Y40.131 F400
M106 S0
M106 S255
G1 X4.762 Y39.493 F400
M106 S0
M106 S255
G1 X5.672 Y38.187 F400
M106 S0
M106 S255
G1 X6.093 Y37.51 F400
M106 S0
M106 S255
G1 X6.545 Y36.694 F400
M106 S0
M106 S255
G1 X6.953 Y35.837 F400
M106 S0
M106 S255
G1 X7.303 Y34.958 F400
M106 S0
M106 S255
G1 X7.591 Y34.055 F400
M106 S0
M106 S255
G1 X7.711 Y33.593 F400
M106 S0
M106 S255
G1 X7.76 Y33.378 F400
M106 S0
M106 S255
G1 X7.785 Y33.271 F400
M106 S0
M106 S255
G1 X7.983 Y32.416 F400
M106 S0
M106 S255
G1 X8.142 Y31.556 F400
M106 S0
M106 S255
G1 X8.17 Y31.316 F400
M106 S0
M106 S255
G1 X8.205 Y31.044 F400
M106 S0
M106 S255
G1 X8.28 Y30.5 F400
M106 S0
M106 S255
G1 X8.41 Y29.409 F400
M106 S0
M106 S255
G1 X8.429 Y29.134 F400
M106 S0
M106 S255
G1 X8.435 Y28.996 F400
M106 S0
M106 S255
G1 X8.439 Y28.885 F400
M106 S0
M106 S255
G1 X8.442 Y28.523 F400
M106 S0
M106 S255
G1 X8.411 Y27.805 F400
M106 S0
M106 S255
G1 X8.376 Y27.447 F400
M106 S0
M106 S255
G1 X8.356 Y27.279 F400
M106 S0
M106 S255
G1 X8.34 Y27.184 F400
M106 S0
M106 S255
G1 X8.212 Y26.837 F400
M106 S0
M106 S255
G1 X8.1 Y26.69 F400
M106 S0
M106 S255
G1 X7.948 Y26.566 F400
M106 S0
G0 X3.775 Y40.822 F6000
M106 S255
G1 X3.775 Y40.822 F400
M106 S0
M106 S255
G1 X3.896 Y40.772 F400
M106 S0
M106 S255
G1 X3.965 Y40.681 F400
M106 S0
M106 S255
G1 X4.048 Y40.46 F400
M106 S0
M106 S255
G1 X4.077 Y40.41 F400
M106 S0
M106 S255
G1 X4.081 Y40.405 F400
M106 S0
M106 S255
G1 X4.107 Y40.37 F400
M106 S0
M106 S255
G1 X4.167 Y40.29 F400
M106 S0
M106 S255
G1 X4.287 Y40.131 F400
M106 S0
M106 S255
G1 X4.762 Y39.493 F400
M106 S0
M106 S255
G1 X5.672 Y38.187 F400
M106 S0
M106 S255
G1 X6.093 Y37.51 F400
M106 S0
M106 S255
G1 X6.545 Y36.694 F400
M106 S0
M106 S255
G1 X6.953 Y35.837 F400
M106 S0
M106 S255
G1 X7.303 Y34.958 F400
M106 S0
M106 S255
G1 X7.591 Y34.055 F400
M106 S0
M106 S255
G1 X7.711 Y33.593 F400
M106 S0
M106 S255
G1 X7.76 Y33.378 F400
M106 S0
M106 S255
G1 X7.785 Y33.271 F400
M106 S0
M106 S255
G1 X7.983 Y32.416 F400
M106 S0
M106 S255
G1 X8.142 Y31.556 F400
M106 S0
M106 S255
G1 X8.17 Y31.316 F400
M106 S0
M106 S255
G1 X8.205 Y31.044 F400
M106 S0
M106 S255
G1 X8.28 Y30.5 F400
M106 S0
M106 S255
G1 X8.41 Y29.409 F400
M106 S0
M106 S255
G1 X8.429 Y29.134 F400
M106 S0
M106 S255
G1 X8.435 Y28.996 F400
M106 S0
M106 S255
G1 X8.439 Y28.885 F400
M106 S0
M106 S255
G1 X8.442 Y28.523 F400
M106 S0
M106 S255
G1 X8.411 Y27.805 F400
M106 S0
M106 S255
G1 X8.376 Y27.447 F400
M106 S0
M106 S255
G1 X8.356 Y27.279 F400
M106 S0
M106 S255
G1 X8.34 Y27.184 F400
M106 S0
M106 S255
G1 X8.212 Y26.837 F400
M106 S0
M106 S255
G1 X8.1 Y26.69 F400
M106 S0
M106 S255
G1 X7.948 Y26.566 F400
M106 S0
G0 X44.711 Y35.954 F6000
M106 S255
G1 X44.711 Y35.954 F400
M106 S0
M106 S255
G1 X44.59 Y35.751 F400
M106 S0
M106 S255
G1 X44.507 Y35.546 F400
M106 S0
M106 S255
G1 X44.457 Y35.34 F400
M106 S0
M106 S255
G1 X44.437 Y35.133 F400
M106 S0
M106 S255
G1 X44.442 Y34.925 F400
M106 S0
M106 S255
G1 X44.469 Y34.716 F400
M106 S0
M106 S255
G1 X44.57 Y34.298 F400
M106 S0
M106 S255
G1 X44.637 Y34.088 F400
M106 S0
M106 S255
G1 X44.688 Y33.936 F400
M106 S0
M106 S255
G1 X44.784 Y33.654 F400
M106 S0
M106 S255
G1 X44.87 Y33.369 F400
M106 S0
M106 S255
G1 X44.936 Y33.077 F400
M106 S0
M106 S255
G1 X44.971 Y32.775 F400
M106 S0
M106 S255
G1 X44.973 Y32.736 F400
M106 S0
M106 S255
G1 X44.974 Y32.676 F400
M106 S0
M106 S255
G1 X44.97 Y32.553 F400
M106 S0
M106 S255
G1 X44.934 Y32.325 F400
M106 S0
M106 S255
G1 X44.866 Y32.118 F400
M106 S0
M106 S255
G1 X44.767 Y31.933 F400
M106 S0
M106 S255
G1 X44.643 Y31.769 F400
M106 S0
M106 S255
G1 X44.495 Y31.624 F400
M106 S0
M106 S255
G1 X44.327 Y31.5 F400
M106 S0
M106 S255
G1 X44.143 Y31.394 F400
M106 S0
M106 S255
G1 X43.945 Y31.307 F400
M106 S0
M106 S255
G1 X43.849 Y31.273 F400
M106 S0
M106 S255
G1 X43.789 Y31.253 F400
M106 S0
M106 S255
G1 X43.303 Y31.126 F400
M106 S0
M106 S255
G1 X42.816 Y30.993 F400
M106 S0
M106 S255
G1 X42.684 Y30.944 F400
M106 S0
M106 S255
G1 X42.545 Y30.879 F400
M106 S0
M106 S255
G1 X42.305 Y30.717 F400
M106 S0
M106 S255
G1 X42.113 Y30.516 F400
M106 S0
M106 S255
G1 X41.965 Y30.276 F400
M106 S0
M106 S255
G1 X41.905 Y30.143 F400
M106 S0
M106 S255
G1 X41.879 Y30.073 F400
M106 S0
M106 S255
G1 X41.849 Y29.984 F400
M106 S0
M106 S255
G1 X41.728 Y29.575 F400
M106 S0
M106 S255
G1 X41.501 Y28.753 F400
M106 S0
M106 S255
G1 X41.363 Y28.349 F400
M106 S0
M106 S255
G1 X41.323 Y28.25 F400
M106 S0
M106 S255
G1 X41.302 Y28.201 F400
M106 S0
M106 S255
G1 X41.291 Y28.176 F400
M106 S0
M106 S255
G1 X41.281 Y28.147 F400
M106 S0
M106 S255
G1 X41.265 Y27.925 F400
M106 S0
G0 X44.711 Y35.954 F6000
M106 S255
G1 X44.711 Y35.954 F400
M106 S0
M106 S255
G1 X44.59 Y35.751 F400
M106 S0
M106 S255
G1 X44.507 Y35.546 F400
M106 S0
M106 S255
G1 X44.457 Y35.34 F400
M106 S0
M106 S255
G1 X44.437 Y35.133 F400
M106 S0
M106 S255
G1 X44.442 Y34.925 F400
M106 S0
M106 S255
G1 X44.469 Y34.716 F400
M106 S0
M106 S255
G1 X44.57 Y34.298 F400
M106 S0
M106 S255
G1 X44.637 Y34.088 F400
M106 S0
M106 S255
G1 X44.688 Y33.936 F400
M106 S0
M106 S255
G1 X44.784 Y33.654 F400
M106 S0
M106 S255
G1 X44.87 Y33.369 F400
M106 S0
M106 S255
G1 X44.936 Y33.077 F400
M106 S0
M106 S255
G1 X44.971 Y32.775 F400
M106 S0
M106 S255
G1 X44.973 Y32.736 F400
M106 S0
M106 S255
G1 X44.974 Y32.676 F400
M106 S0
M106 S255
G1 X44.97 Y32.553 F400
M106 S0
M106 S255
G1 X44.934 Y32.325 F400
M106 S0
M106 S255
G1 X44.866 Y32.118 F400
M106 S0
M106 S255
G1 X44.767 Y31.933 F400
M106 S0
M106 S255
G1 X44.643 Y31.769 F400
M106 S0
M106 S255
G1 X44.495 Y31.624 F400
M106 S0
M106 S255
G1 X44.327 Y31.5 F400
M106 S0
M106 S255
G1 X44.143 Y31.394 F400
M106 S0
M106 S255
G1 X43.945 Y31.307 F400
M106 S0
M106 S255
G1 X43.849 Y31.273 F400
M106 S0
M106 S255
G1 X43.789 Y31.253 F400
M106 S0
M106 S255
G1 X43.303 Y31.126 F400
M106 S0
M106 S255
G1 X42.816 Y30.993 F400
M106 S0
M106 S255
G1 X42.684 Y30.944 F400
M106 S0
M106 S255
G1 X42.545 Y30.879 F400
M106 S0
M106 S255
G1 X42.305 Y30.717 F400
M106 S0
M106 S255
G1 X42.113 Y30.516 F400
M106 S0
M106 S255
G1 X41.965 Y30.276 F400
M106 S0
M106 S255
G1 X41.905 Y30.143 F400
M106 S0
M106 S255
G1 X41.879 Y30.073 F400
M106 S0
M106 S255
G1 X41.849 Y29.984 F400
M106 S0
M106 S255
G1 X41.728 Y29.575 F400
M106 S0
M106 S255
G1 X41.501 Y28.753 F400
M106 S0
M106 S255
G1 X41.363 Y28.349 F400
M106 S0
M106 S255
G1 X41.323 Y28.25 F400
M106 S0
M106 S255
G1 X41.302 Y28.201 F400
M106 S0
M106 S255
G1 X41.291 Y28.176 F400
M106 S0
M106 S255
G1 X41.281 Y28.147 F400
M106 S0
M106 S255
G1 X41.265 Y27.925 F400
M106 S0
G0 X44.711 Y35.954 F6000
M106 S255
G1 X44.711 Y35.954 F400
M106 S0
M106 S255
G1 X44.59 Y35.751 F400
M106 S0
M106 S255
G1 X44.507 Y35.546 F400
M106 S0
M106 S255
G1 X44.457 Y35.34 F400
M106 S0
M106 S255
G1 X44.437 Y35.133 F400
M106 S0
M106 S255
G1 X44.442 Y34.925 F400
M106 S0
M106 S255
G1 X44.469 Y34.716 F400
M106 S0
M106 S255
G1 X44.57 Y34.298 F400
M106 S0
M106 S255
G1 X44.637 Y34.088 F400
M106 S0
M106 S255
G1 X44.688 Y33.936 F400
M106 S0
M106 S255
G1 X44.784 Y33.654 F400
M106 S0
M106 S255
G1 X44.87 Y33.369 F400
M106 S0
M106 S255
G1 X44.936 Y33.077 F400
M106 S0
M106 S255
G1 X44.971 Y32.775 F400
M106 S0
M106 S255
G1 X44.973 Y32.736 F400
M106 S0
M106 S255
G1 X44.974 Y32.676 F400
M106 S0
M106 S255
G1 X44.97 Y32.553 F400
M106 S0
M106 S255
G1 X44.934 Y32.325 F400
M106 S0
M106 S255
G1 X44.866 Y32.118 F400
M106 S0
M106 S255
G1 X44.767 Y31.933 F400
M106 S0
M106 S255
G1 X44.643 Y31.769 F400
M106 S0
M106 S255
G1 X44.495 Y31.624 F400
M106 S0
M106 S255
G1 X44.327 Y31.5 F400
M106 S0
M106 S255
G1 X44.143 Y31.394 F400
M106 S0
M106 S255
G1 X43.945 Y31.307 F400
M106 S0
M106 S255
G1 X43.849 Y31.273 F400
M106 S0
M106 S255
G1 X43.789 Y31.253 F400
M106 S0
M106 S255
G1 X43.303 Y31.126 F400
M106 S0
M106 S255
G1 X42.816 Y30.993 F400
M106 S0
M106 S255
G1 X42.684 Y30.944 F400
M106 S0
M106 S255
G1 X42.545 Y30.879 F400
M106 S0
M106 S255
G1 X42.305 Y30.717 F400
M106 S0
M106 S255
G1 X42.113 Y30.516 F400
M106 S0
M106 S255
G1 X41.965 Y30.276 F400
M106 S0
M106 S255
G1 X41.905 Y30.143 F400
M106 S0
M106 S255
G1 X41.879 Y30.073 F400
M106 S0
M106 S255
G1 X41.849 Y29.984 F400
M106 S0
M106 S255
G1 X41.728 Y29.575 F400
M106 S0
M106 S255
G1 X41.501 Y28.753 F400
M106 S0
M106 S255
G1 X41.363 Y28.349 F400
M106 S0
M106 S255
G1 X41.323 Y28.25 F400
M106 S0
M106 S255
G1 X41.302 Y28.201 F400
M106 S0
M106 S255
G1 X41.291 Y28.176 F400
M106 S0
M106 S255
G1 X41.281 Y28.147 F400
M106 S0
M106 S255
G1 X41.265 Y27.925 F400
M106 S0
G0 X38.389 Y44.141 F6000
M106 S255
G1 X38.389 Y44.141 F400
M106 S0
M106 S255
G1 X38.223 Y44.316 F400
M106 S0
M106 S255
G1 X38.024 Y44.427 F400
M106 S0
M106 S255
G1 X37.588 Y44.541 F400
M106 S0
M106 S255
G1 X37.483 Y44.562 F400
M106 S0
M106 S255
G1 X37.241 Y44.62 F400
M106 S0
M106 S255
G1 X36.736 Y44.79 F400
M106 S0
M106 S255
G1 X36.257 Y45.009 F400
M106 S0
M106 S255
G1 X35.799 Y45.268 F400
M106 S0
M106 S255
G1 X35.356 Y45.556 F400
M106 S0
M106 S255
G1 X34.865 Y45.87 F400
M106 S0
M106 S255
G1 X34.349 Y46.136 F400
M106 S0
M106 S255
G1 X33.811 Y46.344 F400
M106 S0
M106 S255
G1 X33.247 Y46.489 F400
M106 S0
M106 S255
G1 X32.954 Y46.537 F400
M106 S0
M106 S255
G1 X32.814 Y46.554 F400
M106 S0
M106 S255
G1 X32.727 Y46.563 F400
M106 S0
M106 S255
G1 X32.037 Y46.633 F400
M106 S0
M106 S255
G1 X31.344 Y46.672 F400
M106 S0
M106 S255
G1 X30.51 Y46.678 F400
M106 S0
M106 S255
G1 X29.652 Y46.694 F400
M106 S0
M106 S255
G1 X29.438 Y46.699 F400
M106 S0
M106 S255
G1 X29.331 Y46.702 F400
M106 S0
M106 S255
G1 X29.267 Y46.703 F400
M106 S0
M106 S255
G1 X29.139 Y46.706 F400
M106 S0
M106 S255
G1 X28.126 Y46.674 F400
M106 S0
M106 S255
G1 X27.131 Y46.549 F400
M106 S0
M106 S255
G1 X26.156 Y46.328 F400
M106 S0
M106 S255
G1 X25.202 Y46.007 F400
M106 S0
M106 S255
G1 X24.755 Y45.818 F400
M106 S0
M106 S255
G1 X24.435 Y45.671 F400
M106 S0
M106 S255
G1 X23.187 Y45.024 F400
M106 S0
M106 S255
G1 X22.585 Y44.657 F400
M106 S0
M106 S255
G1 X22.001 Y44.254 F400
M106 S0
M106 S255
G1 X20.786 Y43.395 F400
M106 S0
M106 S255
G1 X20.642 Y43.276 F400
M106 S0
M106 S255
G1 X20.464 Y43.115 F400
M106 S0
M106 S255
G1 X20.124 Y42.757 F400
M106 S0
M106 S255
G1 X19.524 Y41.979 F400
M106 S0
M106 S255
G1 X18.962 Y41.191 F400
M106 S0
M106 S255
G1 X18.368 Y40.457 F400
M106 S0
M106 S255
G1 X17.764 Y39.751 F400
M106 S0
M106 S255
G1 X17.247 Y39.096 F400
M106 S0
M106 S255
G1 X16.797 Y38.396 F400
M106 S0
M106 S255
G1 X16.747 Y38.304 F400
M106 S0
M106 S255
G1 X16.649 Y38.116 F400
M106 S0
M106 S255
G1 X16.444 Y37.705 F400
M106 S0
M106 S255
G1 X16.069 Y36.869 F400
M106 S0
M106 S255
G1 X15.742 Y36.015 F400
M106 S0
M106 S255
G1 X15.47 Y35.14 F400
M106 S0
M106 S255
G1 X15.355 Y34.695 F400
M106 S0
M106 S255
G1 X15.303 Y34.47 F400
M106 S0
M106 S255
G1 X15.281 Y34.368 F400
M106 S0
M106 S255
G1 X15.272 Y34.326 F400
M106 S0
M106 S255
G1 X15.201 Y33.989 F400
M106 S0
M106 S255
G1 X15.079 Y33.314 F400
M106 S0
M106 S255
G1 X15.039 Y32.972 F400
M106 S0
M106 S255
G1 X15.028 Y32.818 F400
M106 S0
M106 S255
G1 X15.022 Y32.772 F400
M106 S0
M106 S255
G1 X14.952 Y32.613 F400
M106 S0
M106 S255
G1 X14.839 Y32.477 F400
M106 S0
G0 X38.389 Y44.141 F6000
M106 S255
G1 X38.389 Y44.141 F400
M106 S0
M106 S255
G1 X38.223 Y44.316 F400
M106 S0
M106 S255
G1 X38.024 Y44.427 F400
M106 S0
M106 S255
G1 X37.588 Y44.541 F400
M106 S0
M106 S255
G1 X37.483 Y44.562 F400
M106 S0
M106 S255
G1 X37.241 Y44.62 F400
M106 S0
M106 S255
G1 X36.736 Y44.79 F400
M106 S0
M106 S255
G1 X36.257 Y45.009 F400
M106 S0
M106 S255
G1 X35.799 Y45.268 F400
M106 S0
M106 S255
G1 X35.356 Y45.556 F400
M106 S0
M106 S255
G1 X34.865 Y45.87 F400
M106 S0
M106 S255
G1 X34.349 Y46.136 F400
M106 S0
M106 S255
G1 X33.811 Y46.344 F400
M106 S0
M106 S255
G1 X33.247 Y46.489 F400
M106 S0
M106 S255
G1 X32.954 Y46.537 F400
M106 S0
M106 S255
G1 X32.814 Y46.554 F400
M106 S0
M106 S255
G1 X32.727 Y46.563 F400
M106 S0
M106 S255
G1 X32.037 Y46.633 F400
M106 S0
M106 S255
G1 X31.344 Y46.672 F400
M106 S0
M106 S255
G1 X30.51 Y46.678 F400
M106 S0
M106 S255
G1 X29.652 Y46.694 F400
M106 S0
M106 S255
G1 X29.438 Y46.699 F400
M106 S0
M106 S255
G1 X29.331 Y46.702 F400
M106 S0
M106 S255
G1 X29.267 Y46.703 F400
M106 S0
M106 S255
G1 X29.139 Y46.706 F400
M106 S0
M106 S255
G1 X28.126 Y46.674 F400
M106 S0
M106 S255
G1 X27.131 Y46.549 F400
M106 S0
M106 S255
G1 X26.156 Y46.328 F400
M106 S0
M106 S255
G1 X25.202 Y46.007 F400
M106 S0
M106 S255
G1 X24.755 Y45.818 F400
M106 S0
M106 S255
G1 X24.435 Y45.671 F400
M106 S0
M106 S255
G1 X23.187 Y45.024 F400
M106 S0
M106 S255
G1 X22.585 Y44.657 F400
M106 S0
M106 S255
G1 X22.001 Y44.254 F400
M106 S0
M106 S255
G1 X20.786 Y43.395 F400
M106 S0
M106 S255
G1 X20.642 Y43.276 F400
M106 S0
M106 S255
G1 X20.464 Y43.115 F400
M106 S0
M106 S255
G1 X20.124 Y42.757 F400
M106 S0
M106 S255
G1 X19.524 Y41.979 F400
M106 S0
M106 S255
G1 X18.962 Y41.191 F400
M106 S0
M106 S255
G1 X18.368 Y40.457 F400
M106 S0
M106 S255
G1 X17.764 Y39.751 F400
M106 S0
M106 S255
G1 X17.247 Y39.096 F400
M106 S0
M106 S255
G1 X16.797 Y38.396 F400
M106 S0
M106 S255
G1 X16.747 Y38.304 F400
M106 S0
M106 S255
G1 X16.649 Y38.116 F400
M106 S0
M106 S255
G1 X16.444 Y37.705 F400
M106 S0
M106 S255
G1 X16.069 Y36.869 F400
M106 S0
M106 S255
G1 X15.742 Y36.015 F400
M106 S0
M106 S255
G1 X15.47 Y35.14 F400
M106 S0
M106 S255
G1 X15.355 Y34.695 F400
M106 S0
M106 S255
G1 X15.303 Y34.47 F400
M106 S0
M106 S255
G1 X15.281 Y34.368 F400
M106 S0
M106 S255
G1 X15.272 Y34.326 F400
M106 S0
M106 S255
G1 X15.201 Y33.989 F400
M106 S0
M106 S255
G1 X15.079 Y33.314 F400
M106 S0
M106 S255
G1 X15.039 Y32.972 F400
M106 S0
M106 S255
G1 X15.028 Y32.818 F400
M106 S0
M106 S255
G1 X15.022 Y32.772 F400
M106 S0
M106 S255
G1 X14.952 Y32.613 F400
M106 S0
M106 S255
G1 X14.839 Y32.477 F400
M106 S0
G0 X38.389 Y44.141 F6000
M106 S255
G1 X38.389 Y44.141 F400
M106 S0
M106 S255
G1 X38.223 Y44.316 F400
M106 S0
M106 S255
G1 X38.024 Y44.427 F400
M106 S0
M106 S255
G1 X37.588 Y44.541 F400
M106 S0
M106 S255
G1 X37.483 Y44.562 F400
M106 S0
M106 S255
G1 X37.241 Y44.62 F400
M106 S0
M106 S255
G1 X36.736 Y44.79 F400
M106 S0
M106 S255
G1 X36.257 Y45.009 F400
M106 S0
M106 S255
G1 X35.799 Y45.268 F400
M106 S0
M106 S255
G1 X35.356 Y45.556 F400
M106 S0
M106 S255
G1 X34.865 Y45.87 F400
M106 S0
M106 S255
G1 X34.349 Y46.136 F400
M106 S0
M106 S255
G1 X33.811 Y46.344 F400
M106 S0
M106 S255
G1 X33.247 Y46.489 F400
M106 S0
M106 S255
G1 X32.954 Y46.537 F400
M106 S0
M106 S255
G1 X32.814 Y46.554 F400
M106 S0
M106 S255
G1 X32.727 Y46.563 F400
M106 S0
M106 S255
G1 X32.037 Y46.633 F400
M106 S0
M106 S255
G1 X31.344 Y46.672 F400
M106 S0
M106 S255
G1 X30.51 Y46.678 F400
M106 S0
M106 S255
G1 X29.652 Y46.694 F400
M106 S0
M106 S255
G1 X29.438 Y46.699 F400
M106 S0
M106 S255
G1 X29.331 Y46.702 F400
M106 S0
M106 S255
G1 X29.267 Y46.703 F400
M106 S0
M106 S255
G1 X29.139 Y46.706 F400
M106 S0
M106 S255
G1 X28.126 Y46.674 F400
M106 S0
M106 S255
G1 X27.131 Y46.549 F400
M106 S0
M106 S255
G1 X26.156 Y46.328 F400
M106 S0
M106 S255
G1 X25.202 Y46.007 F400
M106 S0
M106 S255
G1 X24.755 Y45.818 F400
M106 S0
M106 S255
G1 X24.435 Y45.671 F400
M106 S0
M106 S255
G1 X23.187 Y45.024 F400
M106 S0
M106 S255
G1 X22.585 Y44.657 F400
M106 S0
M106 S255
G1 X22.001 Y44.254 F400
M106 S0
M106 S255
G1 X20.786 Y43.395 F400
M106 S0
M106 S255
G1 X20.642 Y43.276 F400
M106 S0
M106 S255
G1 X20.464 Y43.115 F400
M106 S0
M106 S255
G1 X20.124 Y42.757 F400
M106 S0
M106 S255
G1 X19.524 Y41.979 F400
M106 S0
M106 S255
G1 X18.962 Y41.191 F400
M106 S0
M106 S255
G1 X18.368 Y40.457 F400
M106 S0
M106 S255
G1 X17.764 Y39.751 F400
M106 S0
M106 S255
G1 X17.247 Y39.096 F400
M106 S0
M106 S255
G1 X16.797 Y38.396 F400
M106 S0
M106 S255
G1 X16.747 Y38.304 F400
M106 S0
M106 S255
G1 X16.649 Y38.116 F400
M106 S0
M106 S255
G1 X16.444 Y37.705 F400
M106 S0
M106 S255
G1 X16.069 Y36.869 F400
M106 S0
M106 S255
G1 X15.742 Y36.015 F400
M106 S0
M106 S255
G1 X15.47 Y35.14 F400
M106 S0
M106 S255
G1 X15.355 Y34.695 F400
M106 S0
M106 S255
G1 X15.303 Y34.47 F400
M106 S0
M106 S255
G1 X15.281 Y34.368 F400
M106 S0
M106 S255
G1 X15.272 Y34.326 F400
M106 S0
M106 S255
G1 X15.201 Y33.989 F400
M106 S0
M106 S255
G1 X15.079 Y33.314 F400
M106 S0
M106 S255
G1 X15.039 Y32.972 F400
M106 S0
M106 S255
G1 X15.028 Y32.818 F400
M106 S0
M106 S255
G1 X15.022 Y32.772 F400
M106 S0
M106 S255
G1 X14.952 Y32.613 F400
M106 S0
M106 S255
G1 X14.839 Y32.477 F400
M106 S0
G0 X25.492 Y43.13 F6000
M106 S255
G1 X25.492 Y43.13 F400
M106 S0
M106 S255
G1 X24.468 Y43.135 F400
M106 S0
M106 S255
G1 X24.341 Y43.125 F400
M106 S0
M106 S255
G1 X24.116 Y43.092 F400
M106 S0
M106 S255
G1 X23.672 Y42.956 F400
M106 S0
M106 S255
G1 X23.278 Y42.737 F400
M106 S0
M106 S255
G1 X22.929 Y42.442 F400
M106 S0
M106 S255
G1 X22.623 Y42.081 F400
M106 S0
M106 S255
G1 X22.566 Y42.002 F400
M106 S0
M106 S255
G1 X22.529 Y41.949 F400
M106 S0
M106 S255
G1 X22.454 Y41.845 F400
M106 S0
M106 S255
G1 X22.149 Y41.431 F400
M106 S0
M106 S255
G1 X21.996 Y41.223 F400
M106 S0
M106 S255
G1 X21.921 Y41.119 F400
M106 S0
M106 S255
G1 X21.874 Y41.055 F400
M106 S0
M106 S255
G1 X21.772 Y40.92 F400
M106 S0
M106 S255
G1 X21.557 Y40.672 F400
M106 S0
M106 S255
G1 X21.326 Y40.45 F400
M106 S0
M106 S255
G1 X21.08 Y40.256 F400
M106 S0
M106 S255
G1 X20.819 Y40.089 F400
M106 S0
M106 S255
G1 X20.542 Y39.95 F400
M106 S0
M106 S255
G1 X20.249 Y39.839 F400
M106 S0
M106 S255
G1 X19.94 Y39.757 F400
M106 S0
M106 S255
G1 X19.615 Y39.702 F400
M106 S0
M106 S255
G1 X19.447 Y39.686 F400
M106 S0
M106 S255
G1 X19.334 Y39.676 F400
M106 S0
M106 S255
G1 X19.134 Y39.646 F400
M106 S0
M106 S255
G1 X18.768 Y39.533 F400
M106 S0
M106 S255
G1 X18.445 Y39.347 F400
M106 S0
M106 S255
G1 X18.168 Y39.086 F400
M106 S0
M106 S255
G1 X17.942 Y38.756 F400
M106 S0
M106 S255
G1 X17.737 Y38.481 F400
M106 S0
M106 S255
G1 X17.495 Y38.245 F400
M106 S0
M106 S255
G1 X17.23 Y38.034 F400
M106 S0
M106 S255
G1 X16.953 Y37.836 F400
M106 S0
M106 S255
G1 X16.829 Y37.747 F400
M106 S0
M106 S255
G1 X16.795 Y37.729 F400
M106 S0
M106 S255
G1 X16.546 Y37.724 F400
M106 S0
G0 X25.492 Y43.13 F6000
M106 S255
G1 X25.492 Y43.13 F400
M106 S0
M106 S255
G1 X24.468 Y43.135 F400
M106 S0
M106 S255
G1 X24.341 Y43.125 F400
M106 S0
M106 S255
G1 X24.116 Y43.092 F400
M106 S0
M106 S255
G1 X23.672 Y42.956 F400
M106 S0
M106 S255
G1 X23.278 Y42.737 F400
M106 S0
M106 S255
G1 X22.929 Y42.442 F400
M106 S0
M106 S255
G1 X22.623 Y42.081 F400
M106 S0
M106 S255
G1 X22.566 Y42.002 F400
M106 S0
M106 S255
G1 X22.529 Y41.949 F400
M106 S0
M106 S255
G1 X22.454 Y41.845 F400
M106 S0
M106 S255
G1 X22.149 Y41.431 F400
M106 S0
M106 S255
G1 X21.996 Y41.223 F400
M106 S0
M106 S255
G1 X21.921 Y41.119 F400
M106 S0
M106 S255
G1 X21.874 Y41.055 F400
M106 S0
M106 S255
G1 X21.772 Y40.92 F400
M106 S0
M106 S255
G1 X21.557 Y40.672 F400
M106 S0
M106 S255
G1 X21.326 Y40.45 F400
M106 S0
M106 S255
G1 X21.08 Y40.256 F400
M106 S0
M106 S255
G1 X20.819 Y40.089 F400
M106 S0
M106 S255
G1 X20.542 Y39.95 F400
M106 S0
M106 S255
G1 X20.249 Y39.839 F400
M106 S0
M106 S255
G1 X19.94 Y39.757 F400
M106 S0
M106 S255
G1 X19.615 Y39.702 F400
M106 S0
M106 S255
G1 X19.447 Y39.686 F400
M106 S0
M106 S255
G1 X19.334 Y39.676 F400
M106 S0
M106 S255
G1 X19.134 Y39.646 F400
M106 S0
M106 S255
G1 X18.768 Y39.533 F400
M106 S0
M106 S255
G1 X18.445 Y39.347 F400
M106 S0
M106 S255
G1 X18.168 Y39.086 F400
M106 S0
M106 S255
G1 X17.942 Y38.756 F400
M106 S0
M106 S255
G1 X17.737 Y38.481 F400
M106 S0
M106 S255
G1 X17.495 Y38.245 F400
M106 S0
M106 S255
G1 X17.23 Y38.034 F400
M106 S0
M106 S255
G1 X16.953 Y37.836 F400
M106 S0
M106 S255
G1 X16.829 Y37.747 F400
M106 S0
M106 S255
G1 X16.795 Y37.729 F400
M106 S0
M106 S255
G1 X16.546 Y37.724 F400
M106 S0
G0 X25.492 Y43.13 F6000
M106 S255
G1 X25.492 Y43.13 F400
M106 S0
M106 S255
G1 X24.468 Y43.135 F400
M106 S0
M106 S255
G1 X24.341 Y43.125 F400
M106 S0
M106 S255
G1 X24.116 Y43.092 F400
M106 S0
M106 S255
G1 X23.672 Y42.956 F400
M106 S0
M106 S255
G1 X23.278 Y42.737 F400
M106 S0
M106 S255
G1 X22.929 Y42.442 F400
M106 S0
M106 S255
G1 X22.623 Y42.081 F400
M106 S0
M106 S255
G1 X22.566 Y42.002 F400
M106 S0
M106 S255
G1 X22.529 Y41.949 F400
M106 S0
M106 S255
G1 X22.454 Y41.845 F400
M106 S0
M106 S255
G1 X22.149 Y41.431 F400
M106 S0
M106 S255
G1 X21.996 Y41.223 F400
M106 S0
M106 S255
G1 X21.921 Y41.119 F400
M106 S0
M106 S255
G1 X21.874 Y41.055 F400
M106 S0
M106 S255
G1 X21.772 Y40.92 F400
M106 S0
M106 S255
G1 X21.557 Y40.672 F400
M106 S0
M106 S255
G1 X21.326 Y40.45 F400
M106 S0
M106 S255
G1 X21.08 Y40.256 F400
M106 S0
M106 S255
G1 X20.819 Y40.089 F400
M106 S0
M106 S255
G1 X20.542 Y39.95 F400
M106 S0
M106 S255
G1 X20.249 Y39.839 F400
M106 S0
M106 S255
G1 X19.94 Y39.757 F400
M106 S0
M106 S255
G1 X19.615 Y39.702 F400
M106 S0
M106 S255
G1 X19.447 Y39.686 F400
M106 S0
M106 S255
G1 X19.334 Y39.676 F400
M106 S0
M106 S255
G1 X19.134 Y39.646 F400
M106 S0
M106 S255
G1 X18.768 Y39.533 F400
M106 S0
M106 S255
G1 X18.445 Y39.347 F400
M106 S0
M106 S255
G1 X18.168 Y39.086 F400
M106 S0
M106 S255
G1 X17.942 Y38.756 F400
M106 S0
M106 S255
G1 X17.737 Y38.481 F400
M106 S0
M106 S255
G1 X17.495 Y38.245 F400
M106 S0
M106 S255
G1 X17.23 Y38.034 F400
M106 S0
M106 S255
G1 X16.953 Y37.836 F400
M106 S0
M106 S255
G1 X16.829 Y37.747 F400
M106 S0
M106 S255
G1 X16.795 Y37.729 F400
M106 S0
M106 S255
G1 X16.546 Y37.724 F400
M106 S0
G0 X8.422 Y19.896 F6000
M106 S255
G1 X8.422 Y19.896 F400
M106 S0
M106 S255
G1 X8.704 Y19.721 F400
M106 S0
M106 S255
G1 X8.972 Y19.527 F400
M106 S0
M106 S255
G1 X9.482 Y19.105 F400
M106 S0
M106 S255
G1 X9.606 Y18.996 F400
M106 S0
M106 S255
G1 X9.758 Y18.848 F400
M106 S0
M106 S255
G1 X9.893 Y18.685 F400
M106 S0
M106 S255
G1 X10.004 Y18.512 F400
M106 S0
M106 S255
G1 X10.096 Y18.331 F400
M106 S0
M106 S255
G1 X10.168 Y18.143 F400
M106 S0
M106 S255
G1 X10.266 Y17.748 F400
M106 S0
M106 S255
G1 X10.313 Y17.333 F400
M106 S0
M106 S255
G1 X10.326 Y17.146 F400
M106 S0
M106 S255
G1 X10.353 Y16.977 F400
M106 S0
M106 S255
G1 X10.394 Y16.819 F400
M106 S0
M106 S255
G1 X10.452 Y16.671 F400
M106 S0
M106 S255
G1 X10.526 Y16.534 F400
M106 S0
M106 S255
G1 X10.618 Y16.409 F400
M106 S0
M106 S255
G1 X10.728 Y16.295 F400
M106 S0
M106 S255
G1 X10.858 Y16.194 F400
M106 S0
M106 S255
G1 X11.165 Y16.032 F400
M106 S0
M106 S255
G1 X11.437 Y15.865 F400
M106 S0
M106 S255
G1 X11.665 Y15.658 F400
M106 S0
M106 S255
G1 X11.851 Y15.411 F400
M106 S0
M106 S255
G1 X11.998 Y15.122 F400
M106 S0
M106 S255
G1 X12.029 Y15.043 F400
M106 S0
M106 S255
G1 X12.083 Y14.909 F400
M106 S0
M106 S255
G1 X12.218 Y14.649 F400
M106 S0
M106 S255
G1 X12.38 Y14.422 F400
M106 S0
M106 S255
G1 X12.567 Y14.227 F400
M106 S0
M106 S255
G1 X12.775 Y14.06 F400
M106 S0
M106 S255
G1 X13.004 Y13.918 F400
M106 S0
M106 S255
G1 X13.25 Y13.8 F400
M106 S0
M106 S255
G1 X13.511 Y13.703 F400
M106 S0
M106 S255
G1 X13.784 Y13.624 F400
M106 S0
M106 S255
G1 X13.925 Y13.59 F400
M106 S0
M106 S255
G1 X13.993 Y13.575 F400
M106 S0
M106 S255
G1 X14.043 Y13.565 F400
M106 S0
M106 S255
G1 X14.44 Y13.49 F400
M106 S0
M106 S255
G1 X14.839 Y13.435 F400
M106 S0
M106 S255
G1 X15.241 Y13.411 F400
M106 S0
M106 S255
G1 X15.645 Y13.427 F400
M106 S0
M106 S255
G1 X15.746 Y13.439 F400
M106 S0
M106 S255
G1 X15.797 Y13.446 F400
M106 S0
M106 S255
G1 X15.828 Y13.451 F400
M106 S0
M106 S255
G1 X15.892 Y13.46 F400
M106 S0
M106 S255
G1 X16.018 Y13.483 F400
M106 S0
M106 S255
G1 X16.134 Y13.525 F400
M106 S0
M106 S255
G1 X16.229 Y13.603 F400
M106 S0
M106 S255
G1 X16.293 Y13.732 F400
M106 S0
G0 X8.422 Y19.896 F6000
M106 S255
G1 X8.422 Y19.896 F400
M106 S0
M106 S255
G1 X8.704 Y19.721 F400
M106 S0
M106 S255
G1 X8.972 Y19.527 F400
M106 S0
M106 S255
G1 X9.482 Y19.105 F400
M106 S0
M106 S255
G1 X9.606 Y18.996 F400
M106 S0
M106 S255
G1 X9.758 Y18.848 F400
M106 S0
M106 S255
G1 X9.893 Y18.685 F400
M106 S0
M106 S255
G1 X10.004 Y18.512 F400
M106 S0
M106 S255
G1 X10.096 Y18.331 F400
M106 S0
M106 S255
G1 X10.168 Y18.143 F400
M106 S0
M106 S255
G1 X10.266 Y17.748 F400
M106 S0
M106 S255
G1 X10.313 Y17.333 F400
M106 S0
M106 S255
G1 X10.326 Y17.146 F400
M106 S0
M106 S255
G1 X10.353 Y16.977 F400
M106 S0
M106 S255
G1 X10.394 Y16.819 F400
M106 S0
M106 S255
G1 X10.452 Y16.671 F400
M106 S0
M106 S255
G1 X10.526 Y16.534 F400
M106 S0
M106 S255
G1 X10.618 Y16.409 F400
M106 S0
M106 S255
G1 X10.728 Y16.295 F400
M106 S0
M106 S255
G1 X10.858 Y16.194 F400
M106 S0
M106 S255
G1 X11.165 Y16.032 F400
M106 S0
M106 S255
G1 X11.437 Y15.865 F400
M106 S0
M106 S255
G1 X11.665 Y15.658 F400
M106 S0
M106 S255
G1 X11.851 Y15.411 F400
M106 S0
M106 S255
G1 X11.998 Y15.122 F400
M106 S0
M106 S255
G1 X12.029 Y15.043 F400
M106 S0
M106 S255
G1 X12.083 Y14.909 F400
M106 S0
M106 S255
G1 X12.218 Y14.649 F400
M106 S0
M106 S255
G1 X12.38 Y14.422 F400
M106 S0
M106 S255
G1 X12.567 Y14.227 F400
M106 S0
M106 S255
G1 X12.775 Y14.06 F400
M106 S0
M106 S255
G1 X13.004 Y13.918 F400
M106 S0
M106 S255
G1 X13.25 Y13.8 F400
M106 S0
M106 S255
G1 X13.511 Y13.703 F400
M106 S0
M106 S255
G1 X13.784 Y13.624 F400
M106 S0
M106 S255
G1 X13.925 Y13.59 F400
M106 S0
M106 S255
G1 X13.993 Y13.575 F400
M106 S0
M106 S255
G1 X14.043 Y13.565 F400
M106 S0
M106 S255
G1 X14.44 Y13.49 F400
M106 S0
M106 S255
G1 X14.839 Y13.435 F400
M106 S0
M106 S255
G1 X15.241 Y13.411 F400
M106 S0
M106 S255
G1 X15.645 Y13.427 F400
M106 S0
M106 S255
G1 X15.746 Y13.439 F400
M106 S0
M106 S255
G1 X15.797 Y13.446 F400
M106 S0
M106 S255
G1 X15.828 Y13.451 F400
M106 S0
M106 S255
G1 X15.892 Y13.46 F400
M106 S0
M106 S255
G1 X16.018 Y13.483 F400
M106 S0
M106 S255
G1 X16.134 Y13.525 F400
M106 S0
M106 S255
G1 X16.229 Y13.603 F400
M106 S0
M106 S255
G1 X16.293 Y13.732 F400
M106 S0
G0 X8.422 Y19.896 F6000
M106 S255
G1 X8.422 Y19.896 F400
M106 S0
M106 S255
G1 X8.704 Y19.721 F400
M106 S0
M106 S255
G1 X8.972 Y19.527 F400
M106 S0
M106 S255
G1 X9.482 Y19.105 F400
M106 S0
M106 S255
G1 X9.606 Y18.996 F400
M106 S0
M106 S255
G1 X9.758 Y18.848 F400
M106 S0
M106 S255
G1 X9.893 Y18.685 F400
M106 S0
M106 S255
G1 X10.004 Y18.512 F400
M106 S0
M106 S255
G1 X10.096 Y18.331 F400
M106 S0
M106 S255
G1 X10.168 Y18.143 F400
M106 S0
M106 S255
G1 X10.266 Y17.748 F400
M106 S0
M106 S255
G1 X10.313 Y17.333 F400
M106 S0
M106 S255
G1 X10.326 Y17.146 F400
M106 S0
M106 S255
G1 X10.353 Y16.977 F400
M106 S0
M106 S255
G1 X10.394 Y16.819 F400
M106 S0
M106 S255
G1 X10.452 Y16.671 F400
M106 S0
M106 S255
G1 X10.526 Y16.534 F400
M106 S0
M106 S255
G1 X10.618 Y16.409 F400
M106 S0
M106 S255
G1 X10.728 Y16.295 F400
M106 S0
M106 S255
G1 X10.858 Y16.194 F400
M106 S0
M106 S255
G1 X11.165 Y16.032 F400
M106 S0
M106 S255
G1 X11.437 Y15.865 F400
M106 S0
M106 S255
G1 X11.665 Y15.658 F400
M106 S0
M106 S255
G1 X11.851 Y15.411 F400
M106 S0
M106 S255
G1 X11.998 Y15.122 F400
M106 S0
M106 S255
G1 X12.029 Y15.043 F400
M106 S0
M106 S255
G1 X12.083 Y14.909 F400
M106 S0
M106 S255
G1 X12.218 Y14.649 F400
M106 S0
M106 S255
G1 X12.38 Y14.422 F400
M106 S0
M106 S255
G1 X12.567 Y14.227 F400
M106 S0
M106 S255
G1 X12.775 Y14.06 F400
M106 S0
M106 S255
G1 X13.004 Y13.918 F400
M106 S0
M106 S255
G1 X13.25 Y13.8 F400
M106 S0
M106 S255
G1 X13.511 Y13.703 F400
M106 S0
M106 S255
G1 X13.784 Y13.624 F400
M106 S0
M106 S255
G1 X13.925 Y13.59 F400
M106 S0
M106 S255
G1 X13.993 Y13.575 F400
M106 S0
M106 S255
G1 X14.043 Y13.565 F400
M106 S0
M106 S255
G1 X14.44 Y13.49 F400
M106 S0
M106 S255
G1 X14.839 Y13.435 F400
M106 S0
M106 S255
G1 X15.241 Y13.411 F400
M106 S0
M106 S255
G1 X15.645 Y13.427 F400
M106 S0
M106 S255
G1 X15.746 Y13.439 F400
M106 S0
M106 S255
G1 X15.797 Y13.446 F400
M106 S0
M106 S255
G1 X15.828 Y13.451 F400
M106 S0
M106 S255
G1 X15.892 Y13.46 F400
M106 S0
M106 S255
G1 X16.018 Y13.483 F400
M106 S0
M106 S255
G1 X16.134 Y13.525 F400
M106 S0
M106 S255
G1 X16.229 Y13.603 F400
M106 S0
M106 S255
G1 X16.293 Y13.732 F400
M106 S0
G0 X15.914 Y26.851 F6000
M106 S255
G1 X15.914 Y26.851 F400
M106 S0
M106 S255
G1 X15.7 Y27.481 F400
M106 S0
M106 S255
G1 X15.468 Y28.107 F400
M106 S0
M106 S255
G1 X15.254 Y28.737 F400
M106 S0
M106 S255
G1 X15.164 Y29.059 F400
M106 S0
M106 S255
G1 X15.106 Y29.302 F400
M106 S0
M106 S255
G1 X15.009 Y29.769 F400
M106 S0
M106 S255
G1 X14.939 Y30.24 F400
M106 S0
M106 S255
G1 X14.903 Y30.717 F400
M106 S0
M106 S255
G1 X14.902 Y30.774 F400
M106 S0
M106 S255
G1 X14.901 Y30.81 F400
M106 S0
M106 S255
G1 X14.898 Y30.881 F400
M106 S0
M106 S255
G1 X14.893 Y31.023 F400
M106 S0
M106 S255
G1 X14.873 Y31.592 F400
M106 S0
M106 S255
G1 X14.873 Y31.734 F400
M106 S0
M106 S255
G1 X14.874 Y31.77 F400
M106 S0
M106 S255
G1 X14.874 Y31.826 F400
M106 S0
M106 S255
G1 X14.867 Y31.953 F400
M106 S0
M106 S255
G1 X14.814 Y32.182 F400
M106 S0
M106 S255
G1 X14.718 Y32.382 F400
M106 S0
M106 S255
G1 X14.589 Y32.559 F400
M106 S0
M106 S255
G1 X14.435 Y32.719 F400
M106 S0
M106 S255
G1 X14.089 Y33.008 F400
M106 S0
M106 S255
G1 X14.006 Y33.074 F400
M106 S0
M106 S255
G1 X13.961 Y33.108 F400
M106 S0
M106 S255
G1 X13.865 Y33.173 F400
M106 S0
M106 S255
G1 X13.673 Y33.302 F400
M106 S0
M106 S255
G1 X13.589 Y33.374 F400
M106 S0
M106 S255
G1 X13.521 Y33.457 F400
M106 S0
M106 S255
G1 X13.475 Y33.555 F400
M106 S0
M106 S255
G1 X13.462 Y33.61 F400
M106 S0
M106 S255
G1 X13.452 Y33.684 F400
M106 S0
M106 S255
G1 X13.436 Y33.989 F400
M106 S0
M106 S255
G1 X13.467 Y34.294 F400
M106 S0
M106 S255
G1 X13.504 Y34.445 F400
M106 S0
M106 S255
G1 X13.558 Y34.594 F400
M106 S0
M106 S255
G1 X13.591 Y34.667 F400
M106 S0
M106 S255
G1 X13.634 Y34.753 F400
M106 S0
M106 S255
G1 X13.719 Y34.938 F400
M106 S0
M106 S255
G1 X13.856 Y35.319 F400
M106 S0
M106 S255
G1 X13.938 Y35.714 F400
M106 S0
M106 S255
G1 X13.955 Y35.919 F400
M106 S0
M106 S255
G1 X13.957 Y36.022 F400
M106 S0
M106 S255
G1 X13.955 Y36.115 F400
M106 S0
M106 S255
G1 X13.92 Y36.419 F400
M106 S0
M106 S255
G1 X13.846 Y36.713 F400
M106 S0
M106 S255
G1 X13.745 Y36.997 F400
M106 S0
M106 S255
G1 X13.634 Y37.271 F400
M106 S0
M106 S255
G1 X13.548 Y37.546 F400
M106 S0
M106 S255
G1 X13.414 Y38.103 F400
M106 S0
M106 S255
G1 X13.257 Y38.691 F400
M106 S0
M106 S255
G1 X13.178 Y38.984 F400
M106 S0
M106 S255
G1 X13.141 Y39.132 F400
M106 S0
M106 S255
G1 X13.136 Y39.153 F400
M106 S0
M106 S255
G1 X13.135 Y39.16 F400
M106 S0
M106 S255
G1 X13.13 Y39.175 F400
M106 S0
M106 S255
G1 X13.077 Y39.272 F400
M106 S0
M106 S255
G1 X13.04 Y39.299 F400
M106 S0
M106 S255
G1 X13.031 Y39.303 F400
M106 S0
M106 S255
G1 X12.987 Y39.322 F400
M106 S0
M106 S255
G1 X12.905 Y39.365 F400
M106 S0
M106 S255
G1 X12.763 Y39.469 F400
M106 S0
M106 S255
G1 X12.644 Y39.592 F400
M106 S0
M106 S255
G1 X12.542 Y39.73 F400
M106 S0
M106 S255
G1 X12.367 Y40.027 F400
M106 S0
M106 S255
G1 X12.282 Y40.177 F400
M106 S0
M106 S255
G1 X12.26 Y40.213 F400
M106 S0
M106 S255
G1 X12.244 Y40.239 F400
M106 S0
M106 S255
G1 X12.219 Y40.282 F400
M106 S0
M106 S255
G1 X12.115 Y40.451 F400
M106 S0
M106 S255
G1 X11.698 Y41.127 F400
M106 S0
M106 S255
G1 X11.253 Y41.783 F400
M106 S0
M106 S255
G1 X11.012 Y42.096 F400
M106 S0
M106 S255
G1 X10.752 Y42.396 F400
M106 S0
M106 S255
G1 X10.616 Y42.539 F400
M106 S0
M106 S255
G1 X10.494 Y42.655 F400
M106 S0
M106 S255
G1 X10.38 Y42.753 F400
M106 S0
M106 S255
G1 X10.272 Y42.831 F400
M106 S0
M106 S255
G1 X10.169 Y42.892 F400
M106 S0
M106 S255
G1 X10.069 Y42.936 F400
M106 S0
M106 S255
G1 X9.875 Y42.981 F400
M106 S0
M106 S255
G1 X9.678 Y42.972 F400
M106 S0
M106 S255
G1 X9.468 Y42.921 F400
M106 S0
M106 S255
G1 X9.234 Y42.835 F400
M106 S0
M106 S255
G1 X9.104 Y42.782 F400
M106 S0
M106 S255
G1 X9.003 Y42.74 F400
M106 S0
M106 S255
G1 X8.621 Y42.571 F400
M106 S0
M106 S255
G1 X8.246 Y42.385 F400
M106 S0
M106 S255
G1 X7.882 Y42.182 F400
M106 S0
M106 S255
G1 X7.793 Y42.128 F400
M106 S0
M106 S255
G1 X7.691 Y42.067 F400
M106 S0
M106 S255
G1 X7.474 Y41.962 F400
M106 S0
M106 S255
G1 X7.258 Y41.893 F400
M106 S0
M106 S255
G1 X7.043 Y41.859 F400
M106 S0
M106 S255
G1 X6.826 Y41.859 F400
M106 S0
M106 S255
G1 X6.607 Y41.89 F400
M106 S0
M106 S255
G1 X6.384 Y41.952 F400
M106 S0
M106 S255
G1 X6.271 Y41.993 F400
M106 S0
M106 S255
G1 X6.144 Y42.047 F400
M106 S0
M106 S255
G1 X5.883 Y42.139 F400
M106 S0
M106 S255
G1 X5.654 Y42.184 F400
M106 S0
M106 S255
G1 X5.45 Y42.178 F400
M106 S0
M106 S255
G1 X5.262 Y42.121 F400
M106 S0
M106 S255
G1 X5.081 Y42.009 F400
M106 S0
M106 S255
G1 X4.898 Y41.84 F400
M106 S0
M106 S255
G1 X4.716 Y41.626 F400
M106 S0
M106 S255
G1 X4.613 Y41.494 F400
M106 S0
M106 S255
G1 X4.405 Y41.232 F400
M106 S0
M106 S255
G1 X4.184 Y40.982 F400
M106 S0
M106 S255
G1 X3.934 Y40.759 F400
M106 S0
G0 X15.914 Y26.851 F6000
M106 S255
G1 X15.914 Y26.851 F400
M106 S0
M106 S255
G1 X15.7 Y27.481 F400
M106 S0
M106 S255
G1 X15.468 Y28.107 F400
M106 S0
M106 S255
G1 X15.254 Y28.737 F400
M106 S0
M106 S255
G1 X15.164 Y29.059 F400
M106 S0
M106 S255
G1 X15.106 Y29.302 F400
M106 S0
M106 S255
G1 X15.009 Y29.769 F400
M106 S0
M106 S255
G1 X14.939 Y30.24 F400
M106 S0
M106 S255
G1 X14.903 Y30.717 F400
M106 S0
M106 S255
G1 X14.902 Y30.774 F400
M106 S0
M106 S255
G1 X14.901 Y30.81 F400
M106 S0
M106 S255
G1 X14.898 Y30.881 F400
M106 S0
M106 S255
G1 X14.893 Y31.023 F400
M106 S0
M106 S255
G1 X14.873 Y31.592 F400
M106 S0
M106 S255
G1 X14.873 Y31.734 F400
M106 S0
M106 S255
G1 X14.874 Y31.77 F400
M106 S0
M106 S255
G1 X14.874 Y31.826 F400
M106 S0
M106 S255
G1 X14.867 Y31.953 F400
M106 S0
M106 S255
G1 X14.814 Y32.182 F400
M106 S0
M106 S255
G1 X14.718 Y32.382 F400
M106 S0
M106 S255
G1 X14.589 Y32.559 F400
M106 S0
M106 S255
G1 X14.435 Y32.719 F400
M106 S0
M106 S255
G1 X14.089 Y33.008 F400
M106 S0
M106 S255
G1 X14.006 Y33.074 F400
M106 S0
M106 S255
G1 X13.961 Y33.108 F400
M106 S0
M106 S255
G1 X13.865 Y33.173 F400
M106 S0
M106 S255
G1 X13.673 Y33.302 F400
M106 S0
M106 S255
G1 X13.589 Y33.374 F400
M106 S0
M106 S255
G1 X13.521 Y33.457 F400
M106 S0
M106 S255
G1 X13.475 Y33.555 F400
M106 S0
M106 S255
G1 X13.462 Y33.61 F400
M106 S0
M106 S255
G1 X13.452 Y33.684 F400
M106 S0
M106 S255
