;GCode generated by Numa's program v0.0
G0 X18.574 Y21.305 F6000
M106 S255
G1 X18.574 Y21.305 F250
M106 S0
M106 S255
G1 X18.905 Y20.921 F250
M106 S0
M106 S255
G1 X19.277 Y20.583 F250
M106 S0
M106 S255
G1 X20.099 Y20.017 F250
M106 S0
M106 S255
G1 X20.826 Y19.608 F250
M106 S0
M106 S255
G1 X21.574 Y19.239 F250
M106 S0
M106 S255
G1 X23.124 Y18.611 F250
M106 S0
M106 S255
G1 X24.546 Y18.123 F250
M106 S0
M106 S255
G1 X25.225 Y17.813 F250
M106 S0
M106 S255
G1 X25.848 Y17.392 F250
M106 S0
M106 S255
G1 X26.566 Y16.851 F250
M106 S0
M106 S255
G1 X26.873 Y16.528 F250
M106 S0
M106 S255
G1 X26.99 Y16.331 F250
M106 S0
M106 S255
G1 X27.072 Y16.103 F250
M106 S0
G0 X67.434 Y21.782 F6000
M106 S255
G1 X67.434 Y21.782 F250
M106 S0
M106 S255
G1 X67.31 Y21.396 F250
M106 S0
M106 S255
G1 X67.231 Y21.213 F250
M106 S0
M106 S255
G1 X67.109 Y20.906 F250
M106 S0
M106 S255
G1 X67.15 Y20.614 F250
M106 S0
M106 S255
G1 X67.332 Y20.36 F250
M106 S0
M106 S255
G1 X67.597 Y20.104 F250
M106 S0
M106 S255
G1 X67.737 Y19.836 F250
M106 S0
M106 S255
G1 X67.727 Y19.53 F250
M106 S0
M106 S255
G1 X67.669 Y19.349 F250
M106 S0
M106 S255
G1 X67.626 Y19.243 F250
M106 S0
M106 S255
G1 X67.481 Y18.91 F250
M106 S0
M106 S255
G1 X67.352 Y18.735 F250
M106 S0
M106 S255
G1 X67.223 Y18.459 F250
M106 S0
M106 S255
G1 X67.225 Y18.173 F250
M106 S0
M106 S255
G1 X67.348 Y17.88 F250
M106 S0
G0 X73.027 Y21.305 F6000
M106 S255
G1 X73.027 Y21.305 F250
M106 S0
M106 S255
G1 X71.101 Y20.516 F250
M106 S0
M106 S255
G1 X70.65 Y20.248 F250
M106 S0
M106 S255
G1 X70.469 Y20.119 F250
M106 S0
M106 S255
G1 X70.362 Y20.038 F250
M106 S0
M106 S255
G1 X69.948 Y19.702 F250
M106 S0
M106 S255
G1 X69.531 Y19.37 F250
M106 S0
M106 S255
G1 X69.195 Y19.105 F250
M106 S0
M106 S255
G1 X68.99 Y18.81 F250
M106 S0
M106 S255
G1 X68.908 Y18.444 F250
M106 S0
G0 X35.092 Y67.868 F6000
M106 S255
G1 X35.092 Y67.868 F250
M106 S0
M106 S255
G1 X35.11 Y67.12 F250
M106 S0
M106 S255
G1 X35.161 Y66.374 F250
M106 S0
M106 S255
G1 X35.211 Y65.752 F250
M106 S0
M106 S255
G1 X35.093 Y65.263 F250
M106 S0
M106 S255
G1 X34.788 Y64.834 F250
M106 S0
M106 S255
G1 X34.427 Y64.5 F250
M106 S0
M106 S255
G1 X34.062 Y64.172 F250
M106 S0
M106 S255
G1 X33.738 Y63.872 F250
M106 S0
M106 S255
G1 X33.539 Y63.556 F250
M106 S0
M106 S255
G1 X33.445 Y63.185 F250
M106 S0
G0 X58.33 Y59.067 F6000
M106 S255
G1 X58.33 Y59.067 F250
M106 S0
M106 S255
G1 X58.681 Y58.513 F250
M106 S0
M106 S255
G1 X58.964 Y57.923 F250
M106 S0
M106 S255
G1 X59.085 Y57.615 F250
M106 S0
M106 S255
G1 X59.152 Y57.432 F250
M106 S0
M106 S255
G1 X59.249 Y57.204 F250
M106 S0
M106 S255
G1 X59.756 Y56.359 F250
M106 S0
M106 S255
G1 X60.345 Y55.56 F250
M106 S0
M106 S255
G1 X60.488 Y55.358 F250
M106 S0
M106 S255
G1 X60.543 Y55.277 F250
M106 S0
M106 S255
G1 X60.572 Y55.236 F250
M106 S0
M106 S255
G1 X60.689 Y55.072 F250
M106 S0
M106 S255
G1 X60.874 Y54.719 F250
M106 S0
M106 S255
G1 X60.897 Y54.519 F250
M106 S0
M106 S255
G1 X60.845 Y54.298 F250
M106 S0
G0 X56.249 Y62.362 F6000
M106 S255
G1 X56.249 Y62.362 F250
M106 S0
M106 S255
G1 X55.999 Y62.206 F250
M106 S0
M106 S255
G1 X55.731 Y62.124 F250
M106 S0
M106 S255
G1 X55.166 Y62.106 F250
M106 S0
M106 S255
G1 X54.105 Y62.201 F250
M106 S0
M106 S255
G1 X53.041 Y62.231 F250
M106 S0
M106 S255
G1 X52.592 Y62.172 F250
M106 S0
M106 S255
G1 X52.186 Y62.032 F250
M106 S0
M106 S255
G1 X51.825 Y61.798 F250
M106 S0
M106 S255
G1 X51.515 Y61.457 F250
M106 S0
M106 S255
G1 X51.393 Y61.191 F250
M106 S0
G0 X27.419 Y22.953 F6000
M106 S255
G1 X27.419 Y22.953 F250
M106 S0
M106 S255
G1 X27.456 Y22.779 F250
M106 S0
M106 S255
G1 X27.55 Y22.629 F250
M106 S0
M106 S255
G1 X27.632 Y22.47 F250
M106 S0
M106 S255
G1 X27.663 Y22.299 F250
M106 S0
M106 S255
G1 X27.682 Y22.082 F250
M106 S0
M106 S255
G1 X27.631 Y21.674 F250
M106 S0
M106 S255
G1 X27.426 Y21.307 F250
M106 S0
M106 S255
G1 X26.799 Y20.732 F250
M106 S0
M106 S255
G1 X26.506 Y20.442 F250
M106 S0
M106 S255
G1 X26.367 Y20.291 F250
M106 S0
M106 S255
G1 X26.159 Y20.026 F250
M106 S0
M106 S255
G1 X25.819 Y19.388 F250
M106 S0
M106 S255
G1 X25.584 Y18.701 F250
M106 S0
M106 S255
G1 X25.484 Y18.351 F250
M106 S0
M106 S255
G1 X25.435 Y18.175 F250
M106 S0
M106 S255
G1 X25.419 Y18.119 F250
M106 S0
M106 S255
G1 X25.391 Y18.011 F250
M106 S0
M106 S255
G1 X25.338 Y17.794 F250
M106 S0
G0 X48.836 Y67.521 F6000
M106 S255
G1 X48.836 Y67.521 F250
M106 S0
M106 S255
G1 X48.716 Y67.207 F250
M106 S0
M106 S255
G1 X48.555 Y66.952 F250
M106 S0
M106 S255
G1 X48.359 Y66.75 F250
M106 S0
M106 S255
G1 X48.132 Y66.592 F250
M106 S0
M106 S255
G1 X47.878 Y66.471 F250
M106 S0
M106 S255
G1 X47.605 Y66.382 F250
M106 S0
M106 S255
G1 X47.014 Y66.266 F250
M106 S0
M106 S255
G1 X46.404 Y66.21 F250
M106 S0
M106 S255
G1 X45.804 Y66.12 F250
M106 S0
M106 S255
G1 X45.526 Y66.037 F250
M106 S0
M106 S255
G1 X45.259 Y65.922 F250
M106 S0
M106 S255
G1 X45.012 Y65.759 F250
M106 S0
M106 S255
G1 X44.794 Y65.534 F250
M106 S0
M106 S255
G1 X44.275 Y64.843 F250
M106 S0
M106 S255
G1 X44.069 Y64.47 F250
M106 S0
M106 S255
G1 X43.937 Y64.052 F250
M106 S0
G0 X22.476 Y62.925 F6000
M106 S255
G1 X22.476 Y62.925 F250
M106 S0
M106 S255
G1 X22.579 Y62.607 F250
M106 S0
M106 S255
G1 X22.72 Y62.322 F250
M106 S0
M106 S255
G1 X22.899 Y62.071 F250
M106 S0
M106 S255
G1 X23.114 Y61.851 F250
M106 S0
M106 S255
G1 X23.365 Y61.662 F250
M106 S0
M106 S255
G1 X23.651 Y61.502 F250
M106 S0
M106 S255
G1 X23.787 Y61.44 F250
M106 S0
M106 S255
G1 X23.847 Y61.413 F250
M106 S0
M106 S255
G1 X23.966 Y61.353 F250
M106 S0
M106 S255
G1 X24.423 Y61.074 F250
M106 S0
M106 S255
G1 X24.479 Y61.038 F250
M106 S0
M106 S255
G1 X24.571 Y60.98 F250
M106 S0
M106 S255
G1 X24.82 Y60.779 F250
M106 S0
M106 S255
G1 X25.005 Y60.556 F250
M106 S0
M106 S255
G1 X25.123 Y60.312 F250
M106 S0
M106 S255
G1 X25.171 Y60.049 F250
M106 S0
M106 S255
G1 X25.149 Y59.77 F250
M106 S0
M106 S255
G1 X25.054 Y59.478 F250
M106 S0
M106 S255
G1 X24.964 Y59.269 F250
M106 S0
M106 S255
G1 X24.912 Y58.925 F250
M106 S0
M106 S255
G1 X25.001 Y58.611 F250
M106 S0
M106 S255
G1 X25.095 Y58.463 F250
M106 S0
M106 S255
G1 X25.233 Y58.303 F250
M106 S0
M106 S255
G1 X25.567 Y57.947 F250
M106 S0
M106 S255
G1 X26.248 Y57.246 F250
M106 S0
G0 X14.152 Y36.826 F6000
M106 S255
G1 X14.152 Y36.826 F250
M106 S0
M106 S255
G1 X14.061 Y36.848 F250
M106 S0
M106 S255
G1 X14.029 Y36.866 F250
M106 S0
M106 S255
G1 X14.027 Y36.869 F250
M106 S0
M106 S255
G1 X14.026 Y36.871 F250
M106 S0
M106 S255
G1 X14.009 Y36.906 F250
M106 S0
M106 S255
G1 X13.92 Y37.079 F250
M106 S0
M106 S255
G1 X13.721 Y37.412 F250
M106 S0
M106 S255
G1 X12.84 Y38.686 F250
M106 S0
M106 S255
G1 X12.657 Y39.005 F250
M106 S0
M106 S255
G1 X12.552 Y39.268 F250
M106 S0
M106 S255
G1 X12.489 Y39.539 F250
M106 S0
M106 S255
G1 X12.463 Y39.814 F250
M106 S0
M106 S255
G1 X12.502 Y40.361 F250
M106 S0
M106 S255
G1 X12.556 Y40.627 F250
M106 S0
M106 S255
G1 X12.575 Y40.702 F250
M106 S0
M106 S255
G1 X12.601 Y40.817 F250
M106 S0
M106 S255
G1 X12.635 Y41.039 F250
M106 S0
M106 S255
G1 X12.639 Y41.456 F250
M106 S0
M106 S255
G1 X12.565 Y41.843 F250
M106 S0
M106 S255
G1 X12.424 Y42.206 F250
M106 S0
M106 S255
G1 X12.225 Y42.548 F250
M106 S0
M106 S255
G1 X11.978 Y42.876 F250
M106 S0
M106 S255
G1 X11.839 Y43.036 F250
M106 S0
M106 S255
G1 X11.798 Y43.081 F250
M106 S0
M106 S255
G1 X11.778 Y43.099 F250
M106 S0
M106 S255
G1 X11.608 Y43.168 F250
M106 S0
M106 S255
G1 X11.248 Y43.112 F250
M106 S0
G0 X51.307 Y55.858 F6000
M106 S255
G1 X51.307 Y55.858 F250
M106 S0
M106 S255
G1 X51.895 Y55.502 F250
M106 S0
M106 S255
G1 X52.41 Y55.069 F250
M106 S0
M106 S255
G1 X52.802 Y54.512 F250
M106 S0
M106 S255
G1 X52.868 Y54.367 F250
M106 S0
M106 S255
G1 X52.899 Y54.29 F250
M106 S0
M106 S255
G1 X52.956 Y54.134 F250
M106 S0
M106 S255
G1 X53.088 Y53.482 F250
M106 S0
M106 S255
G1 X53.09 Y53.396 F250
M106 S0
M106 S255
G1 X53.086 Y53.256 F250
M106 S0
M106 S255
G1 X53.077 Y52.815 F250
M106 S0
M106 S255
G1 X53.109 Y51.937 F250
M106 S0
M106 S255
G1 X53.261 Y51.076 F250
M106 S0
M106 S255
G1 X53.402 Y50.655 F250
M106 S0
M106 S255
G1 X53.461 Y50.513 F250
M106 S0
M106 S255
G1 X53.503 Y50.417 F250
M106 S0
M106 S255
G1 X53.813 Y49.635 F250
M106 S0
M106 S255
G1 X53.917 Y49.262 F250
M106 S0
M106 S255
G1 X53.962 Y49.011 F250
M106 S0
M106 S255
G1 X53.948 Y48.765 F250
M106 S0
M106 S255
G1 X53.821 Y48.532 F250
M106 S0
G0 X43.2 Y60.931 F6000
M106 S255
G1 X43.2 Y60.931 F250
M106 S0
M106 S255
G1 X43.09 Y61.099 F250
M106 S0
M106 S255
G1 X43.02 Y61.284 F250
M106 S0
M106 S255
G1 X42.88 Y61.66 F250
M106 S0
M106 S255
G1 X42.824 Y61.747 F250
M106 S0
M106 S255
G1 X42.794 Y61.786 F250
M106 S0
M106 S255
G1 X42.743 Y61.847 F250
M106 S0
M106 S255
G1 X42.638 Y61.958 F250
M106 S0
M106 S255
G1 X42.417 Y62.144 F250
M106 S0
M106 S255
G1 X42.182 Y62.285 F250
M106 S0
M106 S255
G1 X41.936 Y62.387 F250
M106 S0
M106 S255
G1 X41.679 Y62.454 F250
M106 S0
M106 S255
G1 X41.144 Y62.507 F250
M106 S0
M106 S255
G1 X40.592 Y62.487 F250
M106 S0
M106 S255
G1 X40.434 Y62.474 F250
M106 S0
M106 S255
G1 X40.251 Y62.453 F250
M106 S0
M106 S255
G1 X39.888 Y62.398 F250
M106 S0
M106 S255
G1 X39.172 Y62.239 F250
M106 S0
M106 S255
G1 X38.465 Y62.037 F250
M106 S0
M106 S255
G1 X37.763 Y61.816 F250
M106 S0
M106 S255
G1 X37.413 Y61.706 F250
M106 S0
M106 S255
G1 X37.245 Y61.655 F250
M106 S0
M106 S255
G1 X37.124 Y61.62 F250
M106 S0
M106 S255
G1 X36.644 Y61.503 F250
M106 S0
M106 S255
G1 X36.163 Y61.435 F250
M106 S0
M106 S255
G1 X35.679 Y61.429 F250
M106 S0
M106 S255
G1 X35.19 Y61.498 F250
M106 S0
M106 S255
G1 X34.962 Y61.555 F250
M106 S0
M106 S255
G1 X34.764 Y61.587 F250
M106 S0
M106 S255
G1 X34.379 Y61.578 F250
M106 S0
M106 S255
G1 X34.013 Y61.485 F250
M106 S0
M106 S255
G1 X33.677 Y61.32 F250
M106 S0
M106 S255
G1 X33.521 Y61.214 F250
M106 S0
M106 S255
G1 X33.36 Y61.083 F250
M106 S0
M106 S255
G1 X32.953 Y60.807 F250
M106 S0
M106 S255
G1 X32.528 Y60.622 F250
M106 S0
M106 S255
G1 X32.083 Y60.52 F250
M106 S0
M106 S255
G1 X31.615 Y60.492 F250
M106 S0
M106 S255
G1 X31.39 Y60.501 F250
M106 S0
M106 S255
G1 X31.271 Y60.503 F250
M106 S0
M106 S255
G1 X30.788 Y60.485 F250
M106 S0
M106 S255
G1 X30.551 Y60.519 F250
M106 S0
M106 S255
G1 X30.323 Y60.627 F250
M106 S0
G0 X62.102 Y60.757 F6000
M106 S255
G1 X62.102 Y60.757 F250
M106 S0
M106 S255
G1 X63.086 Y60.357 F250
M106 S0
M106 S255
G1 X63.327 Y60.241 F250
M106 S0
M106 S255
G1 X63.386 Y60.21 F250
M106 S0
M106 S255
G1 X63.426 Y60.187 F250
M106 S0
M106 S255
G1 X63.486 Y60.151 F250
M106 S0
M106 S255
G1 X63.704 Y60.004 F250
M106 S0
M106 S255
G1 X63.881 Y59.847 F250
M106 S0
M106 S255
G1 X64.019 Y59.682 F250
M106 S0
M106 S255
G1 X64.116 Y59.51 F250
M106 S0
M106 S255
G1 X64.174 Y59.329 F250
M106 S0
M106 S255
G1 X64.191 Y59.141 F250
M106 S0
M106 S255
G1 X64.167 Y58.945 F250
M106 S0
M106 S255
G1 X64.103 Y58.742 F250
M106 S0
M106 S255
G1 X63.998 Y58.532 F250
M106 S0
M106 S255
G1 X63.851 Y58.316 F250
M106 S0
M106 S255
G1 X63.808 Y58.261 F250
M106 S0
M106 S255
G1 X63.786 Y58.233 F250
M106 S0
M106 S255
G1 X63.763 Y58.205 F250
M106 S0
M106 S255
G1 X63.673 Y58.091 F250
M106 S0
M106 S255
G1 X63.315 Y57.637 F250
M106 S0
M106 S255
G1 X63.173 Y57.447 F250
M106 S0
M106 S255
G1 X63.063 Y57.255 F250
M106 S0
M106 S255
G1 X62.931 Y56.863 F250
M106 S0
M106 S255
G1 X62.904 Y56.463 F250
M106 S0
M106 S255
G1 X62.963 Y56.059 F250
M106 S0
M106 S255
G1 X63.093 Y55.651 F250
M106 S0
M106 S255
G1 X63.135 Y55.549 F250
M106 S0
M106 S255
G1 X63.165 Y55.479 F250
M106 S0
M106 S255
G1 X63.215 Y55.375 F250
M106 S0
M106 S255
G1 X63.45 Y54.971 F250
M106 S0
M106 S255
G1 X63.677 Y54.565 F250
M106 S0
M106 S255
G1 X63.768 Y54.34 F250
M106 S0
M106 S255
G1 X63.859 Y54.088 F250
M106 S0
M106 S255
G1 X63.928 Y53.831 F250
M106 S0
M106 S255
G1 X63.954 Y53.57 F250
M106 S0
M106 S255
G1 X63.916 Y53.306 F250
M106 S0
M106 S255
G1 X63.793 Y53.04 F250
M106 S0
G0 X55.425 Y19.658 F6000
M106 S255
G1 X55.425 Y19.658 F250
M106 S0
M106 S255
G1 X55.472 Y19.357 F250
M106 S0
M106 S255
G1 X55.475 Y19.051 F250
M106 S0
M106 S255
G1 X55.485 Y18.745 F250
M106 S0
M106 S255
G1 X55.55 Y18.442 F250
M106 S0
M106 S255
G1 X55.663 Y18.188 F250
M106 S0
M106 S255
G1 X55.813 Y17.973 F250
M106 S0
M106 S255
G1 X56.006 Y17.812 F250
M106 S0
M106 S255
G1 X56.252 Y17.722 F250
M106 S0
M106 S255
G1 X56.735 Y17.642 F250
M106 S0
M106 S255
G1 X57.25 Y17.63 F250
M106 S0
M106 S255
G1 X57.87 Y17.682 F250
M106 S0
M106 S255
G1 X58.492 Y17.675 F250
M106 S0
M106 S255
G1 X58.799 Y17.631 F250
M106 S0
M106 S255
G1 X59.1 Y17.548 F250
M106 S0
M106 S255
G1 X59.394 Y17.419 F250
M106 S0
M106 S255
G1 X59.679 Y17.236 F250
M106 S0
M106 S255
G1 X59.865 Y17.074 F250
M106 S0
M106 S255
G1 X60.003 Y16.894 F250
M106 S0
M106 S255
G1 X60.086 Y16.689 F250
M106 S0
M106 S255
G1 X60.104 Y16.45 F250
M106 S0
M106 S255
G1 X60.142 Y16.221 F250
M106 S0
M106 S255
G1 X60.238 Y16.016 F250
M106 S0
M106 S255
G1 X60.531 Y15.375 F250
M106 S0
M106 S255
G1 X60.622 Y15.036 F250
M106 S0
M106 S255
G1 X60.637 Y14.671 F250
M106 S0
M106 S255
G1 X60.676 Y14.392 F250
M106 S0
M106 S255
G1 X60.758 Y14.109 F250
M106 S0
G0 X40.728 Y40.143 F6000
M106 S255
G1 X40.728 Y40.143 F250
M106 S0
M106 S255
G1 X40.829 Y39.832 F250
M106 S0
M106 S255
G1 X40.87 Y39.527 F250
M106 S0
M106 S255
G1 X40.859 Y39.228 F250
M106 S0
M106 S255
G1 X40.8 Y38.935 F250
M106 S0
M106 S255
G1 X40.7 Y38.649 F250
M106 S0
M106 S255
G1 X40.566 Y38.371 F250
M106 S0
M106 S255
G1 X40.237 Y37.841 F250
M106 S0
M106 S255
G1 X39.524 Y36.816 F250
M106 S0
M106 S255
G1 X39.438 Y36.686 F250
M106 S0
M106 S255
G1 X39.396 Y36.621 F250
M106 S0
M106 S255
G1 X39.359 Y36.563 F250
M106 S0
M106 S255
G1 X39.314 Y36.489 F250
M106 S0
M106 S255
G1 X39.149 Y36.19 F250
M106 S0
M106 S255
G1 X39.011 Y35.888 F250
M106 S0
M106 S255
G1 X38.899 Y35.582 F250
M106 S0
M106 S255
G1 X38.811 Y35.274 F250
M106 S0
M106 S255
G1 X38.747 Y34.962 F250
M106 S0
M106 S255
G1 X38.705 Y34.648 F250
M106 S0
M106 S255
G1 X38.686 Y34.011 F250
M106 S0
M106 S255
G1 X38.744 Y33.364 F250
M106 S0
M106 S255
G1 X38.871 Y32.709 F250
M106 S0
M106 S255
G1 X38.911 Y32.551 F250
M106 S0
M106 S255
G1 X38.944 Y32.426 F250
M106 S0
M106 S255
G1 X39.016 Y32.178 F250
M106 S0
M106 S255
G1 X39.346 Y31.198 F250
M106 S0
M106 S255
G1 X39.705 Y30.23 F250
M106 S0
M106 S255
G1 X39.878 Y29.744 F250
M106 S0
M106 S255
G1 X39.959 Y29.5 F250
M106 S0
M106 S255
G1 X39.982 Y29.43 F250
M106 S0
M106 S255
G1 X40.015 Y29.327 F250
M106 S0
M106 S255
G1 X40.079 Y29.121 F250
M106 S0
M106 S255
G1 X40.307 Y28.292 F250
M106 S0
M106 S255
G1 X40.475 Y27.459 F250
M106 S0
M106 S255
G1 X40.565 Y26.621 F250
M106 S0
M106 S255
G1 X40.574 Y26.2 F250
M106 S0
M106 S255
G1 X40.557 Y25.778 F250
M106 S0
M106 S255
G1 X40.51 Y25.355 F250
M106 S0
M106 S255
G1 X40.432 Y24.93 F250
M106 S0
M106 S255
G1 X40.32 Y24.504 F250
M106 S0
M106 S255
G1 X40.172 Y24.077 F250
M106 S0
M106 S255
G1 X39.956 Y23.615 F250
M106 S0
M106 S255
G1 X39.714 Y23.168 F250
M106 S0
M106 S255
G1 X39.496 Y22.707 F250
M106 S0
M106 S255
G1 X39.406 Y22.447 F250
M106 S0
M106 S255
G1 X39.34 Y22.176 F250
M106 S0
M106 S255
G1 X39.303 Y21.908 F250
M106 S0
M106 S255
G1 X39.291 Y21.639 F250
M106 S0
M106 S255
G1 X39.33 Y21.093 F250
M106 S0
M106 S255
G1 X39.417 Y20.508 F250
M106 S0
M106 S255
G1 X39.435 Y20.207 F250
M106 S0
M106 S255
G1 X39.424 Y19.906 F250
M106 S0
M106 S255
G1 X39.379 Y19.606 F250
M106 S0
M106 S255
G1 X39.294 Y19.31 F250
M106 S0
M106 S255
G1 X39.163 Y19.018 F250
M106 S0
M106 S255
G1 X38.996 Y18.72 F250
M106 S0
M106 S255
G1 X38.7 Y18.103 F250
M106 S0
M106 S255
G1 X38.591 Y17.781 F250
M106 S0
M106 S255
G1 X38.521 Y17.448 F250
M106 S0
M106 S255
G1 X38.5 Y17.1 F250
M106 S0
M106 S255
G1 X38.51 Y16.919 F250
M106 S0
M106 S255
G1 X38.514 Y16.882 F250
M106 S0
M106 S255
G1 X38.515 Y16.877 F250
M106 S0
M106 S255
G1 X38.515 Y16.867 F250
M106 S0
M106 S255
G1 X38.509 Y16.787 F250
M106 S0
M106 S255
G1 X38.474 Y16.623 F250
M106 S0
G0 X61.235 Y36.544 F6000
M106 S255
G1 X61.235 Y36.544 F250
M106 S0
M106 S255
G1 X61.091 Y36.357 F250
M106 S0
M106 S255
G1 X60.989 Y36.133 F250
M106 S0
M106 S255
G1 X60.932 Y35.884 F250
M106 S0
M106 S255
G1 X60.92 Y35.624 F250
M106 S0
M106 S255
G1 X60.956 Y35.365 F250
M106 S0
M106 S255
G1 X61.042 Y35.12 F250
M106 S0
M106 S255
G1 X61.18 Y34.903 F250
M106 S0
M106 S255
G1 X61.414 Y34.596 F250
M106 S0
M106 S255
G1 X61.496 Y34.447 F250
M106 S0
M106 S255
G1 X61.554 Y34.304 F250
M106 S0
M106 S255
G1 X61.588 Y34.168 F250
M106 S0
M106 S255
G1 X61.6 Y34.037 F250
M106 S0
M106 S255
G1 X61.566 Y33.788 F250
M106 S0
M106 S255
G1 X61.468 Y33.549 F250
M106 S0
M106 S255
G1 X61.32 Y33.313 F250
M106 S0
M106 S255
G1 X61.137 Y33.075 F250
M106 S0
M106 S255
G1 X60.8 Y32.624 F250
M106 S0
M106 S255
G1 X60.526 Y32.155 F250
M106 S0
M106 S255
G1 X60.316 Y31.66 F250
M106 S0
M106 S255
G1 X60.236 Y31.403 F250
M106 S0
M106 S255
G1 X60.207 Y31.286 F250
M106 S0
M106 S255
G1 X60.189 Y31.198 F250
M106 S0
M106 S255
G1 X60.171 Y31.019 F250
M106 S0
M106 S255
G1 X60.177 Y30.839 F250
M106 S0
M106 S255
G1 X60.208 Y30.661 F250
M106 S0
M106 S255
G1 X60.267 Y30.489 F250
M106 S0
M106 S255
G1 X60.356 Y30.324 F250
M106 S0
M106 S255
G1 X60.477 Y30.17 F250
M106 S0
M106 S255
G1 X60.613 Y30.046 F250
M106 S0
M106 S255
G1 X60.743 Y29.962 F250
M106 S0
M106 S255
G1 X60.873 Y29.91 F250
M106 S0
M106 S255
G1 X61.005 Y29.89 F250
M106 S0
M106 S255
G1 X61.139 Y29.9 F250
M106 S0
M106 S255
G1 X61.276 Y29.94 F250
M106 S0
M106 S255
G1 X61.417 Y30.009 F250
M106 S0
M106 S255
G1 X61.569 Y30.109 F250
M106 S0
M106 S255
G1 X62.155 Y30.624 F250
M106 S0
M106 S255
G1 X62.463 Y30.866 F250
M106 S0
M106 S255
G1 X62.648 Y30.976 F250
M106 S0
M106 S255
G1 X62.84 Y31.073 F250
M106 S0
M106 S255
G1 X63.002 Y31.132 F250
M106 S0
M106 S255
G1 X63.145 Y31.152 F250
M106 S0
M106 S255
G1 X63.279 Y31.131 F250
M106 S0
M106 S255
G1 X63.418 Y31.067 F250
M106 S0
M106 S255
G1 X63.57 Y30.959 F250
M106 S0
M106 S255
G1 X63.656 Y30.888 F250
M106 S0
M106 S255
G1 X63.701 Y30.849 F250
M106 S0
M106 S255
G1 X63.727 Y30.826 F250
M106 S0
M106 S255
G1 X63.925 Y30.69 F250
M106 S0
M106 S255
G1 X64.14 Y30.599 F250
M106 S0
M106 S255
G1 X64.375 Y30.546 F250
M106 S0
M106 S255
G1 X64.511 Y30.53 F250
M106 S0
M106 S255
G1 X64.737 Y30.508 F250
M106 S0
M106 S255
G1 X65.189 Y30.451 F250
M106 S0
M106 S255
G1 X66.09 Y30.323 F250
M106 S0
G0 X12.895 Y48.141 F6000
M106 S255
G1 X12.895 Y48.141 F250
M106 S0
M106 S255
G1 X13.239 Y46.868 F250
M106 S0
M106 S255
G1 X13.672 Y45.625 F250
M106 S0
M106 S255
G1 X14.599 Y43.16 F250
M106 S0
M106 S255
G1 X14.889 Y42.211 F250
M106 S0
M106 S255
G1 X15.092 Y41.254 F250
M106 S0
M106 S255
G1 X15.195 Y40.284 F250
M106 S0
M106 S255
G1 X15.185 Y39.298 F250
M106 S0
M106 S255
G1 X15.091 Y38.713 F250
M106 S0
M106 S255
G1 X14.912 Y38.153 F250
M106 S0
M106 S255
G1 X14.672 Y37.615 F250
M106 S0
M106 S255
G1 X14.398 Y37.094 F250
M106 S0
M106 S255
G1 X14.186 Y36.598 F250
M106 S0
M106 S255
G1 X14.089 Y36.101 F250
M106 S0
M106 S255
G1 X14.098 Y35.601 F250
M106 S0
M106 S255
G1 X14.204 Y35.094 F250
M106 S0
M106 S255
G1 X14.448 Y34.342 F250
M106 S0
M106 S255
G1 X14.77 Y33.624 F250
M106 S0
M106 S255
G1 X14.964 Y33.218 F250
M106 S0
M106 S255
G1 X15.1 Y32.814 F250
M106 S0
M106 S255
G1 X15.18 Y32.413 F250
M106 S0
M106 S255
G1 X15.204 Y32.013 F250
M106 S0
M106 S255
G1 X15.173 Y31.612 F250
M106 S0
M106 S255
G1 X15.09 Y31.212 F250
M106 S0
M106 S255
G1 X14.954 Y30.809 F250
M106 S0
M106 S255
G1 X14.769 Y30.405 F250
M106 S0
M106 S255
G1 X14.538 Y29.865 F250
M106 S0
M106 S255
G1 X14.411 Y29.283 F250
M106 S0
M106 S255
G1 X14.294 Y28.932 F250
M106 S0
M106 S255
G1 X14.109 Y28.611 F250
M106 S0
G0 X54.515 Y45.41 F6000
M106 S255
G1 X54.515 Y45.41 F250
M106 S0
M106 S255
G1 X53.91 Y46.381 F250
M106 S0
M106 S255
G1 X53.726 Y46.606 F250
M106 S0
M106 S255
G1 X53.612 Y46.725 F250
M106 S0
M106 S255
G1 X53.47 Y46.858 F250
M106 S0
M106 S255
G1 X53.169 Y47.09 F250
M106 S0
M106 S255
G1 X52.849 Y47.277 F250
M106 S0
M106 S255
G1 X52.512 Y47.42 F250
M106 S0
M106 S255
G1 X52.157 Y47.521 F250
M106 S0
M106 S255
G1 X51.764 Y47.588 F250
M106 S0
M106 S255
G1 X51.339 Y47.688 F250
M106 S0
M106 S255
G1 X50.936 Y47.831 F250
M106 S0
M106 S255
G1 X50.553 Y48.015 F250
M106 S0
M106 S255
G1 X49.83 Y48.485 F250
M106 S0
M106 S255
G1 X49.417 Y48.775 F250
M106 S0
M106 S255
G1 X48.975 Y49.016 F250
M106 S0
M106 S255
G1 X48.741 Y49.108 F250
M106 S0
M106 S255
G1 X48.681 Y49.127 F250
M106 S0
M106 S255
G1 X48.577 Y49.157 F250
M106 S0
M106 S255
G1 X48.327 Y49.214 F250
M106 S0
M106 S255
G1 X47.84 Y49.259 F250
M106 S0
M106 S255
G1 X47.368 Y49.215 F250
M106 S0
M106 S255
G1 X46.912 Y49.082 F250
M106 S0
M106 S255
G1 X46.473 Y48.859 F250
M106 S0
M106 S255
G1 X46.261 Y48.715 F250
M106 S0
M106 S255
G1 X46.171 Y48.646 F250
M106 S0
M106 S255
G1 X46.112 Y48.601 F250
M106 S0
M106 S255
G1 X45.873 Y48.425 F250
M106 S0
M106 S255
G1 X45.368 Y48.122 F250
M106 S0
M106 S255
G1 X44.805 Y47.919 F250
M106 S0
M106 S255
G1 X44.422 Y47.85 F250
M106 S0
M106 S255
G1 X44.043 Y47.822 F250
M106 S0
M106 S255
G1 X43.668 Y47.837 F250
M106 S0
M106 S255
G1 X43.298 Y47.898 F250
M106 S0
M106 S255
G1 X42.932 Y48.01 F250
M106 S0
M106 S255
G1 X42.614 Y48.145 F250
M106 S0
M106 S255
G1 X42.027 Y48.42 F250
M106 S0
M106 S255
G1 X41.444 Y48.7 F250
M106 S0
M106 S255
G1 X41.297 Y48.768 F250
M106 S0
M106 S255
G1 X41.26 Y48.785 F250
M106 S0
M106 S255
G1 X41.196 Y48.814 F250
M106 S0
M106 S255
G1 X41.041 Y48.879 F250
M106 S0
M106 S255
G1 X40.422 Y49.058 F250
M106 S0
M106 S255
G1 X39.804 Y49.121 F250
M106 S0
M106 S255
G1 X39.187 Y49.082 F250
M106 S0
M106 S255
G1 X38.57 Y48.955 F250
M106 S0
M106 S255
G1 X37.952 Y48.752 F250
M106 S0
M106 S255
G1 X37.135 Y48.383 F250
M106 S0
M106 S255
G1 X36.351 Y47.953 F250
M106 S0
M106 S255
G1 X35.961 Y47.734 F250
M106 S0
M106 S255
G1 X35.518 Y47.492 F250
M106 S0
M106 S255
G1 X34.568 Y47.012 F250
M106 S0
M106 S255
G1 X33.575 Y46.627 F250
M106 S0
M106 S255
G1 X33.317 Y46.554 F250
M106 S0
M106 S255
G1 X33.205 Y46.526 F250
M106 S0
M106 S255
G1 X33.132 Y46.51 F250
M106 S0
M106 S255
G1 X32.84 Y46.459 F250
M106 S0
M106 S255
G1 X32.255 Y46.413 F250
M106 S0
M106 S255
G1 X31.667 Y46.407 F250
M106 S0
G0 X5.178 Y55.989 F6000
M106 S255
G1 X5.178 Y55.989 F250
M106 S0
M106 S255
G1 X5.344 Y55.919 F250
M106 S0
M106 S255
G1 X5.438 Y55.795 F250
M106 S0
M106 S255
G1 X5.552 Y55.491 F250
M106 S0
M106 S255
G1 X5.591 Y55.424 F250
M106 S0
M106 S255
G1 X5.597 Y55.416 F250
M106 S0
M106 S255
G1 X5.633 Y55.368 F250
M106 S0
M106 S255
G1 X5.715 Y55.259 F250
M106 S0
M106 S255
G1 X5.879 Y55.041 F250
M106 S0
M106 S255
G1 X6.531 Y54.165 F250
M106 S0
M106 S255
G1 X7.779 Y52.374 F250
M106 S0
M106 S255
G1 X8.357 Y51.445 F250
M106 S0
M106 S255
G1 X8.976 Y50.326 F250
M106 S0
M106 S255
G1 X9.537 Y49.152 F250
M106 S0
M106 S255
G1 X10.017 Y47.946 F250
M106 S0
M106 S255
G1 X10.412 Y46.707 F250
M106 S0
M106 S255
G1 X10.576 Y46.074 F250
M106 S0
M106 S255
G1 X10.644 Y45.779 F250
M106 S0
M106 S255
G1 X10.677 Y45.632 F250
M106 S0
M106 S255
G1 X10.949 Y44.46 F250
M106 S0
M106 S255
G1 X11.166 Y43.28 F250
M106 S0
M106 S255
G1 X11.206 Y42.95 F250
M106 S0
M106 S255
G1 X11.253 Y42.577 F250
M106 S0
M106 S255
G1 X11.357 Y41.832 F250
M106 S0
M106 S255
G1 X11.534 Y40.335 F250
M106 S0
M106 S255
G1 X11.56 Y39.958 F250
M106 S0
M106 S255
G1 X11.569 Y39.769 F250
M106 S0
M106 S255
G1 X11.574 Y39.617 F250
M106 S0
M106 S255
G1 X11.578 Y39.12 F250
M106 S0
M106 S255
G1 X11.536 Y38.135 F250
M106 S0
M106 S255
G1 X11.488 Y37.644 F250
M106 S0
M106 S255
G1 X11.46 Y37.414 F250
M106 S0
M106 S255
G1 X11.438 Y37.284 F250
M106 S0
M106 S255
G1 X11.263 Y36.808 F250
M106 S0
M106 S255
G1 X11.109 Y36.607 F250
M106 S0
M106 S255
G1 X10.901 Y36.436 F250
M106 S0
G0 X61.321 Y49.312 F6000
M106 S255
G1 X61.321 Y49.312 F250
M106 S0
M106 S255
G1 X61.156 Y49.033 F250
M106 S0
M106 S255
G1 X61.042 Y48.752 F250
M106 S0
M106 S255
G1 X60.974 Y48.469 F250
M106 S0
M106 S255
G1 X60.946 Y48.185 F250
M106 S0
M106 S255
G1 X60.953 Y47.9 F250
M106 S0
M106 S255
G1 X60.99 Y47.614 F250
M106 S0
M106 S255
G1 X61.129 Y47.04 F250
M106 S0
M106 S255
G1 X61.22 Y46.752 F250
M106 S0
M106 S255
G1 X61.291 Y46.544 F250
M106 S0
M106 S255
G1 X61.422 Y46.157 F250
M106 S0
M106 S255
G1 X61.54 Y45.766 F250
M106 S0
M106 S255
G1 X61.631 Y45.366 F250
M106 S0
M106 S255
G1 X61.679 Y44.951 F250
M106 S0
M106 S255
G1 X61.682 Y44.898 F250
M106 S0
M106 S255
G1 X61.683 Y44.816 F250
M106 S0
M106 S255
G1 X61.677 Y44.647 F250
M106 S0
M106 S255
G1 X61.628 Y44.334 F250
M106 S0
M106 S255
G1 X61.534 Y44.051 F250
M106 S0
M106 S255
G1 X61.399 Y43.797 F250
M106 S0
M106 S255
G1 X61.229 Y43.571 F250
M106 S0
M106 S255
G1 X61.026 Y43.374 F250
M106 S0
M106 S255
G1 X60.796 Y43.203 F250
M106 S0
M106 S255
G1 X60.543 Y43.058 F250
M106 S0
M106 S255
G1 X60.272 Y42.939 F250
M106 S0
M106 S255
G1 X60.139 Y42.891 F250
M106 S0
M106 S255
G1 X60.057 Y42.864 F250
M106 S0
M106 S255
G1 X59.39 Y42.69 F250
M106 S0
M106 S255
G1 X58.723 Y42.508 F250
M106 S0
M106 S255
G1 X58.542 Y42.441 F250
M106 S0
M106 S255
G1 X58.351 Y42.351 F250
M106 S0
M106 S255
G1 X58.023 Y42.129 F250
M106 S0
M106 S255
G1 X57.759 Y41.853 F250
M106 S0
M106 S255
G1 X57.556 Y41.524 F250
M106 S0
M106 S255
G1 X57.474 Y41.342 F250
M106 S0
M106 S255
G1 X57.438 Y41.246 F250
M106 S0
M106 S255
G1 X57.397 Y41.124 F250
M106 S0
M106 S255
G1 X57.231 Y40.563 F250
M106 S0
M106 S255
G1 X56.92 Y39.435 F250
M106 S0
M106 S255
G1 X56.73 Y38.882 F250
M106 S0
M106 S255
G1 X56.675 Y38.746 F250
M106 S0
M106 S255
G1 X56.647 Y38.678 F250
M106 S0
M106 S255
G1 X56.632 Y38.644 F250
M106 S0
M106 S255
G1 X56.618 Y38.604 F250
M106 S0
M106 S255
G1 X56.596 Y38.3 F250
M106 S0
G0 X52.651 Y60.541 F6000
M106 S255
G1 X52.651 Y60.541 F250
M106 S0
M106 S255
G1 X52.424 Y60.781 F250
M106 S0
M106 S255
G1 X52.151 Y60.933 F250
M106 S0
M106 S255
G1 X51.553 Y61.089 F250
M106 S0
M106 S255
G1 X51.408 Y61.118 F250
M106 S0
M106 S255
G1 X51.077 Y61.197 F250
M106 S0
M106 S255
G1 X50.384 Y61.43 F250
M106 S0
M106 S255
G1 X49.728 Y61.731 F250
M106 S0
M106 S255
G1 X49.1 Y62.086 F250
M106 S0
M106 S255
G1 X48.491 Y62.481 F250
M106 S0
M106 S255
G1 X47.819 Y62.911 F250
M106 S0
M106 S255
G1 X47.111 Y63.276 F250
M106 S0
M106 S255
G1 X46.372 Y63.561 F250
M106 S0
M106 S255
G1 X45.599 Y63.761 F250
M106 S0
M106 S255
G1 X45.197 Y63.826 F250
M106 S0
M106 S255
G1 X45.005 Y63.849 F250
M106 S0
M106 S255
G1 X44.886 Y63.862 F250
M106 S0
M106 S255
G1 X43.939 Y63.959 F250
M106 S0
M106 S255
G1 X42.989 Y64.011 F250
M106 S0
M106 S255
G1 X41.845 Y64.019 F250
M106 S0
M106 S255
G1 X40.669 Y64.041 F250
M106 S0
M106 S255
G1 X40.375 Y64.048 F250
M106 S0
M106 S255
G1 X40.228 Y64.052 F250
M106 S0
M106 S255
G1 X40.14 Y64.055 F250
M106 S0
M106 S255
G1 X39.965 Y64.058 F250
M106 S0
M106 S255
G1 X38.576 Y64.015 F250
M106 S0
M106 S255
G1 X37.211 Y63.844 F250
M106 S0
M106 S255
G1 X35.873 Y63.54 F250
M106 S0
M106 S255
G1 X34.565 Y63.099 F250
M106 S0
M106 S255
G1 X33.952 Y62.84 F250
M106 S0
M106 S255
G1 X33.514 Y62.639 F250
M106 S0
M106 S255
G1 X31.802 Y61.752 F250
M106 S0
M106 S255
G1 X30.976 Y61.248 F250
M106 S0
M106 S255
G1 X30.175 Y60.696 F250
M106 S0
M106 S255
G1 X28.509 Y59.517 F250
M106 S0
M106 S255
G1 X28.311 Y59.354 F250
M106 S0
M106 S255
G1 X28.067 Y59.133 F250
M106 S0
M106 S255
G1 X27.601 Y58.642 F250
M106 S0
M106 S255
G1 X26.777 Y57.575 F250
M106 S0
M106 S255
G1 X26.006 Y56.494 F250
M106 S0
M106 S255
G1 X25.193 Y55.488 F250
M106 S0
M106 S255
G1 X24.364 Y54.52 F250
M106 S0
M106 S255
G1 X23.654 Y53.622 F250
M106 S0
M106 S255
G1 X23.037 Y52.661 F250
M106 S0
M106 S255
G1 X22.969 Y52.535 F250
M106 S0
M106 S255
G1 X22.834 Y52.277 F250
M106 S0
M106 S255
G1 X22.554 Y51.713 F250
M106 S0
M106 S255
G1 X22.039 Y50.567 F250
M106 S0
M106 S255
G1 X21.591 Y49.395 F250
M106 S0
M106 S255
G1 X21.217 Y48.195 F250
M106 S0
M106 S255
G1 X21.06 Y47.585 F250
M106 S0
M106 S255
G1 X20.989 Y47.277 F250
M106 S0
M106 S255
G1 X20.958 Y47.136 F250
M106 S0
M106 S255
G1 X20.946 Y47.078 F250
M106 S0
M106 S255
G1 X20.848 Y46.617 F250
M106 S0
M106 S255
G1 X20.681 Y45.69 F250
M106 S0
M106 S255
G1 X20.627 Y45.222 F250
M106 S0
M106 S255
G1 X20.611 Y45.011 F250
M106 S0
M106 S255
G1 X20.603 Y44.948 F250
M106 S0
M106 S255
G1 X20.506 Y44.73 F250
M106 S0
M106 S255
G1 X20.352 Y44.543 F250
M106 S0
G0 X34.962 Y59.153 F6000
M106 S255
G1 X34.962 Y59.153 F250
M106 S0
M106 S255
G1 X33.558 Y59.16 F250
M106 S0
M106 S255
G1 X33.384 Y59.146 F250
M106 S0
M106 S255
G1 X33.076 Y59.102 F250
M106 S0
M106 S255
G1 X32.467 Y58.915 F250
M106 S0
M106 S255
G1 X31.926 Y58.614 F250
M106 S0
M106 S255
G1 X31.448 Y58.21 F250
M106 S0
M106 S255
G1 X31.028 Y57.715 F250
M106 S0
M106 S255
G1 X30.95 Y57.606 F250
M106 S0
M106 S255
G1 X30.899 Y57.534 F250
M106 S0
M106 S255
G1 X30.796 Y57.391 F250
M106 S0
M106 S255
G1 X30.378 Y56.823 F250
M106 S0
M106 S255
G1 X30.169 Y56.539 F250
M106 S0
M106 S255
G1 X30.065 Y56.396 F250
M106 S0
M106 S255
G1 X30.001 Y56.308 F250
M106 S0
M106 S255
G1 X29.861 Y56.123 F250
M106 S0
M106 S255
G1 X29.566 Y55.782 F250
M106 S0
M106 S255
G1 X29.25 Y55.478 F250
M106 S0
M106 S255
G1 X28.912 Y55.212 F250
M106 S0
M106 S255
G1 X28.554 Y54.983 F250
M106 S0
M106 S255
G1 X28.174 Y54.793 F250
M106 S0
M106 S255
G1 X27.772 Y54.641 F250
M106 S0
M106 S255
G1 X27.348 Y54.527 F250
M106 S0
M106 S255
G1 X26.903 Y54.453 F250
M106 S0
M106 S255
G1 X26.672 Y54.43 F250
M106 S0
M106 S255
G1 X26.517 Y54.417 F250
M106 S0
M106 S255
G1 X26.243 Y54.375 F250
M106 S0
M106 S255
G1 X25.74 Y54.22 F250
M106 S0
M106 S255
G1 X25.297 Y53.966 F250
M106 S0
M106 S255
G1 X24.917 Y53.607 F250
M106 S0
M106 S255
G1 X24.608 Y53.155 F250
M106 S0
M106 S255
G1 X24.326 Y52.778 F250
M106 S0
M106 S255
G1 X23.995 Y52.454 F250
M106 S0
M106 S255
G1 X23.632 Y52.165 F250
M106 S0
M106 S255
G1 X23.252 Y51.892 F250
M106 S0
M106 S255
G1 X23.081 Y51.772 F250
M106 S0
M106 S255
G1 X23.034 Y51.746 F250
M106 S0
M106 S255
G1 X22.693 Y51.74 F250
M106 S0
G0 X11.551 Y27.288 F6000
M106 S255
G1 X11.551 Y27.288 F250
M106 S0
M106 S255
G1 X11.938 Y27.047 F250
M106 S0
M106 S255
G1 X12.306 Y26.782 F250
M106 S0
M106 S255
G1 X13.004 Y26.204 F250
M106 S0
M106 S255
G1 X13.175 Y26.053 F250
M106 S0
M106 S255
G1 X13.384 Y25.85 F250
M106 S0
M106 S255
G1 X13.568 Y25.626 F250
M106 S0
M106 S255
G1 X13.721 Y25.39 F250
M106 S0
M106 S255
G1 X13.847 Y25.142 F250
M106 S0
M106 S255
G1 X13.946 Y24.884 F250
M106 S0
M106 S255
G1 X14.08 Y24.342 F250
M106 S0
M106 S255
G1 X14.144 Y23.773 F250
M106 S0
M106 S255
G1 X14.163 Y23.516 F250
M106 S0
M106 S255
G1 X14.199 Y23.285 F250
M106 S0
M106 S255
G1 X14.256 Y23.067 F250
M106 S0
M106 S255
G1 X14.335 Y22.864 F250
M106 S0
M106 S255
G1 X14.436 Y22.677 F250
M106 S0
M106 S255
G1 X14.562 Y22.505 F250
M106 S0
M106 S255
G1 X14.714 Y22.349 F250
M106 S0
M106 S255
G1 X14.892 Y22.211 F250
M106 S0
M106 S255
G1 X15.312 Y21.988 F250
M106 S0
M106 S255
G1 X15.686 Y21.759 F250
M106 S0
M106 S255
G1 X15.998 Y21.476 F250
M106 S0
M106 S255
G1 X16.253 Y21.137 F250
M106 S0
M106 S255
G1 X16.456 Y20.74 F250
M106 S0
M106 S255
G1 X16.498 Y20.632 F250
M106 S0
M106 S255
G1 X16.572 Y20.448 F250
M106 S0
M106 S255
G1 X16.757 Y20.091 F250
M106 S0
M106 S255
G1 X16.979 Y19.781 F250
M106 S0
M106 S255
G1 X17.235 Y19.513 F250
M106 S0
M106 S255
G1 X17.522 Y19.283 F250
M106 S0
M106 S255
G1 X17.835 Y19.09 F250
M106 S0
M106 S255
G1 X18.173 Y18.928 F250
M106 S0
M106 S255
G1 X18.53 Y18.794 F250
M106 S0
M106 S255
G1 X18.906 Y18.685 F250
M106 S0
M106 S255
G1 X19.099 Y18.639 F250
M106 S0
M106 S255
G1 X19.192 Y18.619 F250
M106 S0
M106 S255
G1 X19.26 Y18.605 F250
M106 S0
M106 S255
G1 X19.804 Y18.501 F250
M106 S0
M106 S255
G1 X20.352 Y18.426 F250
M106 S0
M106 S255
G1 X20.903 Y18.393 F250
M106 S0
M106 S255
G1 X21.457 Y18.416 F250
M106 S0
M106 S255
G1 X21.596 Y18.432 F250
M106 S0
M106 S255
G1 X21.666 Y18.442 F250
M106 S0
M106 S255
G1 X21.708 Y18.448 F250
M106 S0
M106 S255
G1 X21.796 Y18.461 F250
M106 S0
M106 S255
G1 X21.969 Y18.492 F250
M106 S0
M106 S255
G1 X22.128 Y18.55 F250
M106 S0
M106 S255
G1 X22.259 Y18.656 F250
M106 S0
M106 S255
G1 X22.346 Y18.834 F250
M106 S0
G0 X21.826 Y36.826 F6000
M106 S255
G1 X21.826 Y36.826 F250
M106 S0
M106 S255
G1 X21.532 Y37.691 F250
M106 S0
M106 S255
G1 X21.215 Y38.549 F250
M106 S0
M106 S255
G1 X20.921 Y39.414 F250
M106 S0
M106 S255
G1 X20.798 Y39.855 F250
M106 S0
M106 S255
G1 X20.718 Y40.188 F250
M106 S0
M106 S255
G1 X20.586 Y40.829 F250
M106 S0
M106 S255
G1 X20.489 Y41.475 F250
M106 S0
M106 S255
G1 X20.44 Y42.129 F250
M106 S0
M106 S255
G1 X20.438 Y42.207 F250
M106 S0
M106 S255
G1 X20.437 Y42.256 F250
M106 S0
M106 S255
G1 X20.434 Y42.354 F250
M106 S0
M106 S255
G1 X20.426 Y42.549 F250
M106 S0
M106 S255
G1 X20.398 Y43.329 F250
M106 S0
M106 S255
G1 X20.399 Y43.524 F250
M106 S0
M106 S255
G1 X20.4 Y43.573 F250
M106 S0
M106 S255
G1 X20.401 Y43.65 F250
M106 S0
M106 S255
G1 X20.39 Y43.824 F250
M106 S0
M106 S255
G1 X20.317 Y44.138 F250
M106 S0
M106 S255
G1 X20.186 Y44.413 F250
M106 S0
M106 S255
G1 X20.009 Y44.656 F250
M106 S0
M106 S255
G1 X19.799 Y44.874 F250
M106 S0
M106 S255
G1 X19.324 Y45.271 F250
M106 S0
M106 S255
G1 X19.21 Y45.362 F250
M106 S0
M106 S255
G1 X19.147 Y45.408 F250
M106 S0
M106 S255
G1 X19.016 Y45.497 F250
M106 S0
M106 S255
G1 X18.753 Y45.674 F250
M106 S0
M106 S255
G1 X18.638 Y45.773 F250
M106 S0
M106 S255
G1 X18.545 Y45.887 F250
M106 S0
M106 S255
G1 X18.481 Y46.021 F250
M106 S0
M106 S255
G1 X18.464 Y46.097 F250
M106 S0
M106 S255
G1 X18.45 Y46.199 F250
M106 S0
M106 S255
G1 X18.428 Y46.617 F250
M106 S0
M106 S255
G1 X18.471 Y47.035 F250
M106 S0
M106 S255
G1 X18.521 Y47.242 F250
M106 S0
M106 S255
G1 X18.595 Y47.446 F250
M106 S0
M106 S255
G1 X18.64 Y47.547 F250
M106 S0
M106 S255
G1 X18.699 Y47.664 F250
M106 S0
M106 S255
G1 X18.816 Y47.918 F250
M106 S0
M106 S255
G1 X19.003 Y48.44 F250
M106 S0
M106 S255
G1 X19.116 Y48.983 F250
M106 S0
M106 S255
G1 X19.14 Y49.263 F250
M106 S0
M106 S255
G1 X19.143 Y49.406 F250
M106 S0
M106 S255
G1 X19.14 Y49.533 F250
M106 S0
M106 S255
G1 X19.091 Y49.95 F250
M106 S0
M106 S255
G1 X18.991 Y50.353 F250
M106 S0
M106 S255
G1 X18.851 Y50.742 F250
M106 S0
M106 S255
G1 X18.699 Y51.118 F250
M106 S0
M106 S255
G1 X18.581 Y51.495 F250
M106 S0
M106 S255
G1 X18.398 Y52.259 F250
M106 S0
M106 S255
G1 X18.182 Y53.065 F250
M106 S0
M106 S255
G1 X18.074 Y53.468 F250
M106 S0
M106 S255
G1 X18.024 Y53.67 F250
M106 S0
M106 S255
G1 X18.017 Y53.699 F250
M106 S0
M106 S255
G1 X18.014 Y53.709 F250
M106 S0
M106 S255
G1 X18.008 Y53.73 F250
M106 S0
M106 S255
G1 X17.936 Y53.862 F250
M106 S0
M106 S255
G1 X17.885 Y53.899 F250
M106 S0
M106 S255
G1 X17.872 Y53.905 F250
M106 S0
M106 S255
G1 X17.812 Y53.931 F250
M106 S0
M106 S255
G1 X17.7 Y53.99 F250
M106 S0
M106 S255
G1 X17.505 Y54.132 F250
M106 S0
M106 S255
G1 X17.341 Y54.301 F250
M106 S0
M106 S255
G1 X17.201 Y54.49 F250
M106 S0
M106 S255
G1 X16.961 Y54.898 F250
M106 S0
M106 S255
G1 X16.845 Y55.103 F250
M106 S0
M106 S255
G1 X16.815 Y55.153 F250
M106 S0
M106 S255
G1 X16.794 Y55.189 F250
M106 S0
M106 S255
G1 X16.758 Y55.247 F250
M106 S0
M106 S255
G1 X16.616 Y55.48 F250
M106 S0
M106 S255
G1 X16.044 Y56.407 F250
M106 S0
M106 S255
G1 X15.434 Y57.306 F250
M106 S0
M106 S255
G1 X15.103 Y57.736 F250
M106 S0
M106 S255
G1 X14.746 Y58.147 F250
M106 S0
M106 S255
G1 X14.56 Y58.343 F250
M106 S0
M106 S255
G1 X14.393 Y58.503 F250
M106 S0
M106 S255
G1 X14.236 Y58.636 F250
M106 S0
M106 S255
G1 X14.088 Y58.744 F250
M106 S0
M106 S255
G1 X13.947 Y58.827 F250
M106 S0
M106 S255
G1 X13.81 Y58.888 F250
M106 S0
M106 S255
G1 X13.544 Y58.949 F250
M106 S0
M106 S255
G1 X13.274 Y58.938 F250
M106 S0
M106 S255
G1 X12.986 Y58.867 F250
M106 S0
M106 S255
G1 X12.664 Y58.749 F250
M106 S0
M106 S255
G1 X12.486 Y58.676 F250
M106 S0
M106 S255
G1 X12.348 Y58.619 F250
M106 S0
M106 S255
G1 X11.824 Y58.387 F250
M106 S0
M106 S255
G1 X11.31 Y58.133 F250
M106 S0
M106 S255
G1 X10.81 Y57.854 F250
M106 S0
M106 S255
G1 X10.688 Y57.78 F250
M106 S0
M106 S255
G1 X10.548 Y57.696 F250
M106 S0
M106 S255
G1 X10.251 Y57.552 F250
M106 S0
M106 S255
G1 X9.955 Y57.458 F250
M106 S0
M106 S255
G1 X9.659 Y57.411 F250
M106 S0
M106 S255
G1 X9.362 Y57.41 F250
M106 S0
M106 S255
G1 X9.061 Y57.453 F250
M106 S0
M106 S255
G1 X8.756 Y57.537 F250
M106 S0
M106 S255
G1 X8.601 Y57.595 F250
M106 S0
M106 S255
G1 X8.427 Y57.668 F250
M106 S0
M106 S255
G1 X8.068 Y57.795 F250
M106 S0
M106 S255
G1 X7.755 Y57.856 F250
M106 S0
M106 S255
G1 X7.475 Y57.849 F250
M106 S0
M106 S255
G1 X7.217 Y57.77 F250
M106 S0
M106 S255
G1 X6.968 Y57.616 F250
M106 S0
M106 S255
G1 X6.718 Y57.385 F250
M106 S0
M106 S255
G1 X6.468 Y57.091 F250
M106 S0
M106 S255
G1 X6.327 Y56.91 F250
M106 S0
M106 S255
G1 X6.042 Y56.55 F250
M106 S0
M106 S255
G1 X5.738 Y56.208 F250
M106 S0
M106 S255
G1 X5.395 Y55.902 F250
M106 S0
G0 X52.564 Y35.612 F6000
M106 S255
G1 X52.564 Y35.612 F250
M106 S0
M106 S255
G1 X52.539 Y35.172 F250
M106 S0
M106 S255
G1 X52.487 Y34.742 F250
M106 S0
M106 S255
G1 X52.405 Y34.323 F250
M106 S0
M106 S255
G1 X52.294 Y33.914 F250
M106 S0
M106 S255
G1 X52.152 Y33.518 F250
M106 S0
M106 S255
G1 X51.977 Y33.134 F250
M106 S0
M106 S255
G1 X51.77 Y32.765 F250
M106 S0
M106 S255
G1 X51.529 Y32.409 F250
M106 S0
M106 S255
G1 X51.253 Y32.07 F250
M106 S0
M106 S255
G1 X50.986 Y31.793 F250
M106 S0
M106 S255
G1 X50.716 Y31.564 F250
M106 S0
M106 S255
G1 X50.432 Y31.378 F250
M106 S0
M106 S255
G1 X50.131 Y31.24 F250
M106 S0
M106 S255
G1 X49.809 Y31.151 F250
M106 S0
M106 S255
G1 X49.462 Y31.115 F250
M106 S0
M106 S255
G1 X49.086 Y31.135 F250
M106 S0
M106 S255
G1 X48.678 Y31.214 F250
M106 S0
M106 S255
G1 X48.233 Y31.354 F250
M106 S0
M106 S255
G1 X48.115 Y31.399 F250
M106 S0
M106 S255
G1 X48.063 Y31.42 F250
M106 S0
M106 S255
G1 X47.981 Y31.454 F250
M106 S0
M106 S255
G1 X47.818 Y31.523 F250
M106 S0
M106 S255
G1 X47.162 Y31.795 F250
M106 S0
M106 S255
G1 X46.826 Y31.906 F250
M106 S0
M106 S255
G1 X46.655 Y31.95 F250
M106 S0
M106 S255
G1 X46.563 Y31.969 F250
M106 S0
M106 S255
G1 X46.446 Y31.989 F250
M106 S0
M106 S255
G1 X46.214 Y32.011 F250
M106 S0
M106 S255
G1 X45.985 Y32.01 F250
M106 S0
M106 S255
G1 X45.541 Y31.945 F250
M106 S0
M106 S255
G1 X45.114 Y31.804 F250
M106 S0
M106 S255
G1 X44.705 Y31.599 F250
M106 S0
M106 S255
G1 X44.521 Y31.486 F250
M106 S0
M106 S255
G1 X44.361 Y31.378 F250
M106 S0
M106 S255
G1 X44.047 Y31.152 F250
M106 S0
M106 S255
G1 X43.426 Y30.69 F250
M106 S0
M106 S255
G1 X43.11 Y30.475 F250
M106 S0
M106 S255
G1 X42.802 Y30.297 F250
M106 S0
M106 S255
G1 X42.48 Y30.154 F250
M106 S0
M106 S255
G1 X42.143 Y30.059 F250
M106 S0
M106 S255
G1 X41.793 Y30.024 F250
M106 S0
M106 S255
G1 X41.405 Y30.039 F250
M106 S0
M106 S255
G1 X41.024 Y29.997 F250
M106 S0
M106 S255
G1 X40.678 Y29.879 F250
M106 S0
M106 S255
G1 X40.363 Y29.685 F250
M106 S0
M106 S255
G1 X40.078 Y29.413 F250
M106 S0
G0 X61.105 Y36.523 F6000
M106 S255
G1 X61.105 Y36.523 F250
M106 S0
M106 S255
G1 X61.044 Y36.62 F250
M106 S0
M106 S255
G1 X60.975 Y36.7 F250
M106 S0
M106 S255
G1 X60.899 Y36.763 F250
M106 S0
M106 S255
G1 X60.816 Y36.811 F250
M106 S0
M106 S255
G1 X60.634 Y36.873 F250
M106 S0
M106 S255
G1 X60.44 Y36.899 F250
M106 S0
M106 S255
G1 X60.241 Y36.907 F250
M106 S0
M106 S255
G1 X59.93 Y36.909 F250
M106 S0
M106 S255
G1 X59.797 Y36.908 F250
M106 S0
M106 S255
G1 X59.68 Y36.907 F250
M106 S0
M106 S255
G1 X59.489 Y36.913 F250
M106 S0
M106 S255
G1 X59.347 Y36.935 F250
M106 S0
M106 S255
G1 X59.243 Y36.986 F250
M106 S0
M106 S255
G1 X59.165 Y37.074 F250
M106 S0
M106 S255
G1 X59.104 Y37.21 F250
M106 S0
M106 S255
G1 X59.075 Y37.299 F250
M106 S0
M106 S255
G1 X59.047 Y37.404 F250
M106 S0
M106 S255
G1 X59.017 Y37.527 F250
M106 S0
M106 S255
G1 X58.984 Y37.668 F250
M106 S0
M106 S255
G1 X58.946 Y37.828 F250
M106 S0
M106 S255
G1 X58.903 Y38.01 F250
M106 S0
M106 S255
G1 X58.897 Y38.034 F250
M106 S0
M106 S255
G1 X58.895 Y38.044 F250
M106 S0
M106 S255
G1 X58.892 Y38.055 F250
M106 S0
M106 S255
G1 X58.887 Y38.076 F250
M106 S0
M106 S255
G1 X58.876 Y38.118 F250
M106 S0
M106 S255
G1 X58.853 Y38.198 F250
M106 S0
M106 S255
G1 X58.801 Y38.354 F250
M106 S0
M106 S255
G1 X58.736 Y38.505 F250
M106 S0
M106 S255
G1 X58.655 Y38.656 F250
M106 S0
M106 S255
G1 X58.553 Y38.811 F250
M106 S0
M106 S255
G1 X58.528 Y38.82 F250
M106 S0
M106 S255
G1 X58.492 Y38.819 F250
M106 S0
M106 S255
G1 X58.421 Y38.814 F250
M106 S0
M106 S255
G1 X58.281 Y38.797 F250
M106 S0
M106 S255
G1 X58.009 Y38.736 F250
M106 S0
M106 S255
G1 X57.744 Y38.65 F250
M106 S0
M106 S255
G1 X57.218 Y38.453 F250
M106 S0
M106 S255
G1 X56.669 Y38.238 F250
M106 S0
M106 S255
G1 X56.389 Y38.139 F250
M106 S0
M106 S255
G1 X56.102 Y38.068 F250
M106 S0
M106 S255
G1 X55.802 Y38.039 F250
M106 S0
M106 S255
G1 X55.639 Y38.046 F250
M106 S0
M106 S255
G1 X55.489 Y38.069 F250
M106 S0
M106 S255
G1 X55.356 Y38.109 F250
M106 S0
M106 S255
G1 X55.239 Y38.165 F250
M106 S0
M106 S255
G1 X55.137 Y38.239 F250
M106 S0
M106 S255
G1 X55.052 Y38.329 F250
M106 S0
M106 S255
G1 X54.982 Y38.437 F250
M106 S0
M106 S255
G1 X54.928 Y38.563 F250
M106 S0
M106 S255
G1 X54.888 Y38.706 F250
M106 S0
M106 S255
G1 X54.863 Y38.866 F250
M106 S0
M106 S255
G1 X54.857 Y38.937 F250
M106 S0
M106 S255
G1 X54.854 Y38.993 F250
M106 S0
M106 S255
G1 X54.854 Y39.105 F250
M106 S0
M106 S255
G1 X54.868 Y39.328 F250
M106 S0
M106 S255
G1 X54.894 Y39.776 F250
M106 S0
M106 S255
G1 X54.876 Y40.004 F250
M106 S0
M106 S255
G1 X54.871 Y40.033 F250
M106 S0
M106 S255
G1 X54.854 Y40.12 F250
M106 S0
M106 S255
G1 X54.811 Y40.294 F250
M106 S0
M106 S255
G1 X54.761 Y40.454 F250
M106 S0
M106 S255
G1 X54.702 Y40.599 F250
M106 S0
M106 S255
G1 X54.636 Y40.73 F250
M106 S0
M106 S255
G1 X54.562 Y40.846 F250
M106 S0
M106 S255
G1 X54.481 Y40.95 F250
M106 S0
M106 S255
G1 X54.394 Y41.04 F250
M106 S0
M106 S255
G1 X54.198 Y41.182 F250
M106 S0
M106 S255
G1 X53.978 Y41.276 F250
M106 S0
M106 S255
G1 X53.734 Y41.324 F250
M106 S0
M106 S255
G1 X53.469 Y41.329 F250
M106 S0
M106 S255
G1 X53.184 Y41.295 F250
M106 S0
M106 S255
G1 X52.882 Y41.224 F250
M106 S0
M106 S255
G1 X52.804 Y41.201 F250
M106 S0
M106 S255
G1 X52.779 Y41.193 F250
M106 S0
M106 S255
G1 X52.768 Y41.189 F250
M106 S0
M106 S255
G1 X52.724 Y41.174 F250
M106 S0
M106 S255
G1 X52.638 Y41.139 F250
M106 S0
M106 S255
G1 X52.47 Y41.054 F250
M106 S0
M106 S255
G1 X52.146 Y40.849 F250
M106 S0
M106 S255
G1 X51.987 Y40.744 F250
M106 S0
M106 S255
G1 X51.805 Y40.639 F250
M106 S0
M106 S255
G1 X51.614 Y40.562 F250
M106 S0
M106 S255
G1 X51.417 Y40.515 F250
M106 S0
M106 S255
G1 X51.213 Y40.494 F250
M106 S0
M106 S255
G1 X51.002 Y40.499 F250
M106 S0
M106 S255
G1 X50.954 Y40.503 F250
M106 S0
M106 S255
G1 X50.929 Y40.506 F250
M106 S0
M106 S255
G1 X50.881 Y40.511 F250
M106 S0
M106 S255
G1 X50.791 Y40.528 F250
M106 S0
M106 S255
G1 X50.709 Y40.555 F250
M106 S0
M106 S255
G1 X50.639 Y40.6 F250
M106 S0
M106 S255
G1 X50.583 Y40.668 F250
M106 S0
M106 S255
G1 X50.577 Y40.678 F250
M106 S0
M106 S255
G1 X50.574 Y40.684 F250
M106 S0
M106 S255
G1 X50.565 Y40.7 F250
M106 S0
M106 S255
G1 X50.508 Y40.799 F250
M106 S0
M106 S255
G1 X50.382 Y40.973 F250
M106 S0
M106 S255
G1 X50.242 Y41.116 F250
M106 S0
M106 S255
G1 X50.088 Y41.232 F250
M106 S0
M106 S255
G1 X49.922 Y41.323 F250
M106 S0
M106 S255
G1 X49.746 Y41.392 F250
M106 S0
M106 S255
G1 X49.562 Y41.442 F250
M106 S0
M106 S255
G1 X49.371 Y41.474 F250
M106 S0
M106 S255
G1 X48.974 Y41.497 F250
M106 S0
M106 S255
G1 X48.874 Y41.496 F250
M106 S0
M106 S255
G1 X48.793 Y41.498 F250
M106 S0
M106 S255
G1 X48.637 Y41.523 F250
M106 S0
M106 S255
G1 X48.491 Y41.574 F250
M106 S0
M106 S255
G1 X48.357 Y41.648 F250
M106 S0
M106 S255
G1 X48.236 Y41.743 F250
M106 S0
M106 S255
G1 X48.13 Y41.857 F250
M106 S0
M106 S255
G1 X48.041 Y41.988 F250
M106 S0
M106 S255
G1 X47.971 Y42.133 F250
M106 S0
M106 S255
G1 X47.921 Y42.291 F250
M106 S0
M106 S255
G1 X47.893 Y42.46 F250
M106 S0
M106 S255
G1 X47.888 Y42.547 F250
M106 S0
M106 S255
G1 X47.882 Y42.657 F250
M106 S0
M106 S255
G1 X47.85 Y42.85 F250
M106 S0
M106 S255
G1 X47.794 Y43.01 F250
M106 S0
M106 S255
G1 X47.715 Y43.139 F250
M106 S0
M106 S255
G1 X47.615 Y43.24 F250
M106 S0
M106 S255
G1 X47.498 Y43.315 F250
M106 S0
M106 S255
G1 X47.365 Y43.368 F250
M106 S0
M106 S255
G1 X47.218 Y43.4 F250
M106 S0
M106 S255
G1 X47.06 Y43.415 F250
M106 S0
M106 S255
G1 X46.893 Y43.416 F250
M106 S0
M106 S255
G1 X46.807 Y43.411 F250
M106 S0
M106 S255
G1 X46.779 Y43.409 F250
M106 S0
M106 S255
G1 X46.735 Y43.402 F250
M106 S0
M106 S255
G1 X46.649 Y43.378 F250
M106 S0
M106 S255
G1 X46.477 Y43.316 F250
M106 S0
M106 S255
G1 X46.39 Y43.294 F250
M106 S0
M106 S255
G1 X46.334 Y43.288 F250
M106 S0
M106 S255
G1 X46.264 Y43.283 F250
M106 S0
M106 S255
G1 X46.131 Y43.288 F250
M106 S0
M106 S255
G1 X46.007 Y43.319 F250
M106 S0
M106 S255
G1 X45.89 Y43.386 F250
M106 S0
M106 S255
G1 X45.78 Y43.494 F250
M106 S0
M106 S255
G1 X45.754 Y43.529 F250
M106 S0
M106 S255
G1 X45.733 Y43.558 F250
M106 S0
M106 S255
G1 X45.706 Y43.596 F250
M106 S0
M106 S255
G1 X45.594 Y43.728 F250
M106 S0
M106 S255
G1 X45.482 Y43.831 F250
M106 S0
M106 S255
G1 X45.368 Y43.903 F250
M106 S0
M106 S255
G1 X45.251 Y43.945 F250
M106 S0
M106 S255
G1 X45.131 Y43.958 F250
M106 S0
M106 S255
G1 X45.007 Y43.941 F250
M106 S0
M106 S255
G1 X44.878 Y43.894 F250
M106 S0
M106 S255
G1 X44.743 Y43.819 F250
M106 S0
M106 S255
G1 X44.602 Y43.714 F250
M106 S0
M106 S255
G1 X44.33 Y43.466 F250
M106 S0
M106 S255
G1 X43.809 Y42.98 F250
M106 S0
M106 S255
G1 X43.531 Y42.757 F250
M106 S0
M106 S255
G1 X43.229 Y42.561 F250
M106 S0
M106 S255
G1 X43.149 Y42.517 F250
M106 S0
M106 S255
G1 X43.055 Y42.472 F250
M106 S0
M106 S255
G1 X42.848 Y42.402 F250
M106 S0
M106 S255
G1 X42.639 Y42.373 F250
M106 S0
M106 S255
G1 X42.434 Y42.381 F250
M106 S0
M106 S255
G1 X42.238 Y42.426 F250
M106 S0
M106 S255
G1 X42.055 Y42.505 F250
M106 S0
M106 S255
G1 X41.89 Y42.616 F250
M106 S0
M106 S255
G1 X41.748 Y42.758 F250
M106 S0
M106 S255
G1 X41.633 Y42.928 F250
M106 S0
M106 S255
G1 X41.55 Y43.124 F250
M106 S0
M106 S255
G1 X41.522 Y43.232 F250
M106 S0
M106 S255
G1 X41.512 Y43.287 F250
M106 S0
M106 S255
G1 X41.509 Y43.309 F250
M106 S0
M106 S255
G1 X41.493 Y43.396 F250
M106 S0
M106 S255
G1 X41.452 Y43.566 F250
M106 S0
M106 S255
G1 X41.39 Y43.728 F250
M106 S0
M106 S255
G1 X41.298 Y43.878 F250
M106 S0
M106 S255
G1 X41.167 Y44.016 F250
M106 S0
M106 S255
G1 X41.127 Y44.048 F250
M106 S0
M106 S255
G1 X41.106 Y44.064 F250
M106 S0
M106 S255
G1 X41.102 Y44.067 F250
M106 S0
M106 S255
G1 X41.099 Y44.066 F250
M106 S0
M106 S255
G1 X41.098 Y44.066 F250
M106 S0
M106 S255
G1 X41.079 Y44.06 F250
M106 S0
M106 S255
G1 X40.974 Y44.026 F250
M106 S0
M106 S255
G1 X40.561 Y43.855 F250
M106 S0
M106 S255
G1 X40.351 Y43.797 F250
M106 S0
M106 S255
G1 X40.244 Y43.787 F250
M106 S0
M106 S255
G1 X40.134 Y43.794 F250
M106 S0
M106 S255
G1 X40.021 Y43.821 F250
M106 S0
M106 S255
G1 X39.908 Y43.871 F250
M106 S0
M106 S255
G1 X39.813 Y43.937 F250
M106 S0
M106 S255
G1 X39.732 Y44.016 F250
M106 S0
M106 S255
G1 X39.603 Y44.205 F250
M106 S0
M106 S255
G1 X39.497 Y44.415 F250
M106 S0
M106 S255
G1 X39.391 Y44.625 F250
M106 S0
M106 S255
G1 X39.325 Y44.731 F250
M106 S0
M106 S255
G1 X39.204 Y44.893 F250
M106 S0
M106 S255
G1 X39.082 Y45.023 F250
M106 S0
M106 S255
G1 X38.957 Y45.121 F250
M106 S0
M106 S255
G1 X38.829 Y45.187 F250
M106 S0
M106 S255
G1 X38.697 Y45.221 F250
M106 S0
M106 S255
G1 X38.56 Y45.224 F250
M106 S0
M106 S255
G1 X38.417 Y45.196 F250
M106 S0
M106 S255
G1 X38.267 Y45.136 F250
M106 S0
M106 S255
G1 X38.111 Y45.045 F250
M106 S0
M106 S255
G1 X38.029 Y44.988 F250
M106 S0
M106 S255
G1 X37.938 Y44.917 F250
M106 S0
M106 S255
G1 X37.653 Y44.675 F250
M106 S0
M106 S255
G1 X37.382 Y44.42 F250
M106 S0
M106 S255
G1 X37.126 Y44.154 F250
M106 S0
M106 S255
G1 X36.886 Y43.877 F250
M106 S0
M106 S255
G1 X36.661 Y43.588 F250
M106 S0
M106 S255
G1 X36.454 Y43.287 F250
M106 S0
M106 S255
G1 X36.264 Y42.975 F250
M106 S0
M106 S255
G1 X36.092 Y42.652 F250
M106 S0
M106 S255
G1 X35.938 Y42.317 F250
M106 S0
M106 S255
G1 X35.804 Y41.973 F250
M106 S0
M106 S255
G1 X35.693 Y41.698 F250
M106 S0
M106 S255
G1 X35.565 Y41.447 F250
M106 S0
M106 S255
G1 X35.421 Y41.217 F250
M106 S0
M106 S255
G1 X35.26 Y41.008 F250
M106 S0
M106 S255
G1 X35.081 Y40.821 F250
M106 S0
M106 S255
G1 X34.885 Y40.653 F250
M106 S0
M106 S255
G1 X34.672 Y40.506 F250
M106 S0
M106 S255
G1 X34.441 Y40.377 F250
M106 S0
M106 S255
G1 X34.192 Y40.267 F250
M106 S0
M106 S255
G1 X33.925 Y40.174 F250
M106 S0
M106 S255
G1 X33.802 Y40.135 F250
M106 S0
M106 S255
G1 X33.567 Y40.049 F250
M106 S0
M106 S255
G1 X33.094 Y39.88 F250
M106 S0
M106 S255
G1 X32.846 Y39.818 F250
M106 S0
M106 S255
G1 X32.718 Y39.798 F250
M106 S0
M106 S255
G1 X32.623 Y39.79 F250
M106 S0
M106 S255
G1 X32.454 Y39.795 F250
M106 S0
M106 S255
G1 X32.303 Y39.829 F250
M106 S0
M106 S255
G1 X32.167 Y39.89 F250
M106 S0
M106 S255
G1 X32.041 Y39.978 F250
M106 S0
M106 S255
G1 X31.979 Y40.031 F250
M106 S0
M106 S255
G1 X31.932 Y40.077 F250
M106 S0
M106 S255
G1 X31.844 Y40.171 F250
M106 S0
M106 S255
G1 X31.675 Y40.365 F250
M106 S0
M106 S255
G1 X31.588 Y40.458 F250
M106 S0
M106 S255
G1 X31.542 Y40.503 F250
M106 S0
M106 S255
G1 X31.519 Y40.524 F250
M106 S0
M106 S255
G1 X31.484 Y40.555 F250
M106 S0
M106 S255
G1 X31.415 Y40.613 F250
M106 S0
M106 S255
G1 X31.281 Y40.712 F250
M106 S0
M106 S255
G1 X31.151 Y40.788 F250
M106 S0
M106 S255
G1 X31.023 Y40.841 F250
M106 S0
M106 S255
G1 X30.894 Y40.872 F250
M106 S0
M106 S255
G1 X30.764 Y40.88 F250
M106 S0
M106 S255
G1 X30.629 Y40.867 F250
M106 S0
M106 S255
G1 X30.489 Y40.832 F250
M106 S0
M106 S255
G1 X30.339 Y40.776 F250
M106 S0
M106 S255
G1 X30.18 Y40.699 F250
M106 S0
M106 S255
G1 X30.159 Y40.688 F250
M106 S0
M106 S255
G1 X30.148 Y40.682 F250
M106 S0
M106 S255
G1 X30.139 Y40.677 F250
M106 S0
M106 S255
G1 X30.121 Y40.667 F250
M106 S0
M106 S255
G1 X30.052 Y40.622 F250
M106 S0
M106 S255
G1 X29.917 Y40.53 F250
M106 S0
M106 S255
G1 X29.846 Y40.491 F250
M106 S0
M106 S255
G1 X29.81 Y40.475 F250
M106 S0
M106 S255
G1 X29.777 Y40.464 F250
M106 S0
M106 S255
G1 X29.734 Y40.453 F250
M106 S0
M106 S255
G1 X29.645 Y40.442 F250
M106 S0
M106 S255
G1 X29.556 Y40.446 F250
M106 S0
M106 S255
G1 X29.377 Y40.497 F250
M106 S0
M106 S255
G1 X29.207 Y40.599 F250
M106 S0
M106 S255
G1 X29.058 Y40.746 F250
M106 S0
M106 S255
G1 X28.994 Y40.834 F250
M106 S0
M106 S255
G1 X28.946 Y40.911 F250
M106 S0
M106 S255
G1 X28.86 Y41.054 F250
M106 S0
M106 S255
G1 X28.767 Y41.19 F250
M106 S0
M106 S255
G1 X28.657 Y41.313 F250
M106 S0
M106 S255
G1 X28.523 Y41.416 F250
M106 S0
M106 S255
G1 X28.443 Y41.459 F250
M106 S0
M106 S255
G1 X28.422 Y41.468 F250
M106 S0
M106 S255
G1 X28.383 Y41.484 F250
M106 S0
M106 S255
G1 X28.298 Y41.512 F250
M106 S0
M106 S255
G1 X28.133 Y41.545 F250
M106 S0
M106 S255
G1 X27.973 Y41.547 F250
M106 S0
M106 S255
G1 X27.82 Y41.519 F250
M106 S0
M106 S255
G1 X27.676 Y41.462 F250
M106 S0
M106 S255
G1 X27.542 Y41.375 F250
M106 S0
M106 S255
G1 X27.42 Y41.261 F250
M106 S0
M106 S255
G1 X27.311 Y41.119 F250
M106 S0
M106 S255
G1 X27.216 Y40.95 F250
M106 S0
M106 S255
G1 X27.138 Y40.755 F250
M106 S0
M106 S255
G1 X27.121 Y40.702 F250
M106 S0
M106 S255
G1 X27.11 Y40.665 F250
M106 S0
M106 S255
G1 X27.092 Y40.605 F250
M106 S0
M106 S255
G1 X27.027 Y40.364 F250
M106 S0
M106 S255
G1 X26.955 Y40.128 F250
M106 S0
M106 S255
G1 X26.86 Y39.9 F250
M106 S0
M106 S255
G1 X26.726 Y39.685 F250
M106 S0
M106 S255
G1 X26.641 Y39.584 F250
M106 S0
M106 S255
G1 X26.597 Y39.54 F250
M106 S0
M106 S255
G1 X26.565 Y39.51 F250
M106 S0
M106 S255
G1 X26.437 Y39.405 F250
M106 S0
M106 S255
G1 X26.304 Y39.319 F250
M106 S0
M106 S255
G1 X26.165 Y39.25 F250
M106 S0
M106 S255
G1 X26.015 Y39.194 F250
M106 S0
M106 S255
G1 X25.936 Y39.171 F250
M106 S0
M106 S255
G1 X25.916 Y39.166 F250
M106 S0
M106 S255
G1 X25.906 Y39.163 F250
M106 S0
M106 S255
G1 X25.875 Y39.155 F250
M106 S0
M106 S255
G1 X25.727 Y39.116 F250
M106 S0
M106 S255
G1 X25.46 Y39.036 F250
M106 S0
M106 S255
G1 X25.23 Y38.949 F250
M106 S0
M106 S255
G1 X25.034 Y38.851 F250
M106 S0
M106 S255
G1 X24.868 Y38.733 F250
M106 S0
M106 S255
G1 X24.729 Y38.589 F250
M106 S0
M106 S255
G1 X24.613 Y38.414 F250
M106 S0
M106 S255
G1 X24.517 Y38.201 F250
M106 S0
M106 S255
G1 X24.436 Y37.943 F250
M106 S0
M106 S255
G1 X24.367 Y37.634 F250
M106 S0
M106 S255
G1 X24.338 Y37.471 F250
M106 S0
M106 S255
G1 X24.329 Y37.413 F250
M106 S0
M106 S255
G1 X24.281 Y37.185 F250
M106 S0
M106 S255
G1 X24.215 Y36.965 F250
M106 S0
M106 S255
G1 X24.122 Y36.757 F250
M106 S0
M106 S255
G1 X23.991 Y36.565 F250
M106 S0
M106 S255
G1 X23.815 Y36.393 F250
M106 S0
M106 S255
G1 X23.714 Y36.324 F250
M106 S0
M106 S255
G1 X23.609 Y36.271 F250
M106 S0
M106 S255
G1 X23.502 Y36.236 F250
M106 S0
M106 S255
G1 X23.393 Y36.218 F250
M106 S0
M106 S255
G1 X23.284 Y36.217 F250
M106 S0
M106 S255
G1 X23.177 Y36.234 F250
M106 S0
M106 S255
G1 X23.072 Y36.269 F250
M106 S0
M106 S255
G1 X22.971 Y36.322 F250
M106 S0
M106 S255
G1 X22.874 Y36.393 F250
M106 S0
M106 S255
G1 X22.829 Y36.436 F250
M106 S0
M106 S255
G1 X22.8 Y36.464 F250
M106 S0
M106 S255
G1 X22.688 Y36.565 F250
M106 S0
M106 S255
G1 X22.57 Y36.65 F250
M106 S0
M106 S255
G1 X22.442 Y36.718 F250
M106 S0
M106 S255
G1 X22.3 Y36.769 F250
M106 S0
M106 S255
G1 X22.222 Y36.787 F250
M106 S0
M106 S255
G1 X22.181 Y36.794 F250
M106 S0
M106 S255
G1 X22.114 Y36.802 F250
M106 S0
M106 S255
G1 X21.985 Y36.8 F250
M106 S0
M106 S255
G1 X21.871 Y36.775 F250
M106 S0
M106 S255
G1 X21.77 Y36.731 F250
M106 S0
M106 S255
G1 X21.678 Y36.672 F250
M106 S0
M106 S255
G1 X21.513 Y36.526 F250
M106 S0
M106 S255
G1 X21.357 Y36.369 F250
M106 S0
M106 S255
G1 X21.276 Y36.296 F250
M106 S0
M106 S255
G1 X21.233 Y36.262 F250
M106 S0
M106 S255
G1 X21.177 Y36.223 F250
M106 S0
M106 S255
G1 X21.06 Y36.153 F250
M106 S0
M106 S255
G1 X20.945 Y36.102 F250
M106 S0
M106 S255
G1 X20.832 Y36.07 F250
M106 S0
M106 S255
G1 X20.722 Y36.056 F250
M106 S0
M106 S255
G1 X20.614 Y36.062 F250
M106 S0
M106 S255
G1 X20.508 Y36.087 F250
M106 S0
M106 S255
G1 X20.403 Y36.131 F250
M106 S0
M106 S255
G1 X20.3 Y36.196 F250
M106 S0
M106 S255
G1 X20.198 Y36.281 F250
M106 S0
M106 S255
G1 X20.147 Y36.331 F250
M106 S0
M106 S255
G1 X20.111 Y36.368 F250
M106 S0
M106 S255
G1 X20.003 Y36.499 F250
M106 S0
M106 S255
G1 X19.817 Y36.777 F250
M106 S0
M106 S255
G1 X19.642 Y37.068 F250
M106 S0
M106 S255
G1 X19.444 Y37.398 F250
M106 S0
M106 S255
G1 X19.336 Y37.557 F250
M106 S0
M106 S255
G1 X19.214 Y37.705 F250
M106 S0
M106 S255
G1 X19.146 Y37.774 F250
M106 S0
M106 S255
G1 X19.11 Y37.807 F250
M106 S0
M106 S255
G1 X19.093 Y37.822 F250
M106 S0
M106 S255
G1 X19.087 Y37.827 F250
M106 S0
M106 S255
G1 X19.041 Y37.861 F250
M106 S0
M106 S255
G1 X18.941 Y37.922 F250
M106 S0
M106 S255
G1 X18.89 Y37.951 F250
M106 S0
M106 S255
G1 X18.864 Y37.966 F250
M106 S0
M106 S255
G1 X18.852 Y37.974 F250
M106 S0
M106 S255
G1 X18.845 Y37.977 F250
M106 S0
M106 S255
G1 X18.822 Y37.963 F250
M106 S0
M106 S255
G1 X18.737 Y37.894 F250
M106 S0
M106 S255
G1 X18.672 Y37.819 F250
M106 S0
M106 S255
G1 X18.586 Y37.654 F250
M106 S0
M106 S255
G1 X18.541 Y37.475 F250
M106 S0
M106 S255
G1 X18.515 Y37.292 F250
M106 S0
M106 S255
G1 X18.503 Y37.201 F250
M106 S0
M106 S255
G1 X18.495 Y37.156 F250
M106 S0
M106 S255
G1 X18.491 Y37.134 F250
M106 S0
M106 S255
G1 X18.485 Y37.106 F250
M106 S0
M106 S255
G1 X18.477 Y37.065 F250
M106 S0
M106 S255
G1 X18.362 Y36.414 F250
M106 S0
M106 S255
G1 X18.277 Y35.761 F250
M106 S0
M106 S255
G1 X18.229 Y35.105 F250
M106 S0
M106 S255
G1 X18.225 Y34.445 F250
M106 S0
M106 S255
G1 X18.242 Y34.114 F250
M106 S0
M106 S255
G1 X18.255 Y33.948 F250
M106 S0
M106 S255
G1 X18.263 Y33.865 F250
M106 S0
M106 S255
G1 X18.267 Y33.83 F250
M106 S0
M106 S255
G1 X18.268 Y33.813 F250
M106 S0
M106 S255
G1 X18.305 Y33.549 F250
M106 S0
M106 S255
G1 X18.36 Y33.289 F250
M106 S0
M106 S255
G1 X18.432 Y33.038 F250
M106 S0
M106 S255
G1 X18.526 Y32.798 F250
M106 S0
M106 S255
G1 X18.581 Y32.684 F250
M106 S0
M106 S255
G1 X18.61 Y32.628 F250
M106 S0
M106 S255
G1 X18.625 Y32.601 F250
M106 S0
M106 S255
G1 X18.633 Y32.587 F250
M106 S0
M106 S255
G1 X18.661 Y32.539 F250
M106 S0
M106 S255
G1 X18.885 Y32.13 F250
M106 S0
M106 S255
G1 X19.09 Y31.713 F250
M106 S0
M106 S255
G1 X19.456 Y30.864 F250
M106 S0
M106 S255
G1 X19.78 Y29.999 F250
M106 S0
M106 S255
G1 X20.085 Y29.126 F250
M106 S0
M106 S255
G1 X20.235 Y28.689 F250
M106 S0
M106 S255
G1 X20.312 Y28.47 F250
M106 S0
M106 S255
G1 X20.35 Y28.361 F250
M106 S0
M106 S255
G1 X20.369 Y28.307 F250
M106 S0
M106 S255
G1 X20.384 Y28.266 F250
M106 S0
M106 S255
G1 X20.582 Y27.768 F250
M106 S0
M106 S255
G1 X20.815 Y27.29 F250
M106 S0
M106 S255
G1 X21.089 Y26.837 F250
M106 S0
M106 S255
G1 X21.244 Y26.621 F250
M106 S0
M106 S255
G1 X21.412 Y26.412 F250
M106 S0
M106 S255
G1 X21.593 Y26.212 F250
M106 S0
M106 S255
G1 X21.785 Y26.023 F250
M106 S0
M106 S255
G1 X22.05 Y25.77 F250
M106 S0
M106 S255
G1 X23.083 Y24.73 F250
M106 S0
G0 X25.598 Y34.658 F6000
M106 S255
G1 X25.598 Y34.658 F250
M106 S0
M106 S255
G1 X25.864 Y34.208 F250
M106 S0
M106 S255
G1 X26.169 Y33.804 F250
M106 S0
M106 S255
G1 X26.515 Y33.449 F250
M106 S0
M106 S255
G1 X26.904 Y33.149 F250
M106 S0
M106 S255
G1 X27.338 Y32.907 F250
M106 S0
M106 S255
G1 X27.821 Y32.728 F250
M106 S0
M106 S255
G1 X27.949 Y32.693 F250
M106 S0
M106 S255
G1 X28.053 Y32.669 F250
M106 S0
M106 S255
G1 X28.179 Y32.644 F250
M106 S0
M106 S255
G1 X28.434 Y32.603 F250
M106 S0
M106 S255
G1 X29.467 Y32.51 F250
M106 S0
M106 S255
G1 X29.596 Y32.499 F250
M106 S0
M106 S255
G1 X29.66 Y32.493 F250
M106 S0
M106 S255
G1 X29.767 Y32.481 F250
M106 S0
M106 S255
G1 X30.195 Y32.408 F250
M106 S0
M106 S255
G1 X30.554 Y32.289 F250
M106 S0
M106 S255
G1 X30.848 Y32.117 F250
M106 S0
M106 S255
G1 X31.08 Y31.882 F250
M106 S0
M106 S255
G1 X31.252 Y31.575 F250
M106 S0
M106 S255
G1 X31.368 Y31.187 F250
M106 S0
M106 S255
G1 X31.48 Y30.67 F250
M106 S0
M106 S255
G1 X31.647 Y30.169 F250
M106 S0
M106 S255
G1 X31.867 Y29.703 F250
M106 S0
M106 S255
G1 X32.138 Y29.272 F250
M106 S0
M106 S255
G1 X32.456 Y28.873 F250
M106 S0
M106 S255
G1 X32.822 Y28.503 F250
M106 S0
M106 S255
G1 X33.021 Y28.329 F250
M106 S0
M106 S255
G1 X33.182 Y28.194 F250
M106 S0
M106 S255
G1 X33.747 Y27.664 F250
M106 S0
M106 S255
G1 X34.251 Y27.086 F250
M106 S0
M106 S255
G1 X34.693 Y26.459 F250
M106 S0
M106 S255
G1 X34.907 Y26.174 F250
M106 S0
M106 S255
G1 X35.145 Y25.949 F250
M106 S0
M106 S255
G1 X35.408 Y25.78 F250
M106 S0
M106 S255
G1 X35.694 Y25.661 F250
M106 S0
M106 S255
G1 X36.005 Y25.586 F250
M106 S0
M106 S255
G1 X36.339 Y25.551 F250
M106 S0
M106 S255
G1 X36.505 Y25.547 F250
M106 S0
M106 S255
G1 X36.63 Y25.548 F250
M106 S0
M106 S255
G1 X36.881 Y25.555 F250
M106 S0
M106 S255
G1 X37.384 Y25.566 F250
M106 S0
M106 S255
G1 X37.885 Y25.52 F250
M106 S0
M106 S255
G1 X38.143 Y25.453 F250
M106 S0
M106 S255
G1 X38.405 Y25.345 F250
M106 S0
M106 S255
G1 X38.619 Y25.209 F250
M106 S0
M106 S255
G1 X38.786 Y25.041 F250
M106 S0
M106 S255
G1 X38.91 Y24.838 F250
M106 S0
M106 S255
G1 X38.993 Y24.597 F250
M106 S0
M106 S255
G1 X39.039 Y24.315 F250
M106 S0
M106 S255
G1 X39.055 Y24.09 F250
M106 S0
M106 S255
G1 X39.1 Y23.681 F250
M106 S0
M106 S255
G1 X39.212 Y23.288 F250
M106 S0
M106 S255
G1 X39.31 Y23.103 F250
M106 S0
M106 S255
G1 X39.372 Y23.015 F250
M106 S0
M106 S255
G1 X39.392 Y22.99 F250
M106 S0
M106 S255
G1 X39.429 Y22.96 F250
M106 S0
M106 S255
G1 X39.514 Y22.909 F250
M106 S0
G0 X14.846 Y52.173 F6000
M106 S255
G1 X14.846 Y52.173 F250
M106 S0
M106 S255
G1 X15.173 Y51.094 F250
M106 S0
M106 S255
G1 X15.566 Y50.039 F250
M106 S0
M106 S255
G1 X15.977 Y48.99 F250
M106 S0
M106 S255
G1 X16.174 Y48.462 F250
M106 S0
M106 S255
G1 X16.337 Y47.986 F250
M106 S0
M106 S255
G1 X16.594 Y47.037 F250
M106 S0
M106 S255
G1 X16.744 Y46.073 F250
M106 S0
M106 S255
G1 X16.758 Y45.088 F250
M106 S0
M106 S255
G1 X16.749 Y44.972 F250
M106 S0
M106 S255
G1 X16.746 Y44.928 F250
M106 S0
M106 S255
G1 X16.738 Y44.839 F250
M106 S0
M106 S255
G1 X16.721 Y44.661 F250
M106 S0
M106 S255
G1 X16.622 Y43.953 F250
M106 S0
M106 S255
G1 X16.587 Y43.779 F250
M106 S0
M106 S255
G1 X16.561 Y43.667 F250
M106 S0
M106 S255
G1 X16.53 Y43.506 F250
M106 S0
M106 S255
G1 X16.488 Y42.872 F250
M106 S0
M106 S255
G1 X16.564 Y42.252 F250
M106 S0
M106 S255
G1 X16.743 Y41.642 F250
M106 S0
M106 S255
G1 X16.971 Y41.049 F250
M106 S0
M106 S255
G1 X17.14 Y40.451 F250
M106 S0
M106 S255
G1 X17.186 Y39.836 F250
M106 S0
M106 S255
G1 X17.144 Y39.52 F250
M106 S0
M106 S255
G1 X17.103 Y39.359 F250
M106 S0
M106 S255
G1 X17.079 Y39.281 F250
M106 S0
M106 S255
G1 X16.885 Y38.744 F250
M106 S0
M106 S255
G1 X16.786 Y38.476 F250
M106 S0
M106 S255
G1 X16.762 Y38.409 F250
M106 S0
M106 S255
G1 X16.727 Y38.298 F250
M106 S0
M106 S255
G1 X16.671 Y38.032 F250
M106 S0
M106 S255
G1 X16.66 Y37.502 F250
M106 S0
M106 S255
G1 X16.745 Y36.98 F250
M106 S0
M106 S255
G1 X16.876 Y36.455 F250
M106 S0
M106 S255
G1 X16.928 Y36.139 F250
M106 S0
M106 S255
G1 X16.933 Y35.841 F250
M106 S0
M106 S255
G1 X16.892 Y35.559 F250
M106 S0
M106 S255
G1 X16.805 Y35.295 F250
M106 S0
M106 S255
G1 X16.499 Y34.819 F250
M106 S0
M106 S255
G1 X16.287 Y34.611 F250
M106 S0
M106 S255
G1 X16.105 Y34.447 F250
M106 S0
M106 S255
G1 X15.756 Y34.11 F250
M106 S0
M106 S255
G1 X15.434 Y33.751 F250
M106 S0
M106 S255
G1 X15.15 Y33.358 F250
M106 S0
G0 X47.448 Y58.98 F6000
M106 S255
G1 X47.448 Y58.98 F250
M106 S0
M106 S255
G1 X47.606 Y58.764 F250
M106 S0
M106 S255
G1 X47.799 Y58.598 F250
M106 S0
M106 S255
G1 X48.246 Y58.358 F250
M106 S0
M106 S255
G1 X48.479 Y58.253 F250
M106 S0
M106 S255
G1 X48.593 Y58.197 F250
M106 S0
M106 S255
G1 X48.649 Y58.167 F250
M106 S0
M106 S255
G1 X48.748 Y58.114 F250
M106 S0
M106 S255
G1 X49.22 Y57.917 F250
M106 S0
M106 S255
G1 X49.704 Y57.791 F250
M106 S0
M106 S255
G1 X50.199 Y57.722 F250
M106 S0
M106 S255
G1 X50.7 Y57.692 F250
M106 S0
M106 S255
G1 X51.709 Y57.684 F250
M106 S0
M106 S255
G1 X52.203 Y57.639 F250
M106 S0
M106 S255
G1 X52.674 Y57.537 F250
M106 S0
M106 S255
G1 X53.121 Y57.376 F250
M106 S0
M106 S255
G1 X53.546 Y57.156 F250
M106 S0
M106 S255
G1 X53.948 Y56.874 F250
M106 S0
M106 S255
G1 X54.13 Y56.72 F250
M106 S0
M106 S255
G1 X54.19 Y56.665 F250
M106 S0
M106 S255
G1 X54.429 Y56.441 F250
M106 S0
M106 S255
G1 X54.666 Y56.217 F250
M106 S0
M106 S255
G1 X54.786 Y56.106 F250
M106 S0
M106 S255
G1 X54.816 Y56.079 F250
M106 S0
M106 S255
G1 X54.887 Y56.016 F250
M106 S0
M106 S255
G1 X55.036 Y55.888 F250
M106 S0
M106 S255
G1 X55.661 Y55.438 F250
M106 S0
M106 S255
G1 X56.001 Y55.256 F250
M106 S0
M106 S255
G1 X56.367 Y55.108 F250
M106 S0
M106 S255
G1 X56.765 Y54.997 F250
M106 S0
M106 S255
G1 X57.086 Y54.924 F250
M106 S0
M106 S255
G1 X57.714 Y54.763 F250
M106 S0
M106 S255
G1 X58.346 Y54.619 F250
M106 S0
M106 S255
G1 X58.67 Y54.569 F250
M106 S0
M106 S255
G1 X59.053 Y54.524 F250
M106 S0
M106 S255
G1 X59.818 Y54.43 F250
M106 S0
M106 S255
G1 X60.571 Y54.298 F250
M106 S0
M106 S255
G1 X60.755 Y54.254 F250
M106 S0
M106 S255
G1 X60.852 Y54.229 F250
M106 S0
M106 S255
G1 X61.003 Y54.187 F250
M106 S0
M106 S255
G1 X61.595 Y53.995 F250
M106 S0
M106 S255
G1 X62.161 Y53.754 F250
M106 S0
M106 S255
G1 X62.69 Y53.45 F250
M106 S0
M106 S255
G1 X63.171 Y53.07 F250
M106 S0
M106 S255
G1 X63.592 Y52.601 F250
M106 S0
M106 S255
G1 X63.776 Y52.329 F250
M106 S0
M106 S255
G1 X63.883 Y52.157 F250
M106 S0
M106 S255
G1 X64.097 Y51.851 F250
M106 S0
M106 S255
G1 X64.332 Y51.566 F250
M106 S0
M106 S255
G1 X64.59 Y51.303 F250
M106 S0
M106 S255
G1 X64.873 Y51.064 F250
M106 S0
M106 S255
G1 X65.185 Y50.851 F250
M106 S0
M106 S255
G1 X65.268 Y50.801 F250
M106 S0
M106 S255
G1 X65.377 Y50.739 F250
M106 S0
M106 S255
G1 X65.624 Y50.581 F250
M106 S0
M106 S255
G1 X66.07 Y50.226 F250
M106 S0
M106 S255
G1 X66.455 Y49.82 F250
M106 S0
M106 S255
G1 X66.781 Y49.366 F250
M106 S0
M106 S255
G1 X67.052 Y48.869 F250
M106 S0
M106 S255
G1 X67.272 Y48.331 F250
M106 S0
M106 S255
G1 X67.668 Y47.094 F250
M106 S0
M106 S255
G1 X68.076 Y45.849 F250
M106 S0
M106 S255
G1 X68.558 Y44.628 F250
M106 S0
M106 S255
G1 X68.688 Y44.302 F250
M106 S0
M106 S255
G1 X68.786 Y43.974 F250
M106 S0
M106 S255
G1 X68.898 Y43.318 F250
M106 S0
M106 S255
G1 X68.91 Y42.661 F250
M106 S0
M106 S255
G1 X68.838 Y42.004 F250
M106 S0
M106 S255
G1 X68.701 Y41.35 F250
M106 S0
M106 S255
G1 X68.514 Y40.696 F250
M106 S0
M106 S255
G1 X68.335 Y40.028 F250
M106 S0
M106 S255
G1 X68.198 Y39.357 F250
M106 S0
M106 S255
G1 X68.106 Y38.682 F250
M106 S0
M106 S255
G1 X68.064 Y38.001 F250
M106 S0
M106 S255
G1 X68.076 Y37.311 F250
M106 S0
M106 S255
G1 X68.103 Y36.963 F250
M106 S0
M106 S255
G1 X68.112 Y36.876 F250
M106 S0
M106 S255
G1 X68.117 Y36.826 F250
M106 S0
M106 S255
G1 X68.127 Y36.733 F250
M106 S0
M106 S255
G1 X68.174 Y35.986 F250
M106 S0
M106 S255
G1 X68.161 Y35.611 F250
M106 S0
M106 S255
G1 X68.113 Y35.237 F250
M106 S0
M106 S255
G1 X68.019 Y34.867 F250
M106 S0
M106 S255
G1 X67.955 Y34.69 F250
M106 S0
M106 S255
G1 X67.908 Y34.577 F250
M106 S0
M106 S255
G1 X67.691 Y34.144 F250
M106 S0
M106 S255
G1 X67.433 Y33.738 F250
M106 S0
M106 S255
G1 X67.291 Y33.546 F250
M106 S0
M106 S255
G1 X67.255 Y33.5 F250
M106 S0
M106 S255
G1 X67.169 Y33.388 F250
M106 S0
M106 S255
G1 X67.001 Y33.147 F250
M106 S0
M106 S255
G1 X66.716 Y32.651 F250
M106 S0
M106 S255
G1 X66.495 Y32.134 F250
M106 S0
M106 S255
G1 X66.334 Y31.596 F250
M106 S0
M106 S255
G1 X66.226 Y31.04 F250
M106 S0
M106 S255
G1 X66.168 Y30.464 F250
M106 S0
M106 S255
G1 X66.165 Y30.408 F250
M106 S0
M106 S255
G1 X66.165 Y30.4 F250
M106 S0
M106 S255
G1 X66.165 Y30.384 F250
M106 S0
M106 S255
G1 X66.166 Y30.354 F250
M106 S0
M106 S255
G1 X66.191 Y30.259 F250
M106 S0
M106 S255
G1 X66.238 Y30.184 F250
M106 S0
M106 S255
G1 X66.252 Y30.166 F250
M106 S0
M106 S255
G1 X66.26 Y30.156 F250
M106 S0
M106 S255
G1 X66.283 Y30.124 F250
M106 S0
M106 S255
G1 X66.442 Y29.836 F250
M106 S0
M106 S255
G1 X66.512 Y29.552 F250
M106 S0
M106 S255
G1 X66.509 Y29.27 F250
M106 S0
M106 S255
G1 X66.444 Y28.988 F250
M106 S0
M106 S255
G1 X66.331 Y28.705 F250
M106 S0
M106 S255
G1 X66.26 Y28.564 F250
M106 S0
M106 S255
G1 X66.224 Y28.496 F250
M106 S0
M106 S255
G1 X66.202 Y28.457 F250
M106 S0
M106 S255
G1 X66.115 Y28.304 F250
M106 S0
M106 S255
G1 X65.949 Y27.992 F250
M106 S0
M106 S255
G1 X65.834 Y27.651 F250
M106 S0
M106 S255
G1 X65.812 Y27.478 F250
M106 S0
M106 S255
G1 X65.815 Y27.337 F250
M106 S0
M106 S255
G1 X65.894 Y27.106 F250
M106 S0
M106 S255
G1 X66.083 Y26.922 F250
M106 S0
M106 S255
G1 X66.661 Y26.599 F250
M106 S0
M106 S255
G1 X66.94 Y26.406 F250
M106 S0
M106 S255
G1 X66.957 Y26.392 F250
M106 S0
M106 S255
G1 X66.991 Y26.362 F250
M106 S0
M106 S255
G1 X67.085 Y26.274 F250
M106 S0
M106 S255
G1 X67.25 Y26.093 F250
M106 S0
M106 S255
G1 X67.491 Y25.714 F250
M106 S0
M106 S255
G1 X67.626 Y25.313 F250
M106 S0
M106 S255
G1 X67.667 Y24.891 F250
M106 S0
M106 S255
G1 X67.628 Y24.451 F250
M106 S0
M106 S255
G1 X67.521 Y23.993 F250
M106 S0
G0 X59.804 Y27.071 F6000
M106 S255
G1 X59.804 Y27.071 F250
M106 S0
M106 S255
G1 X59.597 Y26.835 F250
M106 S0
M106 S255
G1 X59.381 Y26.645 F250
M106 S0
M106 S255
G1 X59.159 Y26.496 F250
M106 S0
M106 S255
G1 X58.93 Y26.386 F250
M106 S0
M106 S255
G1 X58.695 Y26.312 F250
M106 S0
M106 S255
G1 X58.455 Y26.269 F250
M106 S0
M106 S255
G1 X58.21 Y26.254 F250
M106 S0
M106 S255
G1 X57.961 Y26.265 F250
M106 S0
M106 S255
G1 X57.708 Y26.297 F250
M106 S0
M106 S255
G1 X57.453 Y26.347 F250
M106 S0
M106 S255
G1 X56.935 Y26.487 F250
M106 S0
M106 S255
G1 X56.805 Y26.528 F250
M106 S0
M106 S255
G1 X56.74 Y26.549 F250
M106 S0
M106 S255
G1 X56.694 Y26.564 F250
M106 S0
M106 S255
G1 X56.534 Y26.617 F250
M106 S0
M106 S255
G1 X56.214 Y26.725 F250
M106 S0
M106 S255
G1 X55.569 Y26.927 F250
M106 S0
M106 S255
G1 X55.243 Y27.01 F250
M106 S0
M106 S255
G1 X54.912 Y27.074 F250
M106 S0
M106 S255
G1 X54.745 Y27.097 F250
M106 S0
M106 S255
G1 X54.661 Y27.105 F250
M106 S0
M106 S255
G1 X54.553 Y27.114 F250
M106 S0
M106 S255
G1 X54.107 Y27.111 F250
M106 S0
M106 S255
G1 X53.677 Y27.049 F250
M106 S0
M106 S255
G1 X53.264 Y26.933 F250
M106 S0
M106 S255
G1 X52.867 Y26.767 F250
M106 S0
M106 S255
G1 X52.484 Y26.556 F250
M106 S0
M106 S255
G1 X52.115 Y26.304 F250
M106 S0
M106 S255
G1 X51.792 Y26.045 F250
M106 S0
M106 S255
G1 X50.598 Y24.961 F250
M106 S0
M106 S255
G1 X50.289 Y24.7 F250
M106 S0
M106 S255
G1 X50.13 Y24.575 F250
M106 S0
M106 S255
G1 X49.947 Y24.444 F250
M106 S0
M106 S255
G1 X49.562 Y24.214 F250
M106 S0
M106 S255
G1 X49.162 Y24.034 F250
M106 S0
M106 S255
G1 X48.749 Y23.898 F250
M106 S0
M106 S255
G1 X48.325 Y23.799 F250
M106 S0
M106 S255
G1 X47.891 Y23.733 F250
M106 S0
M106 S255
G1 X47.448 Y23.694 F250
M106 S0
M106 S255
G1 X46.635 Y23.673 F250
M106 S0
M106 S255
G1 X46.229 Y23.69 F250
M106 S0
M106 S255
G1 X46.178 Y23.693 F250
M106 S0
M106 S255
G1 X46.153 Y23.695 F250
M106 S0
M106 S255
G1 X46.107 Y23.699 F250
M106 S0
M106 S255
G1 X45.904 Y23.708 F250
M106 S0
M106 S255
G1 X45.504 Y23.696 F250
M106 S0
M106 S255
G1 X45.113 Y23.646 F250
M106 S0
M106 S255
G1 X44.733 Y23.557 F250
M106 S0
M106 S255
G1 X44.363 Y23.431 F250
M106 S0
M106 S255
G1 X44.005 Y23.27 F250
M106 S0
M106 S255
G1 X43.649 Y23.072 F250
M106 S0
M106 S255
G1 X43.263 Y22.862 F250
M106 S0
M106 S255
G1 X42.868 Y22.673 F250
M106 S0
M106 S255
G1 X42.466 Y22.5 F250
M106 S0
M106 S255
G1 X41.652 Y22.185 F250
M106 S0
M106 S255
G1 X41.243 Y22.033 F250
M106 S0
M106 S255
G1 X41.148 Y21.998 F250
M106 S0
M106 S255
G1 X41.085 Y21.974 F250
M106 S0
M106 S255
G1 X40.961 Y21.926 F250
M106 S0
M106 S255
G1 X40.718 Y21.822 F250
M106 S0
M106 S255
G1 X40.487 Y21.703 F250
M106 S0
M106 S255
G1 X40.271 Y21.563 F250
M106 S0
M106 S255
G1 X40.075 Y21.395 F250
M106 S0
M106 S255
G1 X39.902 Y21.191 F250
M106 S0
M106 S255
G1 X39.826 Y21.074 F250
M106 S0
M106 S255
G1 X39.811 Y21.047 F250
M106 S0
M106 S255
G1 X39.807 Y21.04 F250
M106 S0
M106 S255
G1 X39.798 Y21.025 F250
M106 S0
M106 S255
G1 X39.711 Y20.911 F250
M106 S0
M106 S255
G1 X39.59 Y20.833 F250
M106 S0
M106 S255
G1 X39.514 Y20.819 F250
M106 S0
M106 S255
G1 X39.428 Y20.828 F250
M106 S0
G0 X74.241 Y46.884 F6000
M106 S255
G1 X74.241 Y46.884 F250
M106 S0
M106 S255
G1 X74.117 Y46.645 F250
M106 S0
M106 S255
G1 X73.971 Y46.421 F250
M106 S0
M106 S255
G1 X73.642 Y46.0 F250
M106 S0
M106 S255
G1 X73.307 Y45.583 F250
M106 S0
M106 S255
G1 X73.219 Y45.461 F250
M106 S0
M106 S255
G1 X73.105 Y45.28 F250
M106 S0
M106 S255
G1 X72.928 Y44.911 F250
M106 S0
M106 S255
G1 X72.816 Y44.533 F250
M106 S0
M106 S255
G1 X72.764 Y44.146 F250
M106 S0
M106 S255
G1 X72.768 Y43.752 F250
M106 S0
M106 S255
G1 X72.822 Y43.351 F250
M106 S0
M106 S255
G1 X72.867 Y43.148 F250
M106 S0
M106 S255
G1 X72.893 Y43.047 F250
M106 S0
M106 S255
G1 X72.91 Y42.985 F250
M106 S0
M106 S255
G1 X72.969 Y42.782 F250
M106 S0
M106 S255
G1 X73.095 Y42.376 F250
M106 S0
M106 S255
G1 X73.218 Y41.97 F250
M106 S0
M106 S255
G1 X73.274 Y41.765 F250
M106 S0
M106 S255
G1 X73.28 Y41.74 F250
M106 S0
M106 S255
G1 X73.284 Y41.727 F250
M106 S0
M106 S255
G1 X73.295 Y41.68 F250
M106 S0
M106 S255
G1 X73.346 Y41.459 F250
M106 S0
M106 S255
G1 X73.422 Y41.022 F250
M106 S0
M106 S255
G1 X73.466 Y40.593 F250
M106 S0
M106 S255
G1 X73.477 Y40.172 F250
M106 S0
M106 S255
G1 X73.456 Y39.759 F250
M106 S0
M106 S255
G1 X73.403 Y39.353 F250
M106 S0
M106 S255
G1 X73.317 Y38.954 F250
M106 S0
M106 S255
G1 X73.199 Y38.563 F250
M106 S0
M106 S255
G1 X73.05 Y38.18 F250
M106 S0
M106 S255
G1 X72.868 Y37.804 F250
M106 S0
M106 S255
G1 X72.655 Y37.436 F250
M106 S0
M106 S255
G1 X72.411 Y37.074 F250
M106 S0
M106 S255
G1 X72.135 Y36.72 F250
M106 S0
M106 S255
G1 X72.069 Y36.643 F250
M106 S0
M106 S255
G1 X72.037 Y36.606 F250
M106 S0
M106 S255
G1 X71.972 Y36.531 F250
M106 S0
M106 S255
G1 X71.444 Y35.941 F250
M106 S0
M106 S255
G1 X70.937 Y35.334 F250
M106 S0
M106 S255
G1 X70.709 Y35.009 F250
M106 S0
M106 S255
G1 X70.506 Y34.662 F250
M106 S0
M106 S255
G1 X70.335 Y34.266 F250
M106 S0
M106 S255
G1 X70.227 Y33.864 F250
M106 S0
M106 S255
G1 X70.17 Y33.458 F250
M106 S0
M106 S255
G1 X70.154 Y33.049 F250
M106 S0
M106 S255
G1 X70.199 Y32.223 F250
M106 S0
M106 S255
G1 X70.217 Y32.034 F250
M106 S0
M106 S255
G1 X70.23 Y31.916 F250
M106 S0
M106 S255
G1 X70.265 Y31.679 F250
M106 S0
M106 S255
G1 X70.331 Y31.207 F250
M106 S0
M106 S255
G1 X70.344 Y30.97 F250
M106 S0
M106 S255
G1 X70.331 Y30.732 F250
M106 S0
M106 S255
G1 X70.312 Y30.612 F250
M106 S0
M106 S255
G1 X70.279 Y30.476 F250
M106 S0
M106 S255
G1 X70.166 Y30.182 F250
M106 S0
M106 S255
G1 X70.01 Y29.924 F250
M106 S0
M106 S255
G1 X69.819 Y29.7 F250
M106 S0
M106 S255
G1 X69.597 Y29.505 F250
M106 S0
M106 S255
G1 X69.352 Y29.336 F250
M106 S0
M106 S255
G1 X69.088 Y29.19 F250
M106 S0
M106 S255
G1 X69.01 Y29.151 F250
M106 S0
M106 S255
G1 X68.896 Y29.092 F250
M106 S0
M106 S255
G1 X68.678 Y28.966 F250
M106 S0
M106 S255
G1 X68.29 Y28.677 F250
M106 S0
M106 S255
G1 X67.957 Y28.346 F250
M106 S0
M106 S255
G1 X67.674 Y27.976 F250
M106 S0
M106 S255
G1 X67.437 Y27.569 F250
M106 S0
M106 S255
G1 X67.24 Y27.13 F250
M106 S0
M106 S255
G1 X67.155 Y26.899 F250
M106 S0
M106 S255
G1 X67.138 Y26.851 F250
M106 S0
M106 S255
G1 X67.137 Y26.845 F250
M106 S0
M106 S255
G1 X67.133 Y26.835 F250
M106 S0
M106 S255
G1 X67.094 Y26.761 F250
M106 S0
M106 S255
G1 X67.001 Y26.638 F250
M106 S0
G0 X36.003 Y55.858 F6000
M106 S255
G1 X36.003 Y55.858 F250
M106 S0
M106 S255
G1 X36.142 Y55.732 F250
M106 S0
M106 S255
G1 X36.286 Y55.628 F250
M106 S0
M106 S255
G1 X36.591 Y55.483 F250
M106 S0
M106 S255
G1 X36.912 Y55.406 F250
M106 S0
M106 S255
G1 X37.245 Y55.379 F250
M106 S0
M106 S255
G1 X37.585 Y55.387 F250
M106 S0
M106 S255
G1 X37.757 Y55.398 F250
M106 S0
M106 S255
G1 X37.843 Y55.405 F250
M106 S0
M106 S255
G1 X37.902 Y55.41 F250
M106 S0
M106 S255
G1 X38.29 Y55.455 F250
M106 S0
M106 S255
G1 X38.677 Y55.511 F250
M106 S0
M106 S255
G1 X38.871 Y55.538 F250
M106 S0
M106 S255
G1 X38.968 Y55.551 F250
M106 S0
M106 S255
G1 X38.992 Y55.554 F250
M106 S0
M106 S255
G1 X39.04 Y55.559 F250
M106 S0
M106 S255
G1 X39.139 Y55.567 F250
M106 S0
M106 S255
G1 X39.523 Y55.557 F250
M106 S0
M106 S255
G1 X39.89 Y55.486 F250
M106 S0
M106 S255
G1 X40.239 Y55.363 F250
M106 S0
M106 S255
G1 X40.571 Y55.197 F250
M106 S0
M106 S255
G1 X40.886 Y54.995 F250
M106 S0
M106 S255
G1 X41.046 Y54.877 F250
M106 S0
M106 S255
G1 X41.298 Y54.702 F250
M106 S0
M106 S255
G1 X41.556 Y54.549 F250
M106 S0
M106 S255
G1 X41.819 Y54.418 F250
M106 S0
M106 S255
G1 X42.36 Y54.213 F250
M106 S0
M106 S255
G1 X42.918 Y54.076 F250
M106 S0
M106 S255
G1 X43.492 Y53.995 F250
M106 S0
M106 S255
G1 X44.078 Y53.959 F250
M106 S0
M106 S255
G1 X44.632 Y53.952 F250
M106 S0
M106 S255
G1 X45.71 Y53.939 F250
M106 S0
M106 S255
G1 X46.247 Y53.91 F250
M106 S0
M106 S255
G1 X46.782 Y53.849 F250
M106 S0
M106 S255
G1 X47.313 Y53.744 F250
M106 S0
M106 S255
G1 X47.392 Y53.724 F250
M106 S0
M106 S255
G1 X47.507 Y53.694 F250
M106 S0
M106 S255
G1 X47.733 Y53.63 F250
M106 S0
M106 S255
G1 X48.177 Y53.489 F250
M106 S0
M106 S255
G1 X48.607 Y53.327 F250
M106 S0
M106 S255
G1 X49.021 Y53.143 F250
M106 S0
M106 S255
G1 X49.419 Y52.936 F250
M106 S0
M106 S255
G1 X49.798 Y52.702 F250
M106 S0
M106 S255
G1 X50.157 Y52.441 F250
M106 S0
M106 S255
G1 X50.494 Y52.151 F250
M106 S0
M106 S255
G1 X50.809 Y51.829 F250
M106 S0
M106 S255
G1 X51.099 Y51.474 F250
M106 S0
M106 S255
G1 X51.363 Y51.084 F250
M106 S0
M106 S255
G1 X51.484 Y50.876 F250
M106 S0
M106 S255
G1 X51.543 Y50.768 F250
M106 S0
M106 S255
G1 X51.581 Y50.694 F250
M106 S0
M106 S255
G1 X51.869 Y50.244 F250
M106 S0
M106 S255
G1 X52.206 Y49.843 F250
M106 S0
M106 S255
G1 X52.575 Y49.473 F250
M106 S0
M106 S255
G1 X53.342 Y48.762 F250
M106 S0
M106 S255
G1 X53.527 Y48.579 F250
M106 S0
M106 S255
G1 X53.62 Y48.482 F250
M106 S0
M106 S255
G1 X53.728 Y48.364 F250
M106 S0
M106 S255
G1 X54.127 Y47.881 F250
M106 S0
M106 S255
G1 X54.453 Y47.374 F250
M106 S0
M106 S255
G1 X54.584 Y47.11 F250
M106 S0
M106 S255
G1 X54.69 Y46.837 F250
M106 S0
M106 S255
G1 X54.769 Y46.555 F250
M106 S0
M106 S255
G1 X54.819 Y46.262 F250
M106 S0
M106 S255
G1 X54.838 Y45.958 F250
M106 S0
M106 S255
G1 X54.823 Y45.642 F250
M106 S0
M106 S255
G1 X54.772 Y45.313 F250
M106 S0
M106 S255
G1 X54.765 Y45.282 F250
M106 S0
M106 S255
G1 X54.765 Y45.28 F250
M106 S0
M106 S255
G1 X54.764 Y45.276 F250
M106 S0
M106 S255
G1 X54.763 Y45.269 F250
M106 S0
M106 S255
G1 X54.762 Y45.242 F250
M106 S0
M106 S255
G1 X54.778 Y45.158 F250
M106 S0
M106 S255
G1 X54.779 Y45.153 F250
M106 S0
M106 S255
G1 X54.779 Y45.144 F250
M106 S0
M106 S255
G1 X54.779 Y45.074 F250
M106 S0
M106 S255
G1 X54.775 Y44.797 F250
M106 S0
M106 S255
G1 X54.741 Y44.247 F250
M106 S0
M106 S255
G1 X54.678 Y43.7 F250
M106 S0
M106 S255
G1 X54.588 Y43.158 F250
M106 S0
M106 S255
G1 X54.345 Y42.083 F250
M106 S0
M106 S255
G1 X54.328 Y42.016 F250
M106 S0
M106 S255
G1 X54.319 Y41.985 F250
M106 S0
M106 S255
G1 X54.318 Y41.977 F250
M106 S0
M106 S255
G1 X54.31 Y41.948 F250
M106 S0
M106 S255
G1 X54.299 Y41.888 F250
M106 S0
M106 S255
G1 X54.282 Y41.766 F250
M106 S0
M106 S255
G1 X54.249 Y41.524 F250
M106 S0
M106 S255
G1 X54.168 Y41.292 F250
M106 S0
G0 X56.899 Y55.035 F6000
M106 S255
G1 X56.899 Y55.035 F250
M106 S0
M106 S255
G1 X56.915 Y55.201 F250
M106 S0
M106 S255
G1 X56.907 Y55.364 F250
M106 S0
M106 S255
G1 X56.878 Y55.523 F250
M106 S0
M106 S255
G1 X56.828 Y55.676 F250
M106 S0
M106 S255
G1 X56.754 Y55.834 F250
M106 S0
M106 S255
G1 X56.628 Y56.113 F250
M106 S0
M106 S255
G1 X56.536 Y56.398 F250
M106 S0
M106 S255
G1 X56.472 Y56.689 F250
M106 S0
M106 S255
G1 X56.434 Y56.988 F250
M106 S0
M106 S255
G1 X56.424 Y57.14 F250
M106 S0
M106 S255
G1 X56.42 Y57.216 F250
M106 S0
M106 S255
G1 X56.419 Y57.264 F250
M106 S0
M106 S255
G1 X56.416 Y57.341 F250
M106 S0
M106 S255
G1 X56.389 Y57.643 F250
M106 S0
M106 S255
G1 X56.339 Y57.931 F250
M106 S0
M106 S255
G1 X56.266 Y58.206 F250
M106 S0
M106 S255
G1 X56.167 Y58.466 F250
M106 S0
M106 S255
G1 X56.041 Y58.713 F250
M106 S0
M106 S255
G1 X55.887 Y58.945 F250
M106 S0
M106 S255
G1 X55.702 Y59.162 F250
M106 S0
M106 S255
G1 X55.485 Y59.364 F250
M106 S0
M106 S255
G1 X55.236 Y59.551 F250
M106 S0
M106 S255
G1 X55.098 Y59.638 F250
M106 S0
M106 S255
G1 X54.986 Y59.703 F250
M106 S0
M106 S255
G1 X54.542 Y59.927 F250
M106 S0
M106 S255
G1 X54.086 Y60.11 F250
M106 S0
M106 S255
G1 X53.621 Y60.264 F250
M106 S0
M106 S255
G1 X53.151 Y60.403 F250
M106 S0
M106 S255
G1 X52.915 Y60.47 F250
M106 S0
M106 S255
G1 X52.855 Y60.486 F250
M106 S0
M106 S255
G1 X52.826 Y60.495 F250
M106 S0
M106 S255
G1 X52.822 Y60.496 F250
M106 S0
M106 S255
G1 X52.813 Y60.498 F250
M106 S0
M106 S255
G1 X52.737 Y60.511 F250
M106 S0
M106 S255
G1 X52.668 Y60.503 F250
M106 S0
M106 S255
G1 X52.656 Y60.496 F250
M106 S0
M106 S255
G1 X52.651 Y60.491 F250
M106 S0
M106 S255
G1 X52.618 Y60.464 F250
M106 S0
M106 S255
G1 X52.549 Y60.414 F250
M106 S0
M106 S255
G1 X52.408 Y60.34 F250
M106 S0
M106 S255
G1 X52.261 Y60.292 F250
M106 S0
M106 S255
G1 X51.957 Y60.253 F250
M106 S0
M106 S255
G1 X51.645 Y60.251 F250
M106 S0
M106 S255
G1 X51.335 Y60.241 F250
M106 S0
M106 S255
G1 X51.184 Y60.217 F250
M106 S0
M106 S255
G1 X51.004 Y60.178 F250
M106 S0
M106 S255
G1 X50.285 Y60.01 F250
M106 S0
M106 S255
G1 X49.935 Y59.9 F250
M106 S0
M106 S255
G1 X49.595 Y59.756 F250
M106 S0
M106 S255
G1 X49.428 Y59.666 F250
M106 S0
M106 S255
G1 X49.24 Y59.569 F250
M106 S0
M106 S255
G1 X48.851 Y59.415 F250
M106 S0
M106 S255
G1 X48.045 Y59.192 F250
M106 S0
M106 S255
G1 X47.642 Y59.079 F250
M106 S0
M106 S255
G1 X47.543 Y59.047 F250
M106 S0
M106 S255
G1 X47.493 Y59.031 F250
M106 S0
M106 S255
G1 X47.483 Y59.027 F250
M106 S0
M106 S255
G1 X47.456 Y59.021 F250
M106 S0
M106 S255
G1 X47.333 Y59.028 F250
M106 S0
M106 S255
G1 X47.207 Y59.063 F250
M106 S0
M106 S255
G1 X47.192 Y59.068 F250
M106 S0
M106 S255
G1 X47.186 Y59.07 F250
M106 S0
M106 S255
G1 X47.145 Y59.083 F250
M106 S0
M106 S255
G1 X47.064 Y59.106 F250
M106 S0
M106 S255
G1 X46.747 Y59.174 F250
M106 S0
M106 S255
G1 X46.438 Y59.202 F250
M106 S0
M106 S255
G1 X46.139 Y59.193 F250
M106 S0
M106 S255
G1 X45.847 Y59.149 F250
M106 S0
M106 S255
G1 X45.563 Y59.073 F250
M106 S0
M106 S255
G1 X45.286 Y58.968 F250
M106 S0
M106 S255
G1 X45.015 Y58.837 F250
M106 S0
M106 S255
G1 X44.75 Y58.681 F250
M106 S0
M106 S255
G1 X44.489 Y58.504 F250
M106 S0
M106 S255
G1 X44.367 Y58.414 F250
M106 S0
M106 S255
G1 X44.32 Y58.378 F250
M106 S0
M106 S255
G1 X44.228 Y58.307 F250
M106 S0
M106 S255
G1 X43.862 Y58.02 F250
M106 S0
M106 S255
G1 X43.487 Y57.746 F250
M106 S0
M106 S255
G1 X43.463 Y57.73 F250
M106 S0
M106 S255
G1 X43.413 Y57.697 F250
M106 S0
M106 S255
G1 X43.297 Y57.627 F250
M106 S0
M106 S255
G1 X43.062 Y57.516 F250
M106 S0
M106 S255
G1 X42.825 Y57.441 F250
M106 S0
M106 S255
G1 X42.587 Y57.402 F250
M106 S0
M106 S255
G1 X42.35 Y57.399 F250
M106 S0
M106 S255
G1 X42.115 Y57.431 F250
M106 S0
M106 S255
G1 X41.885 Y57.499 F250
M106 S0
M106 S255
G1 X41.661 Y57.601 F250
M106 S0
M106 S255
G1 X41.444 Y57.739 F250
M106 S0
M106 S255
G1 X41.236 Y57.91 F250
M106 S0
M106 S255
G1 X41.211 Y57.934 F250
M106 S0
M106 S255
G1 X41.204 Y57.941 F250
M106 S0
M106 S255
G1 X41.199 Y57.946 F250
M106 S0
M106 S255
G1 X41.19 Y57.954 F250
M106 S0
M106 S255
G1 X41.172 Y57.971 F250
M106 S0
M106 S255
G1 X41.032 Y58.113 F250
M106 S0
M106 S255
G1 X40.809 Y58.349 F250
M106 S0
M106 S255
G1 X40.59 Y58.543 F250
M106 S0
M106 S255
G1 X40.372 Y58.695 F250
M106 S0
M106 S255
G1 X40.151 Y58.806 F250
M106 S0
M106 S255
G1 X39.925 Y58.877 F250
M106 S0
M106 S255
G1 X39.691 Y58.909 F250
M106 S0
M106 S255
G1 X39.444 Y58.902 F250
M106 S0
M106 S255
G1 X39.182 Y58.856 F250
M106 S0
M106 S255
G1 X38.902 Y58.774 F250
M106 S0
M106 S255
G1 X38.607 Y58.658 F250
M106 S0
M106 S255
G1 X38.104 Y58.402 F250
M106 S0
M106 S255
G1 X37.647 Y58.092 F250
M106 S0
M106 S255
G1 X37.236 Y57.727 F250
M106 S0
M106 S255
G1 X36.873 Y57.306 F250
M106 S0
M106 S255
G1 X36.709 Y57.073 F250
M106 S0
M106 S255
G1 X36.631 Y56.951 F250
M106 S0
M106 S255
G1 X36.597 Y56.896 F250
M106 S0
M106 S255
G1 X36.576 Y56.861 F250
M106 S0
M106 S255
G1 X36.242 Y56.3 F250
M106 S0
M106 S255
G1 X36.051 Y56.035 F250
M106 S0
M106 S255
G1 X35.825 Y55.795 F250
M106 S0
M106 S255
G1 X35.694 Y55.688 F250
M106 S0
M106 S255
G1 X35.623 Y55.638 F250
M106 S0
M106 S255
G1 X35.581 Y55.61 F250
M106 S0
M106 S255
G1 X35.419 Y55.508 F250
M106 S0
M106 S255
G1 X35.085 Y55.339 F250
M106 S0
M106 S255
G1 X34.912 Y55.283 F250
M106 S0
M106 S255
G1 X34.822 Y55.266 F250
M106 S0
M106 S255
G1 X34.8 Y55.262 F250
M106 S0
M106 S255
G1 X34.789 Y55.261 F250
M106 S0
M106 S255
G1 X34.745 Y55.255 F250
M106 S0
M106 S255
G1 X34.566 Y55.226 F250
M106 S0
M106 S255
G1 X34.228 Y55.141 F250
M106 S0
M106 S255
G1 X33.917 Y55.023 F250
M106 S0
M106 S255
G1 X33.632 Y54.872 F250
M106 S0
M106 S255
G1 X33.371 Y54.692 F250
M106 S0
M106 S255
G1 X33.131 Y54.484 F250
M106 S0
M106 S255
G1 X32.911 Y54.251 F250
M106 S0
M106 S255
G1 X32.71 Y53.993 F250
M106 S0
M106 S255
G1 X32.524 Y53.715 F250
M106 S0
M106 S255
G1 X32.354 Y53.416 F250
M106 S0
M106 S255
G1 X32.28 Y53.277 F250
M106 S0
M106 S255
G1 X32.212 Y53.153 F250
M106 S0
M106 S255
G1 X31.908 Y52.691 F250
M106 S0
M106 S255
G1 X31.736 Y52.482 F250
M106 S0
M106 S255
G1 X31.55 Y52.292 F250
M106 S0
M106 S255
G1 X31.346 Y52.12 F250
M106 S0
M106 S255
G1 X31.126 Y51.97 F250
M106 S0
M106 S255
G1 X30.886 Y51.842 F250
M106 S0
M106 S255
G1 X30.626 Y51.739 F250
M106 S0
M106 S255
G1 X30.345 Y51.661 F250
M106 S0
M106 S255
G1 X30.318 Y51.656 F250
M106 S0
M106 S255
G1 X30.306 Y51.653 F250
M106 S0
M106 S255
G1 X30.282 Y51.648 F250
M106 S0
M106 S255
G1 X30.234 Y51.638 F250
M106 S0
M106 S255
G1 X29.847 Y51.564 F250
M106 S0
M106 S255
G1 X29.459 Y51.53 F250
M106 S0
M106 S255
G1 X29.411 Y51.53 F250
M106 S0
M106 S255
G1 X29.387 Y51.531 F250
M106 S0
M106 S255
G1 X29.375 Y51.532 F250
M106 S0
M106 S255
G1 X29.341 Y51.533 F250
M106 S0
M106 S255
G1 X28.982 Y51.522 F250
M106 S0
M106 S255
G1 X28.666 Y51.463 F250
M106 S0
M106 S255
G1 X28.39 Y51.362 F250
M106 S0
M106 S255
G1 X28.151 Y51.222 F250
M106 S0
M106 S255
G1 X27.946 Y51.05 F250
M106 S0
M106 S255
G1 X27.772 Y50.849 F250
M106 S0
M106 S255
G1 X27.625 Y50.624 F250
M106 S0
M106 S255
G1 X27.504 Y50.38 F250
M106 S0
M106 S255
G1 X27.404 Y50.122 F250
M106 S0
M106 S255
G1 X27.361 Y49.989 F250
M106 S0
M106 S255
G1 X27.341 Y49.922 F250
M106 S0
M106 S255
G1 X27.333 Y49.894 F250
M106 S0
M106 S255
G1 X27.308 Y49.796 F250
M106 S0
M106 S255
G1 X27.233 Y49.393 F250
M106 S0
M106 S255
G1 X27.209 Y48.984 F250
M106 S0
M106 S255
G1 X27.209 Y48.934 F250
M106 S0
M106 S255
G1 X27.21 Y48.917 F250
M106 S0
M106 S255
G1 X27.211 Y48.858 F250
M106 S0
M106 S255
G1 X27.211 Y48.739 F250
M106 S0
M106 S255
G1 X27.191 Y48.274 F250
M106 S0
M106 S255
G1 X27.136 Y47.821 F250
M106 S0
M106 S255
G1 X27.047 Y47.381 F250
M106 S0
M106 S255
G1 X26.926 Y46.953 F250
M106 S0
M106 S255
G1 X26.773 Y46.537 F250
M106 S0
M106 S255
G1 X26.59 Y46.131 F250
M106 S0
M106 S255
G1 X26.377 Y45.735 F250
M106 S0
M106 S255
G1 X26.136 Y45.348 F250
M106 S0
M106 S255
G1 X25.867 Y44.97 F250
M106 S0
M106 S255
G1 X25.726 Y44.787 F250
M106 S0
M106 S255
G1 X25.616 Y44.648 F250
M106 S0
M106 S255
G1 X25.398 Y44.368 F250
M106 S0
M106 S255
G1 X24.974 Y43.799 F250
M106 S0
M106 S255
G1 X24.576 Y43.212 F250
M106 S0
M106 S255
G1 X24.216 Y42.6 F250
M106 S0
M106 S255
G1 X23.906 Y41.957 F250
M106 S0
M106 S255
G1 X23.832 Y41.775 F250
M106 S0
M106 S255
G1 X23.751 Y41.567 F250
M106 S0
M106 S255
G1 X23.598 Y41.148 F250
M106 S0
M106 S255
G1 X23.338 Y40.301 F250
M106 S0
M106 S255
G1 X23.14 Y39.44 F250
M106 S0
M106 S255
G1 X23.013 Y38.566 F250
M106 S0
M106 S255
G1 X22.962 Y37.676 F250
M106 S0
M106 S255
G1 X22.961 Y37.619 F250
M106 S0
M106 S255
G1 X22.961 Y37.596 F250
M106 S0
M106 S255
G1 X22.961 Y37.568 F250
M106 S0
M106 S255
G1 X22.96 Y37.513 F250
M106 S0
M106 S255
G1 X22.955 Y37.405 F250
M106 S0
M106 S255
G1 X22.931 Y37.197 F250
M106 S0
M106 S255
G1 X22.879 Y37.002 F250
M106 S0
M106 S255
G1 X22.789 Y36.82 F250
M106 S0
M106 S255
G1 X22.65 Y36.653 F250
M106 S0
G0 X77.709 Y29.586 F6000
M106 S255
G1 X77.709 Y29.586 F250
M106 S0
M106 S255
G1 X77.506 Y29.284 F250
M106 S0
M106 S255
G1 X77.349 Y28.961 F250
M106 S0
M106 S255
G1 X77.102 Y28.284 F250
M106 S0
M106 S255
G1 X76.974 Y27.948 F250
M106 S0
M106 S255
G1 X76.901 Y27.784 F250
M106 S0
M106 S255
G1 X76.848 Y27.674 F250
M106 S0
M106 S255
G1 X76.679 Y27.251 F250
M106 S0
M106 S255
G1 X76.513 Y26.828 F250
M106 S0
M106 S255
G1 X76.416 Y26.624 F250
M106 S0
M106 S255
G1 X76.402 Y26.599 F250
M106 S0
M106 S255
G1 X76.371 Y26.543 F250
M106 S0
M106 S255
G1 X76.304 Y26.432 F250
M106 S0
M106 S255
G1 X76.157 Y26.227 F250
M106 S0
M106 S255
G1 X75.994 Y26.044 F250
M106 S0
M106 S255
G1 X75.818 Y25.882 F250
M106 S0
M106 S255
G1 X75.63 Y25.738 F250
M106 S0
M106 S255
G1 X75.429 Y25.611 F250
M106 S0
M106 S255
G1 X74.998 Y25.405 F250
M106 S0
M106 S255
G1 X74.534 Y25.25 F250
M106 S0
M106 S255
G1 X74.293 Y25.188 F250
M106 S0
M106 S255
G1 X74.176 Y25.161 F250
M106 S0
M106 S255
G1 X74.08 Y25.139 F250
M106 S0
M106 S255
G1 X73.707 Y25.03 F250
M106 S0
M106 S255
G1 X73.351 Y24.889 F250
M106 S0
M106 S255
G1 X73.015 Y24.713 F250
M106 S0
M106 S255
G1 X72.699 Y24.498 F250
M106 S0
M106 S255
G1 X72.406 Y24.241 F250
M106 S0
M106 S255
G1 X72.336 Y24.17 F250
M106 S0
M106 S255
G1 X72.286 Y24.118 F250
M106 S0
M106 S255
G1 X72.188 Y24.016 F250
M106 S0
M106 S255
G1 X71.986 Y23.816 F250
M106 S0
M106 S255
G1 X71.557 Y23.448 F250
M106 S0
M106 S255
G1 X71.323 Y23.288 F250
M106 S0
M106 S255
G1 X71.201 Y23.216 F250
M106 S0
M106 S255
G1 X71.138 Y23.182 F250
M106 S0
M106 S255
G1 X71.095 Y23.16 F250
M106 S0
M106 S255
G1 X71.037 Y23.131 F250
M106 S0
M106 S255
G1 X70.802 Y23.028 F250
M106 S0
M106 S255
G1 X70.568 Y22.948 F250
M106 S0
M106 S255
G1 X70.335 Y22.891 F250
M106 S0
M106 S255
G1 X70.103 Y22.858 F250
M106 S0
M106 S255
G1 X69.872 Y22.849 F250
M106 S0
M106 S255
G1 X69.642 Y22.865 F250
M106 S0
M106 S255
G1 X69.414 Y22.906 F250
M106 S0
M106 S255
G1 X69.187 Y22.973 F250
M106 S0
M106 S255
G1 X68.961 Y23.066 F250
M106 S0
M106 S255
G1 X68.736 Y23.187 F250
M106 S0
M106 S255
G1 X68.625 Y23.257 F250
M106 S0
M106 S255
G1 X68.569 Y23.295 F250
M106 S0
M106 S255
G1 X68.558 Y23.302 F250
M106 S0
M106 S255
G1 X68.542 Y23.314 F250
M106 S0
M106 S255
G1 X68.479 Y23.359 F250
M106 S0
M106 S255
G1 X68.417 Y23.407 F250
M106 S0
M106 S255
G1 X68.402 Y23.419 F250
M106 S0
M106 S255
G1 X68.395 Y23.425 F250
M106 S0
M106 S255
G1 X68.391 Y23.428 F250
M106 S0
M106 S255
G1 X68.389 Y23.43 F250
M106 S0
M106 S255
G1 X68.366 Y23.448 F250
M106 S0
M106 S255
G1 X68.117 Y23.631 F250
M106 S0
M106 S255
G1 X67.886 Y23.763 F250
M106 S0
M106 S255
G1 X67.67 Y23.849 F250
M106 S0
M106 S255
G1 X67.465 Y23.893 F250
M106 S0
M106 S255
G1 X67.266 Y23.898 F250
M106 S0
M106 S255
G1 X67.069 Y23.869 F250
M106 S0
M106 S255
G1 X66.871 Y23.809 F250
M106 S0
M106 S255
G1 X66.666 Y23.722 F250
M106 S0
M106 S255
G1 X66.452 Y23.613 F250
M106 S0
M106 S255
G1 X66.223 Y23.485 F250
M106 S0
M106 S255
G1 X65.976 Y23.341 F250
M106 S0
M106 S255
G1 X65.837 Y23.252 F250
M106 S0
M106 S255
G1 X65.596 Y23.051 F250
M106 S0
M106 S255
G1 X65.383 Y22.82 F250
M106 S0
M106 S255
G1 X65.188 Y22.57 F250
M106 S0
M106 S255
G1 X64.815 Y22.058 F250
M106 S0
M106 S255
G1 X64.786 Y22.021 F250
M106 S0
M106 S255
G1 X64.746 Y21.971 F250
M106 S0
M106 S255
G1 X64.666 Y21.874 F250
M106 S0
M106 S255
G1 X64.498 Y21.694 F250
M106 S0
M106 S255
G1 X64.323 Y21.53 F250
M106 S0
M106 S255
G1 X64.14 Y21.384 F250
M106 S0
M106 S255
G1 X63.948 Y21.256 F250
M106 S0
M106 S255
G1 X63.748 Y21.146 F250
M106 S0
M106 S255
G1 X63.539 Y21.055 F250
M106 S0
M106 S255
G1 X63.321 Y20.982 F250
M106 S0
M106 S255
G1 X63.094 Y20.93 F250
M106 S0
M106 S255
G1 X62.858 Y20.897 F250
M106 S0
M106 S255
G1 X62.612 Y20.885 F250
M106 S0
M106 S255
G1 X62.549 Y20.885 F250
M106 S0
M106 S255
G1 X62.515 Y20.886 F250
M106 S0
M106 S255
G1 X62.462 Y20.887 F250
M106 S0
M106 S255
G1 X62.033 Y20.937 F250
M106 S0
M106 S255
G1 X61.612 Y21.048 F250
M106 S0
M106 S255
G1 X61.413 Y21.126 F250
M106 S0
M106 S255
G1 X61.358 Y21.151 F250
M106 S0
M106 S255
G1 X61.255 Y21.196 F250
M106 S0
M106 S255
G1 X61.05 Y21.275 F250
M106 S0
M106 S255
G1 X60.636 Y21.397 F250
M106 S0
M106 S255
G1 X60.216 Y21.475 F250
M106 S0
M106 S255
G1 X59.792 Y21.516 F250
M106 S0
M106 S255
G1 X59.363 Y21.529 F250
M106 S0
M106 S255
G1 X59.146 Y21.526 F250
M106 S0
M106 S255
G1 X59.038 Y21.523 F250
M106 S0
M106 S255
G1 X58.951 Y21.521 F250
M106 S0
M106 S255
G1 X58.622 Y21.53 F250
M106 S0
M106 S255
G1 X58.301 Y21.57 F250
M106 S0
M106 S255
G1 X57.988 Y21.644 F250
M106 S0
M106 S255
G1 X57.684 Y21.753 F250
M106 S0
M106 S255
G1 X57.391 Y21.899 F250
M106 S0
M106 S255
G1 X57.32 Y21.942 F250
M106 S0
M106 S255
G1 X57.289 Y21.961 F250
M106 S0
M106 S255
G1 X57.274 Y21.971 F250
M106 S0
M106 S255
G1 X57.217 Y22.009 F250
M106 S0
M106 S255
G1 X57.105 Y22.091 F250
M106 S0
M106 S255
G1 X56.889 Y22.265 F250
M106 S0
M106 S255
G1 X56.781 Y22.353 F250
M106 S0
M106 S255
G1 X56.727 Y22.397 F250
M106 S0
M106 S255
G1 X56.7 Y22.419 F250
M106 S0
M106 S255
G1 X56.687 Y22.429 F250
M106 S0
M106 S255
G1 X56.656 Y22.453 F250
M106 S0
M106 S255
G1 X56.5 Y22.561 F250
M106 S0
M106 S255
G1 X56.345 Y22.648 F250
M106 S0
M106 S255
G1 X56.188 Y22.713 F250
M106 S0
M106 S255
G1 X56.032 Y22.757 F250
M106 S0
M106 S255
G1 X55.874 Y22.78 F250
M106 S0
M106 S255
G1 X55.716 Y22.782 F250
M106 S0
M106 S255
G1 X55.556 Y22.762 F250
M106 S0
M106 S255
G1 X55.394 Y22.721 F250
M106 S0
M106 S255
G1 X55.231 Y22.659 F250
M106 S0
M106 S255
G1 X55.065 Y22.575 F250
M106 S0
M106 S255
G1 X54.903 Y22.474 F250
M106 S0
M106 S255
G1 X54.84 Y22.431 F250
M106 S0
M106 S255
G1 X54.343 Y22.085 F250
M106 S0
M106 S255
G1 X54.215 Y22.006 F250
M106 S0
M106 S255
G1 X54.036 Y21.91 F250
M106 S0
M106 S255
G1 X53.657 Y21.765 F250
M106 S0
M106 S255
G1 X53.459 Y21.721 F250
M106 S0
M106 S255
G1 X53.255 Y21.698 F250
M106 S0
M106 S255
G1 X53.15 Y21.695 F250
M106 S0
M106 S255
G1 X53.024 Y21.695 F250
M106 S0
M106 S255
G1 X52.759 Y21.696 F250
M106 S0
M106 S255
G1 X51.7 Y21.696 F250
M106 S0
M106 S255
G1 X51.667 Y21.696 F250
M106 S0
M106 S255
G1 X51.604 Y21.697 F250
M106 S0
M106 S255
G1 X51.446 Y21.692 F250
M106 S0
M106 S255
G1 X51.144 Y21.657 F250
M106 S0
M106 S255
G1 X50.863 Y21.591 F250
M106 S0
M106 S255
G1 X50.601 Y21.496 F250
M106 S0
M106 S255
G1 X50.357 Y21.373 F250
M106 S0
M106 S255
G1 X50.13 Y21.224 F250
M106 S0
M106 S255
G1 X49.919 Y21.052 F250
M106 S0
M106 S255
G1 X49.724 Y20.858 F250
M106 S0
M106 S255
G1 X49.543 Y20.645 F250
M106 S0
M106 S255
G1 X49.375 Y20.413 F250
M106 S0
M106 S255
G1 X49.075 Y19.916 F250
M106 S0
M106 S255
G1 X48.769 Y19.465 F250
M106 S0
M106 S255
G1 X48.6 Y19.263 F250
M106 S0
M106 S255
G1 X48.419 Y19.079 F250
M106 S0
M106 S255
G1 X48.225 Y18.913 F250
M106 S0
M106 S255
G1 X48.019 Y18.767 F250
M106 S0
M106 S255
G1 X47.799 Y18.641 F250
M106 S0
M106 S255
G1 X47.565 Y18.536 F250
M106 S0
M106 S255
G1 X47.316 Y18.454 F250
M106 S0
M106 S255
G1 X47.052 Y18.396 F250
M106 S0
M106 S255
G1 X46.792 Y18.362 F250
M106 S0
M106 S255
G1 X46.559 Y18.333 F250
M106 S0
M106 S255
G1 X46.1 Y18.262 F250
M106 S0
M106 S255
G1 X45.649 Y18.168 F250
M106 S0
M106 S255
G1 X45.208 Y18.042 F250
M106 S0
M106 S255
G1 X44.779 Y17.879 F250
M106 S0
M106 S255
G1 X44.57 Y17.781 F250
M106 S0
M106 S255
G1 X44.466 Y17.728 F250
M106 S0
M106 S255
G1 X44.347 Y17.662 F250
M106 S0
M106 S255
G1 X43.806 Y17.372 F250
M106 S0
M106 S255
G1 X42.714 Y16.814 F250
M106 S0
M106 S255
G1 X41.615 Y16.27 F250
M106 S0
M106 S255
G1 X41.477 Y16.202 F250
M106 S0
M106 S255
G1 X41.409 Y16.168 F250
M106 S0
M106 S255
G1 X41.375 Y16.152 F250
M106 S0
M106 S255
G1 X41.37 Y16.149 F250
M106 S0
M106 S255
G1 X41.329 Y16.127 F250
M106 S0
M106 S255
G1 X41.253 Y16.077 F250
M106 S0
M106 S255
G1 X40.988 Y15.843 F250
M106 S0
G0 X45.757 Y13.935 F6000
M106 S255
G1 X45.757 Y13.935 F250
M106 S0
M106 S255
G1 X45.557 Y13.616 F250
M106 S0
M106 S255
G1 X45.332 Y13.32 F250
M106 S0
M106 S255
G1 X45.086 Y13.046 F250
M106 S0
M106 S255
G1 X44.819 Y12.793 F250
M106 S0
M106 S255
G1 X44.536 Y12.559 F250
M106 S0
M106 S255
G1 X44.237 Y12.343 F250
M106 S0
M106 S255
G1 X43.924 Y12.143 F250
M106 S0
M106 S255
G1 X43.881 Y12.117 F250
M106 S0
M106 S255
G1 X43.812 Y12.077 F250
M106 S0
M106 S255
G1 X43.672 Y11.999 F250
M106 S0
M106 S255
G1 X43.391 Y11.858 F250
M106 S0
M106 S255
G1 X42.818 Y11.63 F250
M106 S0
M106 S255
G1 X42.233 Y11.469 F250
M106 S0
M106 S255
G1 X41.637 Y11.371 F250
M106 S0
M106 S255
G1 X41.029 Y11.329 F250
M106 S0
M106 S255
G1 X40.411 Y11.338 F250
M106 S0
M106 S255
G1 X39.784 Y11.393 F250
M106 S0
M106 S255
G1 X39.614 Y11.415 F250
M106 S0
M106 S255
G1 X39.349 Y11.453 F250
M106 S0
M106 S255
G1 X38.828 Y11.547 F250
M106 S0
M106 S255
G1 X38.316 Y11.661 F250
M106 S0
M106 S255
G1 X37.814 Y11.795 F250
M106 S0
M106 S255
G1 X36.836 Y12.121 F250
M106 S0
M106 S255
G1 X35.892 Y12.522 F250
M106 S0
M106 S255
G1 X34.98 Y12.995 F250
M106 S0
M106 S255
G1 X34.097 Y13.537 F250
M106 S0
M106 S255
G1 X33.241 Y14.144 F250
M106 S0
M106 S255
G1 X33.031 Y14.305 F250
M106 S0
M106 S255
G1 X32.979 Y14.346 F250
M106 S0
M106 S255
G1 X32.946 Y14.372 F250
M106 S0
M106 S255
G1 X32.899 Y14.409 F250
M106 S0
M106 S255
G1 X32.71 Y14.553 F250
M106 S0
M106 S255
G1 X32.322 Y14.826 F250
M106 S0
M106 S255
G1 X31.921 Y15.077 F250
M106 S0
M106 S255
G1 X31.508 Y15.306 F250
M106 S0
M106 S255
G1 X31.081 Y15.509 F250
M106 S0
M106 S255
G1 X30.639 Y15.685 F250
M106 S0
M106 S255
G1 X30.184 Y15.83 F250
M106 S0
M106 S255
G1 X29.959 Y15.889 F250
M106 S0
M106 S255
G1 X29.805 Y15.922 F250
M106 S0
M106 S255
G1 X29.497 Y15.971 F250
M106 S0
M106 S255
G1 X28.875 Y16.015 F250
M106 S0
M106 S255
G1 X28.251 Y16.018 F250
M106 S0
M106 S255
G1 X27.939 Y16.017 F250
M106 S0
M106 S255
G1 X27.783 Y16.018 F250
M106 S0
M106 S255
G1 X27.657 Y16.017 F250
M106 S0
M106 S255
G1 X27.177 Y15.971 F250
M106 S0
M106 S255
G1 X26.704 Y15.884 F250
M106 S0
M106 S255
G1 X26.232 Y15.791 F250
M106 S0
M106 S255
G1 X25.767 Y15.723 F250
M106 S0
M106 S255
G1 X24.84 Y15.647 F250
M106 S0
M106 S255
G1 X24.608 Y15.637 F250
M106 S0
M106 S255
G1 X24.492 Y15.633 F250
M106 S0
M106 S255
G1 X24.434 Y15.631 F250
M106 S0
M106 S255
G1 X24.313 Y15.628 F250
M106 S0
M106 S255
G1 X23.8 Y15.634 F250
M106 S0
M106 S255
G1 X23.292 Y15.669 F250
M106 S0
M106 S255
G1 X22.788 Y15.733 F250
M106 S0
M106 S255
G1 X22.289 Y15.825 F250
M106 S0
M106 S255
G1 X21.794 Y15.943 F250
M106 S0
M106 S255
G1 X21.304 Y16.087 F250
M106 S0
M106 S255
G1 X21.061 Y16.167 F250
M106 S0
M106 S255
G1 X20.94 Y16.21 F250
M106 S0
M106 S255
G1 X20.88 Y16.232 F250
M106 S0
M106 S255
G1 X20.776 Y16.27 F250
M106 S0
M106 S255
G1 X19.921 Y16.623 F250
M106 S0
M106 S255
G1 X19.096 Y17.024 F250
M106 S0
M106 S255
G1 X18.298 Y17.471 F250
M106 S0
M106 S255
G1 X17.525 Y17.957 F250
M106 S0
M106 S255
G1 X16.773 Y18.48 F250
M106 S0
M106 S255
G1 X16.039 Y19.032 F250
M106 S0
M106 S255
G1 X15.32 Y19.611 F250
M106 S0
M106 S255
G1 X13.894 Y20.83 F250
M106 S0
M106 S255
G1 X12.518 Y22.099 F250
M106 S0
M106 S255
G1 X11.854 Y22.759 F250
M106 S0
M106 S255
G1 X11.21 Y23.438 F250
M106 S0
M106 S255
G1 X10.587 Y24.138 F250
M106 S0
M106 S255
G1 X10.002 Y24.856 F250
M106 S0
M106 S255
G1 X9.466 Y25.601 F250
M106 S0
M106 S255
G1 X8.983 Y26.373 F250
M106 S0
M106 S255
G1 X8.555 Y27.175 F250
M106 S0
M106 S255
G1 X8.188 Y28.007 F250
M106 S0
M106 S255
G1 X7.883 Y28.872 F250
M106 S0
M106 S255
G1 X7.646 Y29.771 F250
M106 S0
M106 S255
G1 X7.601 Y29.987 F250
M106 S0
M106 S255
G1 X7.581 Y30.088 F250
M106 S0
M106 S255
G1 X7.546 Y30.29 F250
M106 S0
M106 S255
G1 X7.496 Y30.694 F250
M106 S0
M106 S255
G1 X7.469 Y31.097 F250
M106 S0
M106 S255
G1 X7.468 Y31.5 F250
M106 S0
M106 S255
G1 X7.492 Y31.901 F250
M106 S0
M106 S255
G1 X7.542 Y32.303 F250
M106 S0
M106 S255
G1 X7.618 Y32.704 F250
M106 S0
M106 S255
G1 X7.641 Y32.804 F250
M106 S0
M106 S255
G1 X7.671 Y32.928 F250
M106 S0
M106 S255
G1 X7.741 Y33.196 F250
M106 S0
M106 S255
G1 X7.894 Y33.727 F250
M106 S0
M106 S255
G1 X8.069 Y34.25 F250
M106 S0
M106 S255
G1 X8.266 Y34.762 F250
M106 S0
M106 S255
G1 X8.49 Y35.264 F250
M106 S0
M106 S255
G1 X8.742 Y35.754 F250
M106 S0
M106 S255
G1 X9.025 Y36.232 F250
M106 S0
M106 S255
G1 X9.1 Y36.349 F250
M106 S0
M106 S255
G1 X9.139 Y36.408 F250
M106 S0
M106 S255
G1 X9.159 Y36.437 F250
M106 S0
M106 S255
G1 X9.164 Y36.445 F250
M106 S0
M106 S255
G1 X9.194 Y36.489 F250
M106 S0
M106 S255
G1 X9.257 Y36.573 F250
M106 S0
M106 S255
G1 X9.391 Y36.733 F250
M106 S0
M106 S255
G1 X9.671 Y37.019 F250
M106 S0
M106 S255
G1 X9.798 Y37.085 F250
M106 S0
M106 S255
G1 X9.937 Y37.104 F250
M106 S0
M106 S255
G1 X10.075 Y37.09 F250
M106 S0
M106 S255
G1 X10.108 Y37.082 F250
M106 S0
M106 S255
G1 X10.139 Y37.074 F250
M106 S0
M106 S255
G1 X10.197 Y37.055 F250
M106 S0
M106 S255
G1 X10.415 Y36.935 F250
M106 S0
M106 S255
G1 X10.601 Y36.759 F250
M106 S0
M106 S255
G1 X10.748 Y36.541 F250
M106 S0
M106 S255
G1 X10.848 Y36.297 F250
M106 S0
M106 S255
G1 X10.891 Y36.044 F250
M106 S0
M106 S255
G1 X10.872 Y35.795 F250
M106 S0
M106 S255
G1 X10.835 Y35.678 F250
M106 S0
M106 S255
G1 X10.777 Y35.556 F250
M106 S0
M106 S255
G1 X10.669 Y35.282 F250
M106 S0
M106 S255
G1 X10.598 Y35.003 F250
M106 S0
M106 S255
G1 X10.556 Y34.722 F250
M106 S0
M106 S255
G1 X10.536 Y34.438 F250
M106 S0
M106 S255
G1 X10.53 Y33.87 F250
M106 S0
M106 S255
G1 X10.531 Y33.728 F250
M106 S0
M106 S255
G1 X10.531 Y33.602 F250
M106 S0
M106 S255
G1 X10.529 Y33.457 F250
M106 S0
M106 S255
G1 X10.535 Y33.162 F250
M106 S0
M106 S255
G1 X10.585 Y32.863 F250
M106 S0
M106 S255
G1 X10.637 Y32.715 F250
M106 S0
M106 S255
G1 X10.714 Y32.569 F250
M106 S0
M106 S255
G1 X10.906 Y32.3 F250
M106 S0
M106 S255
G1 X11.128 Y32.093 F250
M106 S0
M106 S255
G1 X11.258 Y32.017 F250
M106 S0
M106 S255
G1 X11.405 Y31.96 F250
M106 S0
M106 S255
G1 X11.574 Y31.924 F250
M106 S0
M106 S255
G1 X11.6 Y31.921 F250
M106 S0
M106 S255
G1 X11.65 Y31.914 F250
M106 S0
M106 S255
G1 X11.748 Y31.897 F250
M106 S0
M106 S255
G1 X11.934 Y31.85 F250
M106 S0
M106 S255
G1 X12.262 Y31.709 F250
M106 S0
M106 S255
G1 X12.541 Y31.514 F250
M106 S0
M106 S255
G1 X12.776 Y31.273 F250
M106 S0
M106 S255
G1 X12.975 Y30.993 F250
M106 S0
M106 S255
G1 X13.145 Y30.684 F250
M106 S0
M106 S255
G1 X13.294 Y30.354 F250
M106 S0
M106 S255
G1 X13.327 Y30.274 F250
M106 S0
M106 S255
G1 X13.342 Y30.233 F250
M106 S0
M106 S255
G1 X13.372 Y30.152 F250
M106 S0
M106 S255
G1 X13.425 Y29.987 F250
M106 S0
M106 S255
G1 X13.627 Y29.323 F250
M106 S0
M106 S255
G1 X13.693 Y29.161 F250
M106 S0
M106 S255
G1 X13.711 Y29.122 F250
M106 S0
M106 S255
G1 X13.727 Y29.089 F250
M106 S0
M106 S255
G1 X13.756 Y29.031 F250
M106 S0
M106 S255
G1 X13.876 Y28.802 F250
M106 S0
M106 S255
G1 X14.136 Y28.373 F250
M106 S0
M106 S255
G1 X14.43 Y27.99 F250
M106 S0
M106 S255
G1 X14.766 Y27.663 F250
M106 S0
M106 S255
G1 X14.953 Y27.523 F250
M106 S0
M106 S255
G1 X15.153 Y27.402 F250
M106 S0
M106 S255
G1 X15.368 Y27.299 F250
M106 S0
M106 S255
G1 X15.599 Y27.217 F250
M106 S0
M106 S255
G1 X15.846 Y27.157 F250
M106 S0
M106 S255
G1 X16.112 Y27.119 F250
M106 S0
M106 S255
G1 X16.251 Y27.109 F250
M106 S0
M106 S255
G1 X16.323 Y27.107 F250
M106 S0
M106 S255
G1 X16.359 Y27.106 F250
M106 S0
M106 S255
G1 X16.369 Y27.106 F250
M106 S0
M106 S255
G1 X16.42 Y27.104 F250
M106 S0
M106 S255
G1 X16.523 Y27.097 F250
M106 S0
M106 S255
G1 X16.73 Y27.07 F250
M106 S0
M106 S255
G1 X16.938 Y27.041 F250
M106 S0
M106 S255
G1 X17.042 Y27.029 F250
M106 S0
M106 S255
G1 X17.094 Y27.025 F250
M106 S0
M106 S255
G1 X17.25 Y27.009 F250
M106 S0
M106 S255
G1 X17.561 Y26.938 F250
M106 S0
M106 S255
G1 X17.842 Y26.823 F250
M106 S0
M106 S255
G1 X18.095 Y26.667 F250
M106 S0
M106 S255
G1 X18.323 Y26.474 F250
M106 S0
M106 S255
G1 X18.531 Y26.25 F250
M106 S0
M106 S255
G1 X18.722 Y25.999 F250
M106 S0
M106 S255
G1 X18.812 Y25.864 F250
M106 S0
M106 S255
G1 X18.85 Y25.804 F250
M106 S0
M106 S255
G1 X18.877 Y25.76 F250
M106 S0
M106 S255
G1 X18.985 Y25.584 F250
M106 S0
