;GCode generated by Numa's program v0.0
G0 X7.019 Y1.621 F6000
M106 S255
G1 X7.019 Y1.621 F200
M106 S0
M106 S255
G1 X6.946 Y1.767 F200
M106 S0
M106 S255
G1 X6.8 Y1.913 F200
M106 S0
M106 S255
G1 X6.654 Y1.986 F200
M106 S0
M106 S255
G1 X6.363 Y1.986 F200
M106 S0
M106 S255
G1 X6.217 Y1.913 F200
M106 S0
M106 S255
G1 X6.071 Y1.767 F200
M106 S0
M106 S255
G1 X5.998 Y1.621 F200
M106 S0
M106 S255
G1 X5.924 Y1.402 F200
M106 S0
M106 S255
G1 X5.924 Y1.037 F200
M106 S0
M106 S255
G1 X5.998 Y0.817 F200
M106 S0
M106 S255
G1 X6.071 Y0.671 F200
M106 S0
M106 S255
G1 X6.217 Y0.525 F200
M106 S0
M106 S255
G1 X6.363 Y0.452 F200
M106 S0
M106 S255
G1 X6.654 Y0.452 F200
M106 S0
M106 S255
G1 X6.8 Y0.525 F200
M106 S0
M106 S255
G1 X6.946 Y0.671 F200
M106 S0
M106 S255
G1 X7.019 Y0.817 F200
M106 S0
G0 X7.823 Y1.475 F6000
M106 S255
G1 X7.823 Y1.475 F200
M106 S0
M106 S255
G1 X7.677 Y1.402 F200
M106 S0
M106 S255
G1 X7.531 Y1.256 F200
M106 S0
M106 S255
G1 X7.458 Y1.037 F200
M106 S0
M106 S255
G1 X7.458 Y0.89 F200
M106 S0
M106 S255
G1 X7.531 Y0.671 F200
M106 S0
M106 S255
G1 X7.677 Y0.525 F200
M106 S0
M106 S255
G1 X7.823 Y0.452 F200
M106 S0
M106 S255
G1 X8.042 Y0.452 F200
M106 S0
M106 S255
G1 X8.189 Y0.525 F200
M106 S0
M106 S255
G1 X8.335 Y0.671 F200
M106 S0
M106 S255
G1 X8.408 Y0.89 F200
M106 S0
M106 S255
G1 X8.408 Y1.037 F200
M106 S0
M106 S255
G1 X8.335 Y1.256 F200
M106 S0
M106 S255
G1 X8.189 Y1.402 F200
M106 S0
M106 S255
G1 X8.042 Y1.475 F200
M106 S0
M106 S255
G1 X7.823 Y1.475 F200
M106 S0
M106 S255
G1 X7.823 Y1.475 F200
M106 S0
G0 X8.846 Y0.452 F6000
M106 S255
G1 X8.846 Y0.452 F200
M106 S0
M106 S255
G1 X8.846 Y1.475 F200
M106 S0
G0 X8.846 Y1.183 F6000
M106 S255
G1 X8.846 Y1.183 F200
M106 S0
M106 S255
G1 X9.065 Y1.402 F200
M106 S0
M106 S255
G1 X9.21 Y1.475 F200
M106 S0
M106 S255
G1 X9.43 Y1.475 F200
M106 S0
M106 S255
G1 X9.576 Y1.402 F200
M106 S0
M106 S255
G1 X9.649 Y1.183 F200
M106 S0
M106 S255
G1 X9.649 Y0.452 F200
M106 S0
G0 X11.037 Y1.256 F6000
M106 S255
G1 X11.037 Y1.256 F200
M106 S0
M106 S255
G1 X10.964 Y1.402 F200
M106 S0
M106 S255
G1 X10.745 Y1.475 F200
M106 S0
M106 S255
G1 X10.526 Y1.475 F200
M106 S0
M106 S255
G1 X10.306 Y1.402 F200
M106 S0
M106 S255
G1 X10.233 Y1.256 F200
M106 S0
M106 S255
G1 X10.306 Y1.11 F200
M106 S0
M106 S255
G1 X10.453 Y1.037 F200
M106 S0
M106 S255
G1 X10.818 Y0.963 F200
M106 S0
M106 S255
G1 X10.964 Y0.89 F200
M106 S0
M106 S255
G1 X11.037 Y0.744 F200
M106 S0
M106 S255
G1 X11.037 Y0.671 F200
M106 S0
M106 S255
G1 X10.964 Y0.525 F200
M106 S0
M106 S255
G1 X10.745 Y0.452 F200
M106 S0
M106 S255
G1 X10.526 Y0.452 F200
M106 S0
M106 S255
G1 X10.306 Y0.525 F200
M106 S0
M106 S255
G1 X10.233 Y0.671 F200
M106 S0
G0 X11.694 Y1.986 F6000
M106 S255
G1 X11.694 Y1.986 F200
M106 S0
M106 S255
G1 X11.694 Y0.744 F200
M106 S0
M106 S255
G1 X11.767 Y0.525 F200
M106 S0
M106 S255
G1 X11.913 Y0.452 F200
M106 S0
M106 S255
G1 X12.059 Y0.452 F200
M106 S0
G0 X11.475 Y1.475 F6000
M106 S255
G1 X11.475 Y1.475 F200
M106 S0
M106 S255
G1 X11.986 Y1.475 F200
M106 S0
G0 X13.374 Y1.475 F6000
M106 S255
G1 X13.374 Y1.475 F200
M106 S0
M106 S255
G1 X13.374 Y0.452 F200
M106 S0
G0 X13.374 Y1.256 F6000
M106 S255
G1 X13.374 Y1.256 F200
M106 S0
M106 S255
G1 X13.228 Y1.402 F200
M106 S0
M106 S255
G1 X13.082 Y1.475 F200
M106 S0
M106 S255
G1 X12.863 Y1.475 F200
M106 S0
M106 S255
G1 X12.717 Y1.402 F200
M106 S0
M106 S255
G1 X12.57 Y1.256 F200
M106 S0
M106 S255
G1 X12.497 Y1.037 F200
M106 S0
M106 S255
G1 X12.497 Y0.89 F200
M106 S0
M106 S255
G1 X12.57 Y0.671 F200
M106 S0
M106 S255
G1 X12.717 Y0.525 F200
M106 S0
M106 S255
G1 X12.863 Y0.452 F200
M106 S0
M106 S255
G1 X13.082 Y0.452 F200
M106 S0
M106 S255
G1 X13.228 Y0.525 F200
M106 S0
M106 S255
G1 X13.374 Y0.671 F200
M106 S0
G0 X13.886 Y0.452 F6000
M106 S255
G1 X13.886 Y0.452 F200
M106 S0
M106 S255
G1 X13.886 Y1.475 F200
M106 S0
G0 X13.886 Y1.183 F6000
M106 S255
G1 X13.886 Y1.183 F200
M106 S0
M106 S255
G1 X14.104 Y1.402 F200
M106 S0
M106 S255
G1 X14.25 Y1.475 F200
M106 S0
M106 S255
G1 X14.469 Y1.475 F200
M106 S0
M106 S255
G1 X14.615 Y1.402 F200
M106 S0
M106 S255
G1 X14.688 Y1.183 F200
M106 S0
M106 S255
G1 X14.688 Y0.452 F200
M106 S0
G0 X16.15 Y1.256 F6000
M106 S255
G1 X16.15 Y1.256 F200
M106 S0
M106 S255
G1 X16.004 Y1.402 F200
M106 S0
M106 S255
G1 X15.857 Y1.475 F200
M106 S0
M106 S255
G1 X15.638 Y1.475 F200
M106 S0
M106 S255
G1 X15.492 Y1.402 F200
M106 S0
M106 S255
G1 X15.346 Y1.256 F200
M106 S0
M106 S255
G1 X15.273 Y1.037 F200
M106 S0
M106 S255
G1 X15.273 Y0.89 F200
M106 S0
M106 S255
G1 X15.346 Y0.671 F200
M106 S0
M106 S255
G1 X15.492 Y0.525 F200
M106 S0
M106 S255
G1 X15.638 Y0.452 F200
M106 S0
M106 S255
G1 X15.857 Y0.452 F200
M106 S0
M106 S255
G1 X16.004 Y0.525 F200
M106 S0
M106 S255
G1 X16.15 Y0.671 F200
M106 S0
G0 X16.587 Y1.037 F6000
M106 S255
G1 X16.587 Y1.037 F200
M106 S0
M106 S255
G1 X17.464 Y1.037 F200
M106 S0
M106 S255
G1 X17.464 Y1.183 F200
M106 S0
M106 S255
G1 X17.391 Y1.329 F200
M106 S0
M106 S255
G1 X17.318 Y1.402 F200
M106 S0
M106 S255
G1 X17.172 Y1.475 F200
M106 S0
M106 S255
G1 X16.952 Y1.475 F200
M106 S0
M106 S255
G1 X16.806 Y1.402 F200
M106 S0
M106 S255
G1 X16.66 Y1.256 F200
M106 S0
M106 S255
G1 X16.587 Y1.037 F200
M106 S0
M106 S255
G1 X16.587 Y0.89 F200
M106 S0
M106 S255
G1 X16.66 Y0.671 F200
M106 S0
M106 S255
G1 X16.806 Y0.525 F200
M106 S0
M106 S255
G1 X16.952 Y0.452 F200
M106 S0
M106 S255
G1 X17.172 Y0.452 F200
M106 S0
M106 S255
G1 X17.318 Y0.525 F200
M106 S0
M106 S255
G1 X17.464 Y0.671 F200
M106 S0
G0 X2.809 Y0.557 F6000
M106 S255
G1 X2.809 Y0.557 F200
M106 S0
M106 S255
G1 X4.032 Y1.452 F200
M106 S0
M106 S255
G1 X4.616 Y1.921 F200
M106 S0
M106 S255
G1 X5.169 Y2.418 F200
M106 S0
M106 S255
G1 X5.678 Y2.949 F200
M106 S0
M106 S255
G1 X6.134 Y3.525 F200
M106 S0
M106 S255
G1 X6.525 Y4.155 F200
M106 S0
M106 S255
G1 X6.842 Y4.846 F200
M106 S0
M106 S255
G1 X6.972 Y5.231 F200
M106 S0
M106 S255
G1 X7.139 Y6.002 F200
M106 S0
M106 S255
G1 X7.163 Y6.394 F200
M106 S0
M106 S255
G1 X7.131 Y6.77 F200
M106 S0
M106 S255
G1 X7.033 Y7.117 F200
M106 S0
M106 S255
G1 X6.843 Y7.44 F200
M106 S0
M106 S255
G1 X6.595 Y7.681 F200
M106 S0
M106 S255
G1 X6.267 Y7.879 F200
M106 S0
M106 S255
G1 X5.897 Y8.012 F200
M106 S0
M106 S255
G1 X5.507 Y8.075 F200
M106 S0
M106 S255
G1 X5.01 Y8.04 F200
M106 S0
M106 S255
G1 X4.767 Y7.966 F200
M106 S0
M106 S255
G1 X4.44 Y7.802 F200
M106 S0
M106 S255
G1 X3.837 Y7.358 F200
M106 S0
G0 X2.809 Y0.557 F6000
M106 S255
G1 X2.809 Y0.557 F200
M106 S0
M106 S255
G1 X1.905 Y1.773 F200
M106 S0
M106 S255
G1 X1.486 Y2.395 F200
M106 S0
M106 S255
G1 X1.105 Y3.032 F200
M106 S0
M106 S255
G1 X0.775 Y3.691 F200
M106 S0
M106 S255
G1 X0.51 Y4.376 F200
M106 S0
M106 S255
G1 X0.322 Y5.092 F200
M106 S0
M106 S255
G1 X0.225 Y5.846 F200
M106 S0
M106 S255
G1 X0.214 Y6.253 F200
M106 S0
M106 S255
G1 X0.282 Y7.039 F200
M106 S0
M106 S255
G1 X0.375 Y7.42 F200
M106 S0
M106 S255
G1 X0.516 Y7.77 F200
M106 S0
M106 S255
G1 X0.713 Y8.072 F200
M106 S0
M106 S255
G1 X0.99 Y8.325 F200
M106 S0
M106 S255
G1 X1.298 Y8.481 F200
M106 S0
M106 S255
G1 X1.669 Y8.574 F200
M106 S0
M106 S255
G1 X2.063 Y8.592 F200
M106 S0
M106 S255
G1 X2.454 Y8.537 F200
M106 S0
M106 S255
G1 X2.919 Y8.357 F200
M106 S0
M106 S255
G1 X3.129 Y8.213 F200
M106 S0
M106 S255
G1 X3.392 Y7.96 F200
M106 S0
M106 S255
G1 X3.837 Y7.358 F200
M106 S0
M106 S0
