;GCode generated by Numa's program v0.0
G0 X44.043 Y36.086 F6000
M106 S255
G1 X44.043 Y36.086 F50
M106 S0
M106 S255
G1 X45.31 Y36.086 F50
M106 S0
M106 S255
G1 X45.31 Y35.105 F50
M106 S0
M106 S255
G1 X46.38 Y35.105 F50
M106 S0
M106 S255
G1 X46.38 Y36.086 F50
M106 S0
M106 S255
G1 X48.316 Y36.086 F50
M106 S0
M106 S255
G1 X48.316 Y32.708 F50
M106 S0
M106 S255
G1 X47.654 Y32.708 F50
M106 S0
M106 S255
G1 X46.737 Y31.436 F50
M106 S0
M106 S255
G1 X46.737 Y27.829 F50
M106 S0
M106 S255
G1 X47.657 Y26.573 F50
M106 S0
M106 S255
G1 X48.313 Y26.573 F50
M106 S0
M106 S255
G1 X48.313 Y25.281 F50
M106 S0
M106 S255
G1 X49.562 Y25.281 F50
M106 S0
M106 S255
G1 X49.562 Y23.279 F50
M106 S0
M106 S255
G1 X44.043 Y23.279 F50
M106 S0
M106 S255
G1 X38.525 Y23.279 F50
M106 S0
M106 S255
G1 X38.525 Y25.281 F50
M106 S0
M106 S255
G1 X39.774 Y25.281 F50
M106 S0
M106 S255
G1 X39.774 Y26.573 F50
M106 S0
M106 S255
G1 X40.429 Y26.573 F50
M106 S0
M106 S255
G1 X41.35 Y27.829 F50
M106 S0
M106 S255
G1 X41.35 Y31.436 F50
M106 S0
M106 S255
G1 X40.432 Y32.708 F50
M106 S0
M106 S255
G1 X39.771 Y32.708 F50
M106 S0
M106 S255
G1 X39.771 Y36.086 F50
M106 S0
M106 S255
G1 X41.706 Y36.086 F50
M106 S0
M106 S255
G1 X41.706 Y35.105 F50
M106 S0
M106 S255
G1 X42.777 Y35.105 F50
M106 S0
M106 S255
G1 X42.777 Y36.086 F50
M106 S0
M106 S255
G1 X44.043 Y36.086 F50
M106 S0
G0 X2.931 Y25.278 F6000
M106 S255
G1 X2.931 Y25.278 F50
M106 S0
M106 S255
G1 X2.931 Y26.056 F50
M106 S0
M106 S255
G1 X7.627 Y26.056 F50
M106 S0
M106 S255
G1 X12.324 Y26.056 F50
M106 S0
M106 S255
G1 X12.324 Y25.278 F50
M106 S0
M106 S255
G1 X7.627 Y25.278 F50
M106 S0
M106 S255
G1 X2.931 Y25.278 F50
M106 S0
G0 X25.972 Y23.636 F6000
M106 S255
G1 X25.972 Y23.636 F50
M106 S0
M106 S255
G1 X25.967 Y23.636 F50
M106 S0
M106 S255
G1 X25.962 Y23.636 F50
M106 S0
M106 S255
G1 X25.958 Y23.636 F50
M106 S0
M106 S255
G1 X25.953 Y23.635 F50
M106 S0
M106 S255
G1 X25.948 Y23.635 F50
M106 S0
M106 S255
G1 X25.943 Y23.635 F50
M106 S0
M106 S255
G1 X25.938 Y23.635 F50
M106 S0
M106 S255
G1 X25.933 Y23.635 F50
M106 S0
M106 S255
G1 X25.928 Y23.635 F50
M106 S0
M106 S255
G1 X25.923 Y23.635 F50
M106 S0
M106 S255
G1 X25.918 Y23.635 F50
M106 S0
M106 S255
G1 X25.913 Y23.635 F50
M106 S0
M106 S255
G1 X25.909 Y23.635 F50
M106 S0
M106 S255
G1 X25.904 Y23.635 F50
M106 S0
M106 S255
G1 X25.899 Y23.635 F50
M106 S0
M106 S255
G1 X25.894 Y23.635 F50
M106 S0
M106 S255
G1 X25.889 Y23.635 F50
M106 S0
M106 S255
G1 X25.884 Y23.635 F50
M106 S0
M106 S255
G1 X25.879 Y23.636 F50
M106 S0
M106 S255
G1 X25.874 Y23.636 F50
M106 S0
M106 S255
G1 X25.869 Y23.636 F50
M106 S0
M106 S255
G1 X25.864 Y23.636 F50
M106 S0
M106 S255
G1 X25.66 Y23.632 F50
M106 S0
M106 S255
G1 X25.455 Y23.628 F50
M106 S0
M106 S255
G1 X25.25 Y23.625 F50
M106 S0
M106 S255
G1 X25.045 Y23.623 F50
M106 S0
M106 S255
G1 X24.84 Y23.622 F50
M106 S0
M106 S255
G1 X24.636 Y23.623 F50
M106 S0
M106 S255
G1 X24.431 Y23.627 F50
M106 S0
M106 S255
G1 X24.226 Y23.633 F50
M106 S0
M106 S255
G1 X24.022 Y23.642 F50
M106 S0
M106 S255
G1 X23.818 Y23.653 F50
M106 S0
M106 S255
G1 X23.613 Y23.667 F50
M106 S0
M106 S255
G1 X23.409 Y23.683 F50
M106 S0
M106 S255
G1 X23.205 Y23.701 F50
M106 S0
M106 S255
G1 X23.001 Y23.72 F50
M106 S0
M106 S255
G1 X22.797 Y23.741 F50
M106 S0
M106 S255
G1 X22.594 Y23.762 F50
M106 S0
M106 S255
G1 X22.39 Y23.783 F50
M106 S0
M106 S255
G1 X22.186 Y23.805 F50
M106 S0
M106 S255
G1 X21.983 Y23.826 F50
M106 S0
M106 S255
G1 X21.779 Y23.848 F50
M106 S0
M106 S255
G1 X21.575 Y23.869 F50
M106 S0
M106 S255
G1 X21.372 Y23.891 F50
M106 S0
M106 S255
G1 X21.168 Y23.912 F50
M106 S0
M106 S255
G1 X21.168 Y24.748 F50
M106 S0
M106 S255
G1 X25.864 Y24.748 F50
M106 S0
M106 S255
G1 X25.918 Y24.748 F50
M106 S0
M106 S255
G1 X25.972 Y24.748 F50
M106 S0
M106 S255
G1 X30.669 Y24.748 F50
M106 S0
M106 S255
G1 X30.669 Y23.912 F50
M106 S0
M106 S255
G1 X30.465 Y23.891 F50
M106 S0
M106 S255
G1 X30.261 Y23.869 F50
M106 S0
M106 S255
G1 X30.058 Y23.848 F50
M106 S0
M106 S255
G1 X29.854 Y23.826 F50
M106 S0
M106 S255
G1 X29.651 Y23.805 F50
M106 S0
M106 S255
G1 X29.447 Y23.783 F50
M106 S0
M106 S255
G1 X29.243 Y23.762 F50
M106 S0
M106 S255
G1 X29.039 Y23.741 F50
M106 S0
M106 S255
G1 X28.835 Y23.72 F50
M106 S0
M106 S255
G1 X28.631 Y23.701 F50
M106 S0
M106 S255
G1 X28.427 Y23.683 F50
M106 S0
M106 S255
G1 X28.223 Y23.667 F50
M106 S0
M106 S255
G1 X28.019 Y23.653 F50
M106 S0
M106 S255
G1 X27.815 Y23.642 F50
M106 S0
M106 S255
G1 X27.61 Y23.633 F50
M106 S0
M106 S255
G1 X27.406 Y23.627 F50
M106 S0
M106 S255
G1 X27.201 Y23.623 F50
M106 S0
M106 S255
G1 X26.997 Y23.622 F50
M106 S0
M106 S255
G1 X26.792 Y23.623 F50
M106 S0
M106 S255
G1 X26.587 Y23.625 F50
M106 S0
M106 S255
G1 X26.382 Y23.628 F50
M106 S0
M106 S255
G1 X26.177 Y23.632 F50
M106 S0
M106 S255
G1 X25.972 Y23.636 F50
M106 S0
G0 X25.918 Y27.688 F6000
M106 S255
G1 X25.918 Y27.688 F50
M106 S0
M106 S255
G1 X25.913 Y27.688 F50
M106 S0
M106 S255
G1 X25.909 Y27.688 F50
M106 S0
M106 S255
G1 X25.904 Y27.688 F50
M106 S0
M106 S255
G1 X25.899 Y27.688 F50
M106 S0
M106 S255
G1 X25.894 Y27.688 F50
M106 S0
M106 S255
G1 X25.889 Y27.689 F50
M106 S0
M106 S255
G1 X25.884 Y27.689 F50
M106 S0
M106 S255
G1 X25.879 Y27.689 F50
M106 S0
M106 S255
G1 X25.874 Y27.689 F50
M106 S0
M106 S255
G1 X25.869 Y27.689 F50
M106 S0
M106 S255
G1 X25.864 Y27.689 F50
M106 S0
M106 S255
G1 X25.588 Y27.681 F50
M106 S0
M106 S255
G1 X25.312 Y27.674 F50
M106 S0
M106 S255
G1 X25.036 Y27.666 F50
M106 S0
M106 S255
G1 X24.759 Y27.658 F50
M106 S0
M106 S255
G1 X24.483 Y27.65 F50
M106 S0
M106 S255
G1 X24.207 Y27.642 F50
M106 S0
M106 S255
G1 X23.931 Y27.633 F50
M106 S0
M106 S255
G1 X23.654 Y27.625 F50
M106 S0
M106 S255
G1 X23.378 Y27.617 F50
M106 S0
M106 S255
G1 X23.102 Y27.608 F50
M106 S0
M106 S255
G1 X22.826 Y27.6 F50
M106 S0
M106 S255
G1 X22.549 Y27.591 F50
M106 S0
M106 S255
G1 X22.273 Y27.583 F50
M106 S0
M106 S255
G1 X21.997 Y27.574 F50
M106 S0
M106 S255
G1 X21.721 Y27.565 F50
M106 S0
M106 S255
G1 X21.444 Y27.557 F50
M106 S0
M106 S255
G1 X21.168 Y27.548 F50
M106 S0
M106 S255
G1 X21.168 Y26.592 F50
M106 S0
M106 S255
G1 X25.864 Y26.592 F50
M106 S0
M106 S255
G1 X25.918 Y26.592 F50
M106 S0
M106 S255
G1 X25.972 Y26.592 F50
M106 S0
M106 S255
G1 X30.669 Y26.592 F50
M106 S0
M106 S255
G1 X30.669 Y27.548 F50
M106 S0
M106 S255
G1 X30.392 Y27.557 F50
M106 S0
M106 S255
G1 X30.116 Y27.565 F50
M106 S0
M106 S255
G1 X29.84 Y27.574 F50
M106 S0
M106 S255
G1 X29.564 Y27.583 F50
M106 S0
M106 S255
G1 X29.287 Y27.591 F50
M106 S0
M106 S255
G1 X29.011 Y27.6 F50
M106 S0
M106 S255
G1 X28.735 Y27.608 F50
M106 S0
M106 S255
G1 X28.459 Y27.617 F50
M106 S0
M106 S255
G1 X28.182 Y27.625 F50
M106 S0
M106 S255
G1 X27.906 Y27.633 F50
M106 S0
M106 S255
G1 X27.63 Y27.642 F50
M106 S0
M106 S255
G1 X27.354 Y27.65 F50
M106 S0
M106 S255
G1 X27.077 Y27.658 F50
M106 S0
M106 S255
G1 X26.801 Y27.666 F50
M106 S0
M106 S255
G1 X26.525 Y27.674 F50
M106 S0
M106 S255
G1 X26.249 Y27.681 F50
M106 S0
M106 S255
G1 X25.972 Y27.689 F50
M106 S0
M106 S255
G1 X25.967 Y27.689 F50
M106 S0
M106 S255
G1 X25.962 Y27.689 F50
M106 S0
M106 S255
G1 X25.958 Y27.689 F50
M106 S0
M106 S255
G1 X25.953 Y27.689 F50
M106 S0
M106 S255
G1 X25.948 Y27.689 F50
M106 S0
M106 S255
G1 X25.943 Y27.688 F50
M106 S0
M106 S255
G1 X25.938 Y27.688 F50
M106 S0
M106 S255
G1 X25.933 Y27.688 F50
M106 S0
M106 S255
G1 X25.928 Y27.688 F50
M106 S0
M106 S255
G1 X25.923 Y27.688 F50
M106 S0
M106 S255
G1 X25.918 Y27.688 F50
M106 S0
G0 X25.864 Y26.047 F6000
M106 S255
G1 X25.864 Y26.047 F50
M106 S0
M106 S255
G1 X21.168 Y26.047 F50
M106 S0
M106 S255
G1 X21.168 Y25.269 F50
M106 S0
M106 S255
G1 X25.864 Y25.269 F50
M106 S0
M106 S255
G1 X25.918 Y25.269 F50
M106 S0
M106 S255
G1 X25.972 Y25.269 F50
M106 S0
M106 S255
G1 X30.669 Y25.269 F50
M106 S0
M106 S255
G1 X30.669 Y26.047 F50
M106 S0
M106 S255
G1 X25.972 Y26.047 F50
M106 S0
M106 S255
G1 X25.918 Y26.047 F50
M106 S0
M106 S255
G1 X25.864 Y26.047 F50
M106 S0
G0 X25.918 Y22.918 F6000
M106 S255
G1 X25.918 Y22.918 F50
M106 S0
M106 S255
G1 X25.923 Y22.918 F50
M106 S0
M106 S255
G1 X25.928 Y22.918 F50
M106 S0
M106 S255
G1 X25.933 Y22.919 F50
M106 S0
M106 S255
G1 X25.938 Y22.919 F50
M106 S0
M106 S255
G1 X25.943 Y22.919 F50
M106 S0
M106 S255
G1 X25.948 Y22.919 F50
M106 S0
M106 S255
G1 X25.953 Y22.919 F50
M106 S0
M106 S255
G1 X25.958 Y22.919 F50
M106 S0
M106 S255
G1 X25.962 Y22.919 F50
M106 S0
M106 S255
G1 X25.967 Y22.919 F50
M106 S0
M106 S255
G1 X25.972 Y22.919 F50
M106 S0
G0 X27.541 Y28.261 F6000
M106 S255
G1 X27.541 Y28.261 F50
M106 S0
M106 S255
G1 X28.817 Y32.006 F50
M106 S0
M106 S255
G1 X29.176 Y28.212 F50
M106 S0
M106 S255
G1 X29.027 Y28.216 F50
M106 S0
M106 S255
G1 X28.878 Y28.221 F50
M106 S0
M106 S255
G1 X28.73 Y28.225 F50
M106 S0
M106 S255
G1 X28.581 Y28.23 F50
M106 S0
M106 S255
G1 X28.433 Y28.234 F50
M106 S0
M106 S255
G1 X28.284 Y28.238 F50
M106 S0
M106 S255
G1 X28.135 Y28.243 F50
M106 S0
M106 S255
G1 X27.987 Y28.247 F50
M106 S0
M106 S255
G1 X27.838 Y28.252 F50
M106 S0
M106 S255
G1 X27.69 Y28.256 F50
M106 S0
M106 S255
G1 X27.541 Y28.261 F50
M106 S0
G0 X29.581 Y28.2 F6000
M106 S255
G1 X29.581 Y28.2 F50
M106 S0
M106 S255
G1 X31.147 Y30.737 F50
M106 S0
M106 S255
G1 X30.662 Y28.155 F50
M106 S0
M106 S255
G1 X30.642 Y28.156 F50
M106 S0
M106 S255
G1 X30.621 Y28.157 F50
M106 S0
M106 S255
G1 X30.601 Y28.159 F50
M106 S0
M106 S255
G1 X30.581 Y28.16 F50
M106 S0
M106 S255
G1 X30.56 Y28.161 F50
M106 S0
M106 S255
G1 X30.54 Y28.162 F50
M106 S0
M106 S255
G1 X30.519 Y28.163 F50
M106 S0
M106 S255
G1 X30.499 Y28.164 F50
M106 S0
M106 S255
G1 X30.479 Y28.165 F50
M106 S0
M106 S255
G1 X30.458 Y28.167 F50
M106 S0
M106 S255
G1 X30.438 Y28.168 F50
M106 S0
M106 S255
G1 X30.417 Y28.169 F50
M106 S0
M106 S255
G1 X30.397 Y28.17 F50
M106 S0
M106 S255
G1 X30.377 Y28.171 F50
M106 S0
M106 S255
G1 X30.356 Y28.172 F50
M106 S0
M106 S255
G1 X30.336 Y28.173 F50
M106 S0
M106 S255
G1 X30.315 Y28.174 F50
M106 S0
M106 S255
G1 X30.295 Y28.175 F50
M106 S0
M106 S255
G1 X30.275 Y28.176 F50
M106 S0
M106 S255
G1 X30.254 Y28.177 F50
M106 S0
M106 S255
G1 X30.234 Y28.178 F50
M106 S0
M106 S255
G1 X30.213 Y28.179 F50
M106 S0
M106 S255
G1 X30.193 Y28.18 F50
M106 S0
M106 S255
G1 X30.173 Y28.18 F50
M106 S0
M106 S255
G1 X30.152 Y28.181 F50
M106 S0
M106 S255
G1 X30.132 Y28.182 F50
M106 S0
M106 S255
G1 X30.111 Y28.183 F50
M106 S0
M106 S255
G1 X30.091 Y28.184 F50
M106 S0
M106 S255
G1 X30.071 Y28.185 F50
M106 S0
M106 S255
G1 X30.05 Y28.185 F50
M106 S0
M106 S255
G1 X30.03 Y28.186 F50
M106 S0
M106 S255
G1 X30.009 Y28.187 F50
M106 S0
M106 S255
G1 X29.989 Y28.188 F50
M106 S0
M106 S255
G1 X29.969 Y28.188 F50
M106 S0
M106 S255
G1 X29.948 Y28.189 F50
M106 S0
M106 S255
G1 X29.928 Y28.19 F50
M106 S0
M106 S255
G1 X29.907 Y28.19 F50
M106 S0
M106 S255
G1 X29.887 Y28.191 F50
M106 S0
M106 S255
G1 X29.867 Y28.192 F50
M106 S0
M106 S255
G1 X29.846 Y28.192 F50
M106 S0
M106 S255
G1 X29.826 Y28.193 F50
M106 S0
M106 S255
G1 X29.805 Y28.193 F50
M106 S0
M106 S255
G1 X29.785 Y28.194 F50
M106 S0
M106 S255
G1 X29.765 Y28.195 F50
M106 S0
M106 S255
G1 X29.744 Y28.195 F50
M106 S0
M106 S255
G1 X29.724 Y28.196 F50
M106 S0
M106 S255
G1 X29.703 Y28.196 F50
M106 S0
M106 S255
G1 X29.683 Y28.197 F50
M106 S0
M106 S255
G1 X29.662 Y28.198 F50
M106 S0
M106 S255
G1 X29.642 Y28.198 F50
M106 S0
M106 S255
G1 X29.622 Y28.199 F50
M106 S0
M106 S255
G1 X29.601 Y28.199 F50
M106 S0
M106 S255
G1 X29.581 Y28.2 F50
M106 S0
G0 X25.918 Y22.918 F6000
M106 S255
G1 X25.918 Y22.918 F50
M106 S0
M106 S255
G1 X25.913 Y22.918 F50
M106 S0
M106 S255
G1 X25.909 Y22.918 F50
M106 S0
M106 S255
G1 X25.904 Y22.919 F50
M106 S0
M106 S255
G1 X25.899 Y22.919 F50
M106 S0
M106 S255
G1 X25.894 Y22.919 F50
M106 S0
M106 S255
G1 X25.889 Y22.919 F50
M106 S0
M106 S255
G1 X25.884 Y22.919 F50
M106 S0
M106 S255
G1 X25.879 Y22.919 F50
M106 S0
M106 S255
G1 X25.874 Y22.919 F50
M106 S0
M106 S255
G1 X25.869 Y22.919 F50
M106 S0
M106 S255
G1 X25.864 Y22.919 F50
M106 S0
G0 X25.918 Y33.309 F6000
M106 S255
G1 X25.918 Y33.309 F50
M106 S0
M106 S255
G1 X24.769 Y28.275 F50
M106 S0
M106 S255
G1 X24.873 Y28.278 F50
M106 S0
M106 S255
G1 X24.978 Y28.281 F50
M106 S0
M106 S255
G1 X25.082 Y28.284 F50
M106 S0
M106 S255
G1 X25.187 Y28.287 F50
M106 S0
M106 S255
G1 X25.291 Y28.29 F50
M106 S0
M106 S255
G1 X25.396 Y28.293 F50
M106 S0
M106 S255
G1 X25.5 Y28.296 F50
M106 S0
M106 S255
G1 X25.605 Y28.299 F50
M106 S0
M106 S255
G1 X25.709 Y28.302 F50
M106 S0
M106 S255
G1 X25.814 Y28.306 F50
M106 S0
M106 S255
G1 X25.918 Y28.309 F50
M106 S0
M106 S255
G1 X26.023 Y28.306 F50
M106 S0
M106 S255
G1 X26.127 Y28.302 F50
M106 S0
M106 S255
G1 X26.232 Y28.299 F50
M106 S0
M106 S255
G1 X26.336 Y28.296 F50
M106 S0
M106 S255
G1 X26.441 Y28.293 F50
M106 S0
M106 S255
G1 X26.545 Y28.29 F50
M106 S0
M106 S255
G1 X26.65 Y28.287 F50
M106 S0
M106 S255
G1 X26.754 Y28.284 F50
M106 S0
M106 S255
G1 X26.859 Y28.281 F50
M106 S0
M106 S255
G1 X26.963 Y28.278 F50
M106 S0
M106 S255
G1 X27.068 Y28.275 F50
M106 S0
M106 S255
G1 X25.918 Y33.309 F50
M106 S0
G0 X24.296 Y28.261 F6000
M106 S255
G1 X24.296 Y28.261 F50
M106 S0
M106 S255
G1 X23.019 Y32.006 F50
M106 S0
M106 S255
G1 X22.661 Y28.212 F50
M106 S0
M106 S255
G1 X22.81 Y28.216 F50
M106 S0
M106 S255
G1 X22.958 Y28.221 F50
M106 S0
M106 S255
G1 X23.107 Y28.225 F50
M106 S0
M106 S255
G1 X23.256 Y28.23 F50
M106 S0
M106 S255
G1 X23.404 Y28.234 F50
M106 S0
M106 S255
G1 X23.553 Y28.238 F50
M106 S0
M106 S255
G1 X23.701 Y28.243 F50
M106 S0
M106 S255
G1 X23.85 Y28.247 F50
M106 S0
M106 S255
G1 X23.999 Y28.252 F50
M106 S0
M106 S255
G1 X24.147 Y28.256 F50
M106 S0
M106 S255
G1 X24.296 Y28.261 F50
M106 S0
G0 X22.256 Y28.2 F6000
M106 S255
G1 X22.256 Y28.2 F50
M106 S0
M106 S255
G1 X20.69 Y30.737 F50
M106 S0
M106 S255
G1 X21.175 Y28.155 F50
M106 S0
M106 S255
G1 X21.195 Y28.156 F50
M106 S0
M106 S255
G1 X21.215 Y28.157 F50
M106 S0
M106 S255
G1 X21.236 Y28.159 F50
M106 S0
M106 S255
G1 X21.256 Y28.16 F50
M106 S0
M106 S255
G1 X21.277 Y28.161 F50
M106 S0
M106 S255
G1 X21.297 Y28.162 F50
M106 S0
M106 S255
G1 X21.317 Y28.163 F50
M106 S0
M106 S255
G1 X21.338 Y28.164 F50
M106 S0
M106 S255
G1 X21.358 Y28.165 F50
M106 S0
M106 S255
G1 X21.378 Y28.167 F50
M106 S0
M106 S255
G1 X21.399 Y28.168 F50
M106 S0
M106 S255
G1 X21.419 Y28.169 F50
M106 S0
M106 S255
G1 X21.44 Y28.17 F50
M106 S0
M106 S255
G1 X21.46 Y28.171 F50
M106 S0
M106 S255
G1 X21.48 Y28.172 F50
M106 S0
M106 S255
G1 X21.501 Y28.173 F50
M106 S0
M106 S255
G1 X21.521 Y28.174 F50
M106 S0
M106 S255
G1 X21.542 Y28.175 F50
M106 S0
M106 S255
G1 X21.562 Y28.176 F50
M106 S0
M106 S255
G1 X21.582 Y28.177 F50
M106 S0
M106 S255
G1 X21.603 Y28.178 F50
M106 S0
M106 S255
G1 X21.623 Y28.179 F50
M106 S0
M106 S255
G1 X21.644 Y28.18 F50
M106 S0
M106 S255
G1 X21.664 Y28.18 F50
M106 S0
M106 S255
G1 X21.684 Y28.181 F50
M106 S0
M106 S255
G1 X21.705 Y28.182 F50
M106 S0
M106 S255
G1 X21.725 Y28.183 F50
M106 S0
M106 S255
G1 X21.746 Y28.184 F50
M106 S0
M106 S255
G1 X21.766 Y28.185 F50
M106 S0
M106 S255
G1 X21.786 Y28.185 F50
M106 S0
M106 S255
G1 X21.807 Y28.186 F50
M106 S0
M106 S255
G1 X21.827 Y28.187 F50
M106 S0
M106 S255
G1 X21.848 Y28.188 F50
M106 S0
M106 S255
G1 X21.868 Y28.188 F50
M106 S0
M106 S255
G1 X21.889 Y28.189 F50
M106 S0
M106 S255
G1 X21.909 Y28.19 F50
M106 S0
M106 S255
G1 X21.929 Y28.19 F50
M106 S0
M106 S255
G1 X21.95 Y28.191 F50
M106 S0
M106 S255
G1 X21.97 Y28.192 F50
M106 S0
M106 S255
G1 X21.991 Y28.192 F50
M106 S0
M106 S255
G1 X22.011 Y28.193 F50
M106 S0
M106 S255
G1 X22.031 Y28.193 F50
M106 S0
M106 S255
G1 X22.052 Y28.194 F50
M106 S0
M106 S255
G1 X22.072 Y28.195 F50
M106 S0
M106 S255
G1 X22.093 Y28.195 F50
M106 S0
M106 S255
G1 X22.113 Y28.196 F50
M106 S0
M106 S255
G1 X22.133 Y28.196 F50
M106 S0
M106 S255
G1 X22.154 Y28.197 F50
M106 S0
M106 S255
G1 X22.174 Y28.198 F50
M106 S0
M106 S255
G1 X22.195 Y28.198 F50
M106 S0
M106 S255
G1 X22.215 Y28.199 F50
M106 S0
M106 S255
G1 X22.236 Y28.199 F50
M106 S0
M106 S255
G1 X22.256 Y28.2 F50
M106 S0
G0 X25.972 Y22.919 F6000
M106 S255
G1 X25.972 Y22.919 F50
M106 S0
M106 S255
G1 X26.208 Y22.916 F50
M106 S0
M106 S255
G1 X26.444 Y22.913 F50
M106 S0
M106 S255
G1 X26.679 Y22.912 F50
M106 S0
M106 S255
G1 X26.915 Y22.914 F50
M106 S0
M106 S255
G1 X27.166 Y22.919 F50
M106 S0
M106 S255
G1 X27.386 Y22.928 F50
M106 S0
M106 S255
G1 X27.621 Y22.941 F50
M106 S0
M106 S255
G1 X27.856 Y22.957 F50
M106 S0
M106 S255
G1 X28.09 Y22.976 F50
M106 S0
M106 S255
G1 X28.325 Y22.997 F50
M106 S0
M106 S255
G1 X28.56 Y23.02 F50
M106 S0
M106 S255
G1 X28.794 Y23.044 F50
M106 S0
M106 S255
G1 X29.029 Y23.069 F50
M106 S0
M106 S255
G1 X29.314 Y23.099 F50
M106 S0
M106 S255
G1 X29.498 Y23.118 F50
M106 S0
M106 S255
G1 X29.733 Y23.142 F50
M106 S0
M106 S255
G1 X29.967 Y23.165 F50
M106 S0
M106 S255
G1 X30.202 Y23.188 F50
M106 S0
M106 S255
G1 X30.436 Y23.211 F50
M106 S0
M106 S255
G1 X30.671 Y23.233 F50
M106 S0
M106 S255
G1 X30.905 Y23.255 F50
M106 S0
M106 S255
G1 X31.14 Y23.277 F50
M106 S0
M106 S255
G1 X31.374 Y23.299 F50
M106 S0
M106 S255
G1 X31.374 Y28.107 F50
M106 S0
M106 S255
G1 X32.093 Y32.383 F50
M106 S0
M106 S255
G1 X32.166 Y32.399 F50
M106 S0
M106 S255
G1 X32.238 Y32.415 F50
M106 S0
M106 S255
G1 X32.311 Y32.432 F50
M106 S0
M106 S255
G1 X32.383 Y32.451 F50
M106 S0
M106 S255
G1 X32.454 Y32.471 F50
M106 S0
M106 S255
G1 X32.525 Y32.494 F50
M106 S0
M106 S255
G1 X32.594 Y32.519 F50
M106 S0
M106 S255
G1 X32.663 Y32.547 F50
M106 S0
M106 S255
G1 X32.73 Y32.58 F50
M106 S0
M106 S255
G1 X32.797 Y32.616 F50
M106 S0
M106 S255
G1 X32.861 Y32.656 F50
M106 S0
M106 S255
G1 X32.922 Y32.701 F50
M106 S0
M106 S255
G1 X32.98 Y32.749 F50
M106 S0
M106 S255
G1 X33.034 Y32.801 F50
M106 S0
M106 S255
G1 X33.083 Y32.857 F50
M106 S0
M106 S255
G1 X33.126 Y32.916 F50
M106 S0
M106 S255
G1 X33.164 Y32.98 F50
M106 S0
M106 S255
G1 X33.196 Y33.046 F50
M106 S0
M106 S255
G1 X33.223 Y33.115 F50
M106 S0
M106 S255
G1 X33.245 Y33.187 F50
M106 S0
M106 S255
G1 X33.264 Y33.26 F50
M106 S0
M106 S255
G1 X33.28 Y33.334 F50
M106 S0
M106 S255
G1 X33.292 Y33.409 F50
M106 S0
M106 S255
G1 X33.301 Y33.485 F50
M106 S0
M106 S255
G1 X33.306 Y33.56 F50
M106 S0
M106 S255
G1 X33.307 Y33.635 F50
M106 S0
M106 S255
G1 X33.302 Y33.709 F50
M106 S0
M106 S255
G1 X33.292 Y33.783 F50
M106 S0
M106 S255
G1 X33.276 Y33.854 F50
M106 S0
M106 S255
G1 X33.254 Y33.925 F50
M106 S0
M106 S255
G1 X33.226 Y33.993 F50
M106 S0
M106 S255
G1 X33.192 Y34.059 F50
M106 S0
M106 S255
G1 X33.154 Y34.123 F50
M106 S0
M106 S255
G1 X33.112 Y34.185 F50
M106 S0
M106 S255
G1 X33.065 Y34.245 F50
M106 S0
M106 S255
G1 X33.017 Y34.303 F50
M106 S0
M106 S255
G1 X32.965 Y34.358 F50
M106 S0
M106 S255
G1 X32.911 Y34.41 F50
M106 S0
M106 S255
G1 X32.855 Y34.459 F50
M106 S0
M106 S255
G1 X32.797 Y34.505 F50
M106 S0
M106 S255
G1 X32.735 Y34.546 F50
M106 S0
M106 S255
G1 X32.672 Y34.584 F50
M106 S0
M106 S255
G1 X32.605 Y34.616 F50
M106 S0
M106 S255
G1 X32.536 Y34.643 F50
M106 S0
M106 S255
G1 X32.465 Y34.666 F50
M106 S0
M106 S255
G1 X32.393 Y34.685 F50
M106 S0
M106 S255
G1 X32.319 Y34.698 F50
M106 S0
M106 S255
G1 X32.244 Y34.707 F50
M106 S0
M106 S255
G1 X32.169 Y34.712 F50
M106 S0
M106 S255
G1 X32.093 Y34.713 F50
M106 S0
M106 S255
G1 X32.017 Y34.708 F50
M106 S0
M106 S255
G1 X31.942 Y34.7 F50
M106 S0
M106 S255
G1 X31.867 Y34.687 F50
M106 S0
M106 S255
G1 X31.794 Y34.67 F50
M106 S0
M106 S255
G1 X31.722 Y34.648 F50
M106 S0
M106 S255
G1 X31.651 Y34.621 F50
M106 S0
M106 S255
G1 X31.583 Y34.59 F50
M106 S0
M106 S255
G1 X31.518 Y34.554 F50
M106 S0
M106 S255
G1 X31.455 Y34.513 F50
M106 S0
M106 S255
G1 X31.396 Y34.468 F50
M106 S0
M106 S255
G1 X31.34 Y34.418 F50
M106 S0
M106 S255
G1 X31.288 Y34.364 F50
M106 S0
M106 S255
G1 X31.239 Y34.307 F50
M106 S0
M106 S255
G1 X31.195 Y34.246 F50
M106 S0
M106 S255
G1 X31.154 Y34.183 F50
M106 S0
M106 S255
G1 X31.118 Y34.117 F50
M106 S0
M106 S255
G1 X31.086 Y34.05 F50
M106 S0
M106 S255
G1 X31.059 Y33.981 F50
M106 S0
M106 S255
G1 X31.036 Y33.911 F50
M106 S0
M106 S255
G1 X31.017 Y33.839 F50
M106 S0
M106 S255
G1 X31.002 Y33.767 F50
M106 S0
M106 S255
G1 X30.99 Y33.693 F50
M106 S0
M106 S255
G1 X30.982 Y33.619 F50
M106 S0
M106 S255
G1 X30.978 Y33.544 F50
M106 S0
M106 S255
G1 X30.977 Y33.469 F50
M106 S0
M106 S255
G1 X30.981 Y33.395 F50
M106 S0
M106 S255
G1 X30.99 Y33.321 F50
M106 S0
M106 S255
G1 X31.005 Y33.25 F50
M106 S0
M106 S255
G1 X31.025 Y33.179 F50
M106 S0
M106 S255
G1 X31.051 Y33.111 F50
M106 S0
M106 S255
G1 X31.082 Y33.045 F50
M106 S0
M106 S255
G1 X31.117 Y32.981 F50
M106 S0
M106 S255
G1 X31.156 Y32.919 F50
M106 S0
M106 S255
G1 X31.2 Y32.86 F50
M106 S0
M106 S255
G1 X31.247 Y32.803 F50
M106 S0
M106 S255
G1 X31.298 Y32.749 F50
M106 S0
M106 S255
G1 X31.352 Y32.699 F50
M106 S0
M106 S255
G1 X31.408 Y32.652 F50
M106 S0
M106 S255
G1 X31.467 Y32.606 F50
M106 S0
M106 S255
G1 X29.742 Y29.782 F50
M106 S0
M106 S255
G1 X29.382 Y33.641 F50
M106 S0
M106 S255
G1 X29.466 Y33.683 F50
M106 S0
M106 S255
G1 X29.549 Y33.725 F50
M106 S0
M106 S255
G1 X29.631 Y33.769 F50
M106 S0
M106 S255
G1 X29.712 Y33.816 F50
M106 S0
M106 S255
G1 X29.79 Y33.865 F50
M106 S0
M106 S255
G1 X29.899 Y33.945 F50
M106 S0
M106 S255
G1 X29.938 Y33.978 F50
M106 S0
M106 S255
G1 X30.007 Y34.042 F50
M106 S0
M106 S255
G1 X30.071 Y34.111 F50
M106 S0
M106 S255
G1 X30.13 Y34.185 F50
M106 S0
M106 S255
G1 X30.182 Y34.263 F50
M106 S0
M106 S255
G1 X30.227 Y34.345 F50
M106 S0
M106 S255
G1 X30.256 Y34.408 F50
M106 S0
M106 S255
G1 X30.293 Y34.52 F50
M106 S0
M106 S255
G1 X30.313 Y34.612 F50
M106 S0
M106 S255
G1 X30.324 Y34.706 F50
M106 S0
M106 S255
G1 X30.328 Y34.801 F50
M106 S0
M106 S255
G1 X30.324 Y34.897 F50
M106 S0
M106 S255
G1 X30.312 Y34.992 F50
M106 S0
M106 S255
G1 X30.292 Y35.085 F50
M106 S0
M106 S255
G1 X30.256 Y35.203 F50
M106 S0
M106 S255
G1 X30.231 Y35.265 F50
M106 S0
M106 S255
G1 X30.19 Y35.35 F50
M106 S0
M106 S255
G1 X30.142 Y35.431 F50
M106 S0
M106 S255
G1 X30.088 Y35.508 F50
M106 S0
M106 S255
G1 X30.029 Y35.581 F50
M106 S0
M106 S255
G1 X29.964 Y35.649 F50
M106 S0
M106 S255
G1 X29.873 Y35.729 F50
M106 S0
M106 S255
G1 X29.821 Y35.769 F50
M106 S0
M106 S255
G1 X29.742 Y35.82 F50
M106 S0
M106 S255
G1 X29.661 Y35.866 F50
M106 S0
M106 S255
G1 X29.576 Y35.905 F50
M106 S0
M106 S255
G1 X29.488 Y35.937 F50
M106 S0
M106 S255
G1 X29.414 Y35.958 F50
M106 S0
M106 S255
G1 X29.306 Y35.98 F50
M106 S0
M106 S255
G1 X29.213 Y35.991 F50
M106 S0
M106 S255
G1 X29.119 Y35.994 F50
M106 S0
M106 S255
G1 X29.026 Y35.989 F50
M106 S0
M106 S255
G1 X28.932 Y35.977 F50
M106 S0
M106 S255
G1 X28.843 Y35.958 F50
M106 S0
M106 S255
G1 X28.75 Y35.931 F50
M106 S0
M106 S255
G1 X28.662 Y35.896 F50
M106 S0
M106 S255
G1 X28.576 Y35.855 F50
M106 S0
M106 S255
G1 X28.495 Y35.808 F50
M106 S0
M106 S255
G1 X28.418 Y35.754 F50
M106 S0
M106 S255
G1 X28.346 Y35.694 F50
M106 S0
M106 S255
G1 X28.283 Y35.632 F50
M106 S0
M106 S255
G1 X28.219 Y35.558 F50
M106 S0
M106 S255
G1 X28.164 Y35.482 F50
M106 S0
M106 S255
G1 X28.116 Y35.403 F50
M106 S0
M106 S255
G1 X28.074 Y35.319 F50
M106 S0
M106 S255
G1 X28.037 Y35.232 F50
M106 S0
M106 S255
G1 X28.006 Y35.142 F50
M106 S0
M106 S255
G1 X27.992 Y35.092 F50
M106 S0
M106 S255
G1 X27.962 Y34.957 F50
M106 S0
M106 S255
G1 X27.949 Y34.862 F50
M106 S0
M106 S255
G1 X27.943 Y34.768 F50
M106 S0
M106 S255
G1 X27.945 Y34.674 F50
M106 S0
M106 S255
G1 X27.956 Y34.581 F50
M106 S0
M106 S255
G1 X27.975 Y34.49 F50
M106 S0
M106 S255
G1 X27.992 Y34.435 F50
M106 S0
M106 S255
G1 X28.043 Y34.318 F50
M106 S0
M106 S255
G1 X28.09 Y34.237 F50
M106 S0
M106 S255
G1 X28.144 Y34.16 F50
M106 S0
M106 S255
G1 X28.204 Y34.087 F50
M106 S0
M106 S255
G1 X28.283 Y34.007 F50
M106 S0
M106 S255
G1 X28.339 Y33.957 F50
M106 S0
M106 S255
G1 X28.411 Y33.898 F50
M106 S0
M106 S255
G1 X28.486 Y33.843 F50
M106 S0
M106 S255
G1 X28.562 Y33.789 F50
M106 S0
M106 S255
G1 X28.639 Y33.737 F50
M106 S0
M106 S255
G1 X27.343 Y29.998 F50
M106 S0
M106 S255
G1 X26.348 Y34.3 F50
M106 S0
M106 S255
G1 X26.419 Y34.339 F50
M106 S0
M106 S255
G1 X26.49 Y34.377 F50
M106 S0
M106 S255
G1 X26.559 Y34.418 F50
M106 S0
M106 S255
G1 X26.627 Y34.46 F50
M106 S0
M106 S255
G1 X26.692 Y34.506 F50
M106 S0
M106 S255
G1 X26.754 Y34.555 F50
M106 S0
M106 S255
G1 X26.812 Y34.609 F50
M106 S0
M106 S255
G1 X26.866 Y34.668 F50
M106 S0
M106 S255
G1 X26.915 Y34.731 F50
M106 S0
M106 S255
G1 X26.96 Y34.798 F50
M106 S0
M106 S255
G1 X27.0 Y34.869 F50
M106 S0
M106 S255
G1 X27.034 Y34.942 F50
M106 S0
M106 S255
G1 X27.063 Y35.018 F50
M106 S0
M106 S255
G1 X27.087 Y35.096 F50
M106 S0
M106 S255
G1 X27.104 Y35.175 F50
M106 S0
M106 S255
G1 X27.116 Y35.255 F50
M106 S0
M106 S255
G1 X27.122 Y35.336 F50
M106 S0
M106 S255
G1 X27.123 Y35.417 F50
M106 S0
M106 S255
G1 X27.118 Y35.498 F50
M106 S0
M106 S255
G1 X27.108 Y35.578 F50
M106 S0
M106 S255
G1 X27.092 Y35.657 F50
M106 S0
M106 S255
G1 X27.071 Y35.735 F50
M106 S0
M106 S255
G1 X27.045 Y35.811 F50
M106 S0
M106 S255
G1 X27.014 Y35.885 F50
M106 S0
M106 S255
G1 X26.978 Y35.957 F50
M106 S0
M106 S255
G1 X26.937 Y36.026 F50
M106 S0
M106 S255
G1 X26.891 Y36.092 F50
M106 S0
M106 S255
G1 X26.841 Y36.155 F50
M106 S0
M106 S255
G1 X26.787 Y36.215 F50
M106 S0
M106 S255
G1 X26.728 Y36.272 F50
M106 S0
M106 S255
G1 X26.666 Y36.325 F50
M106 S0
M106 S255
G1 X26.6 Y36.373 F50
M106 S0
M106 S255
G1 X26.531 Y36.417 F50
M106 S0
M106 S255
G1 X26.46 Y36.456 F50
M106 S0
M106 S255
G1 X26.386 Y36.489 F50
M106 S0
M106 S255
G1 X26.311 Y36.516 F50
M106 S0
M106 S255
G1 X26.234 Y36.537 F50
M106 S0
M106 S255
G1 X26.156 Y36.551 F50
M106 S0
M106 S255
G1 X26.078 Y36.559 F50
M106 S0
M106 S255
G1 X25.998 Y36.562 F50
M106 S0
M106 S255
G1 X25.918 Y36.561 F50
M106 S0
M106 S255
G1 X25.838 Y36.562 F50
M106 S0
M106 S255
G1 X25.759 Y36.559 F50
M106 S0
M106 S255
G1 X25.68 Y36.551 F50
M106 S0
M106 S255
G1 X25.603 Y36.537 F50
M106 S0
M106 S255
G1 X25.526 Y36.516 F50
M106 S0
M106 S255
G1 X25.45 Y36.489 F50
M106 S0
M106 S255
G1 X25.377 Y36.456 F50
M106 S0
M106 S255
G1 X25.305 Y36.417 F50
M106 S0
M106 S255
G1 X25.237 Y36.373 F50
M106 S0
M106 S255
G1 X25.171 Y36.325 F50
M106 S0
M106 S255
G1 X25.108 Y36.272 F50
M106 S0
M106 S255
G1 X25.05 Y36.215 F50
M106 S0
M106 S255
G1 X24.996 Y36.155 F50
M106 S0
M106 S255
G1 X24.945 Y36.092 F50
M106 S0
M106 S255
G1 X24.9 Y36.026 F50
M106 S0
M106 S255
G1 X24.859 Y35.957 F50
M106 S0
M106 S255
G1 X24.823 Y35.885 F50
M106 S0
M106 S255
G1 X24.792 Y35.811 F50
M106 S0
M106 S255
G1 X24.765 Y35.735 F50
M106 S0
M106 S255
G1 X24.745 Y35.657 F50
M106 S0
M106 S255
G1 X24.729 Y35.578 F50
M106 S0
M106 S255
G1 X24.719 Y35.498 F50
M106 S0
M106 S255
G1 X24.714 Y35.417 F50
M106 S0
M106 S255
G1 X24.715 Y35.336 F50
M106 S0
M106 S255
G1 X24.721 Y35.255 F50
M106 S0
M106 S255
G1 X24.733 Y35.175 F50
M106 S0
M106 S255
G1 X24.75 Y35.096 F50
M106 S0
M106 S255
G1 X24.773 Y35.018 F50
M106 S0
M106 S255
G1 X24.802 Y34.942 F50
M106 S0
M106 S255
G1 X24.837 Y34.869 F50
M106 S0
M106 S255
G1 X24.877 Y34.798 F50
M106 S0
M106 S255
G1 X24.921 Y34.731 F50
M106 S0
M106 S255
G1 X24.971 Y34.668 F50
M106 S0
M106 S255
G1 X25.025 Y34.609 F50
M106 S0
M106 S255
G1 X25.083 Y34.555 F50
M106 S0
M106 S255
G1 X25.145 Y34.506 F50
M106 S0
M106 S255
G1 X25.21 Y34.46 F50
M106 S0
M106 S255
G1 X25.277 Y34.418 F50
M106 S0
M106 S255
G1 X25.347 Y34.377 F50
M106 S0
M106 S255
G1 X25.418 Y34.339 F50
M106 S0
M106 S255
G1 X25.489 Y34.3 F50
M106 S0
M106 S255
G1 X24.493 Y29.998 F50
M106 S0
M106 S255
G1 X23.198 Y33.737 F50
M106 S0
M106 S255
G1 X23.275 Y33.789 F50
M106 S0
M106 S255
G1 X23.351 Y33.843 F50
M106 S0
M106 S255
G1 X23.426 Y33.898 F50
M106 S0
M106 S255
G1 X23.498 Y33.957 F50
M106 S0
M106 S255
G1 X23.554 Y34.007 F50
M106 S0
M106 S255
G1 X23.632 Y34.087 F50
M106 S0
M106 S255
G1 X23.693 Y34.16 F50
M106 S0
M106 S255
G1 X23.747 Y34.237 F50
M106 S0
M106 S255
G1 X23.794 Y34.318 F50
M106 S0
M106 S255
G1 X23.845 Y34.435 F50
M106 S0
M106 S255
G1 X23.862 Y34.49 F50
M106 S0
M106 S255
G1 X23.881 Y34.581 F50
M106 S0
M106 S255
G1 X23.891 Y34.674 F50
M106 S0
M106 S255
G1 X23.893 Y34.768 F50
M106 S0
M106 S255
G1 X23.888 Y34.862 F50
M106 S0
M106 S255
G1 X23.875 Y34.957 F50
M106 S0
M106 S255
G1 X23.845 Y35.092 F50
M106 S0
M106 S255
G1 X23.83 Y35.142 F50
M106 S0
M106 S255
G1 X23.799 Y35.232 F50
M106 S0
M106 S255
G1 X23.763 Y35.319 F50
M106 S0
M106 S255
G1 X23.721 Y35.403 F50
M106 S0
M106 S255
G1 X23.672 Y35.482 F50
M106 S0
M106 S255
G1 X23.618 Y35.558 F50
M106 S0
M106 S255
G1 X23.554 Y35.632 F50
M106 S0
M106 S255
G1 X23.491 Y35.694 F50
M106 S0
M106 S255
G1 X23.419 Y35.754 F50
M106 S0
M106 S255
G1 X23.342 Y35.808 F50
M106 S0
M106 S255
G1 X23.26 Y35.855 F50
M106 S0
M106 S255
G1 X23.175 Y35.896 F50
M106 S0
M106 S255
G1 X23.087 Y35.931 F50
M106 S0
M106 S255
G1 X22.993 Y35.958 F50
M106 S0
M106 S255
G1 X22.904 Y35.977 F50
M106 S0
M106 S255
G1 X22.811 Y35.989 F50
M106 S0
M106 S255
G1 X22.717 Y35.994 F50
M106 S0
M106 S255
G1 X22.624 Y35.991 F50
M106 S0
M106 S255
G1 X22.531 Y35.98 F50
M106 S0
M106 S255
G1 X22.422 Y35.958 F50
M106 S0
M106 S255
G1 X22.349 Y35.937 F50
M106 S0
M106 S255
G1 X22.261 Y35.905 F50
M106 S0
M106 S255
G1 X22.176 Y35.866 F50
M106 S0
M106 S255
G1 X22.094 Y35.82 F50
M106 S0
M106 S255
G1 X22.016 Y35.769 F50
M106 S0
M106 S255
G1 X21.964 Y35.729 F50
M106 S0
M106 S255
G1 X21.872 Y35.649 F50
M106 S0
M106 S255
G1 X21.808 Y35.581 F50
M106 S0
M106 S255
G1 X21.748 Y35.508 F50
M106 S0
M106 S255
G1 X21.695 Y35.431 F50
M106 S0
M106 S255
G1 X21.647 Y35.35 F50
M106 S0
M106 S255
G1 X21.606 Y35.265 F50
M106 S0
M106 S255
G1 X21.581 Y35.203 F50
M106 S0
M106 S255
G1 X21.545 Y35.085 F50
M106 S0
M106 S255
G1 X21.525 Y34.992 F50
M106 S0
M106 S255
G1 X21.513 Y34.897 F50
M106 S0
M106 S255
G1 X21.509 Y34.801 F50
M106 S0
M106 S255
G1 X21.512 Y34.706 F50
M106 S0
M106 S255
G1 X21.524 Y34.612 F50
M106 S0
M106 S255
G1 X21.544 Y34.52 F50
M106 S0
M106 S255
G1 X21.581 Y34.408 F50
M106 S0
M106 S255
G1 X21.61 Y34.345 F50
M106 S0
M106 S255
G1 X21.655 Y34.263 F50
M106 S0
M106 S255
G1 X21.707 Y34.185 F50
M106 S0
M106 S255
G1 X21.765 Y34.111 F50
M106 S0
M106 S255
G1 X21.83 Y34.042 F50
M106 S0
M106 S255
G1 X21.898 Y33.978 F50
M106 S0
M106 S255
G1 X21.938 Y33.945 F50
M106 S0
M106 S255
G1 X22.047 Y33.865 F50
M106 S0
M106 S255
G1 X22.125 Y33.816 F50
M106 S0
M106 S255
G1 X22.206 Y33.769 F50
M106 S0
M106 S255
G1 X22.288 Y33.725 F50
M106 S0
M106 S255
G1 X22.371 Y33.683 F50
M106 S0
M106 S255
G1 X22.454 Y33.641 F50
M106 S0
M106 S255
G1 X22.095 Y29.782 F50
M106 S0
M106 S255
G1 X20.37 Y32.606 F50
M106 S0
M106 S255
G1 X20.428 Y32.652 F50
M106 S0
M106 S255
G1 X20.485 Y32.699 F50
M106 S0
M106 S255
G1 X20.539 Y32.749 F50
M106 S0
M106 S255
G1 X20.59 Y32.803 F50
M106 S0
M106 S255
G1 X20.637 Y32.86 F50
M106 S0
M106 S255
G1 X20.68 Y32.919 F50
M106 S0
M106 S255
G1 X20.72 Y32.981 F50
M106 S0
M106 S255
G1 X20.755 Y33.045 F50
M106 S0
M106 S255
G1 X20.786 Y33.111 F50
M106 S0
M106 S255
G1 X20.812 Y33.179 F50
M106 S0
M106 S255
G1 X20.832 Y33.25 F50
M106 S0
M106 S255
G1 X20.847 Y33.321 F50
M106 S0
M106 S255
G1 X20.856 Y33.395 F50
M106 S0
M106 S255
G1 X20.86 Y33.469 F50
M106 S0
M106 S255
G1 X20.859 Y33.544 F50
M106 S0
M106 S255
G1 X20.854 Y33.619 F50
M106 S0
M106 S255
G1 X20.846 Y33.693 F50
M106 S0
M106 S255
G1 X20.835 Y33.767 F50
M106 S0
M106 S255
G1 X20.82 Y33.839 F50
M106 S0
M106 S255
G1 X20.801 Y33.911 F50
M106 S0
M106 S255
G1 X20.778 Y33.981 F50
M106 S0
M106 S255
G1 X20.751 Y34.05 F50
M106 S0
M106 S255
G1 X20.719 Y34.117 F50
M106 S0
M106 S255
G1 X20.683 Y34.183 F50
M106 S0
M106 S255
G1 X20.642 Y34.246 F50
M106 S0
M106 S255
G1 X20.598 Y34.307 F50
M106 S0
M106 S255
G1 X20.549 Y34.364 F50
M106 S0
M106 S255
G1 X20.497 Y34.418 F50
M106 S0
M106 S255
G1 X20.441 Y34.468 F50
M106 S0
M106 S255
G1 X20.381 Y34.513 F50
M106 S0
M106 S255
G1 X20.319 Y34.554 F50
M106 S0
M106 S255
G1 X20.253 Y34.59 F50
M106 S0
M106 S255
G1 X20.185 Y34.621 F50
M106 S0
M106 S255
G1 X20.115 Y34.648 F50
M106 S0
M106 S255
G1 X20.043 Y34.67 F50
M106 S0
M106 S255
G1 X19.97 Y34.687 F50
M106 S0
M106 S255
G1 X19.895 Y34.7 F50
M106 S0
M106 S255
G1 X19.82 Y34.708 F50
M106 S0
M106 S255
G1 X19.744 Y34.713 F50
M106 S0
M106 S255
G1 X19.668 Y34.712 F50
M106 S0
M106 S255
G1 X19.593 Y34.707 F50
M106 S0
M106 S255
G1 X19.518 Y34.698 F50
M106 S0
M106 S255
G1 X19.444 Y34.685 F50
M106 S0
M106 S255
G1 X19.371 Y34.666 F50
M106 S0
M106 S255
G1 X19.301 Y34.643 F50
M106 S0
M106 S255
G1 X19.232 Y34.616 F50
M106 S0
M106 S255
G1 X19.165 Y34.584 F50
M106 S0
M106 S255
G1 X19.101 Y34.546 F50
M106 S0
M106 S255
G1 X19.04 Y34.505 F50
M106 S0
M106 S255
G1 X18.981 Y34.459 F50
M106 S0
M106 S255
G1 X18.925 Y34.41 F50
M106 S0
M106 S255
G1 X18.872 Y34.358 F50
M106 S0
M106 S255
G1 X18.82 Y34.303 F50
M106 S0
M106 S255
G1 X18.771 Y34.245 F50
M106 S0
M106 S255
G1 X18.725 Y34.185 F50
M106 S0
M106 S255
G1 X18.683 Y34.123 F50
M106 S0
M106 S255
G1 X18.644 Y34.059 F50
M106 S0
M106 S255
G1 X18.611 Y33.993 F50
M106 S0
M106 S255
G1 X18.582 Y33.925 F50
M106 S0
M106 S255
G1 X18.56 Y33.854 F50
M106 S0
M106 S255
G1 X18.545 Y33.783 F50
M106 S0
M106 S255
G1 X18.535 Y33.709 F50
M106 S0
M106 S255
G1 X18.53 Y33.635 F50
M106 S0
M106 S255
G1 X18.531 Y33.56 F50
M106 S0
M106 S255
G1 X18.536 Y33.485 F50
M106 S0
M106 S255
G1 X18.545 Y33.409 F50
M106 S0
M106 S255
G1 X18.557 Y33.334 F50
M106 S0
M106 S255
G1 X18.573 Y33.26 F50
M106 S0
M106 S255
G1 X18.592 Y33.187 F50
M106 S0
M106 S255
G1 X18.614 Y33.115 F50
M106 S0
M106 S255
G1 X18.641 Y33.046 F50
M106 S0
M106 S255
G1 X18.673 Y32.98 F50
M106 S0
M106 S255
G1 X18.71 Y32.916 F50
M106 S0
M106 S255
G1 X18.754 Y32.857 F50
M106 S0
M106 S255
G1 X18.803 Y32.801 F50
M106 S0
M106 S255
G1 X18.857 Y32.749 F50
M106 S0
M106 S255
G1 X18.915 Y32.701 F50
M106 S0
M106 S255
G1 X18.976 Y32.656 F50
M106 S0
M106 S255
G1 X19.04 Y32.616 F50
M106 S0
M106 S255
G1 X19.106 Y32.58 F50
M106 S0
M106 S255
G1 X19.174 Y32.547 F50
M106 S0
M106 S255
G1 X19.242 Y32.519 F50
M106 S0
M106 S255
G1 X19.312 Y32.494 F50
M106 S0
M106 S255
G1 X19.383 Y32.471 F50
M106 S0
M106 S255
G1 X19.454 Y32.451 F50
M106 S0
M106 S255
G1 X19.526 Y32.432 F50
M106 S0
M106 S255
G1 X19.598 Y32.415 F50
M106 S0
M106 S255
G1 X19.671 Y32.399 F50
M106 S0
M106 S255
G1 X19.744 Y32.383 F50
M106 S0
M106 S255
G1 X20.463 Y28.107 F50
M106 S0
M106 S255
G1 X20.463 Y23.299 F50
M106 S0
M106 S255
G1 X20.697 Y23.277 F50
M106 S0
M106 S255
G1 X20.932 Y23.255 F50
M106 S0
M106 S255
G1 X21.166 Y23.233 F50
M106 S0
M106 S255
G1 X21.401 Y23.211 F50
M106 S0
M106 S255
G1 X21.635 Y23.188 F50
M106 S0
M106 S255
G1 X21.87 Y23.165 F50
M106 S0
M106 S255
G1 X22.104 Y23.142 F50
M106 S0
M106 S255
G1 X22.339 Y23.118 F50
M106 S0
M106 S255
G1 X22.523 Y23.099 F50
M106 S0
M106 S255
G1 X22.808 Y23.069 F50
M106 S0
M106 S255
G1 X23.042 Y23.044 F50
M106 S0
M106 S255
G1 X23.277 Y23.02 F50
M106 S0
M106 S255
G1 X23.512 Y22.997 F50
M106 S0
M106 S255
G1 X23.746 Y22.976 F50
M106 S0
M106 S255
G1 X23.981 Y22.957 F50
M106 S0
M106 S255
G1 X24.216 Y22.941 F50
M106 S0
M106 S255
G1 X24.451 Y22.928 F50
M106 S0
M106 S255
G1 X24.671 Y22.919 F50
M106 S0
M106 S255
G1 X24.922 Y22.914 F50
M106 S0
M106 S255
G1 X25.157 Y22.912 F50
M106 S0
M106 S255
G1 X25.393 Y22.913 F50
M106 S0
M106 S255
G1 X25.629 Y22.916 F50
M106 S0
M106 S255
G1 X25.864 Y22.919 F50
M106 S0
G0 X8.448 Y28.44 F6000
M106 S255
G1 X8.448 Y28.44 F50
M106 S0
M106 S255
G1 X8.525 Y28.423 F50
M106 S0
M106 S255
G1 X8.648 Y28.395 F50
M106 S0
M106 S255
G1 X8.773 Y28.368 F50
M106 S0
M106 S255
G1 X8.897 Y28.343 F50
M106 S0
M106 S255
G1 X9.021 Y28.321 F50
M106 S0
M106 S255
G1 X9.146 Y28.303 F50
M106 S0
M106 S255
G1 X9.271 Y28.29 F50
M106 S0
M106 S255
G1 X9.346 Y28.284 F50
M106 S0
M106 S255
G1 X9.522 Y28.279 F50
M106 S0
M106 S255
G1 X9.648 Y28.282 F50
M106 S0
M106 S255
G1 X9.774 Y28.291 F50
M106 S0
M106 S255
G1 X9.9 Y28.304 F50
M106 S0
M106 S255
G1 X10.026 Y28.322 F50
M106 S0
M106 S255
G1 X10.151 Y28.345 F50
M106 S0
M106 S255
G1 X10.276 Y28.372 F50
M106 S0
M106 S255
G1 X10.4 Y28.403 F50
M106 S0
M106 S255
G1 X10.513 Y28.435 F50
M106 S0
M106 S255
G1 X10.646 Y28.477 F50
M106 S0
M106 S255
G1 X10.766 Y28.519 F50
M106 S0
M106 S255
G1 X10.886 Y28.565 F50
M106 S0
M106 S255
G1 X11.004 Y28.614 F50
M106 S0
M106 S255
G1 X11.121 Y28.667 F50
M106 S0
M106 S255
G1 X11.235 Y28.723 F50
M106 S0
M106 S255
G1 X11.348 Y28.783 F50
M106 S0
M106 S255
G1 X11.459 Y28.847 F50
M106 S0
M106 S255
G1 X11.568 Y28.914 F50
M106 S0
M106 S255
G1 X11.674 Y28.984 F50
M106 S0
M106 S255
G1 X11.778 Y29.058 F50
M106 S0
M106 S255
G1 X11.879 Y29.135 F50
M106 S0
M106 S255
G1 X11.977 Y29.215 F50
M106 S0
M106 S255
G1 X12.073 Y29.299 F50
M106 S0
M106 S255
G1 X12.166 Y29.387 F50
M106 S0
M106 S255
G1 X12.217 Y29.438 F50
M106 S0
M106 S255
G1 X12.341 Y29.572 F50
M106 S0
M106 S255
G1 X12.424 Y29.669 F50
M106 S0
M106 S255
G1 X12.503 Y29.769 F50
M106 S0
M106 S255
G1 X12.579 Y29.872 F50
M106 S0
M106 S255
G1 X12.651 Y29.977 F50
M106 S0
M106 S255
G1 X12.719 Y30.085 F50
M106 S0
M106 S255
G1 X12.782 Y30.196 F50
M106 S0
M106 S255
G1 X12.842 Y30.308 F50
M106 S0
M106 S255
G1 X12.898 Y30.423 F50
M106 S0
M106 S255
G1 X12.949 Y30.539 F50
M106 S0
M106 S255
G1 X12.995 Y30.657 F50
M106 S0
M106 S255
G1 X13.035 Y30.77 F50
M106 S0
M106 S255
G1 X13.074 Y30.898 F50
M106 S0
M106 S255
G1 X13.107 Y31.02 F50
M106 S0
M106 S255
G1 X13.134 Y31.143 F50
M106 S0
M106 S255
G1 X13.158 Y31.268 F50
M106 S0
M106 S255
G1 X13.172 Y31.362 F50
M106 S0
M106 S255
G1 X13.191 Y31.519 F50
M106 S0
M106 S255
G1 X13.201 Y31.645 F50
M106 S0
M106 S255
G1 X13.205 Y31.772 F50
M106 S0
M106 S255
G1 X13.205 Y31.898 F50
M106 S0
M106 S255
G1 X13.198 Y32.025 F50
M106 S0
M106 S255
G1 X13.185 Y32.151 F50
M106 S0
M106 S255
G1 X13.172 Y32.241 F50
M106 S0
M106 S255
G1 X13.141 Y32.402 F50
M106 S0
M106 S255
G1 X13.108 Y32.525 F50
M106 S0
M106 S255
G1 X13.068 Y32.646 F50
M106 S0
M106 S255
G1 X13.02 Y32.764 F50
M106 S0
M106 S255
G1 X12.964 Y32.878 F50
M106 S0
M106 S255
G1 X12.877 Y33.023 F50
M106 S0
M106 S255
G1 X12.828 Y33.092 F50
M106 S0
M106 S255
G1 X12.747 Y33.191 F50
M106 S0
M106 S255
G1 X12.658 Y33.282 F50
M106 S0
M106 S255
G1 X12.562 Y33.366 F50
M106 S0
M106 S255
G1 X12.46 Y33.442 F50
M106 S0
M106 S255
G1 X12.368 Y33.499 F50
M106 S0
M106 S255
G1 X12.238 Y33.565 F50
M106 S0
M106 S255
G1 X12.12 Y33.612 F50
M106 S0
M106 S255
G1 X11.998 Y33.65 F50
M106 S0
M106 S255
G1 X11.874 Y33.679 F50
M106 S0
M106 S255
G1 X11.757 Y33.698 F50
M106 S0
M106 S255
G1 X11.623 Y33.71 F50
M106 S0
M106 S255
G1 X11.497 Y33.713 F50
M106 S0
M106 S255
G1 X11.37 Y33.709 F50
M106 S0
M106 S255
G1 X11.235 Y33.698 F50
M106 S0
M106 S255
G1 X11.118 Y33.681 F50
M106 S0
M106 S255
G1 X10.993 Y33.657 F50
M106 S0
M106 S255
G1 X10.871 Y33.624 F50
M106 S0
M106 S255
G1 X10.748 Y33.581 F50
M106 S0
M106 S255
G1 X10.637 Y33.531 F50
M106 S0
M106 S255
G1 X10.526 Y33.471 F50
M106 S0
M106 S255
G1 X10.419 Y33.403 F50
M106 S0
M106 S255
G1 X10.316 Y33.328 F50
M106 S0
M106 S255
G1 X10.217 Y33.247 F50
M106 S0
M106 S255
G1 X10.122 Y33.161 F50
M106 S0
M106 S255
G1 X10.006 Y33.046 F50
M106 S0
M106 S255
G1 X9.943 Y32.978 F50
M106 S0
M106 S255
G1 X9.858 Y32.883 F50
M106 S0
M106 S255
G1 X9.777 Y32.786 F50
M106 S0
M106 S255
G1 X9.7 Y32.686 F50
M106 S0
M106 S255
G1 X9.625 Y32.584 F50
M106 S0
M106 S255
G1 X9.553 Y32.48 F50
M106 S0
M106 S255
G1 X9.484 Y32.375 F50
M106 S0
M106 S255
G1 X9.436 Y32.298 F50
M106 S0
M106 S255
G1 X9.354 Y32.159 F50
M106 S0
M106 S255
G1 X9.293 Y32.049 F50
M106 S0
M106 S255
G1 X9.234 Y31.938 F50
M106 S0
M106 S255
G1 X9.177 Y31.825 F50
M106 S0
M106 S255
G1 X9.121 Y31.711 F50
M106 S0
M106 S255
G1 X9.044 Y31.543 F50
M106 S0
M106 S255
G1 X9.017 Y31.479 F50
M106 S0
M106 S255
G1 X8.967 Y31.362 F50
M106 S0
M106 S255
G1 X8.919 Y31.244 F50
M106 S0
M106 S255
G1 X8.873 Y31.125 F50
M106 S0
M106 S255
G1 X8.83 Y31.007 F50
M106 S0
M106 S255
G1 X8.789 Y30.888 F50
M106 S0
M106 S255
G1 X8.742 Y30.738 F50
M106 S0
M106 S255
G1 X8.716 Y30.651 F50
M106 S0
M106 S255
G1 X8.685 Y30.532 F50
M106 S0
M106 S255
G1 X8.655 Y30.413 F50
M106 S0
M106 S255
G1 X8.628 Y30.293 F50
M106 S0
M106 S255
G1 X8.603 Y30.171 F50
M106 S0
M106 S255
G1 X8.579 Y30.046 F50
M106 S0
M106 S255
G1 X8.557 Y29.918 F50
M106 S0
M106 S255
G1 X8.529 Y29.743 F50
M106 S0
M106 S255
G1 X8.515 Y29.65 F50
M106 S0
M106 S255
G1 X8.495 Y29.511 F50
M106 S0
M106 S255
G1 X8.476 Y29.371 F50
M106 S0
M106 S255
G1 X8.458 Y29.234 F50
M106 S0
M106 S255
G1 X8.442 Y29.103 F50
M106 S0
M106 S255
G1 X8.428 Y28.979 F50
M106 S0
M106 S255
G1 X8.417 Y28.865 F50
M106 S0
M106 S255
G1 X8.405 Y28.727 F50
M106 S0
M106 S255
G1 X8.402 Y28.68 F50
M106 S0
M106 S255
G1 X8.399 Y28.61 F50
M106 S0
M106 S255
G1 X8.399 Y28.551 F50
M106 S0
M106 S255
G1 X8.399 Y28.499 F50
M106 S0
M106 S255
G1 X8.448 Y28.44 F50
M106 S0
G0 X13.029 Y28.116 F6000
M106 S255
G1 X13.029 Y28.116 F50
M106 S0
M106 S255
G1 X13.029 Y23.308 F50
M106 S0
M106 S255
G1 X12.795 Y23.286 F50
M106 S0
M106 S255
G1 X12.56 Y23.264 F50
M106 S0
M106 S255
G1 X12.326 Y23.242 F50
M106 S0
M106 S255
G1 X12.091 Y23.22 F50
M106 S0
M106 S255
G1 X11.857 Y23.197 F50
M106 S0
M106 S255
G1 X11.622 Y23.174 F50
M106 S0
M106 S255
G1 X11.388 Y23.151 F50
M106 S0
M106 S255
G1 X11.153 Y23.127 F50
M106 S0
M106 S255
G1 X10.969 Y23.108 F50
M106 S0
M106 S255
G1 X10.684 Y23.078 F50
M106 S0
M106 S255
G1 X10.449 Y23.053 F50
M106 S0
M106 S255
G1 X10.215 Y23.029 F50
M106 S0
M106 S255
G1 X9.98 Y23.006 F50
M106 S0
M106 S255
G1 X9.746 Y22.985 F50
M106 S0
M106 S255
G1 X9.511 Y22.966 F50
M106 S0
M106 S255
G1 X9.276 Y22.95 F50
M106 S0
M106 S255
G1 X9.041 Y22.937 F50
M106 S0
M106 S255
G1 X8.821 Y22.928 F50
M106 S0
M106 S255
G1 X8.57 Y22.923 F50
M106 S0
M106 S255
G1 X8.334 Y22.921 F50
M106 S0
M106 S255
G1 X8.099 Y22.922 F50
M106 S0
M106 S255
G1 X7.863 Y22.925 F50
M106 S0
M106 S255
G1 X7.627 Y22.928 F50
M106 S0
M106 S255
G1 X7.392 Y22.925 F50
M106 S0
M106 S255
G1 X7.156 Y22.922 F50
M106 S0
M106 S255
G1 X6.92 Y22.921 F50
M106 S0
M106 S255
G1 X6.685 Y22.923 F50
M106 S0
M106 S255
G1 X6.434 Y22.928 F50
M106 S0
M106 S255
G1 X6.214 Y22.937 F50
M106 S0
M106 S255
G1 X5.979 Y22.95 F50
M106 S0
M106 S255
G1 X5.744 Y22.966 F50
M106 S0
M106 S255
G1 X5.509 Y22.985 F50
M106 S0
M106 S255
G1 X5.274 Y23.006 F50
M106 S0
M106 S255
G1 X5.04 Y23.029 F50
M106 S0
M106 S255
G1 X4.805 Y23.053 F50
M106 S0
M106 S255
G1 X4.571 Y23.078 F50
M106 S0
M106 S255
G1 X4.286 Y23.108 F50
M106 S0
M106 S255
G1 X4.102 Y23.127 F50
M106 S0
M106 S255
G1 X3.867 Y23.151 F50
M106 S0
M106 S255
G1 X3.633 Y23.174 F50
M106 S0
M106 S255
G1 X3.398 Y23.197 F50
M106 S0
M106 S255
G1 X3.164 Y23.22 F50
M106 S0
M106 S255
G1 X2.929 Y23.242 F50
M106 S0
M106 S255
G1 X2.695 Y23.264 F50
M106 S0
M106 S255
G1 X2.46 Y23.286 F50
M106 S0
M106 S255
G1 X2.226 Y23.308 F50
M106 S0
M106 S255
G1 X2.226 Y28.116 F50
M106 S0
M106 S255
G1 X2.315 Y28.123 F50
M106 S0
M106 S255
G1 X2.404 Y28.129 F50
M106 S0
M106 S255
G1 X2.493 Y28.135 F50
M106 S0
M106 S255
G1 X2.582 Y28.141 F50
M106 S0
M106 S255
G1 X2.671 Y28.147 F50
M106 S0
M106 S255
G1 X2.76 Y28.153 F50
M106 S0
M106 S255
G1 X2.849 Y28.158 F50
M106 S0
M106 S255
G1 X2.938 Y28.164 F50
M106 S0
M106 S255
G1 X3.027 Y28.169 F50
M106 S0
M106 S255
G1 X3.116 Y28.174 F50
M106 S0
M106 S255
G1 X3.205 Y28.179 F50
M106 S0
M106 S255
G1 X3.294 Y28.183 F50
M106 S0
M106 S255
G1 X3.383 Y28.187 F50
M106 S0
M106 S255
G1 X3.472 Y28.191 F50
M106 S0
M106 S255
G1 X3.561 Y28.195 F50
M106 S0
M106 S255
G1 X3.651 Y28.198 F50
M106 S0
M106 S255
G1 X3.74 Y28.201 F50
M106 S0
M106 S255
G1 X3.576 Y28.273 F50
M106 S0
M106 S255
G1 X3.414 Y28.349 F50
M106 S0
M106 S255
G1 X3.255 Y28.43 F50
M106 S0
M106 S255
G1 X3.1 Y28.516 F50
M106 S0
M106 S255
G1 X2.948 Y28.609 F50
M106 S0
M106 S255
G1 X2.801 Y28.711 F50
M106 S0
M106 S255
G1 X2.66 Y28.821 F50
M106 S0
M106 S255
G1 X2.524 Y28.939 F50
M106 S0
M106 S255
G1 X2.394 Y29.065 F50
M106 S0
M106 S255
G1 X2.271 Y29.197 F50
M106 S0
M106 S255
G1 X2.154 Y29.337 F50
M106 S0
M106 S255
G1 X2.045 Y29.482 F50
M106 S0
M106 S255
G1 X1.943 Y29.633 F50
M106 S0
M106 S255
G1 X1.848 Y29.788 F50
M106 S0
M106 S255
G1 X1.762 Y29.948 F50
M106 S0
M106 S255
G1 X1.685 Y30.111 F50
M106 S0
M106 S255
G1 X1.616 Y30.278 F50
M106 S0
M106 S255
G1 X1.557 Y30.447 F50
M106 S0
M106 S255
G1 X1.506 Y30.618 F50
M106 S0
M106 S255
G1 X1.464 Y30.792 F50
M106 S0
M106 S255
G1 X1.429 Y30.967 F50
M106 S0
M106 S255
G1 X1.401 Y31.143 F50
M106 S0
M106 S255
G1 X1.38 Y31.321 F50
M106 S0
M106 S255
G1 X1.365 Y31.5 F50
M106 S0
M106 S255
G1 X1.355 Y31.679 F50
M106 S0
M106 S255
G1 X1.351 Y31.859 F50
M106 S0
M106 S255
G1 X1.354 Y32.038 F50
M106 S0
M106 S255
G1 X1.367 Y32.216 F50
M106 S0
M106 S255
G1 X1.391 Y32.393 F50
M106 S0
M106 S255
G1 X1.427 Y32.567 F50
M106 S0
M106 S255
G1 X1.478 Y32.739 F50
M106 S0
M106 S255
G1 X1.542 Y32.907 F50
M106 S0
M106 S255
G1 X1.62 Y33.069 F50
M106 S0
M106 S255
G1 X1.711 Y33.225 F50
M106 S0
M106 S255
G1 X1.814 Y33.372 F50
M106 S0
M106 S255
G1 X1.928 Y33.51 F50
M106 S0
M106 S255
G1 X2.054 Y33.638 F50
M106 S0
M106 S255
G1 X2.19 Y33.755 F50
M106 S0
M106 S255
G1 X2.334 Y33.862 F50
M106 S0
M106 S255
G1 X2.486 Y33.958 F50
M106 S0
M106 S255
G1 X2.645 Y34.044 F50
M106 S0
M106 S255
G1 X2.808 Y34.12 F50
M106 S0
M106 S255
G1 X2.976 Y34.185 F50
M106 S0
M106 S255
G1 X3.148 Y34.239 F50
M106 S0
M106 S255
G1 X3.323 Y34.281 F50
M106 S0
M106 S255
G1 X3.5 Y34.311 F50
M106 S0
M106 S255
G1 X3.678 Y34.328 F50
M106 S0
M106 S255
G1 X3.857 Y34.331 F50
M106 S0
M106 S255
G1 X4.036 Y34.321 F50
M106 S0
M106 S255
G1 X4.213 Y34.297 F50
M106 S0
M106 S255
G1 X4.39 Y34.261 F50
M106 S0
M106 S255
G1 X4.563 Y34.213 F50
M106 S0
M106 S255
G1 X4.734 Y34.153 F50
M106 S0
M106 S255
G1 X4.901 Y34.083 F50
M106 S0
M106 S255
G1 X5.064 Y34.003 F50
M106 S0
M106 S255
G1 X5.222 Y33.913 F50
M106 S0
M106 S255
G1 X5.373 Y33.815 F50
M106 S0
M106 S255
G1 X5.519 Y33.708 F50
M106 S0
M106 S255
G1 X5.657 Y33.593 F50
M106 S0
M106 S255
G1 X5.788 Y33.47 F50
M106 S0
M106 S255
G1 X5.911 Y33.34 F50
M106 S0
M106 S255
G1 X6.026 Y33.203 F50
M106 S0
M106 S255
G1 X6.132 Y33.059 F50
M106 S0
M106 S255
G1 X6.229 Y32.91 F50
M106 S0
M106 S255
G1 X6.32 Y32.756 F50
M106 S0
M106 S255
G1 X6.323 Y32.857 F50
M106 S0
M106 S255
G1 X6.327 Y32.957 F50
M106 S0
M106 S255
G1 X6.331 Y33.057 F50
M106 S0
M106 S255
G1 X6.337 Y33.157 F50
M106 S0
M106 S255
G1 X6.344 Y33.257 F50
M106 S0
M106 S255
G1 X6.353 Y33.357 F50
M106 S0
M106 S255
G1 X6.363 Y33.457 F50
M106 S0
M106 S255
G1 X6.376 Y33.556 F50
M106 S0
M106 S255
G1 X6.39 Y33.656 F50
M106 S0
M106 S255
G1 X6.407 Y33.755 F50
M106 S0
M106 S255
G1 X6.426 Y33.854 F50
M106 S0
M106 S255
G1 X6.447 Y33.952 F50
M106 S0
M106 S255
G1 X6.47 Y34.05 F50
M106 S0
M106 S255
G1 X6.495 Y34.147 F50
M106 S0
M106 S255
G1 X6.522 Y34.244 F50
M106 S0
M106 S255
G1 X6.552 Y34.34 F50
M106 S0
M106 S255
G1 X6.583 Y34.436 F50
M106 S0
M106 S255
G1 X6.616 Y34.531 F50
M106 S0
M106 S255
G1 X6.652 Y34.624 F50
M106 S0
M106 S255
G1 X6.689 Y34.717 F50
M106 S0
M106 S255
G1 X6.729 Y34.809 F50
M106 S0
M106 S255
G1 X6.77 Y34.901 F50
M106 S0
M106 S255
G1 X6.812 Y34.992 F50
M106 S0
M106 S255
G1 X6.856 Y35.082 F50
M106 S0
M106 S255
G1 X6.901 Y35.171 F50
M106 S0
M106 S255
G1 X6.947 Y35.261 F50
M106 S0
M106 S255
G1 X6.993 Y35.35 F50
M106 S0
M106 S255
G1 X7.041 Y35.438 F50
M106 S0
M106 S255
G1 X7.088 Y35.527 F50
M106 S0
M106 S255
G1 X7.137 Y35.615 F50
M106 S0
M106 S255
G1 X7.186 Y35.703 F50
M106 S0
M106 S255
G1 X7.237 Y35.79 F50
M106 S0
M106 S255
G1 X7.289 Y35.875 F50
M106 S0
M106 S255
G1 X7.344 Y35.959 F50
M106 S0
M106 S255
G1 X7.402 Y36.04 F50
M106 S0
M106 S255
G1 X7.463 Y36.12 F50
M106 S0
M106 S255
G1 X7.527 Y36.196 F50
M106 S0
M106 S255
G1 X7.594 Y36.272 F50
M106 S0
M106 S255
G1 X7.661 Y36.272 F50
M106 S0
M106 S255
G1 X7.727 Y36.196 F50
M106 S0
M106 S255
G1 X7.792 Y36.12 F50
M106 S0
M106 S255
G1 X7.853 Y36.04 F50
M106 S0
M106 S255
G1 X7.91 Y35.959 F50
M106 S0
M106 S255
G1 X7.965 Y35.875 F50
M106 S0
M106 S255
G1 X8.018 Y35.79 F50
M106 S0
M106 S255
G1 X8.069 Y35.703 F50
M106 S0
M106 S255
G1 X8.118 Y35.615 F50
M106 S0
M106 S255
G1 X8.166 Y35.527 F50
M106 S0
M106 S255
G1 X8.214 Y35.438 F50
M106 S0
M106 S255
G1 X8.261 Y35.35 F50
M106 S0
M106 S255
G1 X8.308 Y35.261 F50
M106 S0
M106 S255
G1 X8.354 Y35.171 F50
M106 S0
M106 S255
G1 X8.399 Y35.082 F50
M106 S0
M106 S255
G1 X8.443 Y34.992 F50
M106 S0
M106 S255
G1 X8.485 Y34.901 F50
M106 S0
M106 S255
G1 X8.526 Y34.809 F50
M106 S0
M106 S255
G1 X8.565 Y34.717 F50
M106 S0
M106 S255
G1 X8.603 Y34.624 F50
M106 S0
M106 S255
G1 X8.638 Y34.531 F50
M106 S0
M106 S255
G1 X8.672 Y34.436 F50
M106 S0
M106 S255
G1 X8.703 Y34.34 F50
M106 S0
M106 S255
G1 X8.732 Y34.244 F50
M106 S0
M106 S255
G1 X8.76 Y34.147 F50
M106 S0
M106 S255
G1 X8.785 Y34.05 F50
M106 S0
M106 S255
G1 X8.808 Y33.952 F50
M106 S0
M106 S255
G1 X8.829 Y33.854 F50
M106 S0
M106 S255
G1 X8.848 Y33.755 F50
M106 S0
M106 S255
G1 X8.864 Y33.656 F50
M106 S0
M106 S255
G1 X8.879 Y33.556 F50
M106 S0
M106 S255
G1 X8.891 Y33.457 F50
M106 S0
M106 S255
G1 X8.902 Y33.357 F50
M106 S0
M106 S255
G1 X8.91 Y33.257 F50
M106 S0
M106 S255
G1 X8.918 Y33.157 F50
M106 S0
M106 S255
G1 X8.923 Y33.057 F50
M106 S0
M106 S255
G1 X8.928 Y32.957 F50
M106 S0
M106 S255
G1 X8.932 Y32.857 F50
M106 S0
M106 S255
G1 X8.935 Y32.756 F50
M106 S0
M106 S255
G1 X9.026 Y32.91 F50
M106 S0
M106 S255
G1 X9.123 Y33.059 F50
M106 S0
M106 S255
G1 X9.229 Y33.203 F50
M106 S0
M106 S255
G1 X9.343 Y33.34 F50
M106 S0
M106 S255
G1 X9.466 Y33.47 F50
M106 S0
M106 S255
G1 X9.597 Y33.593 F50
M106 S0
M106 S255
G1 X9.736 Y33.708 F50
M106 S0
M106 S255
G1 X9.881 Y33.815 F50
M106 S0
M106 S255
G1 X10.033 Y33.913 F50
M106 S0
M106 S255
G1 X10.19 Y34.003 F50
M106 S0
M106 S255
G1 X10.353 Y34.083 F50
M106 S0
M106 S255
G1 X10.52 Y34.153 F50
M106 S0
M106 S255
G1 X10.691 Y34.213 F50
M106 S0
M106 S255
G1 X10.865 Y34.261 F50
M106 S0
M106 S255
G1 X11.041 Y34.297 F50
M106 S0
M106 S255
G1 X11.219 Y34.321 F50
M106 S0
M106 S255
G1 X11.398 Y34.331 F50
M106 S0
M106 S255
G1 X11.577 Y34.328 F50
M106 S0
M106 S255
G1 X11.755 Y34.311 F50
M106 S0
M106 S255
G1 X11.932 Y34.281 F50
M106 S0
M106 S255
G1 X12.106 Y34.239 F50
M106 S0
M106 S255
G1 X12.278 Y34.185 F50
M106 S0
M106 S255
G1 X12.446 Y34.12 F50
M106 S0
M106 S255
G1 X12.61 Y34.044 F50
M106 S0
M106 S255
G1 X12.769 Y33.958 F50
M106 S0
M106 S255
G1 X12.921 Y33.862 F50
M106 S0
M106 S255
G1 X13.065 Y33.755 F50
M106 S0
M106 S255
G1 X13.2 Y33.638 F50
M106 S0
M106 S255
G1 X13.326 Y33.51 F50
M106 S0
M106 S255
G1 X13.441 Y33.372 F50
M106 S0
M106 S255
G1 X13.544 Y33.225 F50
M106 S0
M106 S255
G1 X13.635 Y33.069 F50
M106 S0
M106 S255
G1 X13.712 Y32.907 F50
M106 S0
M106 S255
G1 X13.777 Y32.739 F50
M106 S0
M106 S255
G1 X13.827 Y32.567 F50
M106 S0
M106 S255
G1 X13.864 Y32.393 F50
M106 S0
M106 S255
G1 X13.888 Y32.216 F50
M106 S0
M106 S255
G1 X13.9 Y32.038 F50
M106 S0
M106 S255
G1 X13.904 Y31.859 F50
M106 S0
M106 S255
G1 X13.9 Y31.679 F50
M106 S0
M106 S255
G1 X13.89 Y31.5 F50
M106 S0
M106 S255
G1 X13.875 Y31.321 F50
M106 S0
M106 S255
G1 X13.854 Y31.143 F50
M106 S0
M106 S255
G1 X13.826 Y30.967 F50
M106 S0
M106 S255
G1 X13.791 Y30.792 F50
M106 S0
M106 S255
G1 X13.749 Y30.618 F50
M106 S0
M106 S255
G1 X13.698 Y30.447 F50
M106 S0
M106 S255
G1 X13.639 Y30.278 F50
M106 S0
M106 S255
G1 X13.57 Y30.111 F50
M106 S0
M106 S255
G1 X13.492 Y29.948 F50
M106 S0
M106 S255
G1 X13.406 Y29.788 F50
M106 S0
M106 S255
G1 X13.312 Y29.633 F50
M106 S0
M106 S255
G1 X13.21 Y29.482 F50
M106 S0
M106 S255
G1 X13.101 Y29.337 F50
M106 S0
M106 S255
G1 X12.984 Y29.197 F50
M106 S0
M106 S255
G1 X12.86 Y29.065 F50
M106 S0
M106 S255
G1 X12.731 Y28.939 F50
M106 S0
M106 S255
G1 X12.595 Y28.821 F50
M106 S0
M106 S255
G1 X12.453 Y28.711 F50
M106 S0
M106 S255
G1 X12.306 Y28.609 F50
M106 S0
M106 S255
G1 X12.155 Y28.516 F50
M106 S0
M106 S255
G1 X11.999 Y28.43 F50
M106 S0
M106 S255
G1 X11.84 Y28.349 F50
M106 S0
M106 S255
G1 X11.679 Y28.273 F50
M106 S0
M106 S255
G1 X11.515 Y28.201 F50
M106 S0
M106 S255
G1 X11.604 Y28.198 F50
M106 S0
M106 S255
G1 X11.693 Y28.195 F50
M106 S0
M106 S255
G1 X11.782 Y28.191 F50
M106 S0
M106 S255
G1 X11.871 Y28.187 F50
M106 S0
M106 S255
G1 X11.96 Y28.183 F50
M106 S0
M106 S255
G1 X12.05 Y28.179 F50
M106 S0
M106 S255
G1 X12.139 Y28.174 F50
M106 S0
M106 S255
G1 X12.228 Y28.169 F50
M106 S0
M106 S255
G1 X12.317 Y28.164 F50
M106 S0
M106 S255
G1 X12.406 Y28.158 F50
M106 S0
M106 S255
G1 X12.495 Y28.153 F50
M106 S0
M106 S255
G1 X12.584 Y28.147 F50
M106 S0
M106 S255
G1 X12.673 Y28.141 F50
M106 S0
M106 S255
G1 X12.762 Y28.135 F50
M106 S0
M106 S255
G1 X12.851 Y28.129 F50
M106 S0
M106 S255
G1 X12.94 Y28.123 F50
M106 S0
M106 S255
G1 X13.029 Y28.116 F50
M106 S0
G0 X7.627 Y24.756 F6000
M106 S255
G1 X7.627 Y24.756 F50
M106 S0
M106 S255
G1 X2.931 Y24.756 F50
M106 S0
M106 S255
G1 X2.931 Y23.921 F50
M106 S0
M106 S255
G1 X3.135 Y23.9 F50
M106 S0
M106 S255
G1 X3.338 Y23.878 F50
M106 S0
M106 S255
G1 X3.542 Y23.857 F50
M106 S0
M106 S255
G1 X3.745 Y23.835 F50
M106 S0
M106 S255
G1 X3.949 Y23.814 F50
M106 S0
M106 S255
G1 X4.153 Y23.792 F50
M106 S0
M106 S255
G1 X4.357 Y23.771 F50
M106 S0
M106 S255
G1 X4.56 Y23.75 F50
M106 S0
M106 S255
G1 X4.764 Y23.729 F50
M106 S0
M106 S255
G1 X4.968 Y23.71 F50
M106 S0
M106 S255
G1 X5.172 Y23.692 F50
M106 S0
M106 S255
G1 X5.376 Y23.676 F50
M106 S0
M106 S255
G1 X5.581 Y23.662 F50
M106 S0
M106 S255
G1 X5.785 Y23.65 F50
M106 S0
M106 S255
G1 X5.989 Y23.642 F50
M106 S0
M106 S255
G1 X6.194 Y23.636 F50
M106 S0
M106 S255
G1 X6.398 Y23.632 F50
M106 S0
M106 S255
G1 X6.603 Y23.631 F50
M106 S0
M106 S255
G1 X6.808 Y23.632 F50
M106 S0
M106 S255
G1 X7.013 Y23.634 F50
M106 S0
M106 S255
G1 X7.218 Y23.637 F50
M106 S0
M106 S255
G1 X7.422 Y23.641 F50
M106 S0
M106 S255
G1 X7.627 Y23.645 F50
M106 S0
M106 S255
G1 X7.832 Y23.641 F50
M106 S0
M106 S255
G1 X8.037 Y23.637 F50
M106 S0
M106 S255
G1 X8.242 Y23.634 F50
M106 S0
M106 S255
G1 X8.447 Y23.632 F50
M106 S0
M106 S255
G1 X8.652 Y23.631 F50
M106 S0
M106 S255
G1 X8.856 Y23.632 F50
M106 S0
M106 S255
G1 X9.061 Y23.636 F50
M106 S0
M106 S255
G1 X9.265 Y23.642 F50
M106 S0
M106 S255
G1 X9.47 Y23.65 F50
M106 S0
M106 S255
G1 X9.674 Y23.662 F50
M106 S0
M106 S255
G1 X9.878 Y23.676 F50
M106 S0
M106 S255
G1 X10.082 Y23.692 F50
M106 S0
M106 S255
G1 X10.286 Y23.71 F50
M106 S0
M106 S255
G1 X10.49 Y23.729 F50
M106 S0
M106 S255
G1 X10.694 Y23.75 F50
M106 S0
M106 S255
G1 X10.898 Y23.771 F50
M106 S0
M106 S255
G1 X11.102 Y23.792 F50
M106 S0
M106 S255
G1 X11.306 Y23.814 F50
M106 S0
M106 S255
G1 X11.509 Y23.835 F50
M106 S0
M106 S255
G1 X11.713 Y23.857 F50
M106 S0
M106 S255
G1 X11.916 Y23.878 F50
M106 S0
M106 S255
G1 X12.12 Y23.9 F50
M106 S0
M106 S255
G1 X12.324 Y23.921 F50
M106 S0
M106 S255
G1 X12.324 Y24.756 F50
M106 S0
M106 S255
G1 X7.627 Y24.756 F50
M106 S0
G0 X7.627 Y26.601 F6000
M106 S255
G1 X7.627 Y26.601 F50
M106 S0
M106 S255
G1 X12.324 Y26.601 F50
M106 S0
M106 S255
G1 X12.324 Y27.557 F50
M106 S0
M106 S255
G1 X12.047 Y27.565 F50
M106 S0
M106 S255
G1 X11.771 Y27.574 F50
M106 S0
M106 S255
G1 X11.495 Y27.583 F50
M106 S0
M106 S255
G1 X11.219 Y27.592 F50
M106 S0
M106 S255
G1 X10.942 Y27.6 F50
M106 S0
M106 S255
G1 X10.666 Y27.609 F50
M106 S0
M106 S255
G1 X10.39 Y27.617 F50
M106 S0
M106 S255
G1 X10.114 Y27.626 F50
M106 S0
M106 S255
G1 X9.837 Y27.634 F50
M106 S0
M106 S255
G1 X9.561 Y27.642 F50
M106 S0
M106 S255
G1 X9.285 Y27.65 F50
M106 S0
M106 S255
G1 X9.009 Y27.659 F50
M106 S0
M106 S255
G1 X8.732 Y27.667 F50
M106 S0
M106 S255
G1 X8.456 Y27.675 F50
M106 S0
M106 S255
G1 X8.18 Y27.682 F50
M106 S0
M106 S255
G1 X7.904 Y27.69 F50
M106 S0
M106 S255
G1 X7.627 Y27.698 F50
M106 S0
M106 S255
G1 X7.351 Y27.69 F50
M106 S0
M106 S255
G1 X7.075 Y27.682 F50
M106 S0
M106 S255
G1 X6.799 Y27.675 F50
M106 S0
M106 S255
G1 X6.522 Y27.667 F50
M106 S0
M106 S255
G1 X6.246 Y27.659 F50
M106 S0
M106 S255
G1 X5.97 Y27.65 F50
M106 S0
M106 S255
G1 X5.694 Y27.642 F50
M106 S0
M106 S255
G1 X5.417 Y27.634 F50
M106 S0
M106 S255
G1 X5.141 Y27.626 F50
M106 S0
M106 S255
G1 X4.865 Y27.617 F50
M106 S0
M106 S255
G1 X4.589 Y27.609 F50
M106 S0
M106 S255
G1 X4.312 Y27.6 F50
M106 S0
M106 S255
G1 X4.036 Y27.592 F50
M106 S0
M106 S255
G1 X3.76 Y27.583 F50
M106 S0
M106 S255
G1 X3.484 Y27.574 F50
M106 S0
M106 S255
G1 X3.207 Y27.565 F50
M106 S0
M106 S255
G1 X2.931 Y27.557 F50
M106 S0
M106 S255
G1 X2.931 Y26.601 F50
M106 S0
M106 S255
G1 X7.627 Y26.601 F50
M106 S0
G0 X7.627 Y28.814 F6000
M106 S255
G1 X7.627 Y28.814 F50
M106 S0
M106 S255
G1 X7.659 Y28.924 F50
M106 S0
M106 S255
G1 X7.688 Y29.034 F50
M106 S0
M106 S255
G1 X7.715 Y29.145 F50
M106 S0
M106 S255
G1 X7.74 Y29.257 F50
M106 S0
M106 S255
G1 X7.763 Y29.369 F50
M106 S0
M106 S255
G1 X7.785 Y29.481 F50
M106 S0
M106 S255
G1 X7.805 Y29.594 F50
M106 S0
M106 S255
G1 X7.825 Y29.707 F50
M106 S0
M106 S255
G1 X7.845 Y29.819 F50
M106 S0
M106 S255
G1 X7.864 Y29.932 F50
M106 S0
M106 S255
G1 X7.885 Y30.045 F50
M106 S0
M106 S255
G1 X7.906 Y30.158 F50
M106 S0
M106 S255
G1 X7.928 Y30.27 F50
M106 S0
M106 S255
G1 X7.951 Y30.382 F50
M106 S0
M106 S255
G1 X7.974 Y30.494 F50
M106 S0
M106 S255
G1 X7.998 Y30.606 F50
M106 S0
M106 S255
G1 X8.021 Y30.718 F50
M106 S0
M106 S255
G1 X8.045 Y30.83 F50
M106 S0
M106 S255
G1 X8.067 Y30.942 F50
M106 S0
M106 S255
G1 X8.09 Y31.054 F50
M106 S0
M106 S255
G1 X8.111 Y31.167 F50
M106 S0
M106 S255
G1 X8.131 Y31.279 F50
M106 S0
M106 S255
G1 X8.15 Y31.392 F50
M106 S0
M106 S255
G1 X8.168 Y31.505 F50
M106 S0
M106 S255
G1 X8.185 Y31.618 F50
M106 S0
M106 S255
G1 X8.2 Y31.732 F50
M106 S0
M106 S255
G1 X8.214 Y31.846 F50
M106 S0
M106 S255
G1 X8.226 Y31.96 F50
M106 S0
M106 S255
G1 X8.236 Y32.074 F50
M106 S0
M106 S255
G1 X8.245 Y32.189 F50
M106 S0
M106 S255
G1 X8.252 Y32.304 F50
M106 S0
M106 S255
G1 X8.257 Y32.419 F50
M106 S0
M106 S255
G1 X8.26 Y32.534 F50
M106 S0
M106 S255
G1 X8.261 Y32.648 F50
M106 S0
M106 S255
G1 X8.259 Y32.763 F50
M106 S0
M106 S255
G1 X8.255 Y32.878 F50
M106 S0
M106 S255
G1 X8.249 Y32.992 F50
M106 S0
M106 S255
G1 X8.24 Y33.106 F50
M106 S0
M106 S255
G1 X8.228 Y33.22 F50
M106 S0
M106 S255
G1 X8.214 Y33.333 F50
M106 S0
M106 S255
G1 X8.197 Y33.446 F50
M106 S0
M106 S255
G1 X8.178 Y33.558 F50
M106 S0
M106 S255
G1 X8.156 Y33.67 F50
M106 S0
M106 S255
G1 X8.134 Y33.783 F50
M106 S0
M106 S255
G1 X8.11 Y33.895 F50
M106 S0
M106 S255
G1 X8.086 Y34.008 F50
M106 S0
M106 S255
G1 X8.062 Y34.121 F50
M106 S0
M106 S255
G1 X8.035 Y34.234 F50
M106 S0
M106 S255
G1 X8.006 Y34.346 F50
M106 S0
M106 S255
G1 X7.973 Y34.456 F50
M106 S0
M106 S255
G1 X7.936 Y34.564 F50
M106 S0
M106 S255
G1 X7.893 Y34.67 F50
M106 S0
M106 S255
G1 X7.845 Y34.773 F50
M106 S0
M106 S255
G1 X7.79 Y34.872 F50
M106 S0
M106 S255
G1 X7.728 Y34.968 F50
M106 S0
M106 S255
G1 X7.662 Y35.061 F50
M106 S0
M106 S255
G1 X7.593 Y35.061 F50
M106 S0
M106 S255
G1 X7.526 Y34.968 F50
M106 S0
M106 S255
G1 X7.465 Y34.872 F50
M106 S0
M106 S255
G1 X7.41 Y34.773 F50
M106 S0
M106 S255
G1 X7.361 Y34.67 F50
M106 S0
M106 S255
G1 X7.319 Y34.564 F50
M106 S0
M106 S255
G1 X7.282 Y34.456 F50
M106 S0
M106 S255
G1 X7.249 Y34.346 F50
M106 S0
M106 S255
G1 X7.22 Y34.234 F50
M106 S0
M106 S255
G1 X7.193 Y34.121 F50
M106 S0
M106 S255
G1 X7.168 Y34.008 F50
M106 S0
M106 S255
G1 X7.144 Y33.895 F50
M106 S0
M106 S255
G1 X7.121 Y33.783 F50
M106 S0
M106 S255
G1 X7.098 Y33.67 F50
M106 S0
M106 S255
G1 X7.077 Y33.558 F50
M106 S0
M106 S255
G1 X7.058 Y33.446 F50
M106 S0
M106 S255
G1 X7.041 Y33.333 F50
M106 S0
M106 S255
G1 X7.026 Y33.22 F50
M106 S0
M106 S255
G1 X7.015 Y33.106 F50
M106 S0
M106 S255
G1 X7.006 Y32.992 F50
M106 S0
M106 S255
G1 X6.999 Y32.878 F50
M106 S0
M106 S255
G1 X6.996 Y32.763 F50
M106 S0
M106 S255
G1 X6.994 Y32.648 F50
M106 S0
M106 S255
G1 X6.995 Y32.534 F50
M106 S0
M106 S255
G1 X6.998 Y32.419 F50
M106 S0
M106 S255
G1 X7.003 Y32.304 F50
M106 S0
M106 S255
G1 X7.009 Y32.189 F50
M106 S0
M106 S255
G1 X7.018 Y32.074 F50
M106 S0
M106 S255
G1 X7.029 Y31.96 F50
M106 S0
M106 S255
G1 X7.041 Y31.846 F50
M106 S0
M106 S255
G1 X7.055 Y31.732 F50
M106 S0
M106 S255
G1 X7.07 Y31.618 F50
M106 S0
M106 S255
G1 X7.087 Y31.505 F50
M106 S0
M106 S255
G1 X7.105 Y31.392 F50
M106 S0
M106 S255
G1 X7.124 Y31.279 F50
M106 S0
M106 S255
G1 X7.144 Y31.167 F50
M106 S0
M106 S255
G1 X7.165 Y31.054 F50
M106 S0
M106 S255
G1 X7.187 Y30.942 F50
M106 S0
M106 S255
G1 X7.21 Y30.83 F50
M106 S0
M106 S255
G1 X7.233 Y30.718 F50
M106 S0
M106 S255
G1 X7.257 Y30.606 F50
M106 S0
M106 S255
G1 X7.281 Y30.494 F50
M106 S0
M106 S255
G1 X7.304 Y30.382 F50
M106 S0
M106 S255
G1 X7.327 Y30.27 F50
M106 S0
M106 S255
G1 X7.349 Y30.158 F50
M106 S0
M106 S255
G1 X7.37 Y30.045 F50
M106 S0
M106 S255
G1 X7.39 Y29.932 F50
M106 S0
M106 S255
G1 X7.41 Y29.819 F50
M106 S0
M106 S255
G1 X7.43 Y29.707 F50
M106 S0
M106 S255
G1 X7.449 Y29.594 F50
M106 S0
M106 S255
G1 X7.47 Y29.481 F50
M106 S0
M106 S255
G1 X7.492 Y29.369 F50
M106 S0
M106 S255
G1 X7.515 Y29.257 F50
M106 S0
M106 S255
G1 X7.54 Y29.145 F50
M106 S0
M106 S255
G1 X7.567 Y29.034 F50
M106 S0
M106 S255
G1 X7.596 Y28.924 F50
M106 S0
M106 S255
G1 X7.627 Y28.814 F50
M106 S0
G0 X6.806 Y28.44 F6000
M106 S255
G1 X6.806 Y28.44 F50
M106 S0
M106 S255
G1 X6.73 Y28.423 F50
M106 S0
M106 S255
G1 X6.606 Y28.395 F50
M106 S0
M106 S255
G1 X6.482 Y28.368 F50
M106 S0
M106 S255
G1 X6.358 Y28.343 F50
M106 S0
M106 S255
G1 X6.234 Y28.321 F50
M106 S0
M106 S255
G1 X6.109 Y28.303 F50
M106 S0
M106 S255
G1 X5.984 Y28.29 F50
M106 S0
M106 S255
G1 X5.909 Y28.284 F50
M106 S0
M106 S255
G1 X5.732 Y28.279 F50
M106 S0
M106 S255
G1 X5.606 Y28.282 F50
M106 S0
M106 S255
G1 X5.48 Y28.291 F50
M106 S0
M106 S255
G1 X5.354 Y28.304 F50
M106 S0
M106 S255
G1 X5.229 Y28.322 F50
M106 S0
M106 S255
G1 X5.103 Y28.345 F50
M106 S0
M106 S255
G1 X4.978 Y28.372 F50
M106 S0
M106 S255
G1 X4.854 Y28.403 F50
M106 S0
M106 S255
G1 X4.742 Y28.435 F50
M106 S0
M106 S255
G1 X4.609 Y28.477 F50
M106 S0
M106 S255
G1 X4.488 Y28.519 F50
M106 S0
M106 S255
G1 X4.369 Y28.565 F50
M106 S0
M106 S255
G1 X4.251 Y28.614 F50
M106 S0
M106 S255
G1 X4.134 Y28.667 F50
M106 S0
M106 S255
G1 X4.019 Y28.723 F50
M106 S0
M106 S255
G1 X3.907 Y28.783 F50
M106 S0
M106 S255
G1 X3.796 Y28.847 F50
M106 S0
M106 S255
G1 X3.687 Y28.914 F50
M106 S0
M106 S255
G1 X3.581 Y28.984 F50
M106 S0
M106 S255
G1 X3.477 Y29.058 F50
M106 S0
M106 S255
G1 X3.376 Y29.135 F50
M106 S0
M106 S255
G1 X3.277 Y29.215 F50
M106 S0
M106 S255
G1 X3.182 Y29.299 F50
M106 S0
M106 S255
G1 X3.089 Y29.387 F50
M106 S0
M106 S255
G1 X3.037 Y29.438 F50
M106 S0
M106 S255
G1 X2.913 Y29.572 F50
M106 S0
M106 S255
G1 X2.831 Y29.669 F50
M106 S0
M106 S255
G1 X2.751 Y29.769 F50
M106 S0
M106 S255
G1 X2.676 Y29.872 F50
M106 S0
M106 S255
G1 X2.604 Y29.977 F50
M106 S0
M106 S255
G1 X2.536 Y30.085 F50
M106 S0
M106 S255
G1 X2.472 Y30.196 F50
M106 S0
M106 S255
G1 X2.413 Y30.308 F50
M106 S0
M106 S255
G1 X2.357 Y30.423 F50
M106 S0
M106 S255
G1 X2.306 Y30.539 F50
M106 S0
M106 S255
G1 X2.26 Y30.657 F50
M106 S0
M106 S255
G1 X2.22 Y30.77 F50
M106 S0
M106 S255
G1 X2.181 Y30.898 F50
M106 S0
M106 S255
G1 X2.148 Y31.02 F50
M106 S0
M106 S255
G1 X2.12 Y31.143 F50
M106 S0
M106 S255
G1 X2.097 Y31.268 F50
M106 S0
M106 S255
G1 X2.082 Y31.362 F50
M106 S0
M106 S255
G1 X2.064 Y31.519 F50
M106 S0
M106 S255
G1 X2.054 Y31.645 F50
M106 S0
M106 S255
G1 X2.049 Y31.772 F50
M106 S0
M106 S255
G1 X2.05 Y31.898 F50
M106 S0
M106 S255
G1 X2.057 Y32.025 F50
M106 S0
M106 S255
G1 X2.069 Y32.151 F50
M106 S0
M106 S255
G1 X2.082 Y32.241 F50
M106 S0
M106 S255
G1 X2.114 Y32.402 F50
M106 S0
M106 S255
G1 X2.147 Y32.525 F50
M106 S0
M106 S255
G1 X2.187 Y32.646 F50
M106 S0
M106 S255
G1 X2.235 Y32.764 F50
M106 S0
M106 S255
G1 X2.29 Y32.878 F50
M106 S0
M106 S255
G1 X2.378 Y33.023 F50
M106 S0
M106 S255
G1 X2.427 Y33.092 F50
M106 S0
M106 S255
G1 X2.508 Y33.191 F50
M106 S0
M106 S255
G1 X2.597 Y33.282 F50
M106 S0
M106 S255
G1 X2.693 Y33.366 F50
M106 S0
M106 S255
G1 X2.795 Y33.442 F50
M106 S0
M106 S255
G1 X2.886 Y33.499 F50
M106 S0
M106 S255
G1 X3.017 Y33.565 F50
M106 S0
M106 S255
G1 X3.135 Y33.612 F50
M106 S0
M106 S255
G1 X3.256 Y33.65 F50
M106 S0
M106 S255
G1 X3.38 Y33.679 F50
M106 S0
M106 S255
G1 X3.497 Y33.698 F50
M106 S0
M106 S255
G1 X3.632 Y33.71 F50
M106 S0
M106 S255
G1 X3.758 Y33.713 F50
M106 S0
M106 S255
G1 X3.885 Y33.709 F50
M106 S0
M106 S255
G1 X4.019 Y33.698 F50
M106 S0
M106 S255
G1 X4.137 Y33.681 F50
M106 S0
M106 S255
G1 X4.261 Y33.657 F50
M106 S0
M106 S255
G1 X4.384 Y33.624 F50
M106 S0
M106 S255
G1 X4.507 Y33.581 F50
M106 S0
M106 S255
G1 X4.618 Y33.531 F50
M106 S0
M106 S255
G1 X4.729 Y33.471 F50
M106 S0
M106 S255
G1 X4.835 Y33.403 F50
M106 S0
M106 S255
G1 X4.938 Y33.328 F50
M106 S0
M106 S255
G1 X5.037 Y33.247 F50
M106 S0
M106 S255
G1 X5.132 Y33.161 F50
M106 S0
M106 S255
G1 X5.249 Y33.046 F50
M106 S0
M106 S255
G1 X5.312 Y32.978 F50
M106 S0
M106 S255
G1 X5.396 Y32.883 F50
M106 S0
M106 S255
G1 X5.477 Y32.786 F50
M106 S0
M106 S255
G1 X5.555 Y32.686 F50
M106 S0
M106 S255
G1 X5.63 Y32.584 F50
M106 S0
M106 S255
G1 X5.702 Y32.48 F50
M106 S0
M106 S255
G1 X5.77 Y32.375 F50
M106 S0
M106 S255
G1 X5.819 Y32.298 F50
M106 S0
M106 S255
G1 X5.901 Y32.159 F50
M106 S0
M106 S255
G1 X5.962 Y32.049 F50
M106 S0
M106 S255
G1 X6.021 Y31.938 F50
M106 S0
M106 S255
G1 X6.078 Y31.825 F50
M106 S0
M106 S255
G1 X6.133 Y31.711 F50
M106 S0
M106 S255
G1 X6.21 Y31.543 F50
M106 S0
M106 S255
G1 X6.238 Y31.479 F50
M106 S0
M106 S255
G1 X6.288 Y31.362 F50
M106 S0
M106 S255
G1 X6.336 Y31.244 F50
M106 S0
M106 S255
G1 X6.382 Y31.125 F50
M106 S0
M106 S255
G1 X6.425 Y31.007 F50
M106 S0
M106 S255
G1 X6.466 Y30.888 F50
M106 S0
M106 S255
G1 X6.513 Y30.738 F50
M106 S0
M106 S255
G1 X6.538 Y30.651 F50
M106 S0
M106 S255
G1 X6.57 Y30.532 F50
M106 S0
M106 S255
G1 X6.599 Y30.413 F50
M106 S0
M106 S255
G1 X6.626 Y30.293 F50
M106 S0
M106 S255
G1 X6.652 Y30.171 F50
M106 S0
M106 S255
G1 X6.675 Y30.046 F50
M106 S0
M106 S255
G1 X6.698 Y29.918 F50
M106 S0
M106 S255
G1 X6.726 Y29.743 F50
M106 S0
M106 S255
G1 X6.74 Y29.65 F50
M106 S0
M106 S255
G1 X6.76 Y29.511 F50
M106 S0
M106 S255
G1 X6.779 Y29.371 F50
M106 S0
M106 S255
G1 X6.797 Y29.234 F50
M106 S0
M106 S255
G1 X6.813 Y29.103 F50
M106 S0
M106 S255
G1 X6.826 Y28.979 F50
M106 S0
M106 S255
G1 X6.838 Y28.865 F50
M106 S0
M106 S255
G1 X6.849 Y28.727 F50
M106 S0
M106 S255
G1 X6.852 Y28.68 F50
M106 S0
M106 S255
G1 X6.855 Y28.61 F50
M106 S0
M106 S255
G1 X6.856 Y28.551 F50
M106 S0
M106 S255
G1 X6.855 Y28.499 F50
M106 S0
M106 S255
G1 X6.806 Y28.44 F50
M106 S0
G0 X8.3 Y3.508 F6000
M106 S255
G1 X8.3 Y3.508 F50
M106 S0
M106 S255
G1 X8.295 Y3.508 F50
M106 S0
M106 S255
G1 X8.29 Y3.508 F50
M106 S0
M106 S255
G1 X8.285 Y3.507 F50
M106 S0
M106 S255
G1 X8.28 Y3.507 F50
M106 S0
M106 S255
G1 X8.275 Y3.507 F50
M106 S0
M106 S255
G1 X8.27 Y3.507 F50
M106 S0
M106 S255
G1 X8.265 Y3.507 F50
M106 S0
M106 S255
G1 X8.26 Y3.507 F50
M106 S0
M106 S255
G1 X8.255 Y3.507 F50
M106 S0
M106 S255
G1 X8.251 Y3.507 F50
M106 S0
M106 S255
G1 X8.246 Y3.507 F50
M106 S0
M106 S255
G1 X8.241 Y3.507 F50
M106 S0
M106 S255
G1 X8.236 Y3.507 F50
M106 S0
M106 S255
G1 X8.231 Y3.507 F50
M106 S0
M106 S255
G1 X8.226 Y3.507 F50
M106 S0
M106 S255
G1 X8.221 Y3.507 F50
M106 S0
M106 S255
G1 X8.216 Y3.507 F50
M106 S0
M106 S255
G1 X8.211 Y3.507 F50
M106 S0
M106 S255
G1 X8.206 Y3.507 F50
M106 S0
M106 S255
G1 X8.202 Y3.508 F50
M106 S0
M106 S255
G1 X8.197 Y3.508 F50
M106 S0
M106 S255
G1 X8.192 Y3.508 F50
M106 S0
M106 S255
G1 X7.987 Y3.504 F50
M106 S0
M106 S255
G1 X7.782 Y3.5 F50
M106 S0
M106 S255
G1 X7.577 Y3.497 F50
M106 S0
M106 S255
G1 X7.372 Y3.495 F50
M106 S0
M106 S255
G1 X7.167 Y3.494 F50
M106 S0
M106 S255
G1 X6.963 Y3.495 F50
M106 S0
M106 S255
G1 X6.758 Y3.499 F50
M106 S0
M106 S255
G1 X6.554 Y3.505 F50
M106 S0
M106 S255
G1 X6.349 Y3.513 F50
M106 S0
M106 S255
G1 X6.145 Y3.525 F50
M106 S0
M106 S255
G1 X5.941 Y3.539 F50
M106 S0
M106 S255
G1 X5.737 Y3.555 F50
M106 S0
M106 S255
G1 X5.533 Y3.573 F50
M106 S0
M106 S255
G1 X5.329 Y3.592 F50
M106 S0
M106 S255
G1 X5.125 Y3.613 F50
M106 S0
M106 S255
G1 X4.921 Y3.634 F50
M106 S0
M106 S255
G1 X4.717 Y3.655 F50
M106 S0
M106 S255
G1 X4.513 Y3.677 F50
M106 S0
M106 S255
G1 X4.31 Y3.698 F50
M106 S0
M106 S255
G1 X4.106 Y3.72 F50
M106 S0
M106 S255
G1 X3.903 Y3.741 F50
M106 S0
M106 S255
G1 X3.699 Y3.763 F50
M106 S0
M106 S255
G1 X3.495 Y3.784 F50
M106 S0
M106 S255
G1 X3.495 Y4.619 F50
M106 S0
M106 S255
G1 X8.192 Y4.619 F50
M106 S0
M106 S255
G1 X8.246 Y4.619 F50
M106 S0
M106 S255
G1 X8.3 Y4.619 F50
M106 S0
M106 S255
G1 X12.996 Y4.619 F50
M106 S0
M106 S255
G1 X12.996 Y3.784 F50
M106 S0
M106 S255
G1 X12.792 Y3.763 F50
M106 S0
M106 S255
G1 X12.589 Y3.741 F50
M106 S0
M106 S255
G1 X12.385 Y3.72 F50
M106 S0
M106 S255
G1 X12.181 Y3.698 F50
M106 S0
M106 S255
G1 X11.978 Y3.677 F50
M106 S0
M106 S255
G1 X11.774 Y3.655 F50
M106 S0
M106 S255
G1 X11.57 Y3.634 F50
M106 S0
M106 S255
G1 X11.367 Y3.613 F50
M106 S0
M106 S255
G1 X11.163 Y3.592 F50
M106 S0
M106 S255
G1 X10.959 Y3.573 F50
M106 S0
M106 S255
G1 X10.755 Y3.555 F50
M106 S0
M106 S255
G1 X10.551 Y3.539 F50
M106 S0
M106 S255
G1 X10.346 Y3.525 F50
M106 S0
M106 S255
G1 X10.142 Y3.513 F50
M106 S0
M106 S255
G1 X9.938 Y3.505 F50
M106 S0
M106 S255
G1 X9.733 Y3.499 F50
M106 S0
M106 S255
G1 X9.529 Y3.495 F50
M106 S0
M106 S255
G1 X9.324 Y3.494 F50
M106 S0
M106 S255
G1 X9.119 Y3.495 F50
M106 S0
M106 S255
G1 X8.914 Y3.497 F50
M106 S0
M106 S255
G1 X8.709 Y3.5 F50
M106 S0
M106 S255
G1 X8.504 Y3.504 F50
M106 S0
M106 S255
G1 X8.3 Y3.508 F50
M106 S0
G0 X8.246 Y7.56 F6000
M106 S255
G1 X8.246 Y7.56 F50
M106 S0
M106 S255
G1 X8.241 Y7.56 F50
M106 S0
M106 S255
G1 X8.236 Y7.56 F50
M106 S0
M106 S255
G1 X8.231 Y7.56 F50
M106 S0
M106 S255
G1 X8.226 Y7.56 F50
M106 S0
M106 S255
G1 X8.221 Y7.56 F50
M106 S0
M106 S255
G1 X8.216 Y7.56 F50
M106 S0
M106 S255
G1 X8.211 Y7.561 F50
M106 S0
M106 S255
G1 X8.206 Y7.561 F50
M106 S0
M106 S255
G1 X8.202 Y7.561 F50
M106 S0
M106 S255
G1 X8.197 Y7.561 F50
M106 S0
M106 S255
G1 X8.192 Y7.561 F50
M106 S0
M106 S255
G1 X7.915 Y7.553 F50
M106 S0
M106 S255
G1 X7.639 Y7.545 F50
M106 S0
M106 S255
G1 X7.363 Y7.537 F50
M106 S0
M106 S255
G1 X7.087 Y7.53 F50
M106 S0
M106 S255
G1 X6.81 Y7.522 F50
M106 S0
M106 S255
G1 X6.534 Y7.513 F50
M106 S0
M106 S255
G1 X6.258 Y7.505 F50
M106 S0
M106 S255
G1 X5.982 Y7.497 F50
M106 S0
M106 S255
G1 X5.705 Y7.489 F50
M106 S0
M106 S255
G1 X5.429 Y7.48 F50
M106 S0
M106 S255
G1 X5.153 Y7.472 F50
M106 S0
M106 S255
G1 X4.877 Y7.463 F50
M106 S0
M106 S255
G1 X4.6 Y7.455 F50
M106 S0
M106 S255
G1 X4.324 Y7.446 F50
M106 S0
M106 S255
G1 X4.048 Y7.437 F50
M106 S0
M106 S255
G1 X3.772 Y7.428 F50
M106 S0
M106 S255
G1 X3.495 Y7.42 F50
M106 S0
M106 S255
G1 X3.495 Y6.464 F50
M106 S0
M106 S255
G1 X8.192 Y6.464 F50
M106 S0
M106 S255
G1 X8.246 Y6.464 F50
M106 S0
M106 S255
G1 X8.3 Y6.464 F50
M106 S0
M106 S255
G1 X12.996 Y6.464 F50
M106 S0
M106 S255
G1 X12.996 Y7.42 F50
M106 S0
M106 S255
G1 X12.72 Y7.428 F50
M106 S0
M106 S255
G1 X12.443 Y7.437 F50
M106 S0
M106 S255
G1 X12.167 Y7.446 F50
M106 S0
M106 S255
G1 X11.891 Y7.455 F50
M106 S0
M106 S255
G1 X11.615 Y7.463 F50
M106 S0
M106 S255
G1 X11.338 Y7.472 F50
M106 S0
M106 S255
G1 X11.062 Y7.48 F50
M106 S0
M106 S255
G1 X10.786 Y7.489 F50
M106 S0
M106 S255
G1 X10.51 Y7.497 F50
M106 S0
M106 S255
G1 X10.233 Y7.505 F50
M106 S0
M106 S255
G1 X9.957 Y7.513 F50
M106 S0
M106 S255
G1 X9.681 Y7.522 F50
M106 S0
M106 S255
G1 X9.405 Y7.53 F50
M106 S0
M106 S255
G1 X9.128 Y7.537 F50
M106 S0
M106 S255
G1 X8.852 Y7.545 F50
M106 S0
M106 S255
G1 X8.576 Y7.553 F50
M106 S0
M106 S255
G1 X8.3 Y7.561 F50
M106 S0
M106 S255
G1 X8.295 Y7.561 F50
M106 S0
M106 S255
G1 X8.29 Y7.561 F50
M106 S0
M106 S255
G1 X8.285 Y7.561 F50
M106 S0
M106 S255
G1 X8.28 Y7.561 F50
M106 S0
M106 S255
G1 X8.275 Y7.56 F50
M106 S0
M106 S255
G1 X8.27 Y7.56 F50
M106 S0
M106 S255
G1 X8.265 Y7.56 F50
M106 S0
M106 S255
G1 X8.26 Y7.56 F50
M106 S0
M106 S255
G1 X8.255 Y7.56 F50
M106 S0
M106 S255
G1 X8.251 Y7.56 F50
M106 S0
M106 S255
G1 X8.246 Y7.56 F50
M106 S0
G0 X8.192 Y5.919 F6000
M106 S255
G1 X8.192 Y5.919 F50
M106 S0
M106 S255
G1 X3.495 Y5.919 F50
M106 S0
M106 S255
G1 X3.495 Y5.141 F50
M106 S0
M106 S255
G1 X8.192 Y5.141 F50
M106 S0
M106 S255
G1 X8.246 Y5.141 F50
M106 S0
M106 S255
G1 X8.3 Y5.141 F50
M106 S0
M106 S255
G1 X12.996 Y5.141 F50
M106 S0
M106 S255
G1 X12.996 Y5.919 F50
M106 S0
M106 S255
G1 X8.3 Y5.919 F50
M106 S0
M106 S255
G1 X8.246 Y5.919 F50
M106 S0
M106 S255
G1 X8.192 Y5.919 F50
M106 S0
G0 X8.246 Y2.79 F6000
M106 S255
G1 X8.246 Y2.79 F50
M106 S0
M106 S255
G1 X8.251 Y2.79 F50
M106 S0
M106 S255
G1 X8.255 Y2.79 F50
M106 S0
M106 S255
G1 X8.26 Y2.79 F50
M106 S0
M106 S255
G1 X8.265 Y2.791 F50
M106 S0
M106 S255
G1 X8.27 Y2.791 F50
M106 S0
M106 S255
G1 X8.275 Y2.791 F50
M106 S0
M106 S255
G1 X8.28 Y2.791 F50
M106 S0
M106 S255
G1 X8.285 Y2.791 F50
M106 S0
M106 S255
G1 X8.29 Y2.791 F50
M106 S0
M106 S255
G1 X8.295 Y2.791 F50
M106 S0
M106 S255
G1 X8.3 Y2.791 F50
M106 S0
G0 X9.868 Y8.132 F6000
M106 S255
G1 X9.868 Y8.132 F50
M106 S0
M106 S255
G1 X11.145 Y11.878 F50
M106 S0
M106 S255
G1 X11.503 Y8.084 F50
M106 S0
M106 S255
G1 X11.354 Y8.088 F50
M106 S0
M106 S255
G1 X11.206 Y8.093 F50
M106 S0
M106 S255
G1 X11.057 Y8.097 F50
M106 S0
M106 S255
G1 X10.909 Y8.102 F50
M106 S0
M106 S255
G1 X10.76 Y8.106 F50
M106 S0
M106 S255
G1 X10.611 Y8.11 F50
M106 S0
M106 S255
G1 X10.463 Y8.115 F50
M106 S0
M106 S255
G1 X10.314 Y8.119 F50
M106 S0
M106 S255
G1 X10.165 Y8.124 F50
M106 S0
M106 S255
G1 X10.017 Y8.128 F50
M106 S0
M106 S255
G1 X9.868 Y8.132 F50
M106 S0
G0 X11.908 Y8.072 F6000
M106 S255
G1 X11.908 Y8.072 F50
M106 S0
M106 S255
G1 X13.474 Y10.609 F50
M106 S0
M106 S255
G1 X12.989 Y8.027 F50
M106 S0
M106 S255
G1 X12.969 Y8.028 F50
M106 S0
M106 S255
G1 X12.949 Y8.029 F50
M106 S0
M106 S255
G1 X12.928 Y8.03 F50
M106 S0
M106 S255
G1 X12.908 Y8.032 F50
M106 S0
M106 S255
G1 X12.888 Y8.033 F50
M106 S0
M106 S255
G1 X12.867 Y8.034 F50
M106 S0
M106 S255
G1 X12.847 Y8.035 F50
M106 S0
M106 S255
G1 X12.826 Y8.036 F50
M106 S0
M106 S255
G1 X12.806 Y8.037 F50
M106 S0
M106 S255
G1 X12.786 Y8.038 F50
M106 S0
M106 S255
G1 X12.765 Y8.04 F50
M106 S0
M106 S255
G1 X12.745 Y8.041 F50
M106 S0
M106 S255
G1 X12.724 Y8.042 F50
M106 S0
M106 S255
G1 X12.704 Y8.043 F50
M106 S0
M106 S255
G1 X12.684 Y8.044 F50
M106 S0
M106 S255
G1 X12.663 Y8.045 F50
M106 S0
M106 S255
G1 X12.643 Y8.046 F50
M106 S0
M106 S255
G1 X12.622 Y8.047 F50
M106 S0
M106 S255
G1 X12.602 Y8.048 F50
M106 S0
M106 S255
G1 X12.582 Y8.049 F50
M106 S0
M106 S255
G1 X12.561 Y8.05 F50
M106 S0
M106 S255
G1 X12.541 Y8.051 F50
M106 S0
M106 S255
G1 X12.52 Y8.051 F50
M106 S0
M106 S255
G1 X12.5 Y8.052 F50
M106 S0
M106 S255
G1 X12.48 Y8.053 F50
M106 S0
M106 S255
G1 X12.459 Y8.054 F50
M106 S0
M106 S255
G1 X12.439 Y8.055 F50
M106 S0
M106 S255
G1 X12.418 Y8.056 F50
M106 S0
M106 S255
G1 X12.398 Y8.056 F50
M106 S0
M106 S255
G1 X12.378 Y8.057 F50
M106 S0
M106 S255
G1 X12.357 Y8.058 F50
M106 S0
M106 S255
G1 X12.337 Y8.059 F50
M106 S0
M106 S255
G1 X12.316 Y8.059 F50
M106 S0
M106 S255
G1 X12.296 Y8.06 F50
M106 S0
M106 S255
G1 X12.276 Y8.061 F50
M106 S0
M106 S255
G1 X12.255 Y8.061 F50
M106 S0
M106 S255
G1 X12.235 Y8.062 F50
M106 S0
M106 S255
G1 X12.214 Y8.063 F50
M106 S0
M106 S255
G1 X12.194 Y8.063 F50
M106 S0
M106 S255
G1 X12.173 Y8.064 F50
M106 S0
M106 S255
G1 X12.153 Y8.065 F50
M106 S0
M106 S255
G1 X12.133 Y8.065 F50
M106 S0
M106 S255
G1 X12.112 Y8.066 F50
M106 S0
M106 S255
G1 X12.092 Y8.066 F50
M106 S0
M106 S255
G1 X12.071 Y8.067 F50
M106 S0
M106 S255
G1 X12.051 Y8.068 F50
M106 S0
M106 S255
G1 X12.031 Y8.068 F50
M106 S0
M106 S255
G1 X12.01 Y8.069 F50
M106 S0
M106 S255
G1 X11.99 Y8.069 F50
M106 S0
M106 S255
G1 X11.969 Y8.07 F50
M106 S0
M106 S255
G1 X11.949 Y8.071 F50
M106 S0
M106 S255
G1 X11.929 Y8.071 F50
M106 S0
M106 S255
G1 X11.908 Y8.072 F50
M106 S0
G0 X8.246 Y2.79 F6000
M106 S255
G1 X8.246 Y2.79 F50
M106 S0
M106 S255
G1 X8.241 Y2.79 F50
M106 S0
M106 S255
G1 X8.236 Y2.79 F50
M106 S0
M106 S255
G1 X8.231 Y2.79 F50
M106 S0
M106 S255
G1 X8.226 Y2.791 F50
M106 S0
M106 S255
G1 X8.221 Y2.791 F50
M106 S0
M106 S255
G1 X8.216 Y2.791 F50
M106 S0
M106 S255
G1 X8.211 Y2.791 F50
M106 S0
M106 S255
G1 X8.206 Y2.791 F50
M106 S0
M106 S255
G1 X8.202 Y2.791 F50
M106 S0
M106 S255
G1 X8.197 Y2.791 F50
M106 S0
M106 S255
G1 X8.192 Y2.791 F50
M106 S0
G0 X8.246 Y13.181 F6000
M106 S255
G1 X8.246 Y13.181 F50
M106 S0
M106 S255
G1 X7.096 Y8.146 F50
M106 S0
M106 S255
G1 X7.201 Y8.15 F50
M106 S0
M106 S255
G1 X7.305 Y8.153 F50
M106 S0
M106 S255
G1 X7.41 Y8.156 F50
M106 S0
M106 S255
G1 X7.514 Y8.159 F50
M106 S0
M106 S255
G1 X7.619 Y8.162 F50
M106 S0
M106 S255
G1 X7.723 Y8.165 F50
M106 S0
M106 S255
G1 X7.828 Y8.168 F50
M106 S0
M106 S255
G1 X7.932 Y8.171 F50
M106 S0
M106 S255
G1 X8.037 Y8.174 F50
M106 S0
M106 S255
G1 X8.141 Y8.177 F50
M106 S0
M106 S255
G1 X8.246 Y8.181 F50
M106 S0
M106 S255
G1 X8.35 Y8.177 F50
M106 S0
M106 S255
G1 X8.455 Y8.174 F50
M106 S0
M106 S255
G1 X8.559 Y8.171 F50
M106 S0
M106 S255
G1 X8.664 Y8.168 F50
M106 S0
M106 S255
G1 X8.768 Y8.165 F50
M106 S0
M106 S255
G1 X8.873 Y8.162 F50
M106 S0
M106 S255
G1 X8.977 Y8.159 F50
M106 S0
M106 S255
G1 X9.082 Y8.156 F50
M106 S0
M106 S255
G1 X9.186 Y8.153 F50
M106 S0
M106 S255
G1 X9.291 Y8.15 F50
M106 S0
M106 S255
G1 X9.395 Y8.146 F50
M106 S0
M106 S255
G1 X8.246 Y13.181 F50
M106 S0
G0 X6.623 Y8.132 F6000
M106 S255
G1 X6.623 Y8.132 F50
M106 S0
M106 S255
G1 X5.347 Y11.878 F50
M106 S0
M106 S255
G1 X4.988 Y8.084 F50
M106 S0
M106 S255
G1 X5.137 Y8.088 F50
M106 S0
M106 S255
G1 X5.286 Y8.093 F50
M106 S0
M106 S255
G1 X5.434 Y8.097 F50
M106 S0
M106 S255
G1 X5.583 Y8.102 F50
M106 S0
M106 S255
G1 X5.731 Y8.106 F50
M106 S0
M106 S255
G1 X5.88 Y8.11 F50
M106 S0
M106 S255
G1 X6.029 Y8.115 F50
M106 S0
M106 S255
G1 X6.177 Y8.119 F50
M106 S0
M106 S255
G1 X6.326 Y8.124 F50
M106 S0
M106 S255
G1 X6.474 Y8.128 F50
M106 S0
M106 S255
G1 X6.623 Y8.132 F50
M106 S0
G0 X4.583 Y8.072 F6000
M106 S255
G1 X4.583 Y8.072 F50
M106 S0
M106 S255
G1 X3.017 Y10.609 F50
M106 S0
M106 S255
G1 X3.502 Y8.027 F50
M106 S0
M106 S255
G1 X3.522 Y8.028 F50
M106 S0
M106 S255
G1 X3.543 Y8.029 F50
M106 S0
M106 S255
G1 X3.563 Y8.03 F50
M106 S0
M106 S255
G1 X3.583 Y8.032 F50
M106 S0
M106 S255
G1 X3.604 Y8.033 F50
M106 S0
M106 S255
G1 X3.624 Y8.034 F50
M106 S0
M106 S255
G1 X3.645 Y8.035 F50
M106 S0
M106 S255
G1 X3.665 Y8.036 F50
M106 S0
M106 S255
G1 X3.685 Y8.037 F50
M106 S0
M106 S255
G1 X3.706 Y8.038 F50
M106 S0
M106 S255
G1 X3.726 Y8.04 F50
M106 S0
M106 S255
G1 X3.747 Y8.041 F50
M106 S0
M106 S255
G1 X3.767 Y8.042 F50
M106 S0
M106 S255
G1 X3.787 Y8.043 F50
M106 S0
M106 S255
G1 X3.808 Y8.044 F50
M106 S0
M106 S255
G1 X3.828 Y8.045 F50
M106 S0
M106 S255
G1 X3.849 Y8.046 F50
M106 S0
M106 S255
G1 X3.869 Y8.047 F50
M106 S0
M106 S255
G1 X3.889 Y8.048 F50
M106 S0
M106 S255
G1 X3.91 Y8.049 F50
M106 S0
M106 S255
G1 X3.93 Y8.05 F50
M106 S0
M106 S255
G1 X3.951 Y8.051 F50
M106 S0
M106 S255
G1 X3.971 Y8.051 F50
M106 S0
M106 S255
G1 X3.991 Y8.052 F50
M106 S0
M106 S255
G1 X4.012 Y8.053 F50
M106 S0
M106 S255
G1 X4.032 Y8.054 F50
M106 S0
M106 S255
G1 X4.053 Y8.055 F50
M106 S0
M106 S255
G1 X4.073 Y8.056 F50
M106 S0
M106 S255
G1 X4.093 Y8.056 F50
M106 S0
M106 S255
G1 X4.114 Y8.057 F50
M106 S0
M106 S255
G1 X4.134 Y8.058 F50
M106 S0
M106 S255
G1 X4.155 Y8.059 F50
M106 S0
M106 S255
G1 X4.175 Y8.059 F50
M106 S0
M106 S255
G1 X4.195 Y8.06 F50
M106 S0
M106 S255
G1 X4.216 Y8.061 F50
M106 S0
M106 S255
G1 X4.236 Y8.061 F50
M106 S0
M106 S255
G1 X4.257 Y8.062 F50
M106 S0
M106 S255
G1 X4.277 Y8.063 F50
M106 S0
M106 S255
G1 X4.297 Y8.063 F50
M106 S0
M106 S255
G1 X4.318 Y8.064 F50
M106 S0
M106 S255
G1 X4.338 Y8.065 F50
M106 S0
M106 S255
G1 X4.359 Y8.065 F50
M106 S0
M106 S255
G1 X4.379 Y8.066 F50
M106 S0
M106 S255
G1 X4.399 Y8.066 F50
M106 S0
M106 S255
G1 X4.42 Y8.067 F50
M106 S0
M106 S255
G1 X4.44 Y8.068 F50
M106 S0
M106 S255
G1 X4.461 Y8.068 F50
M106 S0
M106 S255
G1 X4.481 Y8.069 F50
M106 S0
M106 S255
G1 X4.502 Y8.069 F50
M106 S0
M106 S255
G1 X4.522 Y8.07 F50
M106 S0
M106 S255
G1 X4.542 Y8.071 F50
M106 S0
M106 S255
G1 X4.563 Y8.071 F50
M106 S0
M106 S255
G1 X4.583 Y8.072 F50
M106 S0
G0 X8.3 Y2.791 F6000
M106 S255
G1 X8.3 Y2.791 F50
M106 S0
M106 S255
G1 X8.535 Y2.788 F50
M106 S0
M106 S255
G1 X8.771 Y2.785 F50
M106 S0
M106 S255
G1 X9.007 Y2.784 F50
M106 S0
M106 S255
G1 X9.242 Y2.786 F50
M106 S0
M106 S255
G1 X9.493 Y2.791 F50
M106 S0
M106 S255
G1 X9.713 Y2.8 F50
M106 S0
M106 S255
G1 X9.948 Y2.813 F50
M106 S0
M106 S255
G1 X10.183 Y2.829 F50
M106 S0
M106 S255
G1 X10.418 Y2.848 F50
M106 S0
M106 S255
G1 X10.652 Y2.869 F50
M106 S0
M106 S255
G1 X10.887 Y2.892 F50
M106 S0
M106 S255
G1 X11.122 Y2.916 F50
M106 S0
M106 S255
G1 X11.356 Y2.941 F50
M106 S0
M106 S255
G1 X11.641 Y2.971 F50
M106 S0
M106 S255
G1 X11.825 Y2.99 F50
M106 S0
M106 S255
G1 X12.06 Y3.014 F50
M106 S0
M106 S255
G1 X12.294 Y3.037 F50
M106 S0
M106 S255
G1 X12.529 Y3.06 F50
M106 S0
M106 S255
G1 X12.763 Y3.083 F50
M106 S0
M106 S255
G1 X12.998 Y3.105 F50
M106 S0
M106 S255
G1 X13.232 Y3.127 F50
M106 S0
M106 S255
G1 X13.467 Y3.149 F50
M106 S0
M106 S255
G1 X13.701 Y3.171 F50
M106 S0
M106 S255
G1 X13.701 Y7.979 F50
M106 S0
M106 S255
G1 X14.42 Y12.255 F50
M106 S0
M106 S255
G1 X14.493 Y12.27 F50
M106 S0
M106 S255
G1 X14.566 Y12.287 F50
M106 S0
M106 S255
G1 X14.638 Y12.304 F50
M106 S0
M106 S255
G1 X14.71 Y12.322 F50
M106 S0
M106 S255
G1 X14.781 Y12.343 F50
M106 S0
M106 S255
G1 X14.852 Y12.365 F50
M106 S0
M106 S255
G1 X14.922 Y12.391 F50
M106 S0
M106 S255
G1 X14.99 Y12.419 F50
M106 S0
M106 S255
G1 X15.058 Y12.452 F50
M106 S0
M106 S255
G1 X15.124 Y12.488 F50
M106 S0
M106 S255
G1 X15.188 Y12.528 F50
M106 S0
M106 S255
G1 X15.249 Y12.572 F50
M106 S0
M106 S255
G1 X15.307 Y12.621 F50
M106 S0
M106 S255
G1 X15.361 Y12.673 F50
M106 S0
M106 S255
G1 X15.41 Y12.729 F50
M106 S0
M106 S255
G1 X15.454 Y12.788 F50
M106 S0
M106 S255
G1 X15.491 Y12.852 F50
M106 S0
M106 S255
G1 X15.523 Y12.918 F50
M106 S0
M106 S255
G1 X15.55 Y12.987 F50
M106 S0
M106 S255
G1 X15.572 Y13.059 F50
M106 S0
M106 S255
G1 X15.591 Y13.132 F50
M106 S0
M106 S255
G1 X15.607 Y13.206 F50
M106 S0
M106 S255
G1 X15.619 Y13.281 F50
M106 S0
M106 S255
G1 X15.628 Y13.356 F50
M106 S0
M106 S255
G1 X15.633 Y13.432 F50
M106 S0
M106 S255
G1 X15.634 Y13.507 F50
M106 S0
M106 S255
G1 X15.629 Y13.581 F50
M106 S0
M106 S255
G1 X15.619 Y13.654 F50
M106 S0
M106 S255
G1 X15.604 Y13.726 F50
M106 S0
M106 S255
G1 X15.582 Y13.796 F50
M106 S0
M106 S255
G1 X15.553 Y13.865 F50
M106 S0
M106 S255
G1 X15.52 Y13.931 F50
M106 S0
M106 S255
G1 X15.481 Y13.995 F50
M106 S0
M106 S255
G1 X15.439 Y14.057 F50
M106 S0
M106 S255
G1 X15.393 Y14.117 F50
M106 S0
M106 S255
G1 X15.344 Y14.174 F50
M106 S0
M106 S255
G1 X15.292 Y14.23 F50
M106 S0
M106 S255
G1 X15.239 Y14.282 F50
M106 S0
M106 S255
G1 X15.183 Y14.331 F50
M106 S0
M106 S255
G1 X15.124 Y14.377 F50
M106 S0
M106 S255
G1 X15.063 Y14.418 F50
M106 S0
M106 S255
G1 X14.999 Y14.455 F50
M106 S0
M106 S255
G1 X14.932 Y14.488 F50
M106 S0
M106 S255
G1 X14.864 Y14.515 F50
M106 S0
M106 S255
G1 X14.793 Y14.538 F50
M106 S0
M106 S255
G1 X14.72 Y14.556 F50
M106 S0
M106 S255
G1 X14.646 Y14.57 F50
M106 S0
M106 S255
G1 X14.572 Y14.579 F50
M106 S0
M106 S255
G1 X14.496 Y14.584 F50
M106 S0
M106 S255
G1 X14.42 Y14.584 F50
M106 S0
M106 S255
G1 X14.344 Y14.58 F50
M106 S0
M106 S255
G1 X14.269 Y14.572 F50
M106 S0
M106 S255
G1 X14.194 Y14.559 F50
M106 S0
M106 S255
G1 X14.121 Y14.542 F50
M106 S0
M106 S255
G1 X14.049 Y14.52 F50
M106 S0
M106 S255
G1 X13.979 Y14.493 F50
M106 S0
M106 S255
G1 X13.911 Y14.462 F50
M106 S0
M106 S255
G1 X13.845 Y14.426 F50
M106 S0
M106 S255
G1 X13.783 Y14.385 F50
M106 S0
M106 S255
G1 X13.723 Y14.34 F50
M106 S0
M106 S255
G1 X13.667 Y14.29 F50
M106 S0
M106 S255
G1 X13.615 Y14.236 F50
M106 S0
M106 S255
G1 X13.566 Y14.178 F50
M106 S0
M106 S255
G1 X13.522 Y14.118 F50
M106 S0
M106 S255
G1 X13.481 Y14.055 F50
M106 S0
M106 S255
G1 X13.445 Y13.989 F50
M106 S0
M106 S255
G1 X13.413 Y13.922 F50
M106 S0
M106 S255
G1 X13.386 Y13.853 F50
M106 S0
M106 S255
G1 X13.363 Y13.783 F50
M106 S0
M106 S255
G1 X13.344 Y13.711 F50
M106 S0
M106 S255
G1 X13.329 Y13.639 F50
M106 S0
M106 S255
G1 X13.318 Y13.565 F50
M106 S0
M106 S255
G1 X13.31 Y13.491 F50
M106 S0
M106 S255
G1 X13.305 Y13.416 F50
M106 S0
M106 S255
G1 X13.304 Y13.341 F50
M106 S0
M106 S255
G1 X13.308 Y13.267 F50
M106 S0
M106 S255
G1 X13.317 Y13.193 F50
M106 S0
M106 S255
G1 X13.332 Y13.121 F50
M106 S0
M106 S255
G1 X13.352 Y13.051 F50
M106 S0
M106 S255
G1 X13.378 Y12.983 F50
M106 S0
M106 S255
G1 X13.409 Y12.917 F50
M106 S0
M106 S255
G1 X13.444 Y12.853 F50
M106 S0
M106 S255
G1 X13.484 Y12.791 F50
M106 S0
M106 S255
G1 X13.527 Y12.732 F50
M106 S0
M106 S255
G1 X13.574 Y12.675 F50
M106 S0
M106 S255
G1 X13.625 Y12.621 F50
M106 S0
M106 S255
G1 X13.679 Y12.571 F50
M106 S0
M106 S255
G1 X13.736 Y12.524 F50
M106 S0
M106 S255
G1 X13.794 Y12.478 F50
M106 S0
M106 S255
G1 X12.069 Y9.654 F50
M106 S0
M106 S255
G1 X11.71 Y13.513 F50
M106 S0
M106 S255
G1 X11.793 Y13.555 F50
M106 S0
M106 S255
G1 X11.876 Y13.597 F50
M106 S0
M106 S255
G1 X11.958 Y13.641 F50
M106 S0
M106 S255
G1 X12.039 Y13.687 F50
M106 S0
M106 S255
G1 X12.117 Y13.737 F50
M106 S0
M106 S255
G1 X12.226 Y13.817 F50
M106 S0
M106 S255
G1 X12.266 Y13.85 F50
M106 S0
M106 S255
G1 X12.334 Y13.914 F50
M106 S0
M106 S255
G1 X12.399 Y13.983 F50
M106 S0
M106 S255
G1 X12.457 Y14.056 F50
M106 S0
M106 S255
G1 X12.509 Y14.134 F50
M106 S0
M106 S255
G1 X12.554 Y14.217 F50
M106 S0
M106 S255
G1 X12.583 Y14.28 F50
M106 S0
M106 S255
G1 X12.62 Y14.392 F50
M106 S0
M106 S255
G1 X12.64 Y14.484 F50
M106 S0
M106 S255
G1 X12.652 Y14.578 F50
M106 S0
M106 S255
G1 X12.655 Y14.673 F50
M106 S0
M106 S255
G1 X12.651 Y14.769 F50
M106 S0
M106 S255
G1 X12.639 Y14.864 F50
M106 S0
M106 S255
G1 X12.619 Y14.957 F50
M106 S0
M106 S255
G1 X12.583 Y15.075 F50
M106 S0
M106 S255
G1 X12.558 Y15.137 F50
M106 S0
M106 S255
G1 X12.517 Y15.222 F50
M106 S0
M106 S255
G1 X12.469 Y15.303 F50
M106 S0
M106 S255
G1 X12.416 Y15.38 F50
M106 S0
M106 S255
G1 X12.356 Y15.453 F50
M106 S0
M106 S255
G1 X12.292 Y15.52 F50
M106 S0
M106 S255
G1 X12.2 Y15.601 F50
M106 S0
M106 S255
G1 X12.148 Y15.641 F50
M106 S0
M106 S255
G1 X12.07 Y15.692 F50
M106 S0
M106 S255
G1 X11.988 Y15.738 F50
M106 S0
M106 S255
G1 X11.903 Y15.777 F50
M106 S0
M106 S255
G1 X11.815 Y15.809 F50
M106 S0
M106 S255
G1 X11.742 Y15.83 F50
M106 S0
M106 S255
G1 X11.633 Y15.852 F50
M106 S0
M106 S255
G1 X11.54 Y15.862 F50
M106 S0
M106 S255
G1 X11.447 Y15.865 F50
M106 S0
M106 S255
G1 X11.353 Y15.861 F50
M106 S0
M106 S255
G1 X11.26 Y15.849 F50
M106 S0
M106 S255
G1 X11.171 Y15.83 F50
M106 S0
M106 S255
G1 X11.077 Y15.802 F50
M106 S0
M106 S255
G1 X10.989 Y15.768 F50
M106 S0
M106 S255
G1 X10.904 Y15.727 F50
M106 S0
M106 S255
G1 X10.822 Y15.68 F50
M106 S0
M106 S255
G1 X10.745 Y15.626 F50
M106 S0
M106 S255
G1 X10.673 Y15.566 F50
M106 S0
M106 S255
G1 X10.61 Y15.504 F50
M106 S0
M106 S255
G1 X10.546 Y15.43 F50
M106 S0
M106 S255
G1 X10.492 Y15.354 F50
M106 S0
M106 S255
G1 X10.443 Y15.274 F50
M106 S0
M106 S255
G1 X10.401 Y15.191 F50
M106 S0
M106 S255
G1 X10.365 Y15.104 F50
M106 S0
M106 S255
G1 X10.334 Y15.014 F50
M106 S0
M106 S255
G1 X10.319 Y14.964 F50
M106 S0
M106 S255
G1 X10.289 Y14.829 F50
M106 S0
M106 S255
G1 X10.276 Y14.734 F50
M106 S0
M106 S255
G1 X10.271 Y14.64 F50
M106 S0
M106 S255
G1 X10.273 Y14.546 F50
M106 S0
M106 S255
G1 X10.283 Y14.453 F50
M106 S0
M106 S255
G1 X10.302 Y14.362 F50
M106 S0
M106 S255
G1 X10.319 Y14.307 F50
M106 S0
M106 S255
G1 X10.37 Y14.189 F50
M106 S0
M106 S255
G1 X10.417 Y14.109 F50
M106 S0
M106 S255
G1 X10.471 Y14.032 F50
M106 S0
M106 S255
G1 X10.532 Y13.959 F50
M106 S0
M106 S255
G1 X10.61 Y13.879 F50
M106 S0
M106 S255
G1 X10.666 Y13.828 F50
M106 S0
M106 S255
G1 X10.739 Y13.77 F50
M106 S0
M106 S255
G1 X10.813 Y13.715 F50
M106 S0
M106 S255
G1 X10.889 Y13.661 F50
M106 S0
M106 S255
G1 X10.966 Y13.609 F50
M106 S0
M106 S255
G1 X9.671 Y9.87 F50
M106 S0
M106 S255
G1 X8.675 Y14.172 F50
M106 S0
M106 S255
G1 X8.746 Y14.21 F50
M106 S0
M106 S255
G1 X8.817 Y14.249 F50
M106 S0
M106 S255
G1 X8.887 Y14.29 F50
M106 S0
M106 S255
G1 X8.954 Y14.332 F50
M106 S0
M106 S255
G1 X9.019 Y14.378 F50
M106 S0
M106 S255
G1 X9.081 Y14.427 F50
M106 S0
M106 S255
G1 X9.139 Y14.481 F50
M106 S0
M106 S255
G1 X9.193 Y14.54 F50
M106 S0
M106 S255
G1 X9.243 Y14.603 F50
M106 S0
M106 S255
G1 X9.287 Y14.67 F50
M106 S0
M106 S255
G1 X9.327 Y14.741 F50
M106 S0
M106 S255
G1 X9.362 Y14.814 F50
M106 S0
M106 S255
G1 X9.391 Y14.89 F50
M106 S0
M106 S255
G1 X9.414 Y14.967 F50
M106 S0
M106 S255
G1 X9.431 Y15.047 F50
M106 S0
M106 S255
G1 X9.443 Y15.127 F50
M106 S0
M106 S255
G1 X9.449 Y15.208 F50
M106 S0
M106 S255
G1 X9.45 Y15.289 F50
M106 S0
M106 S255
G1 X9.445 Y15.37 F50
M106 S0
M106 S255
G1 X9.435 Y15.45 F50
M106 S0
M106 S255
G1 X9.42 Y15.529 F50
M106 S0
M106 S255
G1 X9.399 Y15.607 F50
M106 S0
M106 S255
G1 X9.373 Y15.683 F50
M106 S0
M106 S255
G1 X9.341 Y15.757 F50
M106 S0
M106 S255
G1 X9.305 Y15.829 F50
M106 S0
M106 S255
G1 X9.264 Y15.898 F50
M106 S0
M106 S255
G1 X9.219 Y15.964 F50
M106 S0
M106 S255
G1 X9.169 Y16.027 F50
M106 S0
M106 S255
G1 X9.114 Y16.087 F50
M106 S0
M106 S255
G1 X9.056 Y16.144 F50
M106 S0
M106 S255
G1 X8.993 Y16.197 F50
M106 S0
M106 S255
G1 X8.927 Y16.245 F50
M106 S0
M106 S255
G1 X8.859 Y16.289 F50
M106 S0
M106 S255
G1 X8.787 Y16.328 F50
M106 S0
M106 S255
G1 X8.714 Y16.361 F50
M106 S0
M106 S255
G1 X8.638 Y16.388 F50
M106 S0
M106 S255
G1 X8.562 Y16.409 F50
M106 S0
M106 S255
G1 X8.484 Y16.423 F50
M106 S0
M106 S255
G1 X8.405 Y16.431 F50
M106 S0
M106 S255
G1 X8.326 Y16.434 F50
M106 S0
M106 S255
G1 X8.246 Y16.433 F50
M106 S0
M106 S255
G1 X8.166 Y16.434 F50
M106 S0
M106 S255
G1 X8.086 Y16.431 F50
M106 S0
M106 S255
G1 X8.008 Y16.423 F50
M106 S0
M106 S255
G1 X7.93 Y16.409 F50
M106 S0
M106 S255
G1 X7.853 Y16.388 F50
M106 S0
M106 S255
G1 X7.778 Y16.361 F50
M106 S0
M106 S255
G1 X7.704 Y16.328 F50
M106 S0
M106 S255
G1 X7.633 Y16.289 F50
M106 S0
M106 S255
G1 X7.564 Y16.245 F50
M106 S0
M106 S255
G1 X7.498 Y16.197 F50
M106 S0
M106 S255
G1 X7.436 Y16.144 F50
M106 S0
M106 S255
G1 X7.377 Y16.087 F50
M106 S0
M106 S255
G1 X7.323 Y16.027 F50
M106 S0
M106 S255
G1 X7.273 Y15.964 F50
M106 S0
M106 S255
G1 X7.227 Y15.898 F50
M106 S0
M106 S255
G1 X7.186 Y15.829 F50
M106 S0
M106 S255
G1 X7.15 Y15.757 F50
M106 S0
M106 S255
G1 X7.119 Y15.683 F50
M106 S0
M106 S255
G1 X7.093 Y15.607 F50
M106 S0
M106 S255
G1 X7.072 Y15.529 F50
M106 S0
M106 S255
G1 X7.056 Y15.45 F50
M106 S0
M106 S255
G1 X7.046 Y15.37 F50
M106 S0
M106 S255
G1 X7.041 Y15.289 F50
M106 S0
M106 S255
G1 X7.042 Y15.208 F50
M106 S0
M106 S255
G1 X7.048 Y15.127 F50
M106 S0
M106 S255
G1 X7.06 Y15.047 F50
M106 S0
M106 S255
G1 X7.077 Y14.967 F50
M106 S0
M106 S255
G1 X7.101 Y14.89 F50
M106 S0
M106 S255
G1 X7.13 Y14.814 F50
M106 S0
M106 S255
G1 X7.164 Y14.741 F50
M106 S0
M106 S255
G1 X7.204 Y14.67 F50
M106 S0
M106 S255
G1 X7.249 Y14.603 F50
M106 S0
M106 S255
G1 X7.298 Y14.54 F50
M106 S0
M106 S255
G1 X7.352 Y14.481 F50
M106 S0
M106 S255
G1 X7.41 Y14.427 F50
M106 S0
M106 S255
G1 X7.472 Y14.378 F50
M106 S0
M106 S255
G1 X7.537 Y14.332 F50
M106 S0
M106 S255
G1 X7.605 Y14.29 F50
M106 S0
M106 S255
G1 X7.674 Y14.249 F50
M106 S0
M106 S255
G1 X7.745 Y14.21 F50
M106 S0
M106 S255
G1 X7.816 Y14.172 F50
M106 S0
M106 S255
G1 X6.821 Y9.87 F50
M106 S0
M106 S255
G1 X5.525 Y13.609 F50
M106 S0
M106 S255
G1 X5.602 Y13.661 F50
M106 S0
M106 S255
G1 X5.678 Y13.715 F50
M106 S0
M106 S255
G1 X5.753 Y13.77 F50
M106 S0
M106 S255
G1 X5.825 Y13.828 F50
M106 S0
M106 S255
G1 X5.882 Y13.879 F50
M106 S0
M106 S255
G1 X5.96 Y13.959 F50
M106 S0
M106 S255
G1 X6.02 Y14.032 F50
M106 S0
M106 S255
G1 X6.074 Y14.109 F50
M106 S0
M106 S255
G1 X6.121 Y14.189 F50
M106 S0
M106 S255
G1 X6.172 Y14.307 F50
M106 S0
M106 S255
G1 X6.189 Y14.362 F50
M106 S0
M106 S255
G1 X6.208 Y14.453 F50
M106 S0
M106 S255
G1 X6.219 Y14.546 F50
M106 S0
M106 S255
G1 X6.221 Y14.64 F50
M106 S0
M106 S255
G1 X6.215 Y14.734 F50
M106 S0
M106 S255
G1 X6.202 Y14.829 F50
M106 S0
M106 S255
G1 X6.172 Y14.964 F50
M106 S0
M106 S255
G1 X6.158 Y15.014 F50
M106 S0
M106 S255
G1 X6.127 Y15.104 F50
M106 S0
M106 S255
G1 X6.09 Y15.191 F50
M106 S0
M106 S255
G1 X6.048 Y15.274 F50
M106 S0
M106 S255
G1 X6.0 Y15.354 F50
M106 S0
M106 S255
G1 X5.945 Y15.43 F50
M106 S0
M106 S255
G1 X5.882 Y15.504 F50
M106 S0
M106 S255
G1 X5.818 Y15.566 F50
M106 S0
M106 S255
G1 X5.746 Y15.626 F50
M106 S0
M106 S255
G1 X5.669 Y15.68 F50
M106 S0
M106 S255
G1 X5.588 Y15.727 F50
M106 S0
M106 S255
G1 X5.502 Y15.768 F50
M106 S0
M106 S255
G1 X5.414 Y15.802 F50
M106 S0
M106 S255
G1 X5.321 Y15.83 F50
M106 S0
M106 S255
G1 X5.232 Y15.849 F50
M106 S0
M106 S255
G1 X5.139 Y15.861 F50
M106 S0
M106 S255
G1 X5.045 Y15.865 F50
M106 S0
M106 S255
G1 X4.951 Y15.862 F50
M106 S0
M106 S255
G1 X4.858 Y15.852 F50
M106 S0
M106 S255
G1 X4.75 Y15.83 F50
M106 S0
M106 S255
G1 X4.676 Y15.809 F50
M106 S0
M106 S255
G1 X4.588 Y15.777 F50
M106 S0
M106 S255
G1 X4.503 Y15.738 F50
M106 S0
M106 S255
G1 X4.422 Y15.692 F50
M106 S0
M106 S255
G1 X4.343 Y15.641 F50
M106 S0
M106 S255
G1 X4.291 Y15.601 F50
M106 S0
M106 S255
G1 X4.2 Y15.52 F50
M106 S0
M106 S255
G1 X4.135 Y15.453 F50
M106 S0
M106 S255
G1 X4.076 Y15.38 F50
M106 S0
M106 S255
G1 X4.022 Y15.303 F50
M106 S0
M106 S255
G1 X3.974 Y15.222 F50
M106 S0
M106 S255
G1 X3.933 Y15.137 F50
M106 S0
M106 S255
G1 X3.908 Y15.075 F50
M106 S0
M106 S255
G1 X3.872 Y14.957 F50
M106 S0
M106 S255
G1 X3.852 Y14.864 F50
M106 S0
M106 S255
G1 X3.84 Y14.769 F50
M106 S0
M106 S255
G1 X3.836 Y14.673 F50
M106 S0
M106 S255
G1 X3.84 Y14.578 F50
M106 S0
M106 S255
G1 X3.851 Y14.484 F50
M106 S0
M106 S255
G1 X3.871 Y14.392 F50
M106 S0
M106 S255
G1 X3.908 Y14.28 F50
M106 S0
M106 S255
G1 X3.937 Y14.217 F50
M106 S0
M106 S255
G1 X3.982 Y14.134 F50
M106 S0
M106 S255
G1 X4.034 Y14.056 F50
M106 S0
M106 S255
G1 X4.093 Y13.983 F50
M106 S0
M106 S255
G1 X4.157 Y13.914 F50
M106 S0
M106 S255
G1 X4.226 Y13.85 F50
M106 S0
M106 S255
G1 X4.265 Y13.817 F50
M106 S0
M106 S255
G1 X4.374 Y13.737 F50
M106 S0
M106 S255
G1 X4.452 Y13.687 F50
M106 S0
M106 S255
G1 X4.533 Y13.641 F50
M106 S0
M106 S255
G1 X4.615 Y13.597 F50
M106 S0
M106 S255
G1 X4.698 Y13.555 F50
M106 S0
M106 S255
G1 X4.782 Y13.513 F50
M106 S0
M106 S255
G1 X4.422 Y9.654 F50
M106 S0
M106 S255
G1 X2.697 Y12.478 F50
M106 S0
M106 S255
G1 X2.756 Y12.524 F50
M106 S0
M106 S255
G1 X2.812 Y12.571 F50
M106 S0
M106 S255
G1 X2.867 Y12.621 F50
M106 S0
M106 S255
G1 X2.917 Y12.675 F50
M106 S0
M106 S255
G1 X2.964 Y12.732 F50
M106 S0
M106 S255
G1 X3.008 Y12.791 F50
M106 S0
M106 S255
G1 X3.047 Y12.853 F50
M106 S0
M106 S255
G1 X3.082 Y12.917 F50
M106 S0
M106 S255
G1 X3.113 Y12.983 F50
M106 S0
M106 S255
G1 X3.139 Y13.051 F50
M106 S0
M106 S255
G1 X3.159 Y13.121 F50
M106 S0
M106 S255
G1 X3.174 Y13.193 F50
M106 S0
M106 S255
G1 X3.183 Y13.267 F50
M106 S0
M106 S255
G1 X3.187 Y13.341 F50
M106 S0
M106 S255
G1 X3.186 Y13.416 F50
M106 S0
M106 S255
G1 X3.182 Y13.491 F50
M106 S0
M106 S255
G1 X3.174 Y13.565 F50
M106 S0
M106 S255
G1 X3.162 Y13.639 F50
M106 S0
M106 S255
G1 X3.147 Y13.711 F50
M106 S0
M106 S255
G1 X3.128 Y13.783 F50
M106 S0
M106 S255
G1 X3.105 Y13.853 F50
M106 S0
M106 S255
G1 X3.078 Y13.922 F50
M106 S0
M106 S255
G1 X3.046 Y13.989 F50
M106 S0
M106 S255
G1 X3.01 Y14.055 F50
M106 S0
M106 S255
G1 X2.969 Y14.118 F50
M106 S0
M106 S255
G1 X2.925 Y14.178 F50
M106 S0
M106 S255
G1 X2.876 Y14.236 F50
M106 S0
M106 S255
G1 X2.824 Y14.29 F50
M106 S0
M106 S255
G1 X2.768 Y14.34 F50
M106 S0
M106 S255
G1 X2.709 Y14.385 F50
M106 S0
M106 S255
G1 X2.646 Y14.426 F50
M106 S0
M106 S255
G1 X2.581 Y14.462 F50
M106 S0
M106 S255
G1 X2.513 Y14.493 F50
M106 S0
M106 S255
G1 X2.442 Y14.52 F50
M106 S0
M106 S255
G1 X2.37 Y14.542 F50
M106 S0
M106 S255
G1 X2.297 Y14.559 F50
M106 S0
M106 S255
G1 X2.222 Y14.572 F50
M106 S0
M106 S255
G1 X2.147 Y14.58 F50
M106 S0
M106 S255
G1 X2.071 Y14.584 F50
M106 S0
M106 S255
G1 X1.995 Y14.584 F50
M106 S0
M106 S255
G1 X1.92 Y14.579 F50
M106 S0
M106 S255
G1 X1.845 Y14.57 F50
M106 S0
M106 S255
G1 X1.771 Y14.556 F50
M106 S0
M106 S255
G1 X1.699 Y14.538 F50
M106 S0
M106 S255
G1 X1.628 Y14.515 F50
M106 S0
M106 S255
G1 X1.559 Y14.488 F50
M106 S0
M106 S255
G1 X1.492 Y14.455 F50
M106 S0
M106 S255
G1 X1.429 Y14.418 F50
M106 S0
M106 S255
G1 X1.367 Y14.377 F50
M106 S0
M106 S255
G1 X1.309 Y14.331 F50
M106 S0
M106 S255
G1 X1.253 Y14.282 F50
M106 S0
M106 S255
G1 X1.199 Y14.23 F50
M106 S0
M106 S255
G1 X1.147 Y14.174 F50
M106 S0
M106 S255
G1 X1.099 Y14.117 F50
M106 S0
M106 S255
G1 X1.052 Y14.057 F50
M106 S0
M106 S255
G1 X1.01 Y13.995 F50
M106 S0
M106 S255
G1 X0.972 Y13.931 F50
M106 S0
M106 S255
G1 X0.938 Y13.865 F50
M106 S0
M106 S255
G1 X0.91 Y13.796 F50
M106 S0
M106 S255
G1 X0.888 Y13.726 F50
M106 S0
M106 S255
G1 X0.872 Y13.654 F50
M106 S0
M106 S255
G1 X0.862 Y13.581 F50
M106 S0
M106 S255
G1 X0.857 Y13.507 F50
M106 S0
M106 S255
G1 X0.858 Y13.432 F50
M106 S0
M106 S255
G1 X0.863 Y13.356 F50
M106 S0
M106 S255
G1 X0.872 Y13.281 F50
M106 S0
M106 S255
G1 X0.884 Y13.206 F50
M106 S0
M106 S255
G1 X0.9 Y13.132 F50
M106 S0
M106 S255
G1 X0.919 Y13.059 F50
M106 S0
M106 S255
G1 X0.941 Y12.987 F50
M106 S0
M106 S255
G1 X0.968 Y12.918 F50
M106 S0
M106 S255
G1 X1.0 Y12.852 F50
M106 S0
M106 S255
G1 X1.038 Y12.788 F50
M106 S0
M106 S255
G1 X1.081 Y12.729 F50
M106 S0
M106 S255
G1 X1.13 Y12.673 F50
M106 S0
M106 S255
G1 X1.184 Y12.621 F50
M106 S0
M106 S255
G1 X1.242 Y12.572 F50
M106 S0
M106 S255
G1 X1.303 Y12.528 F50
M106 S0
M106 S255
G1 X1.368 Y12.488 F50
M106 S0
M106 S255
G1 X1.434 Y12.452 F50
M106 S0
M106 S255
G1 X1.501 Y12.419 F50
M106 S0
M106 S255
G1 X1.57 Y12.391 F50
M106 S0
M106 S255
G1 X1.639 Y12.365 F50
M106 S0
M106 S255
G1 X1.71 Y12.343 F50
M106 S0
M106 S255
G1 X1.781 Y12.322 F50
M106 S0
M106 S255
G1 X1.853 Y12.304 F50
M106 S0
M106 S255
G1 X1.926 Y12.287 F50
M106 S0
M106 S255
G1 X1.998 Y12.27 F50
M106 S0
M106 S255
G1 X2.071 Y12.255 F50
M106 S0
M106 S255
G1 X2.79 Y7.979 F50
M106 S0
M106 S255
G1 X2.79 Y3.171 F50
M106 S0
M106 S255
G1 X3.024 Y3.149 F50
M106 S0
M106 S255
G1 X3.259 Y3.127 F50
M106 S0
M106 S255
G1 X3.493 Y3.105 F50
M106 S0
M106 S255
G1 X3.728 Y3.083 F50
M106 S0
M106 S255
G1 X3.962 Y3.06 F50
M106 S0
M106 S255
G1 X4.197 Y3.037 F50
M106 S0
M106 S255
G1 X4.431 Y3.014 F50
M106 S0
M106 S255
G1 X4.666 Y2.99 F50
M106 S0
M106 S255
G1 X4.85 Y2.971 F50
M106 S0
M106 S255
G1 X5.135 Y2.941 F50
M106 S0
M106 S255
G1 X5.37 Y2.916 F50
M106 S0
M106 S255
G1 X5.604 Y2.892 F50
M106 S0
M106 S255
G1 X5.839 Y2.869 F50
M106 S0
M106 S255
G1 X6.074 Y2.848 F50
M106 S0
M106 S255
G1 X6.308 Y2.829 F50
M106 S0
M106 S255
G1 X6.543 Y2.813 F50
M106 S0
M106 S255
G1 X6.778 Y2.8 F50
M106 S0
M106 S255
G1 X6.998 Y2.791 F50
M106 S0
M106 S255
G1 X7.249 Y2.786 F50
M106 S0
M106 S255
G1 X7.485 Y2.784 F50
M106 S0
M106 S255
G1 X7.72 Y2.785 F50
M106 S0
M106 S255
G1 X7.956 Y2.788 F50
M106 S0
M106 S255
G1 X8.192 Y2.791 F50
M106 S0
G0 X26.736 Y3.613 F6000
M106 S255
G1 X26.736 Y3.613 F50
M106 S0
M106 S255
G1 X26.731 Y3.613 F50
M106 S0
M106 S255
G1 X26.726 Y3.613 F50
M106 S0
M106 S255
G1 X26.721 Y3.613 F50
M106 S0
M106 S255
G1 X26.717 Y3.613 F50
M106 S0
M106 S255
G1 X26.712 Y3.613 F50
M106 S0
M106 S255
G1 X26.707 Y3.613 F50
M106 S0
M106 S255
G1 X26.702 Y3.613 F50
M106 S0
M106 S255
G1 X26.697 Y3.613 F50
M106 S0
M106 S255
G1 X26.692 Y3.612 F50
M106 S0
M106 S255
G1 X26.687 Y3.612 F50
M106 S0
M106 S255
G1 X26.682 Y3.612 F50
M106 S0
M106 S255
G1 X26.677 Y3.612 F50
M106 S0
M106 S255
G1 X26.672 Y3.612 F50
M106 S0
M106 S255
G1 X26.668 Y3.613 F50
M106 S0
M106 S255
G1 X26.663 Y3.613 F50
M106 S0
M106 S255
G1 X26.658 Y3.613 F50
M106 S0
M106 S255
G1 X26.653 Y3.613 F50
M106 S0
M106 S255
G1 X26.648 Y3.613 F50
M106 S0
M106 S255
G1 X26.643 Y3.613 F50
M106 S0
M106 S255
G1 X26.638 Y3.613 F50
M106 S0
M106 S255
G1 X26.633 Y3.613 F50
M106 S0
M106 S255
G1 X26.628 Y3.613 F50
M106 S0
M106 S255
G1 X26.423 Y3.609 F50
M106 S0
M106 S255
G1 X26.219 Y3.605 F50
M106 S0
M106 S255
G1 X26.014 Y3.602 F50
M106 S0
M106 S255
G1 X25.809 Y3.6 F50
M106 S0
M106 S255
G1 X25.604 Y3.6 F50
M106 S0
M106 S255
G1 X25.399 Y3.601 F50
M106 S0
M106 S255
G1 X25.195 Y3.604 F50
M106 S0
M106 S255
G1 X24.99 Y3.61 F50
M106 S0
M106 S255
G1 X24.786 Y3.619 F50
M106 S0
M106 S255
G1 X24.581 Y3.631 F50
M106 S0
M106 S255
G1 X24.377 Y3.645 F50
M106 S0
M106 S255
G1 X24.173 Y3.661 F50
M106 S0
M106 S255
G1 X23.969 Y3.679 F50
M106 S0
M106 S255
G1 X23.765 Y3.698 F50
M106 S0
M106 S255
G1 X23.561 Y3.718 F50
M106 S0
M106 S255
G1 X23.358 Y3.739 F50
M106 S0
M106 S255
G1 X23.154 Y3.761 F50
M106 S0
M106 S255
G1 X22.95 Y3.782 F50
M106 S0
M106 S255
G1 X22.746 Y3.804 F50
M106 S0
M106 S255
G1 X22.543 Y3.825 F50
M106 S0
M106 S255
G1 X22.339 Y3.847 F50
M106 S0
M106 S255
G1 X22.136 Y3.868 F50
M106 S0
M106 S255
G1 X21.932 Y3.89 F50
M106 S0
M106 S255
G1 X21.932 Y4.725 F50
M106 S0
M106 S255
G1 X26.628 Y4.725 F50
M106 S0
M106 S255
G1 X26.682 Y4.725 F50
M106 S0
M106 S255
G1 X26.736 Y4.725 F50
M106 S0
M106 S255
G1 X31.432 Y4.725 F50
M106 S0
M106 S255
G1 X31.432 Y3.89 F50
M106 S0
M106 S255
G1 X31.229 Y3.868 F50
M106 S0
M106 S255
G1 X31.025 Y3.847 F50
M106 S0
M106 S255
G1 X30.822 Y3.825 F50
M106 S0
M106 S255
G1 X30.618 Y3.804 F50
M106 S0
M106 S255
G1 X30.414 Y3.782 F50
M106 S0
M106 S255
G1 X30.211 Y3.761 F50
M106 S0
M106 S255
G1 X30.007 Y3.739 F50
M106 S0
M106 S255
G1 X29.803 Y3.718 F50
M106 S0
M106 S255
G1 X29.599 Y3.698 F50
M106 S0
M106 S255
G1 X29.395 Y3.679 F50
M106 S0
M106 S255
G1 X29.191 Y3.661 F50
M106 S0
M106 S255
G1 X28.987 Y3.645 F50
M106 S0
M106 S255
G1 X28.783 Y3.631 F50
M106 S0
M106 S255
G1 X28.579 Y3.619 F50
M106 S0
M106 S255
G1 X28.374 Y3.61 F50
M106 S0
M106 S255
G1 X28.17 Y3.604 F50
M106 S0
M106 S255
G1 X27.965 Y3.601 F50
M106 S0
M106 S255
G1 X27.76 Y3.6 F50
M106 S0
M106 S255
G1 X27.556 Y3.6 F50
M106 S0
M106 S255
G1 X27.351 Y3.602 F50
M106 S0
M106 S255
G1 X27.146 Y3.605 F50
M106 S0
M106 S255
G1 X26.941 Y3.609 F50
M106 S0
M106 S255
G1 X26.736 Y3.613 F50
M106 S0
G0 X26.682 Y7.665 F6000
M106 S255
G1 X26.682 Y7.665 F50
M106 S0
M106 S255
G1 X26.677 Y7.665 F50
M106 S0
