;GCode generated by Numa's program v0.0
G0 X70.0 Y100.0 F6000
M106 S255
G1 X70.0 Y100.0 F80
M106 S0
M106 S255
G1 X74.27 Y104.215 F80
M106 S0
M106 S255
G1 X95.844 Y104.215 F80
M106 S0
M106 S255
G1 X100.0 Y100.0 F80
M106 S0
G0 X70.0 Y100.0 F6000
M106 S255
G1 X70.0 Y100.0 F80
M106 S0
M106 S255
G1 X74.27 Y104.215 F80
M106 S0
M106 S255
G1 X95.844 Y104.215 F80
M106 S0
M106 S255
G1 X100.0 Y100.0 F80
M106 S0
G0 X70.0 Y100.0 F6000
M106 S255
G1 X70.0 Y100.0 F80
M106 S0
M106 S255
G1 X74.27 Y104.215 F80
M106 S0
M106 S255
G1 X95.844 Y104.215 F80
M106 S0
M106 S255
G1 X100.0 Y100.0 F80
M106 S0
G0 X10.0 Y100.0 F6000
M106 S255
G1 X10.0 Y100.0 F80
M106 S0
M106 S255
G1 X14.27 Y104.215 F80
M106 S0
M106 S255
G1 X35.844 Y104.215 F80
M106 S0
M106 S255
G1 X40.0 Y100.0 F80
M106 S0
G0 X10.0 Y100.0 F6000
M106 S255
G1 X10.0 Y100.0 F80
M106 S0
M106 S255
G1 X14.27 Y104.215 F80
M106 S0
M106 S255
G1 X35.844 Y104.215 F80
M106 S0
M106 S255
G1 X40.0 Y100.0 F80
M106 S0
G0 X10.0 Y100.0 F6000
M106 S255
G1 X10.0 Y100.0 F80
M106 S0
M106 S255
G1 X14.27 Y104.215 F80
M106 S0
M106 S255
G1 X35.844 Y104.215 F80
M106 S0
M106 S255
G1 X40.0 Y100.0 F80
M106 S0
G0 X40.0 Y130.0 F6000
M106 S255
G1 X40.0 Y130.0 F80
M106 S0
M106 S255
G1 X44.27 Y134.215 F80
M106 S0
M106 S255
G1 X65.844 Y134.215 F80
M106 S0
M106 S255
G1 X70.0 Y130.0 F80
M106 S0
G0 X40.0 Y130.0 F6000
M106 S255
G1 X40.0 Y130.0 F80
M106 S0
M106 S255
G1 X44.27 Y134.215 F80
M106 S0
M106 S255
G1 X65.844 Y134.215 F80
M106 S0
M106 S255
G1 X70.0 Y130.0 F80
M106 S0
G0 X40.0 Y130.0 F6000
M106 S255
G1 X40.0 Y130.0 F80
M106 S0
M106 S255
G1 X44.27 Y134.215 F80
M106 S0
M106 S255
G1 X65.844 Y134.215 F80
M106 S0
M106 S255
G1 X70.0 Y130.0 F80
M106 S0
G0 X70.0 Y70.0 F6000
M106 S255
G1 X70.0 Y70.0 F80
M106 S0
M106 S255
G1 X74.27 Y65.785 F80
M106 S0
M106 S255
G1 X95.844 Y65.785 F80
M106 S0
M106 S255
G1 X100.0 Y70.0 F80
M106 S0
G0 X70.0 Y70.0 F6000
M106 S255
G1 X70.0 Y70.0 F80
M106 S0
M106 S255
G1 X74.27 Y65.785 F80
M106 S0
M106 S255
G1 X95.844 Y65.785 F80
M106 S0
M106 S255
G1 X100.0 Y70.0 F80
M106 S0
G0 X70.0 Y70.0 F6000
M106 S255
G1 X70.0 Y70.0 F80
M106 S0
M106 S255
G1 X74.27 Y65.785 F80
M106 S0
M106 S255
G1 X95.844 Y65.785 F80
M106 S0
M106 S255
G1 X100.0 Y70.0 F80
M106 S0
G0 X10.0 Y70.0 F6000
M106 S255
G1 X10.0 Y70.0 F80
M106 S0
M106 S255
G1 X14.27 Y65.785 F80
M106 S0
M106 S255
G1 X35.844 Y65.785 F80
M106 S0
M106 S255
G1 X40.0 Y70.0 F80
M106 S0
G0 X10.0 Y70.0 F6000
M106 S255
G1 X10.0 Y70.0 F80
M106 S0
M106 S255
G1 X14.27 Y65.785 F80
M106 S0
M106 S255
G1 X35.844 Y65.785 F80
M106 S0
M106 S255
G1 X40.0 Y70.0 F80
M106 S0
G0 X10.0 Y70.0 F6000
M106 S255
G1 X10.0 Y70.0 F80
M106 S0
M106 S255
G1 X14.27 Y65.785 F80
M106 S0
M106 S255
G1 X35.844 Y65.785 F80
M106 S0
M106 S255
G1 X40.0 Y70.0 F80
M106 S0
G0 X70.0 Y10.0 F6000
M106 S255
G1 X70.0 Y10.0 F80
M106 S0
M106 S255
G1 X74.215 Y14.27 F80
M106 S0
M106 S255
G1 X74.215 Y35.844 F80
M106 S0
M106 S255
G1 X70.0 Y40.0 F80
M106 S0
G0 X70.0 Y10.0 F6000
M106 S255
G1 X70.0 Y10.0 F80
M106 S0
M106 S255
G1 X74.215 Y14.27 F80
M106 S0
M106 S255
G1 X74.215 Y35.844 F80
M106 S0
M106 S255
G1 X70.0 Y40.0 F80
M106 S0
G0 X70.0 Y10.0 F6000
M106 S255
G1 X70.0 Y10.0 F80
M106 S0
M106 S255
G1 X74.215 Y14.27 F80
M106 S0
M106 S255
G1 X74.215 Y35.844 F80
M106 S0
M106 S255
G1 X70.0 Y40.0 F80
M106 S0
G0 X40.0 Y10.0 F6000
M106 S255
G1 X40.0 Y10.0 F80
M106 S0
M106 S255
G1 X35.785 Y14.27 F80
M106 S0
M106 S255
G1 X35.785 Y35.844 F80
M106 S0
M106 S255
G1 X40.0 Y40.0 F80
M106 S0
G0 X40.0 Y10.0 F6000
M106 S255
G1 X40.0 Y10.0 F80
M106 S0
M106 S255
G1 X35.785 Y14.27 F80
M106 S0
M106 S255
G1 X35.785 Y35.844 F80
M106 S0
M106 S255
G1 X40.0 Y40.0 F80
M106 S0
G0 X40.0 Y10.0 F6000
M106 S255
G1 X40.0 Y10.0 F80
M106 S0
M106 S255
G1 X35.785 Y14.27 F80
M106 S0
M106 S255
G1 X35.785 Y35.844 F80
M106 S0
M106 S255
G1 X40.0 Y40.0 F80
M106 S0
G0 X70.0 Y10.0 F6000
M106 S255
G1 X70.0 Y10.0 F80
M106 S0
M106 S255
G1 X40.0 Y10.0 F80
M106 S0
G0 X70.0 Y10.0 F6000
M106 S255
G1 X70.0 Y10.0 F80
M106 S0
M106 S255
G1 X40.0 Y10.0 F80
M106 S0
G0 X70.0 Y10.0 F6000
M106 S255
G1 X70.0 Y10.0 F80
M106 S0
M106 S255
G1 X40.0 Y10.0 F80
M106 S0
G0 X40.0 Y70.0 F6000
M106 S255
G1 X40.0 Y70.0 F80
M106 S0
M106 S255
G1 X40.0 Y40.0 F80
M106 S0
G0 X40.0 Y70.0 F6000
M106 S255
G1 X40.0 Y70.0 F80
M106 S0
M106 S255
G1 X40.0 Y40.0 F80
M106 S0
G0 X40.0 Y70.0 F6000
M106 S255
G1 X40.0 Y70.0 F80
M106 S0
M106 S255
G1 X40.0 Y40.0 F80
M106 S0
G0 X70.0 Y70.0 F6000
M106 S255
G1 X70.0 Y70.0 F80
M106 S0
M106 S255
G1 X70.0 Y40.0 F80
M106 S0
G0 X70.0 Y70.0 F6000
M106 S255
G1 X70.0 Y70.0 F80
M106 S0
M106 S255
G1 X70.0 Y40.0 F80
M106 S0
G0 X70.0 Y70.0 F6000
M106 S255
G1 X70.0 Y70.0 F80
M106 S0
M106 S255
G1 X70.0 Y40.0 F80
M106 S0
G0 X70.0 Y130.0 F6000
M106 S255
G1 X70.0 Y130.0 F80
M106 S0
M106 S255
G1 X70.0 Y100.0 F80
M106 S0
G0 X70.0 Y130.0 F6000
M106 S255
G1 X70.0 Y130.0 F80
M106 S0
M106 S255
G1 X70.0 Y100.0 F80
M106 S0
G0 X70.0 Y130.0 F6000
M106 S255
G1 X70.0 Y130.0 F80
M106 S0
M106 S255
G1 X70.0 Y100.0 F80
M106 S0
G0 X100.0 Y100.0 F6000
M106 S255
G1 X100.0 Y100.0 F80
M106 S0
M106 S255
G1 X100.0 Y70.0 F80
M106 S0
G0 X100.0 Y100.0 F6000
M106 S255
G1 X100.0 Y100.0 F80
M106 S0
M106 S255
G1 X100.0 Y70.0 F80
M106 S0
G0 X100.0 Y100.0 F6000
M106 S255
G1 X100.0 Y100.0 F80
M106 S0
M106 S255
G1 X100.0 Y70.0 F80
M106 S0
G0 X10.0 Y100.0 F6000
M106 S255
G1 X10.0 Y100.0 F80
M106 S0
M106 S255
G1 X10.0 Y70.0 F80
M106 S0
G0 X10.0 Y100.0 F6000
M106 S255
G1 X10.0 Y100.0 F80
M106 S0
M106 S255
G1 X10.0 Y70.0 F80
M106 S0
G0 X10.0 Y100.0 F6000
M106 S255
G1 X10.0 Y100.0 F80
M106 S0
M106 S255
G1 X10.0 Y70.0 F80
M106 S0
G0 X40.0 Y130.0 F6000
M106 S255
G1 X40.0 Y130.0 F80
M106 S0
M106 S255
G1 X40.0 Y100.0 F80
M106 S0
G0 X40.0 Y130.0 F6000
M106 S255
G1 X40.0 Y130.0 F80
M106 S0
M106 S255
G1 X40.0 Y100.0 F80
M106 S0
G0 X40.0 Y130.0 F6000
M106 S255
G1 X40.0 Y130.0 F80
M106 S0
M106 S255
G1 X40.0 Y100.0 F80
M106 S0
M106 S0
