;GCode generated by Numa's program v0.0
G0 X49.7 Y62.637 F6000
M106 S255
G1 X49.7 Y62.637 F150
M106 S0
M106 S255
G1 X49.7 Y65.637 F150
M106 S0
M106 S255
G1 X46.7 Y65.637 F150
M106 S0
M106 S255
G1 X46.7 Y62.637 F150
M106 S0
M106 S255
G1 X49.7 Y62.637 F150
M106 S0
G0 X63.465 Y62.395 F6000
M106 S255
G1 X63.465 Y62.395 F150
M106 S0
M106 S255
G1 X63.465 Y65.395 F150
M106 S0
M106 S255
G1 X60.465 Y65.395 F150
M106 S0
M106 S255
G1 X60.465 Y62.395 F150
M106 S0
M106 S255
G1 X63.465 Y62.395 F150
M106 S0
G0 X63.465 Y53.448 F6000
M106 S255
G1 X63.465 Y53.448 F150
M106 S0
M106 S255
G1 X63.465 Y56.448 F150
M106 S0
M106 S255
G1 X60.465 Y56.448 F150
M106 S0
M106 S255
G1 X60.465 Y53.448 F150
M106 S0
M106 S255
G1 X63.465 Y53.448 F150
M106 S0
G0 X63.466 Y44.501 F6000
M106 S255
G1 X63.466 Y44.501 F150
M106 S0
M106 S255
G1 X63.466 Y47.501 F150
M106 S0
M106 S255
G1 X60.466 Y47.501 F150
M106 S0
M106 S255
G1 X60.466 Y44.501 F150
M106 S0
M106 S255
G1 X63.466 Y44.501 F150
M106 S0
G0 X49.7 Y44.798 F6000
M106 S255
G1 X49.7 Y44.798 F150
M106 S0
M106 S255
G1 X49.7 Y47.798 F150
M106 S0
M106 S255
G1 X46.7 Y47.798 F150
M106 S0
M106 S255
G1 X46.7 Y44.798 F150
M106 S0
M106 S255
G1 X49.7 Y44.798 F150
M106 S0
G0 X49.7 Y53.596 F6000
M106 S255
G1 X49.7 Y53.596 F150
M106 S0
M106 S255
G1 X49.7 Y56.596 F150
M106 S0
M106 S255
G1 X46.7 Y56.596 F150
M106 S0
M106 S255
G1 X46.7 Y53.596 F150
M106 S0
M106 S255
G1 X49.7 Y53.596 F150
M106 S0
G0 X47.7 Y32.637 F6000
M106 S255
G1 X47.7 Y32.637 F150
M106 S0
M106 S255
G1 X47.7 Y35.637 F150
M106 S0
M106 S255
G1 X44.7 Y35.637 F150
M106 S0
M106 S255
G1 X44.7 Y32.637 F150
M106 S0
M106 S255
G1 X47.7 Y32.637 F150
M106 S0
G0 X65.465 Y32.395 F6000
M106 S255
G1 X65.465 Y32.395 F150
M106 S0
M106 S255
G1 X65.465 Y35.395 F150
M106 S0
M106 S255
G1 X62.465 Y35.395 F150
M106 S0
M106 S255
G1 X62.465 Y32.395 F150
M106 S0
M106 S255
G1 X65.465 Y32.395 F150
M106 S0
G0 X65.466 Y14.587 F6000
M106 S255
G1 X65.466 Y14.587 F150
M106 S0
M106 S255
G1 X65.466 Y17.587 F150
M106 S0
M106 S255
G1 X62.466 Y17.587 F150
M106 S0
M106 S255
G1 X62.466 Y14.587 F150
M106 S0
M106 S255
G1 X65.466 Y14.587 F150
M106 S0
G0 X47.7 Y14.798 F6000
M106 S255
G1 X47.7 Y14.798 F150
M106 S0
M106 S255
G1 X47.7 Y17.798 F150
M106 S0
M106 S255
G1 X44.7 Y17.798 F150
M106 S0
M106 S255
G1 X44.7 Y14.798 F150
M106 S0
M106 S255
G1 X47.7 Y14.798 F150
M106 S0
G0 X93.157 Y76.985 F6000
M106 S255
G1 X93.157 Y76.985 F150
M106 S0
M106 S255
G1 X93.157 Y79.985 F150
M106 S0
M106 S255
G1 X90.157 Y79.985 F150
M106 S0
M106 S255
G1 X90.157 Y76.985 F150
M106 S0
M106 S255
G1 X93.157 Y76.985 F150
M106 S0
G0 X80.072 Y90.241 F6000
M106 S255
G1 X80.072 Y90.241 F150
M106 S0
M106 S255
G1 X80.072 Y93.241 F150
M106 S0
M106 S255
G1 X77.072 Y93.241 F150
M106 S0
M106 S255
G1 X77.072 Y90.241 F150
M106 S0
M106 S255
G1 X80.072 Y90.241 F150
M106 S0
G0 X56.402 Y113.403 F6000
M106 S255
G1 X56.402 Y113.403 F150
M106 S0
M106 S255
G1 X56.402 Y116.403 F150
M106 S0
M106 S255
G1 X53.402 Y116.403 F150
M106 S0
M106 S255
G1 X53.402 Y113.403 F150
M106 S0
M106 S255
G1 X56.402 Y113.403 F150
M106 S0
G0 X48.907 Y91.387 F6000
M106 S255
G1 X48.907 Y91.387 F150
M106 S0
M106 S255
G1 X48.907 Y94.387 F150
M106 S0
M106 S255
G1 X45.907 Y94.387 F150
M106 S0
M106 S255
G1 X45.907 Y91.387 F150
M106 S0
M106 S255
G1 X48.907 Y91.387 F150
M106 S0
G0 X56.598 Y83.597 F6000
M106 S255
G1 X56.598 Y83.597 F150
M106 S0
M106 S255
G1 X56.598 Y86.597 F150
M106 S0
M106 S255
G1 X53.598 Y86.597 F150
M106 S0
M106 S255
G1 X53.598 Y83.597 F150
M106 S0
M106 S255
G1 X56.598 Y83.597 F150
M106 S0
G0 X64.288 Y75.806 F6000
M106 S255
G1 X64.288 Y75.806 F150
M106 S0
M106 S255
G1 X64.288 Y78.806 F150
M106 S0
M106 S255
G1 X61.288 Y78.806 F150
M106 S0
M106 S255
G1 X61.288 Y75.806 F150
M106 S0
M106 S255
G1 X64.288 Y75.806 F150
M106 S0
G0 X35.465 Y92.395 F6000
M106 S255
G1 X35.465 Y92.395 F150
M106 S0
M106 S255
G1 X35.465 Y95.395 F150
M106 S0
M106 S255
G1 X32.465 Y95.395 F150
M106 S0
M106 S255
G1 X32.465 Y92.395 F150
M106 S0
M106 S255
G1 X35.465 Y92.395 F150
M106 S0
G0 X17.7 Y92.637 F6000
M106 S255
G1 X17.7 Y92.637 F150
M106 S0
M106 S255
G1 X17.7 Y95.637 F150
M106 S0
M106 S255
G1 X14.7 Y95.637 F150
M106 S0
M106 S255
G1 X14.7 Y92.637 F150
M106 S0
M106 S255
G1 X17.7 Y92.637 F150
M106 S0
G0 X26.598 Y83.597 F6000
M106 S255
G1 X26.598 Y83.597 F150
M106 S0
M106 S255
G1 X26.598 Y86.597 F150
M106 S0
M106 S255
G1 X23.598 Y86.597 F150
M106 S0
M106 S255
G1 X23.598 Y83.597 F150
M106 S0
M106 S255
G1 X26.598 Y83.597 F150
M106 S0
G0 X35.466 Y74.587 F6000
M106 S255
G1 X35.466 Y74.587 F150
M106 S0
M106 S255
G1 X35.466 Y77.587 F150
M106 S0
M106 S255
G1 X32.466 Y77.587 F150
M106 S0
M106 S255
G1 X32.466 Y74.587 F150
M106 S0
M106 S255
G1 X35.466 Y74.587 F150
M106 S0
G0 X17.7 Y74.798 F6000
M106 S255
G1 X17.7 Y74.798 F150
M106 S0
M106 S255
G1 X17.7 Y77.798 F150
M106 S0
M106 S255
G1 X14.7 Y77.798 F150
M106 S0
M106 S255
G1 X14.7 Y74.798 F150
M106 S0
M106 S255
G1 X17.7 Y74.798 F150
M106 S0
G0 X10.0 Y100.0 F6000
M106 S255
G1 X10.0 Y100.0 F150
M106 S0
M106 S255
G1 X100.0 Y100.0 F150
M106 S0
G0 X40.0 Y100.0 F6000
M106 S255
G1 X40.0 Y100.0 F150
M106 S0
M106 S255
G1 X40.0 Y70.0 F150
M106 S0
G0 X70.0 Y100.0 F6000
M106 S255
G1 X70.0 Y100.0 F150
M106 S0
M106 S255
G1 X70.0 Y70.0 F150
M106 S0
G0 X10.0 Y70.0 F6000
M106 S255
G1 X10.0 Y70.0 F150
M106 S0
M106 S255
G1 X100.0 Y70.0 F150
M106 S0
G0 X40.0 Y10.0 F6000
M106 S255
G1 X40.0 Y10.0 F150
M106 S0
M106 S255
G1 X40.0 Y40.0 F150
M106 S0
M106 S255
G1 X70.0 Y40.0 F150
M106 S0
M106 S255
G1 X70.0 Y10.0 F150
M106 S0
G0 X40.0 Y130.0 F6000
M106 S255
G1 X40.0 Y130.0 F150
M106 S0
M106 S255
G1 X70.0 Y130.0 F150
M106 S0
M106 S0
