;GCode generated by Numa's program v0.0
G0 X0.0 Y0.0 F6000
M106 S255
G1 X0.0 Y0.0 F80
M106 S0
M106 S255
G1 X0.0 Y180.0 F80
M106 S0
M106 S255
G1 X120.0 Y180.0 F80
M106 S0
M106 S255
G1 X120.0 Y0.0 F80
M106 S0
M106 S255
G1 X-0.0 Y0.0 F80
M106 S0
G0 X0.0 Y0.0 F6000
M106 S255
G1 X0.0 Y0.0 F80
M106 S0
M106 S255
G1 X0.0 Y180.0 F80
M106 S0
M106 S255
G1 X120.0 Y180.0 F80
M106 S0
M106 S255
G1 X120.0 Y0.0 F80
M106 S0
M106 S255
G1 X-0.0 Y0.0 F80
M106 S0
M106 S0
