;GCode generated by Numa's program v0.0
G0 X50.938 Y18.313 F6000
M106 S255
G1 X50.938 Y18.313 F80
M106 S0
M106 S255
G1 X55.981 Y11.592 F80
M106 S0
M106 S255
G1 X64.105 Y16.55 F80
M106 S0
M106 S255
G1 X62.388 Y36.135 F80
M106 S0
M106 S255
G1 X47.687 Y44.16 F80
M106 S0
M106 S255
G1 X50.938 Y18.313 F80
M106 S0
G0 X50.938 Y18.313 F6000
M106 S255
G1 X50.938 Y18.313 F80
M106 S0
M106 S255
G1 X55.981 Y11.592 F80
M106 S0
M106 S255
G1 X64.105 Y16.55 F80
M106 S0
M106 S255
G1 X62.388 Y36.135 F80
M106 S0
M106 S255
G1 X47.687 Y44.16 F80
M106 S0
M106 S255
G1 X50.938 Y18.313 F80
M106 S0
G0 X38.897 Y21.886 F6000
M106 S255
G1 X38.897 Y21.886 F80
M106 S0
M106 S255
G1 X49.029 Y19.173 F80
M106 S0
M106 S255
G1 X45.841 Y44.516 F80
M106 S0
M106 S255
G1 X27.017 Y36.887 F80
M106 S0
M106 S255
G1 X38.897 Y21.886 F80
M106 S0
G0 X38.897 Y21.886 F6000
M106 S255
G1 X38.897 Y21.886 F80
M106 S0
M106 S255
G1 X49.029 Y19.173 F80
M106 S0
M106 S255
G1 X45.841 Y44.516 F80
M106 S0
M106 S255
G1 X27.017 Y36.887 F80
M106 S0
M106 S255
G1 X38.897 Y21.886 F80
M106 S0
G0 X74.92 Y37.584 F6000
M106 S255
G1 X74.92 Y37.584 F80
M106 S0
M106 S255
G1 X63.49 Y55.109 F80
M106 S0
M106 S255
G1 X48.364 Y45.826 F80
M106 S0
M106 S255
G1 X63.465 Y37.584 F80
M106 S0
M106 S255
G1 X74.92 Y37.584 F80
M106 S0
G0 X74.92 Y37.584 F6000
M106 S255
G1 X74.92 Y37.584 F80
M106 S0
M106 S255
G1 X63.49 Y55.109 F80
M106 S0
M106 S255
G1 X48.364 Y45.826 F80
M106 S0
M106 S255
G1 X63.465 Y37.584 F80
M106 S0
M106 S255
G1 X74.92 Y37.584 F80
M106 S0
G0 X45.911 Y48.218 F6000
M106 S255
G1 X45.911 Y48.218 F80
M106 S0
M106 S255
G1 X38.434 Y58.478 F80
M106 S0
M106 S255
G1 X47.758 Y68.133 F80
M106 S0
M106 S255
G1 X45.911 Y48.218 F80
M106 S0
G0 X45.911 Y48.218 F6000
M106 S255
G1 X45.911 Y48.218 F80
M106 S0
M106 S255
G1 X38.434 Y58.478 F80
M106 S0
M106 S255
G1 X47.758 Y68.133 F80
M106 S0
M106 S255
G1 X45.911 Y48.218 F80
M106 S0
G0 X45.187 Y46.179 F6000
M106 S255
G1 X45.187 Y46.179 F80
M106 S0
M106 S255
G1 X37.376 Y56.896 F80
M106 S0
M106 S255
G1 X27.568 Y39.038 F80
M106 S0
M106 S255
G1 X45.187 Y46.179 F80
M106 S0
G0 X45.187 Y46.179 F6000
M106 S255
G1 X45.187 Y46.179 F80
M106 S0
M106 S255
G1 X37.376 Y56.896 F80
M106 S0
M106 S255
G1 X27.568 Y39.038 F80
M106 S0
M106 S255
G1 X45.187 Y46.179 F80
M106 S0
G0 X75.622 Y39.778 F6000
M106 S255
G1 X75.622 Y39.778 F80
M106 S0
M106 S255
G1 X64.878 Y56.252 F80
M106 S0
M106 S255
G1 X75.126 Y68.215 F80
M106 S0
M106 S255
G1 X75.622 Y39.778 F80
M106 S0
G0 X75.622 Y39.778 F6000
M106 S255
G1 X75.622 Y39.778 F80
M106 S0
M106 S255
G1 X64.878 Y56.252 F80
M106 S0
M106 S255
G1 X75.126 Y68.215 F80
M106 S0
M106 S255
G1 X75.622 Y39.778 F80
M106 S0
G0 X82.616 Y43.503 F6000
M106 S255
G1 X82.616 Y43.503 F80
M106 S0
M106 S255
G1 X76.993 Y63.629 F80
M106 S0
M106 S255
G1 X77.428 Y38.702 F80
M106 S0
M106 S255
G1 X82.616 Y43.503 F80
M106 S0
G0 X82.616 Y43.503 F6000
M106 S255
G1 X82.616 Y43.503 F80
M106 S0
M106 S255
G1 X76.993 Y63.629 F80
M106 S0
M106 S255
G1 X77.428 Y38.702 F80
M106 S0
M106 S255
G1 X82.616 Y43.503 F80
M106 S0
G0 X77.655 Y36.477 F6000
M106 S255
G1 X77.655 Y36.477 F80
M106 S0
M106 S255
G1 X79.912 Y31.648 F80
M106 S0
M106 S255
G1 X82.062 Y40.555 F80
M106 S0
M106 S255
G1 X77.655 Y36.477 F80
M106 S0
G0 X77.655 Y36.477 F6000
M106 S255
G1 X77.655 Y36.477 F80
M106 S0
M106 S255
G1 X79.912 Y31.648 F80
M106 S0
M106 S255
G1 X82.062 Y40.555 F80
M106 S0
M106 S255
G1 X77.655 Y36.477 F80
M106 S0
G0 X76.7 Y34.301 F6000
M106 S255
G1 X76.7 Y34.301 F80
M106 S0
M106 S255
G1 X79.037 Y29.301 F80
M106 S0
M106 S255
G1 X73.918 Y26.135 F80
M106 S0
M106 S255
G1 X76.7 Y34.301 F80
M106 S0
G0 X76.7 Y34.301 F6000
M106 S255
G1 X76.7 Y34.301 F80
M106 S0
M106 S255
G1 X79.037 Y29.301 F80
M106 S0
M106 S255
G1 X73.918 Y26.135 F80
M106 S0
M106 S255
G1 X76.7 Y34.301 F80
M106 S0
G0 X64.975 Y35.797 F6000
M106 S255
G1 X64.975 Y35.797 F80
M106 S0
M106 S255
G1 X75.321 Y35.797 F80
M106 S0
M106 S255
G1 X71.984 Y25.998 F80
M106 S0
M106 S255
G1 X64.975 Y35.797 F80
M106 S0
G0 X64.975 Y35.797 F6000
M106 S255
G1 X64.975 Y35.797 F80
M106 S0
M106 S255
G1 X75.321 Y35.797 F80
M106 S0
M106 S255
G1 X71.984 Y25.998 F80
M106 S0
M106 S255
G1 X64.975 Y35.797 F80
M106 S0
G0 X64.412 Y33.511 F6000
M106 S255
G1 X64.412 Y33.511 F80
M106 S0
M106 S255
G1 X71.123 Y24.129 F80
M106 S0
M106 S255
G1 X65.754 Y18.194 F80
M106 S0
M106 S255
G1 X64.412 Y33.511 F80
M106 S0
G0 X64.412 Y33.511 F6000
M106 S255
G1 X64.412 Y33.511 F80
M106 S0
M106 S255
G1 X71.123 Y24.129 F80
M106 S0
M106 S255
G1 X65.754 Y18.194 F80
M106 S0
M106 S255
G1 X64.412 Y33.511 F80
M106 S0
G0 X58.606 Y77.136 F6000
M106 S255
G1 X58.606 Y77.136 F80
M106 S0
M106 S255
G1 X64.257 Y77.07 F80
M106 S0
M106 S255
G1 X64.325 Y71.349 F80
M106 S0
M106 S255
G1 X58.411 Y71.348 F80
M106 S0
M106 S255
G1 X58.606 Y77.136 F80
M106 S0
G0 X58.606 Y77.136 F6000
M106 S255
G1 X58.606 Y77.136 F80
M106 S0
M106 S255
G1 X64.257 Y77.07 F80
M106 S0
M106 S255
G1 X64.325 Y71.349 F80
M106 S0
M106 S255
G1 X58.411 Y71.348 F80
M106 S0
M106 S255
G1 X58.606 Y77.136 F80
M106 S0
G0 X55.708 Y82.64 F6000
M106 S255
G1 X55.708 Y82.64 F80
M106 S0
M106 S255
G1 X52.738 Y94.886 F80
M106 S0
M106 S255
G1 X47.154 Y95.275 F80
M106 S0
M106 S255
G1 X55.708 Y82.64 F80
M106 S0
G0 X55.708 Y82.64 F6000
M106 S255
G1 X55.708 Y82.64 F80
M106 S0
M106 S255
G1 X52.738 Y94.886 F80
M106 S0
M106 S255
G1 X47.154 Y95.275 F80
M106 S0
M106 S255
G1 X55.708 Y82.64 F80
M106 S0
G0 X47.489 Y85.914 F6000
M106 S255
G1 X47.489 Y85.914 F80
M106 S0
M106 S255
G1 X54.467 Y81.285 F80
M106 S0
M106 S255
G1 X46.694 Y92.767 F80
M106 S0
M106 S255
G1 X47.489 Y85.914 F80
M106 S0
G0 X47.489 Y85.914 F6000
M106 S255
G1 X47.489 Y85.914 F80
M106 S0
M106 S255
G1 X54.467 Y81.285 F80
M106 S0
M106 S255
G1 X46.694 Y92.767 F80
M106 S0
M106 S255
G1 X47.489 Y85.914 F80
M106 S0
G0 X50.275 Y81.922 F6000
M106 S255
G1 X50.275 Y81.922 F80
M106 S0
M106 S255
G1 X56.833 Y77.571 F80
M106 S0
M106 S255
G1 X56.682 Y73.086 F80
M106 S0
M106 S255
G1 X50.275 Y81.922 F80
M106 S0
G0 X50.275 Y81.922 F6000
M106 S255
G1 X50.275 Y81.922 F80
M106 S0
M106 S255
G1 X56.833 Y77.571 F80
M106 S0
M106 S255
G1 X56.682 Y73.086 F80
M106 S0
M106 S255
G1 X50.275 Y81.922 F80
M106 S0
G0 X70.126 Y81.154 F6000
M106 S255
G1 X70.126 Y81.154 F80
M106 S0
M106 S255
G1 X66.038 Y77.554 F80
M106 S0
M106 S255
G1 X66.082 Y73.843 F80
M106 S0
M106 S255
G1 X70.126 Y81.154 F80
M106 S0
G0 X70.126 Y81.154 F6000
M106 S255
G1 X70.126 Y81.154 F80
M106 S0
M106 S255
G1 X66.038 Y77.554 F80
M106 S0
M106 S255
G1 X66.082 Y73.843 F80
M106 S0
M106 S255
G1 X70.126 Y81.154 F80
M106 S0
G0 X72.552 Y85.67 F6000
M106 S255
G1 X72.552 Y85.67 F80
M106 S0
M106 S255
G1 X73.221 Y91.608 F80
M106 S0
M106 S255
G1 X68.125 Y81.772 F80
M106 S0
M106 S255
G1 X72.552 Y85.67 F80
M106 S0
G0 X72.552 Y85.67 F6000
M106 S255
G1 X72.552 Y85.67 F80
M106 S0
M106 S255
G1 X73.221 Y91.608 F80
M106 S0
M106 S255
G1 X68.125 Y81.772 F80
M106 S0
M106 S255
G1 X72.552 Y85.67 F80
M106 S0
G0 X49.782 Y70.609 F6000
M106 S255
G1 X49.782 Y70.609 F80
M106 S0
M106 S255
G1 X48.079 Y81.905 F80
M106 S0
M106 S255
G1 X57.031 Y69.56 F80
M106 S0
M106 S255
G1 X65.756 Y69.56 F80
M106 S0
M106 S255
G1 X72.959 Y82.583 F80
M106 S0
M106 S255
G1 X75.025 Y70.844 F80
M106 S0
M106 S255
G1 X63.176 Y57.013 F80
M106 S0
M106 S255
G1 X47.637 Y47.476 F80
M106 S0
M106 S255
G1 X49.782 Y70.609 F80
M106 S0
G0 X49.782 Y70.609 F6000
M106 S255
G1 X49.782 Y70.609 F80
M106 S0
M106 S255
G1 X48.079 Y81.905 F80
M106 S0
M106 S255
G1 X57.031 Y69.56 F80
M106 S0
M106 S255
G1 X65.756 Y69.56 F80
M106 S0
M106 S255
G1 X72.959 Y82.583 F80
M106 S0
M106 S255
G1 X75.025 Y70.844 F80
M106 S0
M106 S255
G1 X63.176 Y57.013 F80
M106 S0
M106 S255
G1 X47.637 Y47.476 F80
M106 S0
M106 S255
G1 X49.782 Y70.609 F80
M106 S0
G0 X66.367 Y82.263 F6000
M106 S255
G1 X66.367 Y82.263 F80
M106 S0
M106 S255
G1 X67.323 Y94.725 F80
M106 S0
M106 S255
G1 X73.104 Y95.267 F80
M106 S0
M106 S255
G1 X66.367 Y82.263 F80
M106 S0
G0 X66.367 Y82.263 F6000
M106 S255
G1 X66.367 Y82.263 F80
M106 S0
M106 S255
G1 X67.323 Y94.725 F80
M106 S0
M106 S255
G1 X73.104 Y95.267 F80
M106 S0
M106 S255
G1 X66.367 Y82.263 F80
M106 S0
G0 X65.384 Y98.46 F6000
M106 S255
G1 X65.384 Y98.46 F80
M106 S0
M106 S255
G1 X61.379 Y103.697 F80
M106 S0
M106 S255
G1 X64.708 Y107.879 F80
M106 S0
M106 S255
G1 X65.384 Y98.46 F80
M106 S0
G0 X65.384 Y98.46 F6000
M106 S255
G1 X65.384 Y98.46 F80
M106 S0
M106 S255
G1 X61.379 Y103.697 F80
M106 S0
M106 S255
G1 X64.708 Y107.879 F80
M106 S0
M106 S255
G1 X65.384 Y98.46 F80
M106 S0
G0 X67.315 Y96.519 F6000
M106 S255
G1 X67.315 Y96.519 F80
M106 S0
M106 S255
G1 X73.567 Y97.105 F80
M106 S0
M106 S255
G1 X72.208 Y103.478 F80
M106 S0
M106 S255
G1 X66.476 Y108.21 F80
M106 S0
M106 S255
G1 X67.315 Y96.519 F80
M106 S0
G0 X67.315 Y96.519 F6000
M106 S255
G1 X67.315 Y96.519 F80
M106 S0
M106 S255
G1 X73.567 Y97.105 F80
M106 S0
M106 S255
G1 X72.208 Y103.478 F80
M106 S0
M106 S255
G1 X66.476 Y108.21 F80
M106 S0
M106 S255
G1 X67.315 Y96.519 F80
M106 S0
G0 X76.56 Y97.206 F6000
M106 S255
G1 X76.56 Y97.206 F80
M106 S0
M106 S255
G1 X82.465 Y97.216 F80
M106 S0
M106 S255
G1 X89.333 Y100.807 F80
M106 S0
M106 S255
G1 X94.681 Y112.429 F80
M106 S0
M106 S255
G1 X83.928 Y106.052 F80
M106 S0
M106 S255
G1 X76.56 Y97.206 F80
M106 S0
G0 X76.56 Y97.206 F6000
M106 S255
G1 X76.56 Y97.206 F80
M106 S0
M106 S255
G1 X82.465 Y97.216 F80
M106 S0
M106 S255
G1 X89.333 Y100.807 F80
M106 S0
M106 S255
G1 X94.681 Y112.429 F80
M106 S0
M106 S255
G1 X83.928 Y106.052 F80
M106 S0
M106 S255
G1 X76.56 Y97.206 F80
M106 S0
G0 X74.013 Y103.581 F6000
M106 S255
G1 X74.013 Y103.581 F80
M106 S0
M106 S255
G1 X81.036 Y108.575 F80
M106 S0
M106 S255
G1 X89.205 Y111.259 F80
M106 S0
M106 S255
G1 X82.751 Y107.432 F80
M106 S0
M106 S255
G1 X75.141 Y98.294 F80
M106 S0
M106 S255
G1 X74.013 Y103.581 F80
M106 S0
G0 X74.013 Y103.581 F6000
M106 S255
G1 X74.013 Y103.581 F80
M106 S0
M106 S255
G1 X81.036 Y108.575 F80
M106 S0
M106 S255
G1 X89.205 Y111.259 F80
M106 S0
M106 S255
G1 X82.751 Y107.432 F80
M106 S0
M106 S255
G1 X75.141 Y98.294 F80
M106 S0
M106 S255
G1 X74.013 Y103.581 F80
M106 S0
G0 X87.952 Y122.122 F6000
M106 S255
G1 X87.952 Y122.122 F80
M106 S0
M106 S255
G1 X66.999 Y110.095 F80
M106 S0
M106 S255
G1 X72.921 Y105.207 F80
M106 S0
M106 S255
G1 X87.952 Y122.122 F80
M106 S0
G0 X87.952 Y122.122 F6000
M106 S255
G1 X87.952 Y122.122 F80
M106 S0
M106 S255
G1 X66.999 Y110.095 F80
M106 S0
M106 S255
G1 X72.921 Y105.207 F80
M106 S0
M106 S255
G1 X87.952 Y122.122 F80
M106 S0
G0 X87.032 Y133.088 F6000
M106 S255
G1 X87.032 Y133.088 F80
M106 S0
M106 S255
G1 X89.933 Y142.456 F80
M106 S0
M106 S255
G1 X90.256 Y156.039 F80
M106 S0
M106 S255
G1 X95.996 Y143.042 F80
M106 S0
M106 S255
G1 X87.032 Y133.088 F80
M106 S0
G0 X87.032 Y133.088 F6000
M106 S255
G1 X87.032 Y133.088 F80
M106 S0
M106 S255
G1 X89.933 Y142.456 F80
M106 S0
M106 S255
G1 X90.256 Y156.039 F80
M106 S0
M106 S255
G1 X95.996 Y143.042 F80
M106 S0
M106 S255
G1 X87.032 Y133.088 F80
M106 S0
G0 X69.913 Y113.828 F6000
M106 S255
G1 X69.913 Y113.828 F80
M106 S0
M106 S255
G1 X91.497 Y126.218 F80
M106 S0
M106 S255
G1 X95.171 Y139.456 F80
M106 S0
M106 S255
G1 X85.588 Y128.814 F80
M106 S0
M106 S255
G1 X78.462 Y123.239 F80
M106 S0
M106 S255
G1 X69.913 Y113.828 F80
M106 S0
G0 X69.913 Y113.828 F6000
M106 S255
G1 X69.913 Y113.828 F80
M106 S0
M106 S255
G1 X91.497 Y126.218 F80
M106 S0
M106 S255
G1 X95.171 Y139.456 F80
M106 S0
M106 S255
G1 X85.588 Y128.814 F80
M106 S0
M106 S255
G1 X78.462 Y123.239 F80
M106 S0
M106 S255
G1 X69.913 Y113.828 F80
M106 S0
G0 X77.72 Y127.613 F6000
M106 S255
G1 X77.72 Y127.613 F80
M106 S0
M106 S255
G1 X77.027 Y124.317 F80
M106 S0
M106 S255
G1 X72.072 Y118.862 F80
M106 S0
M106 S255
G1 X77.72 Y127.613 F80
M106 S0
G0 X77.72 Y127.613 F6000
M106 S255
G1 X77.72 Y127.613 F80
M106 S0
M106 S255
G1 X77.027 Y124.317 F80
M106 S0
M106 S255
G1 X72.072 Y118.862 F80
M106 S0
M106 S255
G1 X77.72 Y127.613 F80
M106 S0
G0 X76.404 Y137.028 F6000
M106 S255
G1 X76.404 Y137.028 F80
M106 S0
M106 S255
G1 X79.186 Y134.024 F80
M106 S0
M106 S255
G1 X77.663 Y139.982 F80
M106 S0
M106 S255
G1 X76.404 Y137.028 F80
M106 S0
G0 X76.404 Y137.028 F6000
M106 S255
G1 X76.404 Y137.028 F80
M106 S0
M106 S255
G1 X79.186 Y134.024 F80
M106 S0
M106 S255
G1 X77.663 Y139.982 F80
M106 S0
M106 S255
G1 X76.404 Y137.028 F80
M106 S0
G0 X75.097 Y138.479 F6000
M106 S255
G1 X75.097 Y138.479 F80
M106 S0
M106 S255
G1 X66.888 Y145.173 F80
M106 S0
M106 S255
G1 X76.328 Y141.211 F80
M106 S0
M106 S255
G1 X75.097 Y138.479 F80
M106 S0
G0 X75.097 Y138.479 F6000
M106 S255
G1 X75.097 Y138.479 F80
M106 S0
M106 S255
G1 X66.888 Y145.173 F80
M106 S0
M106 S255
G1 X76.328 Y141.211 F80
M106 S0
M106 S255
G1 X75.097 Y138.479 F80
M106 S0
G0 X69.136 Y117.609 F6000
M106 S255
G1 X69.136 Y117.609 F80
M106 S0
M106 S255
G1 X75.672 Y135.169 F80
M106 S0
M106 S255
G1 X78.466 Y132.065 F80
M106 S0
M106 S255
G1 X69.136 Y117.609 F80
M106 S0
G0 X69.136 Y117.609 F6000
M106 S255
G1 X69.136 Y117.609 F80
M106 S0
M106 S255
G1 X75.672 Y135.169 F80
M106 S0
M106 S255
G1 X78.466 Y132.065 F80
M106 S0
M106 S255
G1 X69.136 Y117.609 F80
M106 S0
G0 X86.041 Y146.522 F6000
M106 S255
G1 X86.041 Y146.522 F80
M106 S0
M106 S255
G1 X81.745 Y148.097 F80
M106 S0
M106 S255
G1 X85.31 Y148.137 F80
M106 S0
M106 S255
G1 X86.041 Y146.522 F80
M106 S0
G0 X86.041 Y146.522 F6000
M106 S255
G1 X86.041 Y146.522 F80
M106 S0
M106 S255
G1 X81.745 Y148.097 F80
M106 S0
M106 S255
G1 X85.31 Y148.137 F80
M106 S0
M106 S255
G1 X86.041 Y146.522 F80
M106 S0
G0 X86.99 Y148.595 F6000
M106 S255
G1 X86.99 Y148.595 F80
M106 S0
M106 S255
G1 X85.443 Y158.583 F80
M106 S0
M106 S255
G1 X84.694 Y161.317 F80
M106 S0
M106 S255
G1 X88.551 Y159.498 F80
M106 S0
M106 S255
G1 X88.233 Y146.156 F80
M106 S0
M106 S255
G1 X86.99 Y148.595 F80
M106 S0
G0 X86.99 Y148.595 F6000
M106 S255
G1 X86.99 Y148.595 F80
M106 S0
M106 S255
G1 X85.443 Y158.583 F80
M106 S0
M106 S255
G1 X84.694 Y161.317 F80
M106 S0
M106 S255
G1 X88.551 Y159.498 F80
M106 S0
M106 S255
G1 X88.233 Y146.156 F80
M106 S0
M106 S255
G1 X86.99 Y148.595 F80
M106 S0
G0 X82.575 Y162.288 F6000
M106 S255
G1 X82.575 Y162.288 F80
M106 S0
M106 S255
G1 X74.536 Y163.414 F80
M106 S0
M106 S255
G1 X83.305 Y159.624 F80
M106 S0
M106 S255
G1 X82.575 Y162.288 F80
M106 S0
G0 X82.575 Y162.288 F6000
M106 S255
G1 X82.575 Y162.288 F80
M106 S0
M106 S255
G1 X74.536 Y163.414 F80
M106 S0
M106 S255
G1 X83.305 Y159.624 F80
M106 S0
M106 S255
G1 X82.575 Y162.288 F80
M106 S0
G0 X33.502 Y148.595 F6000
M106 S255
G1 X33.502 Y148.595 F80
M106 S0
M106 S255
G1 X35.049 Y158.583 F80
M106 S0
M106 S255
G1 X35.798 Y161.317 F80
M106 S0
M106 S255
G1 X31.94 Y159.498 F80
M106 S0
M106 S255
G1 X32.259 Y146.156 F80
M106 S0
M106 S255
G1 X33.502 Y148.595 F80
M106 S0
G0 X33.502 Y148.595 F6000
M106 S255
G1 X33.502 Y148.595 F80
M106 S0
M106 S255
G1 X35.049 Y158.583 F80
M106 S0
M106 S255
G1 X35.798 Y161.317 F80
M106 S0
M106 S255
G1 X31.94 Y159.498 F80
M106 S0
M106 S255
G1 X32.259 Y146.156 F80
M106 S0
M106 S255
G1 X33.502 Y148.595 F80
M106 S0
G0 X33.46 Y133.088 F6000
M106 S255
G1 X33.46 Y133.088 F80
M106 S0
M106 S255
G1 X30.559 Y142.456 F80
M106 S0
M106 S255
G1 X30.235 Y156.039 F80
M106 S0
M106 S255
G1 X24.496 Y143.042 F80
M106 S0
M106 S255
G1 X33.46 Y133.088 F80
M106 S0
G0 X33.46 Y133.088 F6000
M106 S255
G1 X33.46 Y133.088 F80
M106 S0
M106 S255
G1 X30.559 Y142.456 F80
M106 S0
M106 S255
G1 X30.235 Y156.039 F80
M106 S0
M106 S255
G1 X24.496 Y143.042 F80
M106 S0
M106 S255
G1 X33.46 Y133.088 F80
M106 S0
G0 X51.356 Y117.609 F6000
M106 S255
G1 X51.356 Y117.609 F80
M106 S0
M106 S255
G1 X44.82 Y135.169 F80
M106 S0
M106 S255
G1 X42.026 Y132.065 F80
M106 S0
M106 S255
G1 X51.356 Y117.609 F80
M106 S0
G0 X51.356 Y117.609 F6000
M106 S255
G1 X51.356 Y117.609 F80
M106 S0
M106 S255
G1 X44.82 Y135.169 F80
M106 S0
M106 S255
G1 X42.026 Y132.065 F80
M106 S0
M106 S255
G1 X51.356 Y117.609 F80
M106 S0
G0 X42.772 Y127.613 F6000
M106 S255
G1 X42.772 Y127.613 F80
M106 S0
M106 S255
G1 X43.465 Y124.317 F80
M106 S0
M106 S255
G1 X48.42 Y118.862 F80
M106 S0
M106 S255
G1 X42.772 Y127.613 F80
M106 S0
G0 X42.772 Y127.613 F6000
M106 S255
G1 X42.772 Y127.613 F80
M106 S0
M106 S255
G1 X43.465 Y124.317 F80
M106 S0
M106 S255
G1 X48.42 Y118.862 F80
M106 S0
M106 S255
G1 X42.772 Y127.613 F80
M106 S0
G0 X50.578 Y113.828 F6000
M106 S255
G1 X50.578 Y113.828 F80
M106 S0
M106 S255
G1 X28.994 Y126.218 F80
M106 S0
M106 S255
G1 X25.321 Y139.456 F80
M106 S0
M106 S255
G1 X34.904 Y128.814 F80
M106 S0
M106 S255
G1 X42.03 Y123.239 F80
M106 S0
M106 S255
G1 X50.578 Y113.828 F80
M106 S0
G0 X50.578 Y113.828 F6000
M106 S255
G1 X50.578 Y113.828 F80
M106 S0
M106 S255
G1 X28.994 Y126.218 F80
M106 S0
M106 S255
G1 X25.321 Y139.456 F80
M106 S0
M106 S255
G1 X34.904 Y128.814 F80
M106 S0
M106 S255
G1 X42.03 Y123.239 F80
M106 S0
M106 S255
G1 X50.578 Y113.828 F80
M106 S0
G0 X56.91 Y109.334 F6000
M106 S255
G1 X56.91 Y109.334 F80
M106 S0
M106 S255
G1 X63.582 Y109.334 F80
M106 S0
M106 S255
G1 X60.246 Y105.143 F80
M106 S0
M106 S255
G1 X56.91 Y109.334 F80
M106 S0
G0 X56.91 Y109.334 F6000
M106 S255
G1 X56.91 Y109.334 F80
M106 S0
M106 S255
G1 X63.582 Y109.334 F80
M106 S0
M106 S255
G1 X60.246 Y105.143 F80
M106 S0
M106 S255
G1 X56.91 Y109.334 F80
M106 S0
G0 X54.661 Y98.529 F6000
M106 S255
G1 X54.661 Y98.529 F80
M106 S0
M106 S255
G1 X59.089 Y103.728 F80
M106 S0
M106 S255
G1 X55.706 Y107.977 F80
M106 S0
M106 S255
G1 X54.661 Y98.529 F80
M106 S0
G0 X54.661 Y98.529 F6000
M106 S255
G1 X54.661 Y98.529 F80
M106 S0
M106 S255
G1 X59.089 Y103.728 F80
M106 S0
M106 S255
G1 X55.706 Y107.977 F80
M106 S0
M106 S255
G1 X54.661 Y98.529 F80
M106 S0
G0 X52.658 Y96.683 F6000
M106 S255
G1 X52.658 Y96.683 F80
M106 S0
M106 S255
G1 X46.534 Y97.11 F80
M106 S0
M106 S255
G1 X48.263 Y103.461 F80
M106 S0
M106 S255
G1 X53.926 Y108.136 F80
M106 S0
M106 S255
G1 X52.658 Y96.683 F80
M106 S0
G0 X52.658 Y96.683 F6000
M106 S255
G1 X52.658 Y96.683 F80
M106 S0
M106 S255
G1 X46.534 Y97.11 F80
M106 S0
M106 S255
G1 X48.263 Y103.461 F80
M106 S0
M106 S255
G1 X53.926 Y108.136 F80
M106 S0
M106 S255
G1 X52.658 Y96.683 F80
M106 S0
G0 X32.54 Y122.122 F6000
M106 S255
G1 X32.54 Y122.122 F80
M106 S0
M106 S255
G1 X53.492 Y110.095 F80
M106 S0
M106 S255
G1 X47.571 Y105.207 F80
M106 S0
M106 S255
G1 X32.54 Y122.122 F80
M106 S0
G0 X32.54 Y122.122 F6000
M106 S255
G1 X32.54 Y122.122 F80
M106 S0
M106 S255
G1 X53.492 Y110.095 F80
M106 S0
M106 S255
G1 X47.571 Y105.207 F80
M106 S0
M106 S255
G1 X32.54 Y122.122 F80
M106 S0
G0 X46.449 Y103.602 F6000
M106 S255
G1 X46.449 Y103.602 F80
M106 S0
M106 S255
G1 X39.456 Y108.575 F80
M106 S0
M106 S255
G1 X31.287 Y111.259 F80
M106 S0
M106 S255
G1 X37.751 Y107.426 F80
M106 S0
M106 S255
G1 X44.99 Y98.24 F80
M106 S0
M106 S255
G1 X46.449 Y103.602 F80
M106 S0
G0 X46.449 Y103.602 F6000
M106 S255
G1 X46.449 Y103.602 F80
M106 S0
M106 S255
G1 X39.456 Y108.575 F80
M106 S0
M106 S255
G1 X31.287 Y111.259 F80
M106 S0
M106 S255
G1 X37.751 Y107.426 F80
M106 S0
M106 S255
G1 X44.99 Y98.24 F80
M106 S0
M106 S255
G1 X46.449 Y103.602 F80
M106 S0
G0 X43.539 Y97.195 F6000
M106 S255
G1 X43.539 Y97.195 F80
M106 S0
M106 S255
G1 X38.028 Y97.216 F80
M106 S0
M106 S255
G1 X31.159 Y100.807 F80
M106 S0
M106 S255
G1 X25.811 Y112.429 F80
M106 S0
M106 S255
G1 X36.553 Y106.059 F80
M106 S0
M106 S255
G1 X43.539 Y97.195 F80
M106 S0
G0 X43.539 Y97.195 F6000
M106 S255
G1 X43.539 Y97.195 F80
M106 S0
M106 S255
G1 X38.028 Y97.216 F80
M106 S0
M106 S255
G1 X31.159 Y100.807 F80
M106 S0
M106 S255
G1 X25.811 Y112.429 F80
M106 S0
M106 S255
G1 X36.553 Y106.059 F80
M106 S0
M106 S255
G1 X43.539 Y97.195 F80
M106 S0
G0 X54.428 Y95.5 F6000
M106 S255
G1 X54.428 Y95.5 F80
M106 S0
M106 S255
G1 X60.209 Y102.286 F80
M106 S0
M106 S255
G1 X65.573 Y95.273 F80
M106 S0
M106 S255
G1 X64.313 Y78.857 F80
M106 S0
M106 S255
G1 X58.447 Y78.925 F80
M106 S0
M106 S255
G1 X54.428 Y95.5 F80
M106 S0
G0 X54.428 Y95.5 F6000
M106 S255
G1 X54.428 Y95.5 F80
M106 S0
M106 S255
G1 X60.209 Y102.286 F80
M106 S0
M106 S255
G1 X65.573 Y95.273 F80
M106 S0
M106 S255
G1 X64.313 Y78.857 F80
M106 S0
M106 S255
G1 X58.447 Y78.925 F80
M106 S0
M106 S255
G1 X54.428 Y95.5 F80
M106 S0
G0 X45.394 Y138.479 F6000
M106 S255
G1 X45.394 Y138.479 F80
M106 S0
M106 S255
G1 X53.604 Y145.173 F80
M106 S0
M106 S255
G1 X44.163 Y141.211 F80
M106 S0
M106 S255
G1 X45.394 Y138.479 F80
M106 S0
G0 X45.394 Y138.479 F6000
M106 S255
G1 X45.394 Y138.479 F80
M106 S0
M106 S255
G1 X53.604 Y145.173 F80
M106 S0
M106 S255
G1 X44.163 Y141.211 F80
M106 S0
M106 S255
G1 X45.394 Y138.479 F80
M106 S0
G0 X44.088 Y137.028 F6000
M106 S255
G1 X44.088 Y137.028 F80
M106 S0
M106 S255
G1 X41.306 Y134.024 F80
M106 S0
M106 S255
G1 X42.829 Y139.982 F80
M106 S0
M106 S255
G1 X44.088 Y137.028 F80
M106 S0
G0 X44.088 Y137.028 F6000
M106 S255
G1 X44.088 Y137.028 F80
M106 S0
M106 S255
G1 X41.306 Y134.024 F80
M106 S0
M106 S255
G1 X42.829 Y139.982 F80
M106 S0
M106 S255
G1 X44.088 Y137.028 F80
M106 S0
G0 X34.451 Y146.522 F6000
M106 S255
G1 X34.451 Y146.522 F80
M106 S0
M106 S255
G1 X38.747 Y148.097 F80
M106 S0
M106 S255
G1 X35.182 Y148.137 F80
M106 S0
M106 S255
G1 X34.451 Y146.522 F80
M106 S0
G0 X34.451 Y146.522 F6000
M106 S255
G1 X34.451 Y146.522 F80
M106 S0
M106 S255
G1 X38.747 Y148.097 F80
M106 S0
M106 S255
G1 X35.182 Y148.137 F80
M106 S0
M106 S255
G1 X34.451 Y146.522 F80
M106 S0
G0 X37.917 Y162.288 F6000
M106 S255
G1 X37.917 Y162.288 F80
M106 S0
M106 S255
G1 X45.956 Y163.414 F80
M106 S0
M106 S255
G1 X37.187 Y159.624 F80
M106 S0
M106 S255
G1 X37.917 Y162.288 F80
M106 S0
G0 X37.917 Y162.288 F6000
M106 S255
G1 X37.917 Y162.288 F80
M106 S0
M106 S255
G1 X45.956 Y163.414 F80
M106 S0
M106 S255
G1 X37.187 Y159.624 F80
M106 S0
M106 S255
G1 X37.917 Y162.288 F80
M106 S0
G0 X8.0 Y161.567 F6000
M106 S255
G1 X8.0 Y161.567 F80
M106 S0
M106 S255
G1 X18.44 Y172.0 F80
M106 S0
G0 X8.0 Y161.567 F6000
M106 S255
G1 X8.0 Y161.567 F80
M106 S0
M106 S255
G1 X18.44 Y172.0 F80
M106 S0
G0 X8.0 Y158.06 F6000
M106 S255
G1 X8.0 Y158.06 F80
M106 S0
M106 S255
G1 X21.95 Y172.0 F80
M106 S0
G0 X8.0 Y158.06 F6000
M106 S255
G1 X8.0 Y158.06 F80
M106 S0
M106 S255
G1 X21.95 Y172.0 F80
M106 S0
G0 X112.0 Y161.567 F6000
M106 S255
G1 X112.0 Y161.567 F80
M106 S0
M106 S255
G1 X101.56 Y172.0 F80
M106 S0
G0 X112.0 Y161.567 F6000
M106 S255
G1 X112.0 Y161.567 F80
M106 S0
M106 S255
G1 X101.56 Y172.0 F80
M106 S0
G0 X112.0 Y158.06 F6000
M106 S255
G1 X112.0 Y158.06 F80
M106 S0
M106 S255
G1 X98.05 Y172.0 F80
M106 S0
G0 X112.0 Y158.06 F6000
M106 S255
G1 X112.0 Y158.06 F80
M106 S0
M106 S255
G1 X98.05 Y172.0 F80
M106 S0
G0 X8.0 Y18.433 F6000
M106 S255
G1 X8.0 Y18.433 F80
M106 S0
M106 S255
G1 X18.44 Y8.0 F80
M106 S0
G0 X8.0 Y18.433 F6000
M106 S255
G1 X8.0 Y18.433 F80
M106 S0
M106 S255
G1 X18.44 Y8.0 F80
M106 S0
G0 X8.0 Y21.94 F6000
M106 S255
G1 X8.0 Y21.94 F80
M106 S0
M106 S255
G1 X21.95 Y8.0 F80
M106 S0
G0 X8.0 Y21.94 F6000
M106 S255
G1 X8.0 Y21.94 F80
M106 S0
M106 S255
G1 X21.95 Y8.0 F80
M106 S0
G0 X112.0 Y18.433 F6000
M106 S255
G1 X112.0 Y18.433 F80
M106 S0
M106 S255
G1 X101.56 Y8.0 F80
M106 S0
G0 X112.0 Y18.433 F6000
M106 S255
G1 X112.0 Y18.433 F80
M106 S0
M106 S255
G1 X101.56 Y8.0 F80
M106 S0
G0 X112.0 Y21.94 F6000
M106 S255
G1 X112.0 Y21.94 F80
M106 S0
M106 S255
G1 X98.05 Y8.0 F80
M106 S0
G0 X112.0 Y21.94 F6000
M106 S255
G1 X112.0 Y21.94 F80
M106 S0
M106 S255
G1 X98.05 Y8.0 F80
M106 S0
M106 S0
