;GCode generated by Numa's program v0.0
G0 X34.6 Y50.557 F6000
M106 S255
G1 X34.6 Y50.557 F250
M106 S0
M106 S255
G1 X34.47 Y50.557 F250
M106 S0
G0 X63.818 Y70.53 F6000
M106 S255
G1 X63.818 Y70.53 F250
M106 S0
M106 S255
G1 X63.905 Y70.355 F250
M106 S0
G0 X28.495 Y85.967 F6000
M106 S255
G1 X28.495 Y85.967 F250
M106 S0
M106 S255
G1 X28.539 Y85.793 F250
M106 S0
G0 X60.068 Y77.594 F6000
M106 S255
G1 X60.068 Y77.594 F250
M106 S0
M106 S255
G1 X59.762 Y77.376 F250
M106 S0
G0 X97.615 Y87.232 F6000
M106 S255
G1 X97.615 Y87.232 F250
M106 S0
M106 S255
G1 X97.527 Y86.839 F250
M106 S0
G0 X37.391 Y21.513 F6000
M106 S255
G1 X37.391 Y21.513 F250
M106 S0
M106 S255
G1 X37.086 Y21.383 F250
M106 S0
G0 X74.11 Y41.225 F6000
M106 S255
G1 X74.11 Y41.225 F250
M106 S0
M106 S255
G1 X73.63 Y41.05 F250
M106 S0
G0 X54.791 Y68.393 F6000
M106 S255
G1 X54.791 Y68.393 F250
M106 S0
M106 S255
G1 X55.271 Y68.349 F250
M106 S0
G0 X28.757 Y109.167 F6000
M106 S255
G1 X28.757 Y109.167 F250
M106 S0
M106 S255
G1 X29.062 Y108.687 F250
M106 S0
G0 X25.399 Y75.893 F6000
M106 S255
G1 X25.399 Y75.893 F250
M106 S0
M106 S255
G1 X25.704 Y75.675 F250
M106 S0
G0 X57.931 Y82.609 F6000
M106 S255
G1 X57.931 Y82.609 F250
M106 S0
M106 S255
G1 X58.018 Y82.347 F250
M106 S0
G0 X67.394 Y34.596 F6000
M106 S255
G1 X67.394 Y34.596 F250
M106 S0
M106 S255
G1 X67.874 Y33.855 F250
M106 S0
G0 X80.433 Y39.785 F6000
M106 S255
G1 X80.433 Y39.785 F250
M106 S0
M106 S255
G1 X80.607 Y39.306 F250
M106 S0
G0 X67.568 Y20.947 F6000
M106 S255
G1 X67.568 Y20.947 F250
M106 S0
M106 S255
G1 X67.35 Y20.51 F250
M106 S0
G0 X94.3 Y81.606 F6000
M106 S255
G1 X94.3 Y81.606 F250
M106 S0
M106 S255
G1 X93.952 Y81.868 F250
M106 S0
G0 X101.801 Y10.044 F6000
M106 S255
G1 X101.801 Y10.044 F250
M106 S0
M106 S255
G1 X101.496 Y10.088 F250
M106 S0
G0 X42.537 Y21.295 F6000
M106 S255
G1 X42.537 Y21.295 F250
M106 S0
M106 S255
G1 X42.842 Y21.295 F250
M106 S0
G0 X75.592 Y41.399 F6000
M106 S255
G1 X75.592 Y41.399 F250
M106 S0
M106 S255
G1 X74.938 Y41.486 F250
M106 S0
G0 X66.129 Y51.298 F6000
M106 S255
G1 X66.129 Y51.298 F250
M106 S0
M106 S255
G1 X65.606 Y51.298 F250
M106 S0
G0 X77.991 Y63.857 F6000
M106 S255
G1 X77.991 Y63.857 F250
M106 S0
M106 S255
G1 X77.975 Y63.634 F250
M106 S0
M106 S255
G1 X78.037 Y63.423 F250
M106 S0
M106 S255
G1 X78.073 Y63.297 F250
M106 S0
M106 S255
G1 X77.991 Y63.203 F250
M106 S0
G0 X52.305 Y73.931 F6000
M106 S255
G1 X52.305 Y73.931 F250
M106 S0
M106 S255
G1 X52.349 Y73.539 F250
M106 S0
G0 X56.317 Y76.242 F6000
M106 S255
G1 X56.317 Y76.242 F250
M106 S0
M106 S255
G1 X56.884 Y76.286 F250
M106 S0
G0 X33.161 Y80.559 F6000
M106 S255
G1 X33.161 Y80.559 F250
M106 S0
M106 S255
G1 X33.161 Y80.254 F250
M106 S0
G0 X70.708 Y82.653 F6000
M106 S255
G1 X70.708 Y82.653 F250
M106 S0
M106 S255
G1 X70.926 Y82.086 F250
M106 S0
G0 X92.861 Y86.316 F6000
M106 S255
G1 X92.861 Y86.316 F250
M106 S0
M106 S255
G1 X92.556 Y86.272 F250
M106 S0
G0 X99.403 Y87.232 F6000
M106 S255
G1 X99.403 Y87.232 F250
M106 S0
M106 S255
G1 X99.455 Y87.009 F250
M106 S0
M106 S255
G1 X99.362 Y86.792 F250
M106 S0
M106 S255
G1 X99.326 Y86.661 F250
M106 S0
M106 S255
G1 X99.403 Y86.534 F250
M106 S0
G0 X32.027 Y88.365 F6000
M106 S255
G1 X32.027 Y88.365 F250
M106 S0
M106 S255
G1 X31.722 Y88.191 F250
M106 S0
G0 X31.548 Y98.395 F6000
M106 S255
G1 X31.548 Y98.395 F250
M106 S0
M106 S255
G1 X31.527 Y98.037 F250
M106 S0
M106 S255
G1 X31.725 Y97.745 F250
M106 S0
M106 S255
G1 X31.828 Y97.596 F250
M106 S0
M106 S255
G1 X31.897 Y97.436 F250
M106 S0
G0 X17.201 Y108.207 F6000
M106 S255
G1 X17.201 Y108.207 F250
M106 S0
M106 S255
G1 X17.07 Y107.946 F250
M106 S0
G0 X24.658 Y112.83 F6000
M106 S255
G1 X24.658 Y112.83 F250
M106 S0
M106 S255
G1 X24.352 Y112.873 F250
M106 S0
G0 X18.77 Y112.873 F6000
M106 S255
G1 X18.77 Y112.873 F250
M106 S0
M106 S255
G1 X18.465 Y112.917 F250
M106 S0
G0 X26.707 Y86.185 F6000
M106 S255
G1 X26.707 Y86.185 F250
M106 S0
M106 S255
G1 X26.838 Y85.618 F250
M106 S0
G0 X92.643 Y13.359 F6000
M106 S255
G1 X92.643 Y13.359 F250
M106 S0
M106 S255
G1 X93.428 Y13.359 F250
M106 S0
G0 X11.967 Y40.44 F6000
M106 S255
G1 X11.967 Y40.44 F250
M106 S0
M106 S255
G1 X12.011 Y40.091 F250
M106 S0
G0 X49.296 Y90.807 F6000
M106 S255
G1 X49.296 Y90.807 F250
M106 S0
M106 S255
G1 X49.296 Y90.459 F250
M106 S0
G0 X45.11 Y88.017 F6000
M106 S255
G1 X45.11 Y88.017 F250
M106 S0
M106 S255
G1 X45.11 Y87.668 F250
M106 S0
G0 X98.225 Y84.964 F6000
M106 S255
G1 X98.225 Y84.964 F250
M106 S0
M106 S255
G1 X98.312 Y84.615 F250
M106 S0
G0 X89.678 Y84.79 F6000
M106 S255
G1 X89.678 Y84.79 F250
M106 S0
M106 S255
G1 X89.067 Y84.659 F250
M106 S0
G0 X32.376 Y31.413 F6000
M106 S255
G1 X32.376 Y31.413 F250
M106 S0
M106 S255
G1 X32.289 Y31.107 F250
M106 S0
G0 X33.336 Y80.167 F6000
M106 S255
G1 X33.336 Y80.167 F250
M106 S0
M106 S255
G1 X32.551 Y80.254 F250
M106 S0
G0 X25.137 Y75.501 F6000
M106 S255
G1 X25.137 Y75.501 F250
M106 S0
M106 S255
G1 X24.527 Y75.544 F250
M106 S0
G0 X79.822 Y84.179 F6000
M106 S255
G1 X79.822 Y84.179 F250
M106 S0
M106 S255
G1 X78.427 Y84.048 F250
M106 S0
G0 X80.302 Y52.301 F6000
M106 S255
G1 X80.302 Y52.301 F250
M106 S0
M106 S255
G1 X80.164 Y52.007 F250
M106 S0
M106 S255
G1 X80.219 Y51.693 F250
M106 S0
M106 S255
G1 X80.259 Y51.491 F250
M106 S0
M106 S255
G1 X80.215 Y51.298 F250
M106 S0
G0 X21.3 Y102.756 F6000
M106 S255
G1 X21.3 Y102.756 F250
M106 S0
M106 S255
G1 X21.343 Y102.102 F250
M106 S0
G0 X21.212 Y102.189 F6000
M106 S255
G1 X21.212 Y102.189 F250
M106 S0
M106 S255
G1 X21.125 Y101.884 F250
M106 S0
G0 X29.149 Y9.085 F6000
M106 S255
G1 X29.149 Y9.085 F250
M106 S0
M106 S255
G1 X28.277 Y9.041 F250
M106 S0
G0 X9.438 Y61.808 F6000
M106 S255
G1 X9.438 Y61.808 F250
M106 S0
M106 S255
G1 X10.267 Y61.677 F250
M106 S0
G0 X51.172 Y67.869 F6000
M106 S255
G1 X51.172 Y67.869 F250
M106 S0
M106 S255
G1 X51.113 Y67.676 F250
M106 S0
M106 S255
G1 X51.218 Y67.527 F250
M106 S0
M106 S255
G1 X51.483 Y67.329 F250
M106 S0
M106 S255
G1 X51.695 Y67.084 F250
M106 S0
G0 X15.369 Y94.732 F6000
M106 S255
G1 X15.369 Y94.732 F250
M106 S0
M106 S255
G1 X15.5 Y94.383 F250
M106 S0
G0 X25.312 Y51.734 F6000
M106 S255
G1 X25.312 Y51.734 F250
M106 S0
M106 S255
G1 X24.919 Y51.691 F250
M106 S0
G0 X55.794 Y85.444 F6000
M106 S255
G1 X55.794 Y85.444 F250
M106 S0
M106 S255
G1 X56.042 Y85.256 F250
M106 S0
M106 S255
G1 X56.22 Y85.0 F250
M106 S0
M106 S255
G1 X56.685 Y85.069 F250
M106 S0
M106 S255
G1 X57.146 Y85.095 F250
M106 S0
G0 X73.674 Y36.842 F6000
M106 S255
G1 X73.674 Y36.842 F250
M106 S0
M106 S255
G1 X72.889 Y36.733 F250
M106 S0
G0 X53.57 Y75.021 F6000
M106 S255
G1 X53.57 Y75.021 F250
M106 S0
M106 S255
G1 X53.396 Y74.672 F250
M106 S0
G0 X83.398 Y64.642 F6000
M106 S255
G1 X83.398 Y64.642 F250
M106 S0
M106 S255
G1 X83.507 Y64.35 F250
M106 S0
M106 S255
G1 X83.492 Y64.03 F250
M106 S0
M106 S255
G1 X83.495 Y63.639 F250
M106 S0
M106 S255
G1 X83.573 Y63.247 F250
M106 S0
G0 X94.039 Y83.045 F6000
M106 S255
G1 X94.039 Y83.045 F250
M106 S0
M106 S255
G1 X94.257 Y81.824 F250
M106 S0
G0 X23.349 Y103.236 F6000
M106 S255
G1 X23.349 Y103.236 F250
M106 S0
M106 S255
G1 X23.248 Y102.984 F250
M106 S0
M106 S255
G1 X23.48 Y102.843 F250
M106 S0
G0 X47.465 Y67.084 F6000
M106 S255
G1 X47.465 Y67.084 F250
M106 S0
M106 S255
G1 X46.811 Y67.128 F250
M106 S0
G0 X70.403 Y94.427 F6000
M106 S255
G1 X70.403 Y94.427 F250
M106 S0
M106 S255
G1 X70.099 Y94.475 F250
M106 S0
M106 S255
G1 X69.792 Y94.43 F250
M106 S0
M106 S255
G1 X69.702 Y94.357 F250
M106 S0
M106 S255
G1 X69.727 Y94.253 F250
M106 S0
G0 X54.442 Y71.184 F6000
M106 S255
G1 X54.442 Y71.184 F250
M106 S0
M106 S255
G1 X54.075 Y71.534 F250
M106 S0
M106 S255
G1 X53.57 Y71.489 F250
M106 S0
G0 X60.024 Y71.358 F6000
M106 S255
G1 X60.024 Y71.358 F250
M106 S0
M106 S255
G1 X59.934 Y71.44 F250
M106 S0
M106 S255
G1 X59.928 Y71.582 F250
M106 S0
M106 S255
G1 X59.919 Y71.71 F250
M106 S0
M106 S255
G1 X59.762 Y71.751 F250
M106 S0
G0 X103.502 Y88.235 F6000
M106 S255
G1 X103.502 Y88.235 F250
M106 S0
M106 S255
G1 X103.458 Y87.842 F250
M106 S0
G0 X19.904 Y100.14 F6000
M106 S255
G1 X19.904 Y100.14 F250
M106 S0
M106 S255
G1 X19.926 Y100.087 F250
M106 S0
M106 S255
G1 X19.948 Y100.056 F250
M106 S0
M106 S255
G1 X20.472 Y99.749 F250
M106 S0
M106 S255
G1 X20.776 Y99.224 F250
M106 S0
G0 X84.881 Y86.621 F6000
M106 S255
G1 X84.881 Y86.621 F250
M106 S0
M106 S255
G1 X84.467 Y86.629 F250
M106 S0
M106 S255
G1 X84.047 Y86.694 F250
M106 S0
M106 S255
G1 X83.72 Y86.687 F250
M106 S0
M106 S255
G1 X83.398 Y86.534 F250
M106 S0
G0 X48.075 Y86.403 F6000
M106 S255
G1 X48.075 Y86.403 F250
M106 S0
M106 S255
G1 X48.86 Y86.534 F250
M106 S0
G0 X76.726 Y28.534 F6000
M106 S255
G1 X76.726 Y28.534 F250
M106 S0
M106 S255
G1 X77.642 Y28.491 F250
M106 S0
G0 X70.883 Y81.999 F6000
M106 S255
G1 X70.883 Y81.999 F250
M106 S0
M106 S255
G1 X71.101 Y81.65 F250
M106 S0
G0 X88.282 Y83.481 F6000
M106 S255
G1 X88.282 Y83.481 F250
M106 S0
M106 S255
G1 X88.239 Y82.347 F250
M106 S0
G0 X33.597 Y84.005 F6000
M106 S255
G1 X33.597 Y84.005 F250
M106 S0
M106 S255
G1 X33.161 Y84.048 F250
M106 S0
G0 X105.246 Y32.241 F6000
M106 S255
G1 X105.246 Y32.241 F250
M106 S0
M106 S255
G1 X104.927 Y32.027 F250
M106 S0
M106 S255
G1 X104.939 Y31.717 F250
M106 S0
M106 S255
G1 X105.009 Y31.348 F250
M106 S0
M106 S255
G1 X105.072 Y30.977 F250
M106 S0
G0 X10.31 Y107.466 F6000
M106 S255
G1 X10.31 Y107.466 F250
M106 S0
M106 S255
G1 X10.246 Y107.31 F250
M106 S0
M106 S255
G1 X10.357 Y107.212 F250
M106 S0
M106 S255
G1 X10.566 Y107.156 F250
M106 S0
M106 S255
G1 X10.746 Y107.292 F250
M106 S0
G0 X24.309 Y107.292 F6000
M106 S255
G1 X24.309 Y107.292 F250
M106 S0
M106 S255
G1 X24.406 Y107.377 F250
M106 S0
M106 S255
G1 X24.526 Y107.335 F250
M106 S0
M106 S255
G1 X24.71 Y107.184 F250
M106 S0
M106 S255
G1 X24.919 Y107.073 F250
M106 S0
G0 X13.537 Y106.768 F6000
M106 S255
G1 X13.537 Y106.768 F250
M106 S0
M106 S255
G1 X13.537 Y106.332 F250
M106 S0
G0 X54.442 Y87.668 F6000
M106 S255
G1 X54.442 Y87.668 F250
M106 S0
M106 S255
G1 X54.835 Y87.101 F250
M106 S0
G0 X22.085 Y100.707 F6000
M106 S255
G1 X22.085 Y100.707 F250
M106 S0
M106 S255
G1 X21.649 Y100.837 F250
M106 S0
G0 X102.324 Y87.144 F6000
M106 S255
G1 X102.324 Y87.144 F250
M106 S0
M106 S255
G1 X102.412 Y86.447 F250
M106 S0
G0 X13.799 Y11.876 F6000
M106 S255
G1 X13.799 Y11.876 F250
M106 S0
M106 S255
G1 X13.987 Y11.881 F250
M106 S0
M106 S255
G1 X14.171 Y11.826 F250
M106 S0
M106 S255
G1 X14.331 Y11.798 F250
M106 S0
M106 S255
G1 X14.412 Y11.68 F250
M106 S0
M106 S255
G1 X14.38 Y11.537 F250
M106 S0
M106 S255
G1 X14.271 Y11.521 F250
M106 S0
M106 S255
G1 X14.148 Y11.527 F250
M106 S0
G0 X99.01 Y13.664 F6000
M106 S255
G1 X99.01 Y13.664 F250
M106 S0
M106 S255
G1 X99.839 Y13.577 F250
M106 S0
G0 X74.72 Y86.839 F6000
M106 S255
G1 X74.72 Y86.839 F250
M106 S0
M106 S255
G1 X74.758 Y86.783 F250
M106 S0
M106 S255
G1 X74.795 Y86.727 F250
M106 S0
M106 S255
G1 X74.911 Y86.481 F250
M106 S0
M106 S255
G1 X74.823 Y86.306 F250
M106 S0
M106 S255
G1 X74.564 Y86.272 F250
M106 S0
M106 S255
G1 X74.49 Y86.272 F250
M106 S0
M106 S255
G1 X74.415 Y86.272 F250
M106 S0
G0 X32.158 Y40.832 F6000
M106 S255
G1 X32.158 Y40.832 F250
M106 S0
M106 S255
G1 X32.196 Y40.597 F250
M106 S0
M106 S255
G1 X32.15 Y40.346 F250
M106 S0
M106 S255
G1 X32.061 Y40.012 F250
M106 S0
M106 S255
G1 X32.115 Y39.655 F250
M106 S0
G0 X27.972 Y80.647 F6000
M106 S255
G1 X27.972 Y80.647 F250
M106 S0
M106 S255
G1 X27.591 Y80.657 F250
M106 S0
M106 S255
G1 X27.214 Y80.692 F250
M106 S0
M106 S255
G1 X27.087 Y80.765 F250
M106 S0
M106 S255
G1 X27.068 Y80.747 F250
M106 S0
M106 S255
G1 X27.055 Y80.728 F250
M106 S0
M106 S255
G1 X27.055 Y80.71 F250
M106 S0
M106 S255
G1 X27.056 Y80.69 F250
M106 S0
G0 X37.74 Y60.761 F6000
M106 S255
G1 X37.74 Y60.761 F250
M106 S0
M106 S255
G1 X38.259 Y60.7 F250
M106 S0
M106 S255
G1 X38.789 Y60.707 F250
M106 S0
M106 S255
G1 X39.138 Y60.733 F250
M106 S0
M106 S255
G1 X39.484 Y60.63 F250
M106 S0
G0 X15.129 Y40.004 F6000
M106 S255
G1 X15.129 Y40.004 F250
M106 S0
M106 S255
G1 X14.976 Y39.349 F250
M106 S0
G0 X92.949 Y86.403 F6000
M106 S255
G1 X92.949 Y86.403 F250
M106 S0
M106 S255
G1 X95.216 Y86.577 F250
M106 S0
G0 X78.95 Y71.053 F6000
M106 S255
G1 X78.95 Y71.053 F250
M106 S0
M106 S255
G1 X79.386 Y70.922 F250
M106 S0
G0 X73.761 Y96.128 F6000
M106 S255
G1 X73.761 Y96.128 F250
M106 S0
M106 S255
G1 X74.241 Y95.779 F250
M106 S0
G0 X28.452 Y99.18 F6000
M106 S255
G1 X28.452 Y99.18 F250
M106 S0
M106 S255
G1 X28.343 Y99.184 F250
M106 S0
M106 S255
G1 X28.284 Y99.138 F250
M106 S0
M106 S255
G1 X28.175 Y98.906 F250
M106 S0
M106 S255
G1 X27.928 Y98.919 F250
M106 S0
G0 X104.069 Y44.234 F6000
M106 S255
G1 X104.069 Y44.234 F250
M106 S0
M106 S255
G1 X104.088 Y44.063 F250
M106 S0
M106 S255
G1 X104.196 Y43.925 F250
M106 S0
M106 S255
G1 X104.259 Y43.808 F250
M106 S0
M106 S255
G1 X104.156 Y43.71 F250
M106 S0
G0 X45.415 Y21.993 F6000
M106 S255
G1 X45.415 Y21.993 F250
M106 S0
M106 S255
G1 X45.623 Y22.339 F250
M106 S0
M106 S255
G1 X46.026 Y22.342 F250
M106 S0
G0 X22.87 Y106.332 F6000
M106 S255
G1 X22.87 Y106.332 F250
M106 S0
M106 S255
G1 X22.752 Y106.721 F250
M106 S0
M106 S255
G1 X22.444 Y106.784 F250
M106 S0
M106 S255
G1 X22.075 Y106.769 F250
M106 S0
M106 S255
G1 X21.736 Y106.812 F250
M106 S0
G0 X23.742 Y44.364 F6000
M106 S255
G1 X23.742 Y44.364 F250
M106 S0
M106 S255
G1 X22.826 Y44.364 F250
M106 S0
G0 X15.282 Y68.087 F6000
M106 S255
G1 X15.282 Y68.087 F250
M106 S0
M106 S255
G1 X15.761 Y67.957 F250
M106 S0
G0 X56.972 Y83.438 F6000
M106 S255
G1 X56.972 Y83.438 F250
M106 S0
M106 S255
G1 X56.797 Y82.609 F250
M106 S0
G0 X71.232 Y94.819 F6000
M106 S255
G1 X71.232 Y94.819 F250
M106 S0
M106 S255
G1 X71.144 Y93.947 F250
M106 S0
G0 X90.594 Y78.728 F6000
M106 S255
G1 X90.594 Y78.728 F250
M106 S0
M106 S255
G1 X91.073 Y78.684 F250
M106 S0
G0 X105.333 Y88.714 F6000
M106 S255
G1 X105.333 Y88.714 F250
M106 S0
M106 S255
G1 X105.333 Y88.235 F250
M106 S0
G0 X84.968 Y86.796 F6000
M106 S255
G1 X84.968 Y86.796 F250
M106 S0
M106 S255
G1 X85.375 Y86.679 F250
M106 S0
M106 S255
G1 X85.797 Y86.713 F250
M106 S0
M106 S255
G1 X86.021 Y86.665 F250
M106 S0
M106 S255
G1 X86.058 Y86.447 F250
M106 S0
G0 X107.209 Y88.714 F6000
M106 S255
G1 X107.209 Y88.714 F250
M106 S0
M106 S255
G1 X107.165 Y88.235 F250
M106 S0
G0 X65.78 Y38.216 F6000
M106 S255
G1 X65.78 Y38.216 F250
M106 S0
M106 S255
G1 X65.588 Y38.065 F250
M106 S0
M106 S255
G1 X65.607 Y37.823 F250
M106 S0
M106 S255
G1 X65.657 Y37.192 F250
M106 S0
M106 S255
G1 X65.65 Y36.558 F250
M106 S0
G0 X66.086 Y69.047 F6000
M106 S255
G1 X66.086 Y69.047 F250
M106 S0
M106 S255
G1 X66.653 Y68.916 F250
M106 S0
G0 X51.128 Y67.477 F6000
M106 S255
G1 X51.128 Y67.477 F250
M106 S0
M106 S255
G1 X51.041 Y66.997 F250
M106 S0
G0 X17.549 Y25.831 F6000
M106 S255
G1 X17.549 Y25.831 F250
M106 S0
M106 S255
G1 X17.942 Y24.959 F250
M106 S0
G0 X18.858 Y25.831 F6000
M106 S255
G1 X18.858 Y25.831 F250
M106 S0
M106 S255
G1 X19.73 Y25.7 F250
M106 S0
G0 X59.239 Y73.539 F6000
M106 S255
G1 X59.239 Y73.539 F250
M106 S0
M106 S255
G1 X59.511 Y73.722 F250
M106 S0
M106 S255
G1 X59.852 Y73.72 F250
M106 S0
M106 S255
G1 X60.369 Y73.637 F250
M106 S0
M106 S255
G1 X60.896 Y73.626 F250
M106 S0
G0 X79.866 Y86.665 F6000
M106 S255
G1 X79.866 Y86.665 F250
M106 S0
M106 S255
G1 X78.95 Y86.447 F250
M106 S0
G0 X77.991 Y82.958 F6000
M106 S255
G1 X77.991 Y82.958 F250
M106 S0
M106 S255
G1 X78.087 Y82.763 F250
M106 S0
M106 S255
G1 X78.297 Y82.792 F250
M106 S0
M106 S255
G1 X78.438 Y82.868 F250
M106 S0
M106 S255
G1 X78.558 Y83.002 F250
M106 S0
G0 X92.818 Y86.49 F6000
M106 S255
G1 X92.818 Y86.49 F250
M106 S0
M106 S255
G1 X92.711 Y86.566 F250
M106 S0
M106 S255
G1 X92.603 Y86.572 F250
M106 S0
M106 S255
G1 X92.374 Y86.564 F250
M106 S0
M106 S255
G1 X92.207 Y86.708 F250
M106 S0
G0 X94.475 Y79.818 F6000
M106 S255
G1 X94.475 Y79.818 F250
M106 S0
M106 S255
G1 X94.649 Y78.597 F250
M106 S0
G0 X97.048 Y75.108 F6000
M106 S255
G1 X97.048 Y75.108 F250
M106 S0
M106 S255
G1 X97.179 Y73.844 F250
M106 S0
G0 X87.279 Y85.531 F6000
M106 S255
G1 X87.279 Y85.531 F250
M106 S0
M106 S255
G1 X87.367 Y85.095 F250
M106 S0
G0 X37.784 Y35.207 F6000
M106 S255
G1 X37.784 Y35.207 F250
M106 S0
M106 S255
G1 X37.304 Y35.207 F250
M106 S0
G0 X67.176 Y85.574 F6000
M106 S255
G1 X67.176 Y85.574 F250
M106 S0
M106 S255
G1 X66.696 Y85.574 F250
M106 S0
G0 X14.017 Y80.254 F6000
M106 S255
G1 X14.017 Y80.254 F250
M106 S0
M106 S255
G1 X14.017 Y80.232 F250
M106 S0
M106 S255
G1 X14.017 Y80.211 F250
M106 S0
M106 S255
G1 X14.039 Y79.556 F250
M106 S0
M106 S255
G1 X14.061 Y78.902 F250
M106 S0
G0 X66.696 Y60.761 F6000
M106 S255
G1 X66.696 Y60.761 F250
M106 S0
M106 S255
G1 X66.758 Y60.478 F250
M106 S0
M106 S255
G1 X66.66 Y60.189 F250
M106 S0
M106 S255
G1 X66.603 Y59.786 F250
M106 S0
M106 S255
G1 X66.565 Y59.366 F250
M106 S0
G0 X48.032 Y40.265 F6000
M106 S255
G1 X48.032 Y40.265 F250
M106 S0
M106 S255
G1 X47.688 Y39.96 F250
M106 S0
M106 S255
G1 X47.609 Y39.522 F250
M106 S0
M106 S255
G1 X47.64 Y39.012 F250
M106 S0
M106 S255
G1 X47.654 Y38.503 F250
M106 S0
M106 S255
G1 X47.598 Y38.067 F250
M106 S0
M106 S255
G1 X47.621 Y37.741 F250
M106 S0
M106 S255
G1 X47.552 Y37.431 F250
M106 S0
G0 X80.171 Y81.039 F6000
M106 S255
G1 X80.171 Y81.039 F250
M106 S0
M106 S255
G1 X80.326 Y80.73 F250
M106 S0
M106 S255
G1 X80.561 Y80.466 F250
M106 S0
M106 S255
G1 X80.721 Y80.435 F250
M106 S0
M106 S255
G1 X80.869 Y80.472 F250
M106 S0
G0 X70.926 Y81.388 F6000
M106 S255
G1 X70.926 Y81.388 F250
M106 S0
M106 S255
G1 X71.144 Y80.865 F250
M106 S0
G0 X14.846 Y36.384 F6000
M106 S255
G1 X14.846 Y36.384 F250
M106 S0
M106 S255
G1 X14.54 Y35.512 F250
M106 S0
G0 X15.936 Y48.638 F6000
M106 S255
G1 X15.936 Y48.638 F250
M106 S0
M106 S255
G1 X15.413 Y48.464 F250
M106 S0
G0 X34.6 Y82.217 F6000
M106 S255
G1 X34.6 Y82.217 F250
M106 S0
M106 S255
G1 X34.753 Y81.693 F250
M106 S0
G0 X30.109 Y69.657 F6000
M106 S255
G1 X30.109 Y69.657 F250
M106 S0
M106 S255
G1 X28.888 Y69.657 F250
M106 S0
G0 X97.658 Y85.662 F6000
M106 S255
G1 X97.658 Y85.662 F250
M106 S0
M106 S255
G1 X97.615 Y85.138 F250
M106 S0
G0 X28.233 Y85.618 F6000
M106 S255
G1 X28.233 Y85.618 F250
M106 S0
M106 S255
G1 X28.42 Y85.726 F250
M106 S0
M106 S255
G1 X28.606 Y85.767 F250
M106 S0
M106 S255
G1 X28.872 Y85.634 F250
M106 S0
M106 S255
G1 X29.168 Y85.661 F250
M106 S0
M106 S255
G1 X29.433 Y85.757 F250
M106 S0
M106 S255
G1 X29.636 Y85.762 F250
M106 S0
M106 S255
G1 X29.847 Y85.749 F250
M106 S0
G0 X84.968 Y86.098 F6000
M106 S255
G1 X84.968 Y86.098 F250
M106 S0
M106 S255
G1 X85.012 Y85.574 F250
M106 S0
G0 X98.4 Y86.752 F6000
M106 S255
G1 X98.4 Y86.752 F250
M106 S0
M106 S255
G1 X99.228 Y86.752 F250
M106 S0
G0 X15.805 Y70.224 F6000
M106 S255
G1 X15.805 Y70.224 F250
M106 S0
M106 S255
G1 X15.936 Y69.265 F250
M106 S0
G0 X71.188 Y69.875 F6000
M106 S255
G1 X71.188 Y69.875 F250
M106 S0
M106 S255
G1 X71.101 Y68.742 F250
M106 S0
G0 X55.009 Y68.305 F6000
M106 S255
G1 X55.009 Y68.305 F250
M106 S0
M106 S255
G1 X55.096 Y67.782 F250
M106 S0
G0 X94.3 Y75.588 F6000
M106 S255
G1 X94.3 Y75.588 F250
M106 S0
M106 S255
G1 X93.123 Y75.457 F250
M106 S0
G0 X47.16 Y47.897 F6000
M106 S255
G1 X47.16 Y47.897 F250
M106 S0
M106 S255
G1 X47.198 Y47.539 F250
M106 S0
M106 S255
G1 X47.122 Y47.186 F250
M106 S0
M106 S255
G1 X47.107 Y46.657 F250
M106 S0
M106 S255
G1 X47.121 Y46.04 F250
M106 S0
M106 S255
G1 X47.066 Y45.558 F250
M106 S0
M106 S255
G1 X47.014 Y45.361 F250
M106 S0
M106 S255
G1 X46.898 Y45.193 F250
M106 S0
G0 X25.224 Y13.315 F6000
M106 S255
G1 X25.224 Y13.315 F250
M106 S0
M106 S255
G1 X24.701 Y13.141 F250
M106 S0
G0 X84.837 Y72.317 F6000
M106 S255
G1 X84.837 Y72.317 F250
M106 S0
M106 S255
G1 X84.75 Y71.794 F250
M106 S0
G0 X32.507 Y45.542 F6000
M106 S255
G1 X32.507 Y45.542 F250
M106 S0
M106 S255
G1 X32.551 Y45.106 F250
M106 S0
G0 X86.8 Y103.628 F6000
M106 S255
G1 X86.8 Y103.628 F250
M106 S0
M106 S255
G1 X86.8 Y103.105 F250
M106 S0
G0 X41.098 Y45.585 F6000
M106 S255
G1 X41.098 Y45.585 F250
M106 S0
M106 S255
G1 X40.72 Y45.435 F250
M106 S0
M106 S255
G1 X40.313 Y45.456 F250
M106 S0
M106 S255
G1 X40.093 Y45.454 F250
M106 S0
M106 S255
G1 X39.877 Y45.411 F250
M106 S0
G0 X49.514 Y67.913 F6000
M106 S255
G1 X49.514 Y67.913 F250
M106 S0
M106 S255
G1 X49.58 Y67.38 F250
M106 S0
M106 S255
G1 X49.423 Y66.867 F250
M106 S0
M106 S255
G1 X49.367 Y66.733 F250
M106 S0
M106 S255
G1 X49.209 Y66.736 F250
M106 S0
G0 X25.486 Y51.909 F6000
M106 S255
G1 X25.486 Y51.909 F250
M106 S0
M106 S255
G1 X24.963 Y51.909 F250
M106 S0
G0 X10.049 Y108.164 F6000
M106 S255
G1 X10.049 Y108.164 F250
M106 S0
M106 S255
G1 X9.525 Y108.076 F250
M106 S0
G0 X74.066 Y74.672 F6000
M106 S255
G1 X74.066 Y74.672 F250
M106 S0
M106 S255
G1 X73.805 Y74.633 F250
M106 S0
M106 S255
G1 X73.543 Y74.597 F250
M106 S0
M106 S255
G1 X73.336 Y74.58 F250
M106 S0
M106 S255
G1 X73.194 Y74.515 F250
M106 S0
M106 S255
G1 X73.088 Y74.314 F250
M106 S0
M106 S255
G1 X72.873 Y74.259 F250
M106 S0
M106 S255
G1 X72.627 Y74.411 F250
M106 S0
G0 X56.492 Y69.047 F6000
M106 S255
G1 X56.492 Y69.047 F250
M106 S0
M106 S255
G1 X56.884 Y68.654 F250
M106 S0
G0 X37.478 Y60.434 F6000
M106 S255
G1 X37.478 Y60.434 F250
M106 S0
M106 S255
G1 X37.713 Y60.133 F250
M106 S0
M106 S255
G1 X37.781 Y59.757 F250
M106 S0
M106 S255
G1 X37.811 Y59.629 F250
M106 S0
M106 S255
G1 X37.827 Y59.497 F250
M106 S0
G0 X34.862 Y75.283 F6000
M106 S255
G1 X34.862 Y75.283 F250
M106 S0
M106 S255
G1 X34.295 Y75.326 F250
M106 S0
G0 X62.335 Y48.202 F6000
M106 S255
G1 X62.335 Y48.202 F250
M106 S0
M106 S255
G1 X62.337 Y47.992 F250
M106 S0
M106 S255
G1 X62.337 Y47.783 F250
M106 S0
M106 S255
G1 X62.335 Y47.607 F250
M106 S0
M106 S255
G1 X62.379 Y47.483 F250
M106 S0
M106 S255
G1 X62.467 Y47.428 F250
M106 S0
M106 S255
G1 X62.624 Y47.398 F250
M106 S0
M106 S255
G1 X62.711 Y47.311 F250
M106 S0
M106 S255
G1 X62.692 Y47.155 F250
M106 S0
M106 S255
G1 X62.57 Y47.042 F250
M106 S0
M106 S255
G1 X62.379 Y47.024 F250
M106 S0
G0 X24.527 Y78.859 F6000
M106 S255
G1 X24.527 Y78.859 F250
M106 S0
M106 S255
G1 X24.178 Y77.987 F250
M106 S0
G0 X37.042 Y33.07 F6000
M106 S255
G1 X37.042 Y33.07 F250
M106 S0
M106 S255
G1 X37.173 Y31.936 F250
M106 S0
G0 X98.225 Y86.229 F6000
M106 S255
G1 X98.225 Y86.229 F250
M106 S0
M106 S255
G1 X99.185 Y86.316 F250
M106 S0
G0 X20.689 Y75.981 F6000
M106 S255
G1 X20.689 Y75.981 F250
M106 S0
M106 S255
G1 X20.659 Y75.865 F250
M106 S0
M106 S255
G1 X20.776 Y75.85 F250
M106 S0
M106 S255
G1 X21.125 Y75.828 F250
M106 S0
M106 S255
G1 X21.474 Y75.806 F250
M106 S0
G0 X38.22 Y68.916 F6000
M106 S255
G1 X38.22 Y68.916 F250
M106 S0
M106 S255
G1 X37.653 Y68.916 F250
M106 S0
G0 X15.02 Y11.789 F6000
M106 S255
G1 X15.02 Y11.789 F250
M106 S0
M106 S255
G1 X14.453 Y11.702 F250
M106 S0
G0 X108.866 Y56.706 F6000
M106 S255
G1 X108.866 Y56.706 F250
M106 S0
M106 S255
G1 X109.389 Y56.182 F250
M106 S0
G0 X67.438 Y89.979 F6000
M106 S255
G1 X67.438 Y89.979 F250
M106 S0
M106 S255
G1 X67.438 Y90.161 F250
M106 S0
M106 S255
G1 X67.438 Y90.371 F250
M106 S0
M106 S255
G1 X67.07 Y90.279 F250
M106 S0
M106 S255
G1 X66.74 Y90.197 F250
M106 S0
G0 X26.14 Y105.591 F6000
M106 S255
G1 X26.14 Y105.591 F250
M106 S0
M106 S255
G1 X25.993 Y105.456 F250
M106 S0
M106 S255
G1 X26.06 Y105.291 F250
M106 S0
M106 S255
G1 X26.187 Y105.074 F250
M106 S0
M106 S255
G1 X26.097 Y104.849 F250
M106 S0
G0 X80.171 Y45.28 F6000
M106 S255
G1 X80.171 Y45.28 F250
M106 S0
M106 S255
G1 X80.324 Y45.499 F250
M106 S0
M106 S255
G1 X80.558 Y45.559 F250
M106 S0
M106 S255
G1 X80.806 Y45.483 F250
M106 S0
M106 S255
G1 X80.92 Y45.323 F250
M106 S0
M106 S255
G1 X80.873 Y45.082 F250
M106 S0
M106 S255
G1 X80.824 Y44.877 F250
M106 S0
M106 S255
G1 X80.782 Y44.67 F250
M106 S0
G0 X46.113 Y20.903 F6000
M106 S255
G1 X46.113 Y20.903 F250
M106 S0
M106 S255
G1 X46.626 Y20.762 F250
M106 S0
M106 S255
G1 X46.767 Y20.249 F250
M106 S0
G0 X11.837 Y100.968 F6000
M106 S255
G1 X11.837 Y100.968 F250
M106 S0
M106 S255
G1 X12.404 Y100.925 F250
M106 S0
G0 X25.355 Y13.468 F6000
M106 S255
G1 X25.355 Y13.468 F250
M106 S0
M106 S255
G1 X25.267 Y13.093 F250
M106 S0
M106 S255
G1 X25.333 Y12.757 F250
M106 S0
M106 S255
G1 X25.39 Y12.086 F250
M106 S0
M106 S255
G1 X25.137 Y11.484 F250
M106 S0
G0 X20.079 Y106.681 F6000
M106 S255
G1 X20.079 Y106.681 F250
M106 S0
M106 S255
G1 X20.035 Y105.896 F250
M106 S0
G0 X80.869 Y74.062 F6000
M106 S255
G1 X80.869 Y74.062 F250
M106 S0
M106 S255
G1 X79.299 Y73.931 F250
M106 S0
G0 X65.889 Y52.563 F6000
M106 S255
G1 X65.889 Y52.563 F250
M106 S0
M106 S255
G1 X65.841 Y52.405 F250
M106 S0
M106 S255
G1 X65.831 Y52.26 F250
M106 S0
M106 S255
G1 X65.983 Y51.216 F250
M106 S0
M106 S255
G1 X66.042 Y50.164 F250
M106 S0
G0 X67.307 Y51.298 F6000
M106 S255
G1 X67.307 Y51.298 F250
M106 S0
M106 S255
G1 X66.74 Y51.298 F250
M106 S0
G0 X106.467 Y86.752 F6000
M106 S255
G1 X106.467 Y86.752 F250
M106 S0
M106 S255
G1 X105.29 Y86.839 F250
M106 S0
G0 X13.45 Y109.559 F6000
M106 S255
G1 X13.45 Y109.559 F250
M106 S0
M106 S255
G1 X13.13 Y109.589 F250
M106 S0
M106 S255
G1 X12.814 Y109.632 F250
M106 S0
M106 S255
G1 X12.589 Y109.675 F250
M106 S0
M106 S255
G1 X12.444 Y109.636 F250
M106 S0
M106 S255
G1 X12.32 Y109.496 F250
M106 S0
M106 S255
G1 X12.381 Y109.351 F250
M106 S0
M106 S255
G1 X12.447 Y109.21 F250
M106 S0
G0 X35.254 Y37.431 F6000
M106 S255
G1 X35.254 Y37.431 F250
M106 S0
M106 S255
G1 X35.253 Y37.296 F250
M106 S0
M106 S255
G1 X35.123 Y37.255 F250
M106 S0
M106 S255
G1 X34.971 Y37.28 F250
M106 S0
M106 S255
G1 X34.818 Y37.3 F250
M106 S0
G0 X10.267 Y108.382 F6000
M106 S255
G1 X10.267 Y108.382 F250
M106 S0
M106 S255
G1 X10.18 Y107.51 F250
M106 S0
G0 X88.457 Y80.603 F6000
M106 S255
G1 X88.457 Y80.603 F250
M106 S0
M106 S255
G1 X88.544 Y79.469 F250
M106 S0
G0 X33.336 Y79.295 F6000
M106 S255
G1 X33.336 Y79.295 F250
M106 S0
M106 S255
G1 X32.478 Y79.173 F250
M106 S0
M106 S255
G1 X31.617 Y79.159 F250
M106 S0
M106 S255
G1 X31.07 Y79.17 F250
M106 S0
M106 S255
G1 X30.898 Y78.982 F250
M106 S0
M106 S255
G1 X30.82 Y78.635 F250
M106 S0
M106 S255
G1 X30.8 Y78.224 F250
M106 S0
M106 S255
G1 X30.806 Y77.812 F250
M106 S0
G0 X104.767 Y34.291 F6000
M106 S255
G1 X104.767 Y34.291 F250
M106 S0
M106 S255
G1 X104.794 Y33.878 F250
M106 S0
M106 S255
G1 X104.77 Y33.461 F250
M106 S0
M106 S255
G1 X104.813 Y33.236 F250
M106 S0
M106 S255
G1 X104.985 Y33.07 F250
M106 S0
G0 X16.808 Y11.309 F6000
M106 S255
G1 X16.808 Y11.309 F250
M106 S0
M106 S255
G1 X17.375 Y11.178 F250
M106 S0
G0 X32.289 Y44.452 F6000
M106 S255
G1 X32.289 Y44.452 F250
M106 S0
M106 S255
G1 X32.071 Y43.841 F250
M106 S0
G0 X19.163 Y93.686 F6000
M106 S255
G1 X19.163 Y93.686 F250
M106 S0
M106 S255
G1 X19.076 Y92.552 F250
M106 S0
G0 X92.905 Y74.454 F6000
M106 S255
G1 X92.905 Y74.454 F250
M106 S0
M106 S255
G1 X93.115 Y74.915 F250
M106 S0
M106 S255
G1 X93.045 Y75.433 F250
M106 S0
M106 S255
G1 X92.785 Y75.63 F250
M106 S0
M106 S255
G1 X92.561 Y75.57 F250
M106 S0
M106 S255
G1 X92.338 Y75.544 F250
M106 S0
M106 S255
G1 X92.32 Y75.544 F250
M106 S0
M106 S255
G1 X92.302 Y75.543 F250
M106 S0
M106 S255
G1 X92.293 Y75.552 F250
M106 S0
M106 S255
G1 X92.293 Y75.569 F250
M106 S0
M106 S255
G1 X92.294 Y75.588 F250
M106 S0
G0 X62.99 Y79.251 F6000
M106 S255
G1 X62.99 Y79.251 F250
M106 S0
M106 S255
G1 X61.768 Y79.164 F250
M106 S0
G0 X40.662 Y45.934 F6000
M106 S255
G1 X40.662 Y45.934 F250
M106 S0
M106 S255
G1 X39.703 Y46.021 F250
M106 S0
G0 X65.606 Y38.87 F6000
M106 S255
G1 X65.606 Y38.87 F250
M106 S0
M106 S255
G1 X64.298 Y38.826 F250
M106 S0
G0 X104.941 Y87.58 F6000
M106 S255
G1 X104.941 Y87.58 F250
M106 S0
M106 S255
G1 X105.115 Y86.97 F250
M106 S0
G0 X20.864 Y8.387 F6000
M106 S255
G1 X20.864 Y8.387 F250
M106 S0
M106 S255
G1 X21.474 Y8.256 F250
M106 S0
G0 X61.507 Y79.295 F6000
M106 S255
G1 X61.507 Y79.295 F250
M106 S0
M106 S255
G1 X61.467 Y79.173 F250
M106 S0
M106 S255
G1 X61.378 Y79.126 F250
M106 S0
M106 S255
G1 X60.459 Y79.201 F250
M106 S0
M106 S255
G1 X59.544 Y79.295 F250
M106 S0
G0 X38.22 Y46.37 F6000
M106 S255
G1 X38.22 Y46.37 F250
M106 S0
M106 S255
G1 X37.609 Y46.37 F250
M106 S0
G0 X61.943 Y87.842 F6000
M106 S255
G1 X61.943 Y87.842 F250
M106 S0
M106 S255
G1 X62.335 Y86.621 F250
M106 S0
G0 X92.251 Y79.295 F6000
M106 S255
G1 X92.251 Y79.295 F250
M106 S0
M106 S255
G1 X92.303 Y79.587 F250
M106 S0
M106 S255
G1 X92.403 Y79.901 F250
M106 S0
M106 S255
G1 X91.993 Y79.866 F250
M106 S0
M106 S255
G1 X91.64 Y79.687 F250
M106 S0
G0 X89.416 Y68.218 F6000
M106 S255
G1 X89.416 Y68.218 F250
M106 S0
M106 S255
G1 X89.726 Y68.235 F250
M106 S0
M106 S255
G1 X90.027 Y68.301 F250
M106 S0
M106 S255
G1 X90.502 Y68.274 F250
M106 S0
M106 S255
G1 X90.943 Y68.087 F250
M106 S0
G0 X17.855 Y20.598 F6000
M106 S255
G1 X17.855 Y20.598 F250
M106 S0
M106 S255
G1 X18.024 Y20.296 F250
M106 S0
M106 S255
G1 X18.034 Y19.942 F250
M106 S0
M106 S255
G1 X18.123 Y19.71 F250
M106 S0
M106 S255
G1 X18.291 Y19.507 F250
M106 S0
G0 X68.31 Y19.377 F6000
M106 S255
G1 X68.31 Y19.377 F250
M106 S0
M106 S255
G1 X69.075 Y19.411 F250
M106 S0
M106 S255
G1 X69.835 Y19.319 F250
M106 S0
M106 S255
G1 X69.948 Y19.323 F250
M106 S0
M106 S255
G1 X70.054 Y19.333 F250
M106 S0
G0 X83.747 Y43.667 F6000
M106 S255
G1 X83.747 Y43.667 F250
M106 S0
M106 S255
G1 X83.773 Y43.603 F250
M106 S0
M106 S255
G1 X83.79 Y43.549 F250
M106 S0
M106 S255
G1 X83.624 Y43.308 F250
M106 S0
M106 S255
G1 X83.736 Y43.075 F250
M106 S0
M106 S255
G1 X84.002 Y42.955 F250
M106 S0
M106 S255
G1 X84.104 Y42.887 F250
M106 S0
M106 S255
G1 X84.227 Y42.882 F250
M106 S0
G0 X37.74 Y43.274 F6000
M106 S255
G1 X37.74 Y43.274 F250
M106 S0
M106 S255
G1 X37.887 Y42.96 F250
M106 S0
M106 S255
G1 X37.862 Y42.621 F250
M106 S0
M106 S255
G1 X37.837 Y42.379 F250
M106 S0
M106 S255
G1 X37.871 Y42.14 F250
M106 S0
G0 X34.557 Y74.236 F6000
M106 S255
G1 X34.557 Y74.236 F250
M106 S0
M106 S255
G1 X34.208 Y73.19 F250
M106 S0
G0 X42.406 Y35.337 F6000
M106 S255
G1 X42.406 Y35.337 F250
M106 S0
M106 S255
G1 X42.749 Y35.238 F250
M106 S0
M106 S255
G1 X43.104 Y35.206 F250
M106 S0
M106 S255
G1 X43.386 Y35.183 F250
M106 S0
M106 S255
G1 X43.627 Y35.032 F250
M106 S0
G0 X61.027 Y9.957 F6000
M106 S255
G1 X61.027 Y9.957 F250
M106 S0
M106 S255
G1 X61.376 Y9.652 F250
M106 S0
G0 X42.101 Y33.593 F6000
M106 S255
G1 X42.101 Y33.593 F250
M106 S0
M106 S255
G1 X42.216 Y33.478 F250
M106 S0
M106 S255
G1 X42.227 Y33.334 F250
M106 S0
M106 S255
G1 X42.143 Y32.943 F250
M106 S0
M106 S255
G1 X42.145 Y32.546 F250
M106 S0
G0 X48.206 Y45.542 F6000
M106 S255
G1 X48.206 Y45.542 F250
M106 S0
M106 S255
G1 X48.163 Y44.626 F250
M106 S0
G0 X61.332 Y75.806 F6000
M106 S255
G1 X61.332 Y75.806 F250
M106 S0
M106 S255
G1 X61.329 Y75.985 F250
M106 S0
M106 S255
G1 X61.412 Y76.109 F250
M106 S0
M106 S255
G1 X61.672 Y76.076 F250
M106 S0
M106 S255
G1 X61.86 Y75.948 F250
M106 S0
M106 S255
G1 X61.892 Y75.644 F250
M106 S0
M106 S255
G1 X61.856 Y75.289 F250
M106 S0
M106 S255
G1 X61.899 Y74.934 F250
M106 S0
G0 X28.277 Y98.177 F6000
M106 S255
G1 X28.277 Y98.177 F250
M106 S0
M106 S255
G1 X28.364 Y97.567 F250
M106 S0
G0 X67.808 Y61.197 F6000
M106 S255
G1 X67.808 Y61.197 F250
M106 S0
M106 S255
G1 X67.728 Y61.371 F250
M106 S0
M106 S255
G1 X67.552 Y61.543 F250
M106 S0
M106 S255
G1 X67.343 Y61.212 F250
M106 S0
M106 S255
G1 X67.001 Y61.023 F250
M106 S0
G0 X93.559 Y70.355 F6000
M106 S255
G1 X93.559 Y70.355 F250
M106 S0
M106 S255
G1 X93.341 Y69.396 F250
M106 S0
G0 X14.933 Y94.427 F6000
M106 S255
G1 X14.933 Y94.427 F250
M106 S0
M106 S255
G1 X14.322 Y94.253 F250
M106 S0
G0 X87.672 Y78.03 F6000
M106 S255
G1 X87.672 Y78.03 F250
M106 S0
M106 S255
G1 X87.061 Y77.987 F250
M106 S0
G0 X52.436 Y73.626 F6000
M106 S255
G1 X52.436 Y73.626 F250
M106 S0
M106 S255
G1 X53.57 Y73.495 F250
M106 S0
G0 X87.934 Y65.471 F6000
M106 S255
G1 X87.934 Y65.471 F250
M106 S0
M106 S255
G1 X88.195 Y64.948 F250
M106 S0
G0 X97.92 Y92.29 F6000
M106 S255
G1 X97.92 Y92.29 F250
M106 S0
M106 S255
G1 X98.154 Y92.346 F250
M106 S0
M106 S255
G1 X98.373 Y92.288 F250
M106 S0
M106 S255
G1 X98.623 Y92.137 F250
M106 S0
M106 S255
G1 X98.886 Y92.137 F250
M106 S0
M106 S255
G1 X99.152 Y92.334 F250
M106 S0
M106 S255
G1 X99.436 Y92.373 F250
M106 S0
M106 S255
G1 X99.708 Y92.225 F250
M106 S0
G0 X14.061 Y81.519 F6000
M106 S255
G1 X14.061 Y81.519 F250
M106 S0
M106 S255
G1 X13.408 Y81.51 F250
M106 S0
M106 S255
G1 X12.748 Y81.551 F250
M106 S0
M106 S255
G1 X12.527 Y81.528 F250
M106 S0
M106 S255
G1 X12.447 Y81.17 F250
M106 S0
G0 X27.579 Y9.608 F6000
M106 S255
G1 X27.579 Y9.608 F250
M106 S0
M106 S255
G1 X27.95 Y9.642 F250
M106 S0
M106 S255
G1 X28.287 Y9.803 F250
M106 S0
M106 S255
G1 X28.619 Y9.904 F250
M106 S0
M106 S255
G1 X28.917 Y9.91 F250
M106 S0
M106 S255
G1 X29.13 Y9.776 F250
M106 S0
M106 S255
G1 X29.221 Y9.773 F250
M106 S0
M106 S255
G1 X29.324 Y9.783 F250
M106 S0
G0 X34.927 Y75.588 F6000
M106 S255
G1 X34.927 Y75.588 F250
M106 S0
M106 S255
G1 X34.864 Y75.115 F250
M106 S0
M106 S255
G1 X34.47 Y74.847 F250
M106 S0
G0 X15.369 Y66.866 F6000
M106 S255
G1 X15.369 Y66.866 F250
M106 S0
M106 S255
G1 X14.715 Y66.91 F250
M106 S0
G0 X53.221 Y75.152 F6000
M106 S255
G1 X53.221 Y75.152 F250
M106 S0
M106 S255
G1 X53.654 Y75.06 F250
M106 S0
M106 S255
G1 X54.095 Y75.032 F250
M106 S0
M106 S255
G1 X54.328 Y74.958 F250
M106 S0
M106 S255
G1 X54.442 Y74.76 F250
M106 S0
G0 X49.209 Y68.698 F6000
M106 S255
G1 X49.209 Y68.698 F250
M106 S0
M106 S255
G1 X48.555 Y68.611 F250
M106 S0
G0 X23.044 Y68.829 F6000
M106 S255
G1 X23.044 Y68.829 F250
M106 S0
M106 S255
G1 X23.59 Y68.803 F250
M106 S0
M106 S255
G1 X24.135 Y68.729 F250
M106 S0
M106 S255
G1 X24.32 Y68.675 F250
M106 S0
M106 S255
G1 X24.44 Y68.48 F250
M106 S0
G0 X90.768 Y100.968 F6000
M106 S255
G1 X90.768 Y100.968 F250
M106 S0
M106 S255
G1 X90.594 Y100.314 F250
M106 S0
G0 X93.559 Y100.968 F6000
M106 S255
G1 X93.559 Y100.968 F250
M106 S0
M106 S255
G1 X94.431 Y100.554 F250
M106 S0
G0 X15.892 Y100.75 F6000
M106 S255
G1 X15.892 Y100.75 F250
M106 S0
M106 S255
G1 X14.802 Y100.837 F250
M106 S0
G0 X28.408 Y76.111 F6000
M106 S255
G1 X28.408 Y76.111 F250
M106 S0
M106 S255
G1 X28.395 Y76.374 F250
M106 S0
M106 S255
G1 X28.376 Y76.636 F250
M106 S0
M106 S255
G1 X28.276 Y76.802 F250
M106 S0
M106 S255
G1 X28.103 Y76.809 F250
M106 S0
G0 X54.442 Y77.507 F6000
M106 S255
G1 X54.442 Y77.507 F250
M106 S0
M106 S255
G1 X52.523 Y77.332 F250
M106 S0
G0 X105.726 Y87.144 F6000
M106 S255
G1 X105.726 Y87.144 F250
M106 S0
M106 S255
G1 X105.188 Y86.94 F250
M106 S0
M106 S255
G1 X104.652 Y86.753 F250
M106 S0
M106 S255
G1 X104.106 Y86.727 F250
M106 S0
M106 S255
G1 X103.565 Y86.71 F250
M106 S0
M106 S255
G1 X103.011 Y86.811 F250
M106 S0
M106 S255
G1 X102.589 Y86.809 F250
M106 S0
M106 S255
G1 X102.123 Y86.7 F250
M106 S0
M106 S255
G1 X101.874 Y86.68 F250
M106 S0
M106 S255
G1 X101.839 Y86.573 F250
M106 S0
M106 S255
G1 X101.801 Y86.447 F250
M106 S0
G0 X35.211 Y32.634 F6000
M106 S255
G1 X35.211 Y32.634 F250
M106 S0
M106 S255
G1 X34.952 Y32.204 F250
M106 S0
M106 S255
G1 X34.47 Y32.067 F250
M106 S0
G0 X64.167 Y37.954 F6000
M106 S255
G1 X64.167 Y37.954 F250
M106 S0
M106 S255
G1 X65.562 Y38.085 F250
M106 S0
G0 X35.691 Y38.041 F6000
M106 S255
G1 X35.691 Y38.041 F250
M106 S0
M106 S255
G1 X33.946 Y37.954 F250
M106 S0
G0 X28.452 Y80.647 F6000
M106 S255
G1 X28.452 Y80.647 F250
M106 S0
M106 S255
G1 X30.545 Y80.647 F250
M106 S0
G0 X27.667 Y109.254 F6000
M106 S255
G1 X27.667 Y109.254 F250
M106 S0
M106 S255
G1 X27.561 Y109.298 F250
M106 S0
M106 S255
G1 X27.5 Y109.341 F250
M106 S0
M106 S255
G1 X27.366 Y109.68 F250
M106 S0
M106 S255
G1 X27.056 Y109.864 F250
M106 S0
G0 X59.196 Y72.448 F6000
M106 S255
G1 X59.196 Y72.448 F250
M106 S0
M106 S255
G1 X57.931 Y72.405 F250
M106 S0
G0 X52.131 Y50.033 F6000
M106 S255
G1 X52.131 Y50.033 F250
M106 S0
M106 S255
G1 X51.477 Y50.208 F250
M106 S0
G0 X63.905 Y37.91 F6000
M106 S255
G1 X63.905 Y37.91 F250
M106 S0
M106 S255
G1 X62.292 Y37.823 F250
M106 S0
G0 X54.311 Y85.138 F6000
M106 S255
G1 X54.311 Y85.138 F250
M106 S0
M106 S255
G1 X54.18 Y85.002 F250
M106 S0
M106 S255
G1 X54.008 Y84.969 F250
M106 S0
M106 S255
G1 X53.504 Y84.988 F250
M106 S0
M106 S255
G1 X53.003 Y84.964 F250
M106 S0
G0 X25.006 Y104.37 F6000
M106 S255
G1 X25.006 Y104.37 F250
M106 S0
M106 S255
G1 X25.05 Y103.803 F250
M106 S0
G0 X23.873 Y104.937 F6000
M106 S255
G1 X23.873 Y104.937 F250
M106 S0
M106 S255
G1 X23.42 Y104.537 F250
M106 S0
M106 S255
G1 X23.415 Y103.934 F250
M106 S0
G0 X62.074 Y79.077 F6000
M106 S255
G1 X62.074 Y79.077 F250
M106 S0
M106 S255
G1 X62.171 Y78.518 F250
M106 S0
M106 S255
G1 X62.372 Y77.982 F250
M106 S0
M106 S255
G1 X62.482 Y77.732 F250
M106 S0
M106 S255
G1 X62.379 Y77.463 F250
M106 S0
G0 X69.182 Y70.268 F6000
M106 S255
G1 X69.182 Y70.268 F250
M106 S0
M106 S255
G1 X69.88 Y70.05 F250
M106 S0
G0 X69.182 Y96.782 F6000
M106 S255
G1 X69.182 Y96.782 F250
M106 S0
M106 S255
G1 X69.88 Y96.695 F250
M106 S0
G0 X40.226 Y77.856 F6000
M106 S255
G1 X40.226 Y77.856 F250
M106 S0
M106 S255
G1 X39.528 Y78.074 F250
M106 S0
G0 X45.939 Y50.993 F6000
M106 S255
G1 X45.939 Y50.993 F250
M106 S0
M106 S255
G1 X46.113 Y49.99 F250
M106 S0
G0 X73.194 Y74.323 F6000
M106 S255
G1 X73.194 Y74.323 F250
M106 S0
M106 S255
G1 X75.069 Y74.236 F250
M106 S0
G0 X67.525 Y60.325 F6000
M106 S255
G1 X67.525 Y60.325 F250
M106 S0
M106 S255
G1 X66.827 Y60.412 F250
M106 S0
G0 X43.715 Y94.689 F6000
M106 S255
G1 X43.715 Y94.689 F250
M106 S0
M106 S255
G1 X44.412 Y94.471 F250
M106 S0
G0 X69.662 Y94.34 F6000
M106 S255
G1 X69.662 Y94.34 F250
M106 S0
M106 S255
G1 X67.961 Y94.122 F250
M106 S0
G0 X48.337 Y48.158 F6000
M106 S255
G1 X48.337 Y48.158 F250
M106 S0
M106 S255
G1 X48.381 Y47.461 F250
M106 S0
G0 X62.466 Y48.638 F6000
M106 S255
G1 X62.466 Y48.638 F250
M106 S0
M106 S255
G1 X63.183 Y48.838 F250
M106 S0
M106 S255
G1 X63.92 Y48.919 F250
M106 S0
M106 S255
G1 X64.4 Y49.026 F250
M106 S0
M106 S255
G1 X64.751 Y49.174 F250
M106 S0
M106 S255
G1 X65.113 Y49.29 F250
M106 S0
M106 S255
G1 X65.469 Y49.331 F250
M106 S0
M106 S255
G1 X65.824 Y49.292 F250
M106 S0
G0 X62.423 Y83.612 F6000
M106 S255
G1 X62.423 Y83.612 F250
M106 S0
M106 S255
G1 X62.887 Y83.384 F250
M106 S0
M106 S255
G1 X63.383 Y83.381 F250
M106 S0
M106 S255
G1 X63.751 Y83.473 F250
M106 S0
M106 S255
G1 X64.032 Y83.404 F250
M106 S0
M106 S255
G1 X64.22 Y83.356 F250
M106 S0
M106 S255
G1 X64.193 Y83.219 F250
M106 S0
M106 S255
G1 X64.167 Y83.089 F250
M106 S0
G0 X73.543 Y88.627 F6000
M106 S255
G1 X73.543 Y88.627 F250
M106 S0
M106 S255
G1 X72.322 Y88.496 F250
M106 S0
G0 X92.425 Y79.862 F6000
M106 S255
G1 X92.425 Y79.862 F250
M106 S0
M106 S255
G1 X92.581 Y79.908 F250
M106 S0
M106 S255
G1 X92.756 Y79.852 F250
M106 S0
M106 S255
G1 X92.735 Y79.536 F250
M106 S0
M106 S255
G1 X92.949 Y79.295 F250
M106 S0
G0 X50.866 Y31.805 F6000
M106 S255
G1 X50.866 Y31.805 F250
M106 S0
M106 S255
G1 X49.471 Y31.5 F250
M106 S0
G0 X40.269 Y21.034 F6000
M106 S255
G1 X40.269 Y21.034 F250
M106 S0
M106 S255
G1 X40.139 Y20.336 F250
M106 S0
G0 X27.536 Y110.519 F6000
M106 S255
G1 X27.536 Y110.519 F250
M106 S0
M106 S255
G1 X28.495 Y109.516 F250
M106 S0
G0 X48.206 Y76.722 F6000
M106 S255
G1 X48.206 Y76.722 F250
M106 S0
M106 S255
G1 X48.293 Y75.893 F250
M106 S0
G0 X39.746 Y35.381 F6000
M106 S255
G1 X39.746 Y35.381 F250
M106 S0
M106 S255
G1 X39.36 Y35.187 F250
M106 S0
M106 S255
G1 X38.913 Y35.194 F250
M106 S0
M106 S255
G1 X38.617 Y35.229 F250
M106 S0
M106 S255
G1 X38.307 Y35.163 F250
M106 S0
G0 X38.22 Y56.924 F6000
M106 S255
G1 X38.22 Y56.924 F250
M106 S0
M106 S255
G1 X38.918 Y56.793 F250
M106 S0
G0 X47.901 Y77.332 F6000
M106 S255
G1 X47.901 Y77.332 F250
M106 S0
M106 S255
G1 X47.203 Y77.114 F250
M106 S0
G0 X76.988 Y60.674 F6000
M106 S255
G1 X76.988 Y60.674 F250
M106 S0
M106 S255
G1 X76.247 Y60.718 F250
M106 S0
G0 X104.156 Y37.998 F6000
M106 S255
G1 X104.156 Y37.998 F250
M106 S0
M106 S255
G1 X104.317 Y37.867 F250
M106 S0
M106 S255
G1 X104.505 Y37.78 F250
M106 S0
M106 S255
G1 X104.762 Y37.522 F250
M106 S0
M106 S255
G1 X104.679 Y37.169 F250
M106 S0
G0 X23.894 Y105.067 F6000
M106 S255
G1 X23.894 Y105.067 F250
M106 S0
M106 S255
G1 X24.242 Y104.583 F250
M106 S0
M106 S255
G1 X24.447 Y104.026 F250
M106 S0
M106 S255
G1 X24.577 Y103.717 F250
M106 S0
M106 S255
G1 X24.557 Y103.539 F250
M106 S0
M106 S255
G1 X24.463 Y103.402 F250
M106 S0
M106 S255
G1 X24.427 Y103.21 F250
M106 S0
M106 S255
G1 X24.44 Y103.018 F250
M106 S0
G0 X39.746 Y68.218 F6000
M106 S255
G1 X39.746 Y68.218 F250
M106 S0
M106 S255
G1 X41.49 Y68.087 F250
M106 S0
G0 X72.627 Y97.087 F6000
M106 S255
G1 X72.627 Y97.087 F250
M106 S0
M106 S255
G1 X71.886 Y96.869 F250
M106 S0
G0 X32.812 Y51.734 F6000
M106 S255
G1 X32.812 Y51.734 F250
M106 S0
M106 S255
G1 X32.921 Y51.508 F250
M106 S0
M106 S255
G1 X32.936 Y51.259 F250
M106 S0
M106 S255
G1 X32.858 Y50.899 F250
M106 S0
M106 S255
G1 X33.028 Y50.655 F250
M106 S0
M106 S255
G1 X33.448 Y50.6 F250
M106 S0
M106 S255
G1 X33.915 Y50.599 F250
M106 S0
M106 S255
G1 X34.382 Y50.6 F250
M106 S0
G0 X67.001 Y94.253 F6000
M106 S255
G1 X67.001 Y94.253 F250
M106 S0
M106 S255
G1 X67.699 Y94.209 F250
M106 S0
G0 X85.797 Y78.815 F6000
M106 S255
G1 X85.797 Y78.815 F250
M106 S0
M106 S255
G1 X84.707 Y78.641 F250
M106 S0
G0 X30.021 Y75.283 F6000
M106 S255
G1 X30.021 Y75.283 F250
M106 S0
M106 S255
G1 X30.185 Y75.214 F250
M106 S0
M106 S255
G1 X30.253 Y75.061 F250
M106 S0
M106 S255
G1 X30.305 Y74.902 F250
M106 S0
M106 S255
G1 X30.235 Y74.777 F250
M106 S0
M106 S255
G1 X29.797 Y74.735 F250
M106 S0
M106 S255
G1 X28.993 Y74.668 F250
M106 S0
M106 S255
G1 X28.19 Y74.585 F250
M106 S0
G0 X26.882 Y80.254 F6000
M106 S255
G1 X26.882 Y80.254 F250
M106 S0
M106 S255
G1 X27.004 Y80.244 F250
M106 S0
M106 S255
G1 X27.047 Y80.17 F250
M106 S0
M106 S255
G1 X27.019 Y79.816 F250
M106 S0
M106 S255
G1 X26.969 Y79.469 F250
M106 S0
G0 X16.459 Y14.274 F6000
M106 S255
G1 X16.459 Y14.274 F250
M106 S0
M106 S255
G1 X16.999 Y13.434 F250
M106 S0
M106 S255
G1 X17.01 Y12.444 F250
M106 S0
M106 S255
G1 X17.021 Y12.101 F250
M106 S0
M106 S255
G1 X17.201 Y11.832 F250
M106 S0
G0 X22.782 Y69.788 F6000
M106 S255
G1 X22.782 Y69.788 F250
M106 S0
M106 S255
G1 X22.041 Y69.875 F250
M106 S0
G0 X57.364 Y69.832 F6000
M106 S255
G1 X57.364 Y69.832 F250
M106 S0
M106 S255
G1 X56.787 Y69.881 F250
M106 S0
M106 S255
G1 X56.204 Y69.878 F250
M106 S0
M106 S255
G1 X55.575 Y69.982 F250
M106 S0
M106 S255
G1 X54.917 Y70.062 F250
M106 S0
M106 S255
G1 X54.365 Y70.174 F250
M106 S0
M106 S255
G1 X54.181 Y70.007 F250
M106 S0
M106 S255
G1 X54.006 Y69.875 F250
M106 S0
G0 X28.321 Y97.174 F6000
M106 S255
G1 X28.321 Y97.174 F250
M106 S0
M106 S255
G1 X28.369 Y97.347 F250
M106 S0
M106 S255
G1 X28.417 Y97.52 F250
M106 S0
M106 S255
G1 X27.927 Y97.47 F250
M106 S0
M106 S255
G1 X27.579 Y97.131 F250
M106 S0
G0 X65.606 Y36.471 F6000
M106 S255
G1 X65.606 Y36.471 F250
M106 S0
M106 S255
G1 X65.65 Y35.207 F250
M106 S0
G0 X48.555 Y68.175 F6000
M106 S255
G1 X48.555 Y68.175 F250
M106 S0
M106 S255
G1 X49.078 Y67.172 F250
M106 S0
G0 X83.922 Y46.894 F6000
M106 S255
G1 X83.922 Y46.894 F250
M106 S0
M106 S255
G1 X83.924 Y46.436 F250
M106 S0
M106 S255
G1 X83.964 Y45.98 F250
M106 S0
M106 S255
G1 X84.063 Y45.687 F250
M106 S0
M106 S255
G1 X84.056 Y45.523 F250
M106 S0
M106 S255
G1 X84.001 Y45.372 F250
M106 S0
M106 S255
G1 X83.904 Y45.074 F250
M106 S0
M106 S255
G1 X83.951 Y44.797 F250
M106 S0
M106 S255
G1 X84.086 Y44.571 F250
M106 S0
M106 S255
G1 X84.034 Y44.452 F250
M106 S0
M106 S255
G1 X83.922 Y44.364 F250
M106 S0
G0 X19.294 Y48.507 F6000
M106 S255
G1 X19.294 Y48.507 F250
M106 S0
M106 S255
G1 X19.968 Y48.435 F250
M106 S0
M106 S255
G1 X20.646 Y48.422 F250
M106 S0
M106 S255
G1 X20.816 Y48.39 F250
M106 S0
M106 S255
G1 X20.951 Y48.289 F250
M106 S0
G0 X69.444 Y18.199 F6000
M106 S255
G1 X69.444 Y18.199 F250
M106 S0
M106 S255
G1 X68.789 Y17.938 F250
M106 S0
G0 X77.511 Y61.59 F6000
M106 S255
G1 X77.511 Y61.59 F250
M106 S0
M106 S255
G1 X76.904 Y61.598 F250
M106 S0
M106 S255
G1 X76.329 Y61.426 F250
M106 S0
M106 S255
G1 X76.015 Y61.24 F250
M106 S0
M106 S255
G1 X75.753 Y61.228 F250
M106 S0
M106 S255
G1 X75.305 Y61.334 F250
M106 S0
M106 S255
G1 X74.427 Y61.424 F250
M106 S0
M106 S255
G1 X73.543 Y61.372 F250
M106 S0
G0 X84.27 Y34.858 F6000
M106 S255
G1 X84.27 Y34.858 F250
M106 S0
M106 S255
G1 X84.401 Y33.07 F250
M106 S0
G0 X27.361 Y108.164 F6000
M106 S255
G1 X27.361 Y108.164 F250
M106 S0
M106 S255
G1 X26.62 Y109.079 F250
M106 S0
G0 X78.165 Y90.153 F6000
M106 S255
G1 X78.165 Y90.153 F250
M106 S0
M106 S255
G1 X77.337 Y89.892 F250
M106 S0
G0 X44.456 Y28.578 F6000
M106 S255
G1 X44.456 Y28.578 F250
M106 S0
M106 S255
G1 X43.715 Y28.404 F250
M106 S0
G0 X102.935 Y17.196 F6000
M106 S255
G1 X102.935 Y17.196 F250
M106 S0
M106 S255
G1 X102.761 Y16.498 F250
M106 S0
G0 X79.256 Y25.307 F6000
M106 S255
G1 X79.256 Y25.307 F250
M106 S0
M106 S255
G1 X79.604 Y24.566 F250
M106 S0
G0 X85.622 Y88.017 F6000
M106 S255
G1 X85.622 Y88.017 F250
M106 S0
M106 S255
G1 X85.421 Y87.891 F250
M106 S0
M106 S255
G1 X85.199 Y87.835 F250
M106 S0
M106 S255
G1 X84.809 Y87.881 F250
M106 S0
M106 S255
G1 X84.187 Y87.905 F250
M106 S0
M106 S255
G1 X83.563 Y87.931 F250
M106 S0
M106 S255
G1 X83.143 Y87.953 F250
M106 S0
M106 S255
G1 X82.753 Y87.906 F250
M106 S0
M106 S255
G1 X82.373 Y87.887 F250
M106 S0
M106 S255
G1 X82.062 Y87.94 F250
M106 S0
M106 S255
G1 X81.79 Y88.092 F250
M106 S0
M106 S255
G1 X81.662 Y88.245 F250
M106 S0
M106 S255
G1 X81.662 Y88.328 F250
M106 S0
M106 S255
G1 X81.698 Y88.409 F250
M106 S0
G0 X32.812 Y47.199 F6000
M106 S255
G1 X32.812 Y47.199 F250
M106 S0
M106 S255
G1 X33.946 Y47.155 F250
M106 S0
G0 X29.978 Y97.392 F6000
M106 S255
G1 X29.978 Y97.392 F250
M106 S0
M106 S255
G1 X30.512 Y96.74 F250
M106 S0
M106 S255
G1 X30.972 Y96.036 F250
M106 S0
M106 S255
G1 X31.099 Y95.932 F250
M106 S0
M106 S255
G1 X31.199 Y95.822 F250
M106 S0
G0 X64.254 Y40.178 F6000
M106 S255
G1 X64.254 Y40.178 F250
M106 S0
M106 S255
G1 X63.832 Y40.005 F250
M106 S0
M106 S255
G1 X63.383 Y40.009 F250
M106 S0
M106 S255
G1 X62.653 Y39.982 F250
M106 S0
M106 S255
G1 X61.943 Y39.829 F250
M106 S0
G0 X65.737 Y68.131 F6000
M106 S255
G1 X65.737 Y68.131 F250
M106 S0
M106 S255
G1 X66.086 Y67.39 F250
M106 S0
G0 X58.105 Y77.638 F6000
M106 S255
G1 X58.105 Y77.638 F250
M106 S0
M106 S255
G1 X57.808 Y77.863 F250
M106 S0
M106 S255
G1 X57.503 Y77.787 F250
M106 S0
M106 S255
G1 X56.523 Y77.593 F250
M106 S0
M106 S255
G1 X55.532 Y77.507 F250
M106 S0
G0 X75.81 Y62.724 F6000
M106 S255
G1 X75.81 Y62.724 F250
M106 S0
M106 S255
G1 X75.723 Y61.328 F250
M106 S0
G0 X70.795 Y96.869 F6000
M106 S255
G1 X70.795 Y96.869 F250
M106 S0
M106 S255
G1 X70.054 Y96.695 F250
M106 S0
G0 X100.275 Y85.051 F6000
M106 S255
G1 X100.275 Y85.051 F250
M106 S0
M106 S255
G1 X100.276 Y84.493 F250
M106 S0
M106 S255
G1 X100.444 Y83.957 F250
M106 S0
M106 S255
G1 X100.427 Y83.87 F250
M106 S0
M106 S255
G1 X100.318 Y83.83 F250
M106 S0
G0 X94.126 Y79.949 F6000
M106 S255
G1 X94.126 Y79.949 F250
M106 S0
M106 S255
G1 X94.586 Y79.928 F250
M106 S0
M106 S255
G1 X95.042 Y79.991 F250
M106 S0
M106 S255
G1 X95.371 Y79.998 F250
M106 S0
M106 S255
G1 X95.696 Y79.949 F250
M106 S0
G0 X55.532 Y82.565 F6000
M106 S255
G1 X55.532 Y82.565 F250
M106 S0
M106 S255
G1 X54.861 Y82.443 F250
M106 S0
M106 S255
G1 X54.181 Y82.394 F250
M106 S0
M106 S255
G1 X53.721 Y82.336 F250
M106 S0
M106 S255
G1 X53.308 Y82.129 F250
M106 S0
G0 X98.64 Y79.578 F6000
M106 S255
G1 X98.64 Y79.578 F250
M106 S0
M106 S255
G1 X98.723 Y79.325 F250
M106 S0
M106 S255
G1 X98.826 Y79.068 F250
M106 S0
M106 S255
G1 X98.838 Y78.924 F250
M106 S0
M106 S255
G1 X98.661 Y78.859 F250
M106 S0
G0 X25.006 Y77.507 F6000
M106 S255
G1 X25.006 Y77.507 F250
M106 S0
M106 S255
G1 X25.241 Y77.599 F250
M106 S0
M106 S255
G1 X25.487 Y77.535 F250
M106 S0
M106 S255
G1 X25.922 Y77.497 F250
M106 S0
M106 S255
G1 X26.358 Y77.42 F250
M106 S0
G0 X76.683 Y87.057 F6000
M106 S255
G1 X76.683 Y87.057 F250
M106 S0
M106 S255
G1 X76.886 Y86.923 F250
M106 S0
M106 S255
G1 X76.902 Y86.698 F250
M106 S0
M106 S255
G1 X76.888 Y86.06 F250
M106 S0
M106 S255
G1 X76.87 Y85.219 F250
M106 S0
M106 S255
G1 X76.857 Y84.605 F250
M106 S0
M106 S255
G1 X76.847 Y84.427 F250
M106 S0
M106 S255
G1 X77.031 Y84.353 F250
M106 S0
G0 X52.305 Y50.775 F6000
M106 S255
G1 X52.305 Y50.775 F250
M106 S0
M106 S255
G1 X52.131 Y49.423 F250
M106 S0
G0 X32.289 Y32.11 F6000
M106 S255
G1 X32.289 Y32.11 F250
M106 S0
M106 S255
G1 X32.716 Y32.216 F250
M106 S0
M106 S255
G1 X33.163 Y32.208 F250
M106 S0
M106 S255
G1 X33.683 Y32.164 F250
M106 S0
M106 S255
G1 X34.208 Y32.154 F250
M106 S0
G0 X39.441 Y54.176 F6000
M106 S255
G1 X39.441 Y54.176 F250
M106 S0
M106 S255
G1 X37.086 Y54.089 F250
M106 S0
G0 X53.657 Y85.313 F6000
M106 S255
G1 X53.657 Y85.313 F250
M106 S0
M106 S255
G1 X53.896 Y85.306 F250
M106 S0
M106 S255
G1 X54.139 Y85.275 F250
M106 S0
M106 S255
G1 X54.891 Y85.091 F250
M106 S0
M106 S255
G1 X55.663 Y85.008 F250
M106 S0
G0 X72.583 Y37.692 F6000
M106 S255
G1 X72.583 Y37.692 F250
M106 S0
M106 S255
G1 X72.654 Y37.673 F250
M106 S0
M106 S255
G1 X72.716 Y37.655 F250
M106 S0
M106 S255
G1 X72.711 Y37.495 F250
M106 S0
M106 S255
G1 X72.748 Y37.109 F250
M106 S0
M106 S255
G1 X72.769 Y36.723 F250
M106 S0
M106 S255
G1 X72.744 Y36.605 F250
M106 S0
M106 S255
G1 X72.725 Y36.555 F250
M106 S0
M106 S255
G1 X72.703 Y36.371 F250
M106 S0
M106 S255
G1 X72.599 Y35.953 F250
M106 S0
M106 S255
G1 X72.263 Y35.902 F250
M106 S0
M106 S255
G1 X71.997 Y35.947 F250
M106 S0
M106 S255
G1 X71.963 Y35.937 F250
M106 S0
M106 S255
G1 X71.929 Y35.926 F250
M106 S0
G0 X20.864 Y33.767 F6000
M106 S255
G1 X20.864 Y33.767 F250
M106 S0
M106 S255
G1 X22.608 Y33.811 F250
M106 S0
G0 X86.756 Y78.772 F6000
M106 S255
G1 X86.756 Y78.772 F250
M106 S0
M106 S255
G1 X86.974 Y77.725 F250
M106 S0
G0 X101.191 Y47.809 F6000
M106 S255
G1 X101.191 Y47.809 F250
M106 S0
M106 S255
G1 X101.92 Y47.81 F250
M106 S0
M106 S255
G1 X102.633 Y47.644 F250
M106 S0
M106 S255
G1 X102.84 Y47.638 F250
M106 S0
M106 S255
G1 X103.066 Y47.679 F250
M106 S0
G0 X11.531 Y14.318 F6000
M106 S255
G1 X11.531 Y14.318 F250
M106 S0
M106 S255
G1 X10.746 Y14.056 F250
M106 S0
G0 X58.541 Y84.179 F6000
M106 S255
G1 X58.541 Y84.179 F250
M106 S0
M106 S255
G1 X57.756 Y84.179 F250
M106 S0
G0 X55.489 Y75.893 F6000
M106 S255
G1 X55.489 Y75.893 F250
M106 S0
M106 S255
G1 X55.433 Y76.055 F250
M106 S0
M106 S255
G1 X55.368 Y76.247 F250
M106 S0
M106 S255
G1 X55.516 Y76.296 F250
M106 S0
M106 S255
G1 X55.879 Y76.253 F250
M106 S0
M106 S255
G1 X56.23 Y76.242 F250
M106 S0
M106 S255
G1 X56.248 Y76.243 F250
M106 S0
M106 S255
G1 X56.266 Y76.244 F250
M106 S0
M106 S255
G1 X56.302 Y76.225 F250
M106 S0
M106 S255
G1 X56.316 Y76.19 F250
M106 S0
M106 S255
G1 X56.274 Y76.155 F250
M106 S0
G0 X93.995 Y82.871 F6000
M106 S255
G1 X93.995 Y82.871 F250
M106 S0
M106 S255
G1 X92.905 Y82.871 F250
M106 S0
G0 X90.55 Y79.164 F6000
M106 S255
G1 X90.55 Y79.164 F250
M106 S0
M106 S255
G1 X90.208 Y79.341 F250
M106 S0
M106 S255
G1 X89.805 Y79.353 F250
M106 S0
M106 S255
G1 X89.444 Y79.34 F250
M106 S0
M106 S255
G1 X89.067 Y79.382 F250
M106 S0
G0 X64.559 Y75.196 F6000
M106 S255
G1 X64.559 Y75.196 F250
M106 S0
M106 S255
G1 X64.555 Y75.333 F250
M106 S0
M106 S255
G1 X64.472 Y75.408 F250
M106 S0
M106 S255
G1 X63.728 Y75.414 F250
M106 S0
M106 S255
G1 X62.99 Y75.326 F250
M106 S0
G0 X87.672 Y8.736 F6000
M106 S255
G1 X87.672 Y8.736 F250
M106 S0
M106 S255
G1 X87.498 Y6.294 F250
M106 S0
G0 X24.44 Y7.69 F6000
M106 S255
G1 X24.44 Y7.69 F250
M106 S0
M106 S255
G1 X24.445 Y7.232 F250
M106 S0
M106 S255
G1 X24.45 Y6.774 F250
M106 S0
M106 S255
G1 X24.314 Y6.232 F250
M106 S0
M106 S255
G1 X23.916 Y5.858 F250
M106 S0
G0 X87.846 Y99.529 F6000
M106 S255
G1 X87.846 Y99.529 F250
M106 S0
M106 S255
G1 X87.061 Y99.529 F250
M106 S0
G0 X41.883 Y27.924 F6000
M106 S255
G1 X41.883 Y27.924 F250
M106 S0
M106 S255
G1 X42.054 Y27.568 F250
M106 S0
M106 S255
G1 X41.96 Y27.182 F250
M106 S0
M106 S255
G1 X41.902 Y27.053 F250
M106 S0
M106 S255
G1 X41.796 Y26.921 F250
M106 S0
G0 X26.402 Y106.855 F6000
M106 S255
G1 X26.402 Y106.855 F250
M106 S0
M106 S255
G1 X27.361 Y105.329 F250
M106 S0
G0 X36.519 Y50.993 F6000
M106 S255
G1 X36.519 Y50.993 F250
M106 S0
M106 S255
G1 X36.301 Y49.99 F250
M106 S0
G0 X86.407 Y59.017 F6000
M106 S255
G1 X86.407 Y59.017 F250
M106 S0
M106 S255
G1 X87.246 Y58.941 F250
M106 S0
M106 S255
G1 X88.087 Y58.93 F250
M106 S0
M106 S255
G1 X88.792 Y58.924 F250
M106 S0
M106 S255
G1 X89.077 Y58.964 F250
M106 S0
M106 S255
G1 X89.359 Y59.014 F250
M106 S0
M106 S255
G1 X89.776 Y59.009 F250
M106 S0
M106 S255
G1 X90.316 Y58.954 F250
M106 S0
M106 S255
G1 X90.853 Y58.873 F250
M106 S0
M106 S255
G1 X91.247 Y58.851 F250
M106 S0
M106 S255
G1 X91.591 Y58.93 F250
M106 S0
M106 S255
G1 X91.945 Y58.985 F250
M106 S0
M106 S255
G1 X92.914 Y58.975 F250
M106 S0
M106 S255
G1 X93.881 Y58.934 F250
M106 S0
M106 S255
G1 X94.816 Y58.875 F250
M106 S0
M106 S255
G1 X95.37 Y58.72 F250
M106 S0
M106 S255
G1 X95.6 Y58.275 F250
M106 S0
M106 S255
G1 X95.681 Y57.707 F250
M106 S0
M106 S255
G1 X95.815 Y57.513 F250
M106 S0
M106 S255
G1 X96.083 Y57.509 F250
M106 S0
M106 S255
G1 X96.54 Y57.612 F250
M106 S0
M106 S255
G1 X97.034 Y57.64 F250
M106 S0
M106 S255
G1 X97.527 Y57.665 F250
M106 S0
G0 X100.231 Y55.921 F6000
M106 S255
G1 X100.231 Y55.921 F250
M106 S0
M106 S255
G1 X100.362 Y54.133 F250
M106 S0
G0 X15.631 Y96.825 F6000
M106 S255
G1 X15.631 Y96.825 F250
M106 S0
M106 S255
G1 X16.437 Y96.733 F250
M106 S0
M106 S255
G1 X17.245 Y96.657 F250
M106 S0
M106 S255
G1 X17.656 Y96.604 F250
M106 S0
M106 S255
G1 X18.029 Y96.433 F250
M106 S0
G0 X44.412 Y74.062 F6000
M106 S255
G1 X44.412 Y74.062 F250
M106 S0
M106 S255
G1 X44.194 Y73.364 F250
M106 S0
G0 X72.409 Y62.418 F6000
M106 S255
G1 X72.409 Y62.418 F250
M106 S0
M106 S255
G1 X72.496 Y61.415 F250
M106 S0
G0 X84.968 Y62.636 F6000
M106 S255
G1 X84.968 Y62.636 F250
M106 S0
M106 S255
G1 X84.837 Y61.677 F250
M106 S0
G0 X11.531 Y103.89 F6000
M106 S255
G1 X11.531 Y103.89 F250
M106 S0
M106 S255
G1 X11.62 Y103.754 F250
M106 S0
M106 S255
G1 X11.634 Y103.587 F250
M106 S0
M106 S255
G1 X11.779 Y103.224 F250
M106 S0
M106 S255
G1 X12.098 Y102.974 F250
M106 S0
G0 X87.105 Y86.229 F6000
M106 S255
G1 X87.105 Y86.229 F250
M106 S0
M106 S255
G1 X87.003 Y86.403 F250
M106 S0
M106 S255
G1 X87.105 Y86.577 F250
M106 S0
M106 S255
G1 X86.614 Y86.724 F250
M106 S0
M106 S255
G1 X86.102 Y86.708 F250
M106 S0
G0 X24.309 Y84.048 F6000
M106 S255
G1 X24.309 Y84.048 F250
M106 S0
M106 S255
G1 X24.47 Y83.903 F250
M106 S0
M106 S255
G1 X24.704 Y83.904 F250
M106 S0
M106 S255
G1 X24.959 Y83.891 F250
M106 S0
M106 S255
G1 X25.224 Y83.83 F250
M106 S0
G0 X49.209 Y30.366 F6000
M106 S255
G1 X49.209 Y30.366 F250
M106 S0
M106 S255
G1 X47.465 Y30.41 F250
M106 S0
G0 X99.752 Y58.363 F6000
M106 S255
G1 X99.752 Y58.363 F250
M106 S0
M106 S255
G1 X99.403 Y57.534 F250
M106 S0
G0 X11.531 Y11.658 F6000
M106 S255
G1 X11.531 Y11.658 F250
M106 S0
M106 S255
G1 X11.247 Y11.641 F250
M106 S0
M106 S255
G1 X10.962 Y11.697 F250
M106 S0
M106 S255
G1 X10.817 Y11.685 F250
M106 S0
M106 S255
G1 X10.703 Y11.571 F250
M106 S0
G0 X72.932 Y83.002 F6000
M106 S255
G1 X72.932 Y83.002 F250
M106 S0
M106 S255
G1 X72.839 Y83.1 F250
M106 S0
M106 S255
G1 X72.715 Y83.13 F250
M106 S0
M106 S255
G1 X72.103 Y83.047 F250
M106 S0
M106 S255
G1 X71.493 Y82.958 F250
M106 S0
G0 X70.447 Y18.112 F6000
M106 S255
G1 X70.447 Y18.112 F250
M106 S0
M106 S255
G1 X69.618 Y18.243 F250
M106 S0
G0 X52.044 Y90.459 F6000
M106 S255
G1 X52.044 Y90.459 F250
M106 S0
M106 S255
G1 X52.0 Y90.234 F250
M106 S0
M106 S255
G1 X51.848 Y90.053 F250
M106 S0
M106 S255
G1 X51.392 Y89.784 F250
M106 S0
M106 S255
G1 X50.813 Y89.615 F250
M106 S0
M106 S255
G1 X50.358 Y89.486 F250
M106 S0
M106 S255
G1 X50.181 Y89.576 F250
M106 S0
M106 S255
G1 X49.994 Y89.63 F250
M106 S0
G0 X40.487 Y53.566 F6000
M106 S255
G1 X40.487 Y53.566 F250
M106 S0
M106 S255
G1 X39.005 Y53.566 F250
M106 S0
G0 X73.368 Y79.164 F6000
M106 S255
G1 X73.368 Y79.164 F250
M106 S0
M106 S255
G1 X72.627 Y78.902 F250
M106 S0
G0 X86.364 Y59.235 F6000
M106 S255
G1 X86.364 Y59.235 F250
M106 S0
M106 S255
G1 X86.359 Y59.098 F250
M106 S0
M106 S255
G1 X86.319 Y58.993 F250
M106 S0
M106 S255
G1 X86.059 Y59.012 F250
M106 S0
M106 S255
G1 X85.617 Y58.941 F250
M106 S0
M106 S255
G1 X85.188 Y59.02 F250
M106 S0
M106 S255
G1 X84.91 Y59.061 F250
M106 S0
M106 S255
G1 X84.663 Y58.939 F250
M106 S0
M106 S255
G1 X84.457 Y58.891 F250
M106 S0
M106 S255
G1 X84.317 Y58.907 F250
M106 S0
M106 S255
G1 X84.183 Y58.93 F250
M106 S0
G0 X90.419 Y95.386 F6000
M106 S255
G1 X90.419 Y95.386 F250
M106 S0
M106 S255
G1 X89.591 Y95.692 F250
M106 S0
G0 X36.388 Y83.22 F6000
M106 S255
G1 X36.388 Y83.22 F250
M106 S0
M106 S255
G1 X35.036 Y83.133 F250
M106 S0
M106 S255
G1 X33.685 Y83.04 F250
M106 S0
M106 S255
G1 X33.509 Y82.99 F250
M106 S0
M106 S255
G1 X33.336 Y82.914 F250
M106 S0
G0 X30.894 Y88.802 F6000
M106 S255
G1 X30.894 Y88.802 F250
M106 S0
M106 S255
G1 X31.331 Y88.388 F250
M106 S0
M106 S255
G1 X31.764 Y87.971 F250
M106 S0
M106 S255
G1 X31.879 Y87.795 F250
M106 S0
M106 S255
G1 X31.897 Y87.58 F250
M106 S0
G0 X21.322 Y18.984 F6000
M106 S255
G1 X21.322 Y18.984 F250
M106 S0
M106 S255
G1 X21.434 Y19.223 F250
M106 S0
M106 S255
G1 X21.692 Y19.242 F250
M106 S0
M106 S255
G1 X22.281 Y19.14 F250
M106 S0
M106 S255
G1 X22.87 Y19.028 F250
M106 S0
G0 X11.749 Y54.394 F6000
M106 S255
G1 X11.749 Y54.394 F250
M106 S0
M106 S255
G1 X11.691 Y54.259 F250
M106 S0
M106 S255
G1 X11.669 Y54.135 F250
M106 S0
M106 S255
G1 X11.694 Y53.581 F250
M106 S0
M106 S255
G1 X11.575 Y53.042 F250
M106 S0
G0 X85.579 Y71.794 F6000
M106 S255
G1 X85.579 Y71.794 F250
M106 S0
M106 S255
G1 X83.878 Y71.533 F250
M106 S0
G0 X106.991 Y87.493 F6000
M106 S255
G1 X106.991 Y87.493 F250
M106 S0
M106 S255
G1 X107.009 Y87.758 F250
M106 S0
M106 S255
G1 X106.989 Y88.019 F250
M106 S0
M106 S255
G1 X106.476 Y88.183 F250
M106 S0
M106 S255
G1 X105.765 Y88.197 F250
M106 S0
M106 S255
G1 X105.225 Y88.19 F250
M106 S0
M106 S255
G1 X105.032 Y88.195 F250
M106 S0
M106 S255
G1 X104.854 Y88.278 F250
M106 S0
G0 X22.826 Y103.585 F6000
M106 S255
G1 X22.826 Y103.585 F250
M106 S0
M106 S255
G1 X22.298 Y102.994 F250
M106 S0
M106 S255
G1 X22.095 Y102.229 F250
M106 S0
M106 S255
G1 X22.035 Y102.001 F250
M106 S0
M106 S255
G1 X21.823 Y101.928 F250
M106 S0
G0 X85.143 Y59.933 F6000
M106 S255
G1 X85.143 Y59.933 F250
M106 S0
M106 S255
G1 X85.055 Y59.104 F250
M106 S0
G0 X12.229 Y106.463 F6000
M106 S255
G1 X12.229 Y106.463 F250
M106 S0
M106 S255
G1 X12.671 Y106.584 F250
M106 S0
M106 S255
G1 X13.103 Y106.422 F250
M106 S0
M106 S255
G1 X13.414 Y106.294 F250
M106 S0
M106 S255
G1 X13.755 Y106.289 F250
M106 S0
G0 X83.486 Y63.16 F6000
M106 S255
G1 X83.486 Y63.16 F250
M106 S0
M106 S255
G1 X84.445 Y62.724 F250
M106 S0
G0 X63.251 Y78.074 F6000
M106 S255
G1 X63.251 Y78.074 F250
M106 S0
M106 S255
G1 X62.423 Y78.03 F250
M106 S0
G0 X67.307 Y86.926 F6000
M106 S255
G1 X67.307 Y86.926 F250
M106 S0
M106 S255
G1 X67.546 Y87.093 F250
M106 S0
M106 S255
G1 X67.815 Y87.123 F250
M106 S0
M106 S255
G1 X68.166 Y87.055 F250
M106 S0
M106 S255
G1 X68.732 Y87.072 F250
M106 S0
M106 S255
G1 X69.29 Y87.144 F250
M106 S0
M106 S255
G1 X69.899 Y87.148 F250
M106 S0
M106 S255
G1 X70.542 Y87.228 F250
M106 S0
M106 S255
G1 X71.181 Y87.172 F250
M106 S0
M106 S255
G1 X71.365 Y87.122 F250
M106 S0
M106 S255
G1 X71.44 Y87.156 F250
M106 S0
M106 S255
G1 X71.554 Y87.237 F250
M106 S0
M106 S255
G1 X72.026 Y87.404 F250
M106 S0
M106 S255
G1 X72.517 Y87.402 F250
M106 S0
M106 S255
G1 X72.899 Y87.342 F250
M106 S0
M106 S255
G1 X73.123 Y87.332 F250
M106 S0
M106 S255
G1 X73.347 Y87.347 F250
M106 S0
M106 S255
G1 X73.796 Y87.392 F250
M106 S0
M106 S255
G1 X74.329 Y87.381 F250
M106 S0
M106 S255
G1 X74.851 Y87.232 F250
M106 S0
G0 X60.722 Y85.705 F6000
M106 S255
G1 X60.722 Y85.705 F250
M106 S0
M106 S255
G1 X59.722 Y85.758 F250
M106 S0
M106 S255
G1 X58.89 Y86.316 F250
M106 S0
G0 X30.719 Y75.544 F6000
M106 S255
G1 X30.719 Y75.544 F250
M106 S0
M106 S255
G1 X30.545 Y74.585 F250
M106 S0
G0 X52.044 Y46.894 F6000
M106 S255
G1 X52.044 Y46.894 F250
M106 S0
M106 S255
G1 X52.175 Y46.248 F250
M106 S0
M106 S255
G1 X52.037 Y45.619 F250
M106 S0
M106 S255
G1 X51.912 Y45.205 F250
M106 S0
M106 S255
G1 X51.941 Y44.898 F250
M106 S0
M106 S255
G1 X52.005 Y44.645 F250
M106 S0
M106 S255
G1 X51.951 Y44.472 F250
M106 S0
M106 S255
G1 X51.913 Y44.321 F250
M106 S0
G0 X30.414 Y105.852 F6000
M106 S255
G1 X30.414 Y105.852 F250
M106 S0
M106 S255
G1 X30.37 Y105.024 F250
M106 S0
G0 X15.543 Y80.559 F6000
M106 S255
G1 X15.543 Y80.559 F250
M106 S0
M106 S255
G1 X16.939 Y80.603 F250
M106 S0
G0 X105.159 Y34.989 F6000
M106 S255
G1 X105.159 Y34.989 F250
M106 S0
M106 S255
G1 X105.162 Y34.422 F250
M106 S0
M106 S255
G1 X105.155 Y33.855 F250
M106 S0
M106 S255
G1 X105.096 Y33.621 F250
M106 S0
M106 S255
G1 X104.854 Y33.68 F250
M106 S0
G0 X73.63 Y31.761 F6000
M106 S255
G1 X73.63 Y31.761 F250
M106 S0
M106 S255
G1 X73.761 Y30.933 F250
M106 S0
G0 X52.393 Y49.183 F6000
M106 S255
G1 X52.393 Y49.183 F250
M106 S0
M106 S255
G1 X52.203 Y48.982 F250
M106 S0
M106 S255
G1 X52.172 Y48.728 F250
M106 S0
M106 S255
G1 X52.215 Y48.556 F250
M106 S0
M106 S255
G1 X52.254 Y48.424 F250
M106 S0
M106 S255
G1 X52.249 Y48.196 F250
M106 S0
M106 S255
G1 X52.213 Y47.784 F250
M106 S0
M106 S255
G1 X52.175 Y47.373 F250
M106 S0
G0 X47.727 Y36.428 F6000
M106 S255
G1 X47.727 Y36.428 F250
M106 S0
M106 S255
G1 X49.202 Y36.145 F250
M106 S0
M106 S255
G1 X50.691 Y35.931 F250
M106 S0
M106 S255
G1 X50.873 Y35.964 F250
M106 S0
M106 S255
G1 X51.041 Y35.992 F250
M106 S0
G0 X29.542 Y79.251 F6000
M106 S255
G1 X29.542 Y79.251 F250
M106 S0
M106 S255
G1 X29.774 Y79.169 F250
M106 S0
M106 S255
G1 X30.022 Y79.196 F250
M106 S0
M106 S255
G1 X30.484 Y79.225 F250
M106 S0
M106 S255
G1 X30.937 Y79.12 F250
M106 S0
G0 X55.314 Y58.276 F6000
M106 S255
G1 X55.314 Y58.276 F250
M106 S0
M106 S255
G1 X54.05 Y58.494 F250
M106 S0
G0 X72.278 Y97.567 F6000
M106 S255
G1 X72.278 Y97.567 F250
M106 S0
M106 S255
G1 X72.142 Y97.423 F250
M106 S0
M106 S255
G1 X71.975 Y97.353 F250
M106 S0
M106 S255
G1 X71.735 Y97.378 F250
M106 S0
M106 S255
G1 X71.484 Y97.305 F250
M106 S0
M106 S255
G1 X71.276 Y97.13 F250
M106 S0
M106 S255
G1 X71.092 Y97.027 F250
M106 S0
M106 S255
G1 X70.91 Y97.025 F250
M106 S0
M106 S255
G1 X70.696 Y97.161 F250
M106 S0
M106 S255
G1 X70.379 Y97.211 F250
M106 S0
M106 S255
G1 X70.054 Y97.174 F250
M106 S0
G0 X43.366 Y73.8 F6000
M106 S255
G1 X43.366 Y73.8 F250
M106 S0
M106 S255
G1 X43.148 Y70.53 F250
M106 S0
G0 X32.769 Y48.42 F6000
M106 S255
G1 X32.769 Y48.42 F250
M106 S0
M106 S255
G1 X32.688 Y47.861 F250
M106 S0
M106 S255
G1 X32.687 Y47.282 F250
M106 S0
M106 S255
G1 X32.691 Y46.793 F250
M106 S0
M106 S255
G1 X32.594 Y46.283 F250
M106 S0
G0 X92.731 Y78.03 F6000
M106 S255
G1 X92.731 Y78.03 F250
M106 S0
M106 S255
G1 X92.905 Y76.678 F250
M106 S0
G0 X88.544 Y88.889 F6000
M106 S255
G1 X88.544 Y88.889 F250
M106 S0
M106 S255
G1 X88.146 Y88.214 F250
M106 S0
M106 S255
G1 X87.987 Y87.446 F250
M106 S0
M106 S255
G1 X87.922 Y87.218 F250
M106 S0
M106 S255
G1 X87.803 Y87.014 F250
M106 S0
G0 X51.913 Y31.5 F6000
M106 S255
G1 X51.913 Y31.5 F250
M106 S0
M106 S255
G1 X51.571 Y31.623 F250
M106 S0
M106 S255
G1 X51.379 Y31.935 F250
M106 S0
M106 S255
G1 X51.192 Y31.914 F250
M106 S0
M106 S255
G1 X50.997 Y31.892 F250
M106 S0
G0 X19.207 Y48.594 F6000
M106 S255
G1 X19.207 Y48.594 F250
M106 S0
M106 S255
G1 X18.988 Y48.399 F250
M106 S0
M106 S255
G1 X18.734 Y48.438 F250
M106 S0
M106 S255
G1 X18.53 Y48.493 F250
M106 S0
M106 S255
G1 X18.334 Y48.464 F250
M106 S0
G0 X101.278 Y13.271 F6000
M106 S255
G1 X101.278 Y13.271 F250
M106 S0
M106 S255
G1 X101.218 Y13.111 F250
M106 S0
M106 S255
G1 X101.232 Y12.952 F250
M106 S0
M106 S255
G1 X101.387 Y12.583 F250
M106 S0
M106 S255
G1 X101.428 Y11.967 F250
M106 S0
M106 S255
G1 X101.381 Y11.353 F250
M106 S0
M106 S255
G1 X101.416 Y10.933 F250
M106 S0
M106 S255
G1 X101.467 Y10.518 F250
M106 S0
M106 S255
G1 X101.422 Y9.818 F250
M106 S0
M106 S255
G1 X101.367 Y8.841 F250
M106 S0
M106 S255
G1 X101.321 Y7.864 F250
M106 S0
G0 X104.243 Y16.498 F6000
M106 S255
G1 X104.243 Y16.498 F250
M106 S0
M106 S255
G1 X104.284 Y16.171 F250
M106 S0
M106 S255
G1 X104.237 Y15.844 F250
M106 S0
M106 S255
G1 X104.173 Y15.795 F250
M106 S0
M106 S255
G1 X104.069 Y15.801 F250
M106 S0
G0 X9.656 Y32.328 F6000
M106 S255
G1 X9.656 Y32.328 F250
M106 S0
M106 S255
G1 X9.546 Y31.783 F250
M106 S0
M106 S255
G1 X9.442 Y31.238 F250
M106 S0
M106 S255
G1 X9.428 Y31.13 F250
M106 S0
M106 S255
G1 X9.525 Y31.064 F250
M106 S0
G0 X74.938 Y78.815 F6000
M106 S255
G1 X74.938 Y78.815 F250
M106 S0
M106 S255
G1 X74.561 Y78.805 F250
M106 S0
M106 S255
G1 X74.468 Y79.217 F250
M106 S0
M106 S255
G1 X74.002 Y79.211 F250
M106 S0
M106 S255
G1 X73.543 Y79.164 F250
M106 S0
G0 X13.189 Y96.651 F6000
M106 S255
G1 X13.189 Y96.651 F250
M106 S0
M106 S255
G1 X13.097 Y96.659 F250
M106 S0
M106 S255
G1 X13.016 Y96.648 F250
M106 S0
M106 S255
G1 X12.042 Y96.452 F250
M106 S0
M106 S255
G1 X11.052 Y96.52 F250
M106 S0
G0 X66.435 Y68.349 F6000
M106 S255
G1 X66.435 Y68.349 F250
M106 S0
M106 S255
G1 X66.427 Y67.971 F250
M106 S0
M106 S255
G1 X66.337 Y67.608 F250
M106 S0
M106 S255
G1 X66.233 Y67.394 F250
M106 S0
M106 S255
G1 X66.18 Y67.315 F250
M106 S0
M106 S255
G1 X66.172 Y67.215 F250
M106 S0
M106 S255
G1 X66.213 Y66.788 F250
M106 S0
M106 S255
G1 X66.127 Y66.373 F250
M106 S0
M106 S255
G1 X65.992 Y65.977 F250
M106 S0
M106 S255
G1 X66.044 Y65.792 F250
M106 S0
M106 S255
G1 X66.391 Y65.754 F250
M106 S0
G0 X17.113 Y109.385 F6000
M106 S255
G1 X17.113 Y109.385 F250
M106 S0
M106 S255
G1 X16.397 Y109.466 F250
M106 S0
M106 S255
G1 X15.669 Y109.486 F250
M106 S0
M106 S255
G1 X15.439 Y109.584 F250
M106 S0
M106 S255
G1 X15.195 Y109.603 F250
M106 S0
G0 X84.009 Y38.346 F6000
M106 S255
G1 X84.009 Y38.346 F250
M106 S0
M106 S255
G1 X84.183 Y37.474 F250
M106 S0
G0 X22.346 Y80.821 F6000
M106 S255
G1 X22.346 Y80.821 F250
M106 S0
M106 S255
G1 X21.826 Y80.909 F250
M106 S0
M106 S255
G1 X21.299 Y80.871 F250
M106 S0
M106 S255
G1 X20.993 Y80.851 F250
M106 S0
M106 S255
G1 X20.689 Y80.908 F250
M106 S0
G0 X47.639 Y34.116 F6000
M106 S255
G1 X47.639 Y34.116 F250
M106 S0
M106 S255
G1 X47.515 Y33.847 F250
M106 S0
M106 S255
G1 X47.504 Y33.55 F250
M106 S0
M106 S255
G1 X47.469 Y33.269 F250
M106 S0
M106 S255
G1 X47.203 Y33.157 F250
M106 S0
G0 X21.431 Y18.853 F6000
M106 S255
G1 X21.431 Y18.853 F250
M106 S0
M106 S255
G1 X21.595 Y18.645 F250
M106 S0
M106 S255
G1 X21.658 Y18.374 F250
M106 S0
M106 S255
G1 X21.727 Y17.667 F250
M106 S0
M106 S255
G1 X21.561 Y16.978 F250
M106 S0
G0 X23.262 Y104.37 F6000
M106 S255
G1 X23.262 Y104.37 F250
M106 S0
M106 S255
G1 X23.209 Y104.348 F250
M106 S0
M106 S255
G1 X23.182 Y104.301 F250
M106 S0
M106 S255
G1 X22.871 Y103.92 F250
M106 S0
M106 S255
G1 X22.921 Y103.553 F250
M106 S0
M106 S255
G1 X23.376 Y103.293 F250
M106 S0
M106 S255
G1 X23.589 Y103.192 F250
M106 S0
M106 S255
G1 X23.829 Y103.192 F250
M106 S0
G0 X38.7 Y86.577 F6000
M106 S255
G1 X38.7 Y86.577 F250
M106 S0
M106 S255
G1 X38.096 Y86.44 F250
M106 S0
M106 S255
G1 X37.478 Y86.298 F250
M106 S0
M106 S255
G1 X36.898 Y86.206 F250
M106 S0
M106 S255
G1 X36.301 Y86.141 F250
M106 S0
G0 X70.752 Y87.144 F6000
M106 S255
G1 X70.752 Y87.144 F250
M106 S0
M106 S255
G1 X70.49 Y86.272 F250
M106 S0
G0 X34.906 Y8.911 F6000
M106 S255
G1 X34.906 Y8.911 F250
M106 S0
M106 S255
G1 X37.697 Y8.78 F250
M106 S0
G0 X83.137 Y71.489 F6000
M106 S255
G1 X83.137 Y71.489 F250
M106 S0
M106 S255
G1 X82.376 Y71.354 F250
M106 S0
M106 S255
G1 X81.604 Y71.356 F250
M106 S0
M106 S255
G1 X81.348 Y71.355 F250
M106 S0
M106 S255
G1 X81.347 Y71.384 F250
M106 S0
M106 S255
G1 X81.354 Y71.408 F250
M106 S0
M106 S255
G1 X81.372 Y71.427 F250
M106 S0
M106 S255
G1 X81.392 Y71.445 F250
M106 S0
G0 X100.144 Y89.368 F6000
M106 S255
G1 X100.144 Y89.368 F250
M106 S0
M106 S255
G1 X100.818 Y89.373 F250
M106 S0
M106 S255
G1 X101.491 Y89.418 F250
M106 S0
M106 S255
G1 X101.972 Y89.441 F250
M106 S0
M106 S255
G1 X102.224 Y89.226 F250
M106 S0
M106 S255
G1 X102.277 Y88.876 F250
M106 S0
M106 S255
G1 X102.26 Y88.577 F250
M106 S0
M106 S255
G1 X102.237 Y88.278 F250
M106 S0
G0 X44.325 Y34.77 F6000
M106 S255
G1 X44.325 Y34.77 F250
M106 S0
M106 S255
G1 X45.197 Y34.552 F250
M106 S0
G0 X10.79 Y39.96 F6000
M106 S255
G1 X10.79 Y39.96 F250
M106 S0
M106 S255
G1 X12.927 Y39.873 F250
M106 S0
G0 X43.54 Y82.784 F6000
M106 S255
G1 X43.54 Y82.784 F250
M106 S0
M106 S255
G1 X42.668 Y83.22 F250
M106 S0
G0 X101.06 Y48.289 F6000
M106 S255
G1 X101.06 Y48.289 F250
M106 S0
M106 S255
G1 X101.224 Y48.375 F250
M106 S0
M106 S255
G1 X101.417 Y48.407 F250
M106 S0
M106 S255
G1 X102.091 Y48.305 F250
M106 S0
M106 S255
G1 X102.989 Y48.278 F250
M106 S0
M106 S255
G1 X103.683 Y48.287 F250
M106 S0
M106 S255
G1 X103.972 Y48.278 F250
M106 S0
M106 S255
G1 X104.156 Y48.027 F250
M106 S0
G0 X59.544 Y74.672 F6000
M106 S255
G1 X59.544 Y74.672 F250
M106 S0
M106 S255
G1 X59.719 Y73.8 F250
M106 S0
G0 X11.837 Y56.793 F6000
M106 S255
G1 X11.837 Y56.793 F250
M106 S0
M106 S255
G1 X11.706 Y55.572 F250
M106 S0
G0 X78.95 Y30.148 F6000
M106 S255
G1 X78.95 Y30.148 F250
M106 S0
M106 S255
G1 X78.078 Y30.235 F250
M106 S0
G0 X21.954 Y69.875 F6000
M106 S255
G1 X21.954 Y69.875 F250
M106 S0
M106 S255
G1 X20.515 Y69.832 F250
M106 S0
G0 X13.843 Y8.235 F6000
M106 S255
G1 X13.843 Y8.235 F250
M106 S0
M106 S255
G1 X15.718 Y8.344 F250
M106 S0
G0 X18.334 Y84.135 F6000
M106 S255
G1 X18.334 Y84.135 F250
M106 S0
M106 S255
G1 X17.967 Y83.946 F250
M106 S0
M106 S255
G1 X17.577 Y83.987 F250
M106 S0
M106 S255
G1 X16.731 Y84.072 F250
M106 S0
M106 S255
G1 X16.439 Y83.775 F250
M106 S0
M106 S255
G1 X16.279 Y83.558 F250
M106 S0
M106 S255
G1 X16.26 Y83.527 F250
M106 S0
M106 S255
G1 X16.198 Y83.394 F250
M106 S0
G0 X92.207 Y102.843 F6000
M106 S255
G1 X92.207 Y102.843 F250
M106 S0
M106 S255
G1 X92.164 Y102.573 F250
M106 S0
M106 S255
G1 X91.989 Y102.364 F250
M106 S0
M106 S255
G1 X91.827 Y102.172 F250
M106 S0
M106 S255
G1 X91.771 Y101.928 F250
M106 S0
G0 X93.341 Y102.32 F6000
M106 S255
G1 X93.341 Y102.32 F250
M106 S0
M106 S255
G1 X92.731 Y101.492 F250
M106 S0
G0 X55.576 Y9.565 F6000
M106 S255
G1 X55.576 Y9.565 F250
M106 S0
M106 S255
G1 X55.295 Y9.514 F250
M106 S0
M106 S255
G1 X55.003 Y9.597 F250
M106 S0
M106 S255
G1 X54.492 Y9.66 F250
M106 S0
M106 S255
G1 X53.963 Y9.652 F250
M106 S0
G0 X32.289 Y99.268 F6000
M106 S255
G1 X32.289 Y99.268 F250
M106 S0
M106 S255
G1 X32.769 Y98.483 F250
M106 S0
G0 X35.254 Y35.294 F6000
M106 S255
G1 X35.254 Y35.294 F250
M106 S0
M106 S255
G1 X35.298 Y34.356 F250
M106 S0
G0 X76.683 Y69.875 F6000
M106 S255
G1 X76.683 Y69.875 F250
M106 S0
M106 S255
G1 X76.08 Y69.826 F250
M106 S0
M106 S255
G1 X75.488 Y69.884 F250
M106 S0
M106 S255
G1 X75.111 Y70.044 F250
M106 S0
M106 S255
G1 X74.975 Y69.996 F250
M106 S0
M106 S255
G1 X74.851 Y69.92 F250
M106 S0
M106 S255
G1 X74.421 Y69.812 F250
M106 S0
M106 S255
G1 X73.986 Y69.736 F250
M106 S0
M106 S255
G1 X73.42 Y69.669 F250
M106 S0
M106 S255
G1 X72.708 Y69.621 F250
M106 S0
M106 S255
G1 X72.06 Y69.308 F250
M106 S0
G0 X70.577 Y28.098 F6000
M106 S255
G1 X70.577 Y28.098 F250
M106 S0
M106 S255
G1 X70.005 Y28.196 F250
M106 S0
M106 S255
G1 X69.44 Y28.284 F250
M106 S0
M106 S255
G1 X68.878 Y28.261 F250
M106 S0
M106 S255
G1 X68.31 Y28.098 F250
M106 S0
G0 X61.071 Y70.268 F6000
M106 S255
G1 X61.071 Y70.268 F250
M106 S0
M106 S255
G1 X61.328 Y70.226 F250
M106 S0
M106 S255
G1 X61.549 Y70.09 F250
M106 S0
M106 S255
G1 X62.035 Y69.903 F250
M106 S0
M106 S255
G1 X62.553 Y69.875 F250
M106 S0
G0 X94.388 Y85.923 F6000
M106 S255
G1 X94.388 Y85.923 F250
M106 S0
M106 S255
G1 X94.415 Y85.759 F250
M106 S0
M106 S255
G1 X94.35 Y85.712 F250
M106 S0
M106 S255
G1 X93.916 Y85.652 F250
M106 S0
M106 S255
G1 X93.338 Y85.579 F250
M106 S0
M106 S255
G1 X92.836 Y85.573 F250
M106 S0
M106 S255
G1 X92.535 Y85.487 F250
M106 S0
M106 S255
G1 X92.294 Y85.269 F250
M106 S0
G0 X46.898 Y58.93 F6000
M106 S255
G1 X46.898 Y58.93 F250
M106 S0
M106 S255
G1 X46.336 Y58.807 F250
M106 S0
M106 S255
G1 X45.762 Y58.881 F250
M106 S0
M106 S255
G1 X45.572 Y58.917 F250
M106 S0
M106 S255
G1 X45.372 Y58.93 F250
M106 S0
G0 X38.787 Y85.182 F6000
M106 S255
G1 X38.787 Y85.182 F250
M106 S0
M106 S255
G1 X36.824 Y85.051 F250
M106 S0
G0 X23.131 Y17.501 F6000
M106 S255
G1 X23.131 Y17.501 F250
M106 S0
M106 S255
G1 X22.717 Y17.539 F250
M106 S0
M106 S255
G1 X22.299 Y17.465 F250
M106 S0
M106 S255
G1 X22.038 Y17.536 F250
M106 S0
M106 S255
G1 X21.779 Y17.676 F250
M106 S0
G0 X43.54 Y18.635 F6000
M106 S255
G1 X43.54 Y18.635 F250
M106 S0
M106 S255
G1 X42.624 Y18.461 F250
M106 S0
G0 X12.84 Y84.157 F6000
M106 S255
G1 X12.84 Y84.157 F250
M106 S0
M106 S255
G1 X12.622 Y82.522 F250
M106 S0
G0 X96.699 Y75.283 F6000
M106 S255
G1 X96.699 Y75.283 F250
M106 S0
M106 S255
G1 X96.722 Y75.418 F250
M106 S0
M106 S255
G1 X96.749 Y75.581 F250
M106 S0
M106 S255
G1 X96.091 Y75.619 F250
M106 S0
M106 S255
G1 X95.434 Y75.588 F250
M106 S0
G0 X39.31 Y17.85 F6000
M106 S255
G1 X39.31 Y17.85 F250
M106 S0
M106 S255
G1 X39.058 Y17.651 F250
M106 S0
M106 S255
G1 X38.744 Y17.636 F250
M106 S0
M106 S255
G1 X38.176 Y17.685 F250
M106 S0
M106 S255
G1 X37.609 Y17.632 F250
M106 S0
G0 X86.189 Y75.981 F6000
M106 S255
G1 X86.189 Y75.981 F250
M106 S0
M106 S255
G1 X86.143 Y75.858 F250
M106 S0
M106 S255
G1 X86.015 Y75.803 F250
M106 S0
M106 S255
G1 X85.427 Y75.758 F250
M106 S0
M106 S255
G1 X84.837 Y75.763 F250
M106 S0
G0 X106.424 Y37.91 F6000
M106 S255
G1 X106.424 Y37.91 F250
M106 S0
M106 S255
G1 X106.608 Y37.402 F250
M106 S0
M106 S255
G1 X106.593 Y36.866 F250
M106 S0
M106 S255
G1 X106.611 Y36.428 F250
M106 S0
M106 S255
G1 X106.625 Y36.036 F250
M106 S0
M106 S255
G1 X106.597 Y35.735 F250
M106 S0
M106 S255
G1 X106.576 Y35.606 F250
M106 S0
M106 S255
G1 X106.685 Y35.512 F250
M106 S0
G0 X9.264 Y111.522 F6000
M106 S255
G1 X9.264 Y111.522 F250
M106 S0
M106 S255
G1 X9.619 Y111.559 F250
M106 S0
M106 S255
G1 X9.944 Y111.447 F250
M106 S0
M106 S255
G1 X10.168 Y111.225 F250
M106 S0
M106 S255
G1 X10.202 Y110.934 F250
M106 S0
M106 S255
G1 X10.253 Y110.609 F250
M106 S0
M106 S255
G1 X10.31 Y110.188 F250
M106 S0
M106 S255
G1 X10.398 Y109.777 F250
M106 S0
G0 X21.125 Y25.482 F6000
M106 S255
G1 X21.125 Y25.482 F250
M106 S0
M106 S255
G1 X19.73 Y25.7 F250
M106 S0
G0 X21.823 Y101.448 F6000
M106 S255
G1 X21.823 Y101.448 F250
M106 S0
M106 S255
G1 X21.67 Y101.286 F250
M106 S0
M106 S255
G1 X21.598 Y101.087 F250
M106 S0
M106 S255
G1 X21.609 Y100.941 F250
M106 S0
M106 S255
G1 X21.614 Y100.884 F250
M106 S0
M106 S255
G1 X21.602 Y100.84 F250
M106 S0
M106 S255
G1 X21.331 Y100.278 F250
M106 S0
M106 S255
G1 X21.157 Y99.677 F250
M106 S0
M106 S255
G1 X20.982 Y99.342 F250
M106 S0
M106 S255
G1 X20.9 Y99.253 F250
M106 S0
M106 S255
G1 X20.776 Y99.224 F250
M106 S0
G0 X25.617 Y104.719 F6000
M106 S255
G1 X25.617 Y104.719 F250
M106 S0
M106 S255
G1 X24.309 Y104.631 F250
M106 S0
G0 X73.194 Y60.718 F6000
M106 S255
G1 X73.194 Y60.718 F250
M106 S0
M106 S255
G1 X73.85 Y60.618 F250
M106 S0
M106 S255
G1 X74.5 Y60.731 F250
M106 S0
M106 S255
G1 X74.98 Y60.739 F250
M106 S0
M106 S255
G1 X75.418 Y60.936 F250
M106 S0
G0 X28.277 Y76.068 F6000
M106 S255
G1 X28.277 Y76.068 F250
M106 S0
M106 S255
G1 X28.31 Y76.101 F250
M106 S0
M106 S255
G1 X28.318 Y76.109 F250
M106 S0
M106 S255
G1 X28.503 Y75.896 F250
M106 S0
M106 S255
G1 X29.159 Y75.66 F250
M106 S0
M106 S255
G1 X29.879 Y75.67 F250
M106 S0
M106 S255
G1 X30.279 Y75.605 F250
M106 S0
M106 S255
G1 X30.806 Y75.675 F250
M106 S0
G0 X58.105 Y77.769 F6000
M106 S255
G1 X58.105 Y77.769 F250
M106 S0
M106 S255
G1 X58.395 Y77.861 F250
M106 S0
M106 S255
G1 X58.697 Y77.852 F250
M106 S0
M106 S255
G1 X58.995 Y77.862 F250
M106 S0
M106 S255
G1 X59.291 Y77.869 F250
M106 S0
M106 S255
G1 X59.589 Y77.893 F250
M106 S0
M106 S255
G1 X60.033 Y77.858 F250
M106 S0
M106 S255
G1 X60.291 Y77.576 F250
M106 S0
M106 S255
G1 X60.403 Y77.239 F250
M106 S0
M106 S255
G1 X60.497 Y77.058 F250
M106 S0
M106 S255
G1 X60.46 Y76.853 F250
M106 S0
G0 X12.142 Y105.852 F6000
M106 S255
G1 X12.142 Y105.852 F250
M106 S0
M106 S255
G1 X13.101 Y105.591 F250
M106 S0
G0 X51.869 Y33.833 F6000
M106 S255
G1 X51.869 Y33.833 F250
M106 S0
M106 S255
G1 X51.717 Y33.796 F250
M106 S0
M106 S255
G1 X51.735 Y33.667 F250
M106 S0
M106 S255
G1 X51.828 Y33.223 F250
M106 S0
M106 S255
G1 X51.723 Y32.608 F250
M106 S0
M106 S255
G1 X51.678 Y32.167 F250
M106 S0
M106 S255
G1 X51.59 Y32.074 F250
M106 S0
M106 S255
G1 X51.477 Y31.98 F250
M106 S0
G0 X30.109 Y82.74 F6000
M106 S255
G1 X30.109 Y82.74 F250
M106 S0
M106 S255
G1 X29.657 Y82.979 F250
M106 S0
M106 S255
G1 X29.15 Y82.998 F250
M106 S0
M106 S255
G1 X28.759 Y83.082 F250
M106 S0
M106 S255
G1 X28.364 Y83.089 F250
M106 S0
G0 X82.177 Y80.08 F6000
M106 S255
G1 X82.177 Y80.08 F250
M106 S0
M106 S255
G1 X82.204 Y80.036 F250
M106 S0
M106 S255
G1 X82.219 Y79.993 F250
M106 S0
M106 S255
G1 X82.253 Y79.251 F250
M106 S0
M106 S255
G1 X82.308 Y78.51 F250
M106 S0
G0 X36.257 Y49.423 F6000
M106 S255
G1 X36.257 Y49.423 F250
M106 S0
M106 S255
G1 X35.734 Y49.378 F250
M106 S0
M106 S255
G1 X35.211 Y49.337 F250
M106 S0
M106 S255
G1 X33.926 Y49.237 F250
M106 S0
M106 S255
G1 X32.638 Y49.205 F250
M106 S0
G0 X87.323 Y77.725 F6000
M106 S255
G1 X87.323 Y77.725 F250
M106 S0
M106 S255
G1 X87.029 Y77.705 F250
M106 S0
M106 S255
G1 X86.763 Y77.575 F250
M106 S0
M106 S255
G1 X86.239 Y77.449 F250
M106 S0
M106 S255
G1 X85.586 Y77.358 F250
M106 S0
M106 S255
G1 X85.084 Y77.38 F250
M106 S0
M106 S255
G1 X84.909 Y77.376 F250
M106 S0
M106 S255
G1 X84.75 Y77.289 F250
M106 S0
G0 X51.608 Y35.425 F6000
M106 S255
G1 X51.608 Y35.425 F250
M106 S0
M106 S255
G1 X51.696 Y34.814 F250
M106 S0
M106 S255
G1 X51.778 Y34.203 F250
M106 S0
M106 S255
G1 X51.768 Y34.052 F250
M106 S0
M106 S255
G1 X51.738 Y33.898 F250
M106 S0
G0 X88.064 Y70.006 F6000
M106 S255
G1 X88.064 Y70.006 F250
M106 S0
M106 S255
G1 X87.89 Y69.047 F250
M106 S0
G0 X10.572 Y79.513 F6000
M106 S255
G1 X10.572 Y79.513 F250
M106 S0
M106 S255
G1 X10.797 Y79.647 F250
M106 S0
M106 S255
G1 X11.03 Y79.585 F250
M106 S0
M106 S255
G1 X11.306 Y79.488 F250
M106 S0
M106 S255
G1 X11.636 Y79.441 F250
M106 S0
M106 S255
G1 X11.972 Y79.549 F250
M106 S0
M106 S255
G1 X12.119 Y79.602 F250
M106 S0
M106 S255
G1 X12.283 Y79.608 F250
M106 S0
M106 S255
G1 X12.665 Y79.527 F250
M106 S0
M106 S255
G1 X13.276 Y79.538 F250
M106 S0
M106 S255
G1 X13.886 Y79.6 F250
M106 S0
G0 X42.581 Y92.77 F6000
M106 S255
G1 X42.581 Y92.77 F250
M106 S0
M106 S255
G1 X41.621 Y93.032 F250
M106 S0
G0 X17.658 Y79.513 F6000
M106 S255
G1 X17.658 Y79.513 F250
M106 S0
M106 S255
G1 X17.152 Y79.677 F250
M106 S0
M106 S255
G1 X16.635 Y79.67 F250
M106 S0
M106 S255
G1 X15.935 Y79.668 F250
M106 S0
M106 S255
G1 X15.238 Y79.644 F250
M106 S0
G0 X79.474 Y31.064 F6000
M106 S255
G1 X79.474 Y31.064 F250
M106 S0
M106 S255
G1 X78.815 Y31.071 F250
M106 S0
M106 S255
G1 X78.252 Y30.801 F250
M106 S0
M106 S255
G1 X77.877 Y30.464 F250
M106 S0
M106 S255
G1 X77.779 Y30.246 F250
M106 S0
M106 S255
G1 X77.775 Y30.02 F250
M106 S0
M106 S255
G1 X77.914 Y29.745 F250
M106 S0
M106 S255
G1 X78.187 Y29.576 F250
M106 S0
M106 S255
G1 X78.503 Y29.499 F250
M106 S0
M106 S255
G1 X78.88 Y29.473 F250
M106 S0
M106 S255
G1 X79.229 Y29.616 F250
M106 S0
M106 S255
G1 X79.394 Y29.802 F250
M106 S0
M106 S255
G1 X79.496 Y29.868 F250
M106 S0
M106 S255
G1 X79.604 Y29.93 F250
M106 S0
G0 X97.484 Y57.578 F6000
M106 S255
G1 X97.484 Y57.578 F250
M106 S0
M106 S255
G1 X97.353 Y56.618 F250
M106 S0
G0 X99.359 Y95.256 F6000
M106 S255
G1 X99.359 Y95.256 F250
M106 S0
M106 S255
G1 X99.546 Y94.813 F250
M106 S0
M106 S255
G1 X99.622 Y94.338 F250
M106 S0
M106 S255
G1 X99.494 Y94.292 F250
M106 S0
M106 S255
G1 X99.359 Y94.296 F250
M106 S0
G0 X53.919 Y87.014 F6000
M106 S255
G1 X53.919 Y87.014 F250
M106 S0
M106 S255
G1 X52.96 Y86.926 F250
M106 S0
G0 X16.241 Y108.251 F6000
M106 S255
G1 X16.241 Y108.251 F250
M106 S0
M106 S255
G1 X17.052 Y108.252 F250
M106 S0
M106 S255
G1 X17.857 Y108.127 F250
M106 S0
M106 S255
G1 X18.177 Y108.066 F250
M106 S0
M106 S255
G1 X18.509 Y108.12 F250
M106 S0
G0 X96.306 Y84.964 F6000
M106 S255
G1 X96.306 Y84.964 F250
M106 S0
M106 S255
G1 X96.219 Y83.743 F250
M106 S0
G0 X97.353 Y72.23 F6000
M106 S255
G1 X97.353 Y72.23 F250
M106 S0
M106 S255
G1 X97.658 Y70.617 F250
M106 S0
G0 X93.69 Y78.161 F6000
M106 S255
G1 X93.69 Y78.161 F250
M106 S0
M106 S255
G1 X93.337 Y78.213 F250
M106 S0
M106 S255
G1 X92.995 Y78.144 F250
M106 S0
M106 S255
G1 X92.467 Y78.129 F250
M106 S0
M106 S255
G1 X91.946 Y78.117 F250
M106 S0
G0 X29.106 Y109.952 F6000
M106 S255
G1 X29.106 Y109.952 F250
M106 S0
M106 S255
G1 X28.99 Y109.725 F250
M106 S0
M106 S255
G1 X29.057 Y109.468 F250
M106 S0
M106 S255
G1 X29.16 Y109.228 F250
M106 S0
M106 S255
G1 X29.018 Y108.992 F250
M106 S0
G0 X45.633 Y91.374 F6000
M106 S255
G1 X45.633 Y91.374 F250
M106 S0
M106 S255
G1 X44.674 Y91.2 F250
M106 S0
G0 X51.826 Y70.486 F6000
M106 S255
G1 X51.826 Y70.486 F250
M106 S0
M106 S255
G1 X51.58 Y70.488 F250
M106 S0
M106 S255
G1 X51.331 Y70.47 F250
M106 S0
M106 S255
G1 X51.212 Y69.795 F250
M106 S0
M106 S255
G1 X51.162 Y68.823 F250
M106 S0
M106 S255
G1 X51.127 Y68.126 F250
M106 S0
M106 S255
G1 X51.125 Y67.97 F250
M106 S0
M106 S255
G1 X51.302 Y67.935 F250
M106 S0
G0 X24.658 Y114.029 F6000
M106 S255
G1 X24.658 Y114.029 F250
M106 S0
M106 S255
G1 X24.92 Y113.653 F250
M106 S0
M106 S255
G1 X24.832 Y113.048 F250
M106 S0
M106 S255
G1 X24.697 Y112.555 F250
M106 S0
M106 S255
G1 X24.658 Y112.045 F250
M106 S0
G0 X84.401 Y8.344 F6000
M106 S255
G1 X84.401 Y8.344 F250
M106 S0
M106 S255
G1 X84.619 Y7.079 F250
M106 S0
G0 X67.874 Y32.198 F6000
M106 S255
G1 X67.874 Y32.198 F250
M106 S0
M106 S255
G1 X67.656 Y31.282 F250
M106 S0
G0 X49.34 Y66.648 F6000
M106 S255
G1 X49.34 Y66.648 F250
M106 S0
M106 S255
G1 X49.296 Y65.34 F250
M106 S0
G0 X95.74 Y57.491 F6000
M106 S255
G1 X95.74 Y57.491 F250
M106 S0
M106 S255
G1 X95.486 Y57.093 F250
M106 S0
M106 S255
G1 X95.164 Y56.759 F250
M106 S0
M106 S255
G1 X94.918 Y56.361 F250
M106 S0
M106 S255
G1 X95.129 Y55.964 F250
M106 S0
G0 X12.578 Y14.231 F6000
M106 S255
G1 X12.578 Y14.231 F250
M106 S0
M106 S255
G1 X11.619 Y14.362 F250
M106 S0
G0 X79.037 Y25.547 F6000
M106 S255
G1 X79.037 Y25.547 F250
M106 S0
M106 S255
G1 X79.084 Y25.516 F250
M106 S0
M106 S255
G1 X79.119 Y25.489 F250
M106 S0
M106 S255
G1 X79.022 Y25.048 F250
M106 S0
M106 S255
G1 X79.04 Y24.391 F250
M106 S0
M106 S255
G1 X79.112 Y23.699 F250
M106 S0
M106 S255
G1 X79.081 Y22.932 F250
M106 S0
M106 S255
G1 X79.037 Y22.168 F250
M106 S0
G0 X42.145 Y32.11 F6000
M106 S255
G1 X42.145 Y32.11 F250
M106 S0
M106 S255
G1 X41.917 Y32.094 F250
M106 S0
M106 S255
G1 X41.796 Y31.948 F250
M106 S0
M106 S255
G1 X41.823 Y31.582 F250
M106 S0
M106 S255
G1 X41.791 Y31.188 F250
M106 S0
M106 S255
G1 X41.705 Y30.752 F250
M106 S0
M106 S255
G1 X41.739 Y30.224 F250
M106 S0
M106 S255
G1 X41.861 Y29.712 F250
M106 S0
G0 X70.752 Y92.072 F6000
M106 S255
G1 X70.752 Y92.072 F250
M106 S0
M106 S255
G1 X70.042 Y92.044 F250
M106 S0
M106 S255
G1 X69.352 Y91.863 F250
M106 S0
M106 S255
G1 X69.191 Y91.858 F250
M106 S0
M106 S255
G1 X69.007 Y91.898 F250
M106 S0
G0 X102.586 Y72.71 F6000
M106 S255
G1 X102.586 Y72.71 F250
M106 S0
M106 S255
G1 X101.278 Y72.623 F250
M106 S0
G0 X63.687 Y70.486 F6000
M106 S255
G1 X63.687 Y70.486 F250
M106 S0
M106 S255
G1 X63.736 Y70.837 F250
M106 S0
M106 S255
G1 X63.574 Y71.113 F250
M106 S0
M106 S255
G1 X63.319 Y71.28 F250
M106 S0
M106 S255
G1 X63.113 Y71.294 F250
M106 S0
M106 S255
G1 X62.893 Y71.199 F250
M106 S0
M106 S255
G1 X62.777 Y71.077 F250
M106 S0
M106 S255
G1 X62.761 Y70.965 F250
M106 S0
M106 S255
G1 X62.949 Y70.704 F250
M106 S0
M106 S255
G1 X62.987 Y70.248 F250
M106 S0
M106 S255
G1 X62.815 Y69.788 F250
M106 S0
G0 X72.016 Y51.778 F6000
M106 S255
G1 X72.016 Y51.778 F250
M106 S0
M106 S255
G1 X72.016 Y50.505 F250
M106 S0
M106 S255
G1 X72.079 Y49.234 F250
M106 S0
M106 S255
G1 X72.161 Y48.613 F250
M106 S0
M106 S255
G1 X72.178 Y48.311 F250
M106 S0
M106 S255
G1 X72.238 Y48.087 F250
M106 S0
M106 S255
G1 X72.202 Y48.071 F250
M106 S0
M106 S255
G1 X72.147 Y48.071 F250
M106 S0
G0 X79.648 Y83.002 F6000
M106 S255
G1 X79.648 Y83.002 F250
M106 S0
M106 S255
G1 X80.308 Y82.815 F250
M106 S0
M106 S255
G1 X81.001 Y82.816 F250
M106 S0
M106 S255
G1 X82.067 Y82.859 F250
M106 S0
M106 S255
G1 X83.137 Y82.871 F250
M106 S0
G0 X19.73 Y97.174 F6000
M106 S255
G1 X19.73 Y97.174 F250
M106 S0
M106 S255
G1 X19.226 Y96.995 F250
M106 S0
M106 S255
G1 X18.739 Y96.763 F250
M106 S0
M106 S255
G1 X18.352 Y96.669 F250
M106 S0
M106 S255
G1 X18.215 Y96.547 F250
M106 S0
M106 S255
G1 X18.114 Y96.351 F250
M106 S0
M106 S255
G1 X18.352 Y96.001 F250
M106 S0
M106 S255
G1 X18.679 Y95.612 F250
M106 S0
M106 S255
G1 X18.968 Y95.281 F250
M106 S0
M106 S255
G1 X19.055 Y95.168 F250
M106 S0
M106 S255
G1 X19.108 Y95.046 F250
M106 S0
M106 S255
G1 X19.12 Y94.732 F250
M106 S0
M106 S255
G1 X19.121 Y94.296 F250
M106 S0
M106 S255
G1 X19.119 Y93.86 F250
M106 S0
G0 X56.187 Y79.164 F6000
M106 S255
G1 X56.187 Y79.164 F250
M106 S0
M106 S255
G1 X55.746 Y79.247 F250
M106 S0
M106 S255
G1 X55.323 Y79.13 F250
M106 S0
M106 S255
G1 X54.465 Y78.996 F250
M106 S0
M106 S255
G1 X53.377 Y78.93 F250
M106 S0
M106 S255
G1 X52.599 Y78.852 F250
M106 S0
M106 S255
G1 X52.431 Y78.81 F250
M106 S0
M106 S255
G1 X52.262 Y78.859 F250
M106 S0
G0 X51.128 Y10.306 F6000
M106 S255
G1 X51.128 Y10.306 F250
M106 S0
M106 S255
G1 X50.496 Y10.264 F250
M106 S0
M106 S255
G1 X49.863 Y10.304 F250
M106 S0
M106 S255
G1 X49.568 Y10.299 F250
M106 S0
M106 S255
G1 X49.296 Y10.175 F250
M106 S0
G0 X91.248 Y103.628 F6000
M106 S255
G1 X91.248 Y103.628 F250
M106 S0
M106 S255
G1 X90.594 Y102.713 F250
M106 S0
G0 X90.594 Y102.407 F6000
M106 S255
G1 X90.594 Y102.407 F250
M106 S0
M106 S255
G1 X90.255 Y101.875 F250
M106 S0
M106 S255
G1 X89.758 Y101.505 F250
M106 S0
M106 S255
G1 X89.44 Y101.298 F250
M106 S0
M106 S255
G1 X89.155 Y101.056 F250
M106 S0
G0 X90.812 Y88.889 F6000
M106 S255
G1 X90.812 Y88.889 F250
M106 S0
M106 S255
G1 X89.678 Y88.758 F250
M106 S0
G0 X84.489 Y69.178 F6000
M106 S255
G1 X84.489 Y69.178 F250
M106 S0
M106 S255
G1 X84.897 Y68.613 F250
M106 S0
M106 S255
G1 X85.001 Y67.942 F250
M106 S0
M106 S255
G1 X84.908 Y67.14 F250
M106 S0
M106 S255
G1 X84.777 Y66.315 F250
M106 S0
M106 S255
G1 X84.61 Y65.668 F250
M106 S0
M106 S255
G1 X84.592 Y65.324 F250
M106 S0
M106 S255
G1 X84.75 Y64.991 F250
M106 S0
G0 X23.044 Y87.493 F6000
M106 S255
G1 X23.044 Y87.493 F250
M106 S0
M106 S255
G1 X23.195 Y87.402 F250
M106 S0
M106 S255
G1 X23.344 Y87.333 F250
M106 S0
M106 S255
G1 X23.6 Y87.276 F250
M106 S0
M106 S255
G1 X23.681 Y87.036 F250
M106 S0
M106 S255
G1 X23.91 Y86.708 F250
M106 S0
M106 S255
G1 X24.414 Y86.185 F250
M106 S0
M106 S255
G1 X24.919 Y85.662 F250
M106 S0
G0 X79.648 Y20.292 F6000
M106 S255
G1 X79.648 Y20.292 F250
M106 S0
M106 S255
G1 X78.601 Y20.336 F250
M106 S0
G0 X72.583 Y74.498 F6000
M106 S255
G1 X72.583 Y74.498 F250
M106 S0
M106 S255
G1 X71.537 Y74.498 F250
M106 S0
G0 X48.555 Y50.47 F6000
M106 S255
G1 X48.555 Y50.47 F250
M106 S0
M106 S255
G1 X49.616 Y50.292 F250
M106 S0
M106 S255
G1 X50.692 Y50.247 F250
M106 S0
M106 S255
G1 X50.997 Y50.238 F250
M106 S0
M106 S255
G1 X51.302 Y50.208 F250
M106 S0
G0 X36.955 Y21.862 F6000
M106 S255
G1 X36.955 Y21.862 F250
M106 S0
M106 S255
G1 X37.482 Y21.618 F250
M106 S0
M106 S255
G1 X38.053 Y21.613 F250
M106 S0
M106 S255
G1 X38.742 Y21.546 F250
M106 S0
M106 S255
G1 X39.612 Y21.416 F250
M106 S0
M106 S255
G1 X40.485 Y21.299 F250
M106 S0
M106 S255
G1 X40.974 Y21.276 F250
M106 S0
M106 S255
G1 X41.369 Y21.264 F250
M106 S0
M106 S255
G1 X41.642 Y20.999 F250
M106 S0
M106 S255
G1 X41.511 Y20.331 F250
M106 S0
M106 S255
G1 X41.341 Y19.677 F250
M106 S0
M106 S255
G1 X41.529 Y19.428 F250
M106 S0
M106 S255
G1 X41.97 Y19.366 F250
M106 S0
M106 S255
G1 X42.406 Y19.42 F250
M106 S0
G0 X90.637 Y85.095 F6000
M106 S255
G1 X90.637 Y85.095 F250
M106 S0
M106 S255
G1 X89.591 Y85.226 F250
M106 S0
G0 X49.471 Y66.387 F6000
M106 S255
G1 X49.471 Y66.387 F250
M106 S0
M106 S255
G1 X53.047 Y66.256 F250
M106 S0
G0 X100.318 Y57.273 F6000
M106 S255
G1 X100.318 Y57.273 F250
M106 S0
M106 S255
G1 X99.805 Y57.293 F250
M106 S0
M106 S255
G1 X99.31 Y57.451 F250
M106 S0
M106 S255
G1 X99.114 Y57.08 F250
M106 S0
M106 S255
G1 X99.141 Y56.662 F250
M106 S0
G0 X36.737 Y52.432 F6000
M106 S255
G1 X36.737 Y52.432 F250
M106 S0
M106 S255
G1 X36.517 Y52.606 F250
M106 S0
M106 S255
G1 X36.259 Y52.549 F250
M106 S0
M106 S255
G1 X35.675 Y52.437 F250
M106 S0
M106 S255
G1 X35.08 Y52.388 F250
M106 S0
G0 X22.782 Y8.082 F6000
M106 S255
G1 X22.782 Y8.082 F250
M106 S0
M106 S255
G1 X23.829 Y7.777 F250
M106 S0
G0 X42.886 Y51.473 F6000
M106 S255
G1 X42.886 Y51.473 F250
M106 S0
M106 S255
G1 X42.841 Y51.048 F250
M106 S0
M106 S255
G1 X42.707 Y50.646 F250
M106 S0
M106 S255
G1 X42.697 Y50.182 F250
M106 S0
M106 S255
G1 X42.755 Y49.728 F250
M106 S0
G0 X9.787 Y96.215 F6000
M106 S255
G1 X9.787 Y96.215 F250
M106 S0
M106 S255
G1 X9.613 Y95.168 F250
M106 S0
G0 X40.466 Y67.477 F6000
M106 S255
G1 X40.466 Y67.477 F250
M106 S0
M106 S255
G1 X40.613 Y67.271 F250
M106 S0
M106 S255
G1 X40.842 Y67.19 F250
M106 S0
M106 S255
G1 X41.297 Y67.107 F250
M106 S0
M106 S255
G1 X41.858 Y67.014 F250
M106 S0
M106 S255
G1 X42.352 Y66.933 F250
M106 S0
M106 S255
G1 X42.68 Y66.816 F250
M106 S0
M106 S255
G1 X42.93 Y66.561 F250
M106 S0
G0 X93.952 Y73.887 F6000
M106 S255
G1 X93.952 Y73.887 F250
M106 S0
M106 S255
G1 X94.629 Y73.798 F250
M106 S0
M106 S255
G1 X95.311 Y73.801 F250
M106 S0
M106 S255
G1 X96.097 Y73.794 F250
M106 S0
M106 S255
G1 X96.988 Y73.785 F250
M106 S0
M106 S255
G1 X97.875 Y73.742 F250
M106 S0
M106 S255
G1 X98.289 Y73.764 F250
M106 S0
M106 S255
G1 X98.682 Y73.85 F250
M106 S0
M106 S255
G1 X98.924 Y73.9 F250
M106 S0
M106 S255
G1 X99.011 Y73.91 F250
M106 S0
M106 S255
G1 X99.097 Y73.887 F250
M106 S0
G0 X98.574 Y10.35 F6000
M106 S255
G1 X98.574 Y10.35 F250
M106 S0
M106 S255
G1 X99.556 Y10.392 F250
M106 S0
M106 S255
G1 X100.536 Y10.331 F250
M106 S0
M106 S255
G1 X100.735 Y10.369 F250
M106 S0
M106 S255
G1 X100.929 Y10.306 F250
M106 S0
G0 X108.779 Y16.411 F6000
M106 S255
G1 X108.779 Y16.411 F250
M106 S0
M106 S255
G1 X108.775 Y16.551 F250
M106 S0
M106 S255
G1 X108.648 Y16.634 F250
M106 S0
M106 S255
G1 X108.277 Y16.69 F250
M106 S0
M106 S255
G1 X107.906 Y16.76 F250
M106 S0
G0 X38.045 Y91.113 F6000
M106 S255
G1 X38.045 Y91.113 F250
M106 S0
M106 S255
G1 X38.159 Y90.428 F250
M106 S0
M106 S255
G1 X38.354 Y89.762 F250
M106 S0
M106 S255
G1 X38.45 Y89.171 F250
M106 S0
M106 S255
G1 X38.7 Y88.627 F250
M106 S0
G0 X65.868 Y40.57 F6000
M106 S255
G1 X65.868 Y40.57 F250
M106 S0
M106 S255
G1 X65.648 Y40.504 F250
M106 S0
M106 S255
G1 X65.604 Y40.302 F250
M106 S0
M106 S255
G1 X65.635 Y39.811 F250
M106 S0
M106 S255
G1 X65.709 Y39.197 F250
M106 S0
M106 S255
G1 X65.689 Y38.702 F250
M106 S0
M106 S255
G1 X65.687 Y38.459 F250
M106 S0
M106 S255
G1 X65.693 Y38.216 F250
M106 S0
G0 X40.182 Y19.464 F6000
M106 S255
G1 X40.182 Y19.464 F250
M106 S0
M106 S255
G1 X39.852 Y19.855 F250
M106 S0
M106 S255
G1 X39.416 Y19.94 F250
M106 S0
M106 S255
G1 X38.972 Y19.788 F250
M106 S0
M106 S255
G1 X38.657 Y19.752 F250
M106 S0
M106 S255
G1 X38.328 Y19.771 F250
M106 S0
M106 S255
G1 X37.925 Y19.807 F250
M106 S0
M106 S255
G1 X37.506 Y19.806 F250
M106 S0
M106 S255
G1 X37.111 Y19.707 F250
M106 S0
M106 S255
G1 X36.853 Y19.766 F250
M106 S0
M106 S255
G1 X36.624 Y19.919 F250
M106 S0
M106 S255
G1 X36.369 Y19.996 F250
M106 S0
M106 S255
G1 X36.132 Y20.019 F250
M106 S0
M106 S255
G1 X35.909 Y19.9 F250
M106 S0
G0 X37.435 Y30.977 F6000
M106 S255
G1 X37.435 Y30.977 F250
M106 S0
M106 S255
G1 X36.519 Y31.543 F250
M106 S0
G0 X49.863 Y89.412 F6000
M106 S255
G1 X49.863 Y89.412 F250
M106 S0
M106 S255
G1 X49.835 Y89.148 F250
M106 S0
M106 S255
G1 X49.731 Y88.915 F250
M106 S0
M106 S255
G1 X49.567 Y88.762 F250
M106 S0
M106 S255
G1 X49.485 Y88.649 F250
M106 S0
M106 S255
G1 X49.438 Y88.521 F250
M106 S0
M106 S255
G1 X49.407 Y88.08 F250
M106 S0
M106 S255
G1 X49.385 Y87.558 F250
M106 S0
M106 S255
G1 X49.335 Y87.071 F250
M106 S0
M106 S255
G1 X49.306 Y86.709 F250
M106 S0
M106 S255
G1 X49.309 Y86.332 F250
M106 S0
M106 S255
G1 X49.322 Y85.879 F250
M106 S0
M106 S255
G1 X49.251 Y85.378 F250
M106 S0
M106 S255
G1 X49.253 Y84.877 F250
M106 S0
G0 X11.749 Y59.889 F6000
M106 S255
G1 X11.749 Y59.889 F250
M106 S0
M106 S255
G1 X12.055 Y58.319 F250
M106 S0
G0 X24.745 Y82.478 F6000
M106 S255
G1 X24.745 Y82.478 F250
M106 S0
M106 S255
G1 X24.438 Y82.659 F250
M106 S0
M106 S255
G1 X24.088 Y82.69 F250
M106 S0
M106 S255
G1 X23.714 Y82.631 F250
M106 S0
M106 S255
G1 X23.338 Y82.645 F250
M106 S0
M106 S255
G1 X22.953 Y82.726 F250
M106 S0
M106 S255
G1 X22.578 Y82.708 F250
M106 S0
M106 S255
G1 X22.259 Y82.478 F250
M106 S0
G0 X42.93 Y67.869 F6000
M106 S255
G1 X42.93 Y67.869 F250
M106 S0
M106 S255
G1 X42.755 Y66.823 F250
M106 S0
G0 X57.059 Y79.251 F6000
M106 S255
G1 X57.059 Y79.251 F250
M106 S0
M106 S255
G1 X57.453 Y79.26 F250
M106 S0
M106 S255
G1 X57.845 Y79.283 F250
M106 S0
M106 S255
G1 X58.386 Y79.328 F250
M106 S0
M106 S255
G1 X59.004 Y79.291 F250
M106 S0
M106 S255
G1 X59.44 Y79.341 F250
M106 S0
M106 S255
G1 X59.514 Y79.353 F250
M106 S0
M106 S255
G1 X59.544 Y79.426 F250
M106 S0
G0 X87.999 Y98.439 F6000
M106 S255
G1 X87.999 Y98.439 F250
M106 S0
M106 S255
G1 X88.024 Y98.062 F250
M106 S0
M106 S255
G1 X88.071 Y97.687 F250
M106 S0
M106 S255
G1 X88.227 Y97.408 F250
M106 S0
M106 S255
G1 X88.197 Y97.231 F250
M106 S0
M106 S255
G1 X88.136 Y97.04 F250
M106 S0
M106 S255
G1 X88.191 Y96.389 F250
M106 S0
M106 S255
G1 X88.295 Y95.634 F250
M106 S0
M106 S255
G1 X88.377 Y94.936 F250
M106 S0
M106 S255
G1 X88.411 Y94.438 F250
M106 S0
M106 S255
G1 X88.44 Y93.931 F250
M106 S0
M106 S255
G1 X88.482 Y93.489 F250
M106 S0
M106 S255
G1 X88.588 Y93.114 F250
M106 S0
M106 S255
G1 X88.784 Y92.77 F250
M106 S0
G0 X72.322 Y19.202 F6000
M106 S255
G1 X72.322 Y19.202 F250
M106 S0
M106 S255
G1 X72.324 Y19.09 F250
M106 S0
M106 S255
G1 X72.279 Y18.983 F250
M106 S0
M106 S255
G1 X72.043 Y18.627 F250
M106 S0
M106 S255
G1 X72.016 Y18.199 F250
M106 S0
G0 X57.32 Y57.709 F6000
M106 S255
G1 X57.32 Y57.709 F250
M106 S0
M106 S255
G1 X56.881 Y57.71 F250
M106 S0
M106 S255
G1 X56.438 Y57.611 F250
M106 S0
M106 S255
G1 X55.757 Y57.541 F250
M106 S0
M106 S255
G1 X55.053 Y57.665 F250
M106 S0
G0 X18.029 Y48.42 F6000
M106 S255
G1 X18.029 Y48.42 F250
M106 S0
M106 S255
G1 X17.969 Y48.512 F250
M106 S0
M106 S255
G1 X17.914 Y48.582 F250
M106 S0
M106 S255
G1 X17.655 Y48.528 F250
M106 S0
M106 S255
G1 X17.294 Y48.427 F250
M106 S0
M106 S255
G1 X16.989 Y48.237 F250
M106 S0
M106 S255
G1 X16.882 Y47.916 F250
M106 S0
M106 S255
G1 X16.939 Y47.548 F250
M106 S0
G0 X27.143 Y115.097 F6000
M106 S255
G1 X27.143 Y115.097 F250
M106 S0
M106 S255
G1 X26.887 Y115.183 F250
M106 S0
M106 S255
G1 X26.623 Y115.167 F250
M106 S0
M106 S255
G1 X26.418 Y115.106 F250
M106 S0
M106 S255
G1 X26.3 Y115.005 F250
M106 S0
M106 S255
G1 X26.253 Y114.73 F250
M106 S0
M106 S255
G1 X26.199 Y114.281 F250
M106 S0
M106 S255
G1 X26.14 Y113.833 F250
M106 S0
G0 X56.841 Y80.559 F6000
M106 S255
G1 X56.841 Y80.559 F250
M106 S0
M106 S255
G1 X58.716 Y80.341 F250
M106 S0
G0 X43.366 Y19.289 F6000
M106 S255
G1 X43.366 Y19.289 F250
M106 S0
M106 S255
G1 X43.719 Y19.223 F250
M106 S0
M106 S255
G1 X44.077 Y19.228 F250
M106 S0
M106 S255
G1 X44.267 Y19.288 F250
M106 S0
M106 S255
G1 X44.396 Y19.245 F250
M106 S0
M106 S255
G1 X44.556 Y19.018 F250
M106 S0
M106 S255
G1 X45.0 Y18.737 F250
M106 S0
M106 S255
G1 X45.546 Y18.679 F250
M106 S0
G0 X73.804 Y18.199 F6000
M106 S255
G1 X73.804 Y18.199 F250
M106 S0
M106 S255
G1 X74.621 Y17.959 F250
M106 S0
M106 S255
G1 X75.511 Y17.94 F250
M106 S0
M106 S255
G1 X77.08 Y17.988 F250
M106 S0
M106 S255
G1 X78.601 Y17.501 F250
M106 S0
G0 X25.53 Y90.328 F6000
M106 S255
G1 X25.53 Y90.328 F250
M106 S0
M106 S255
G1 X26.402 Y89.412 F250
M106 S0
G0 X23.611 Y90.851 F6000
M106 S255
G1 X23.611 Y90.851 F250
M106 S0
M106 S255
G1 X24.832 Y89.499 F250
M106 S0
G0 X67.481 Y42.14 F6000
M106 S255
G1 X67.481 Y42.14 F250
M106 S0
M106 S255
G1 X68.104 Y42.159 F250
M106 S0
M106 S255
G1 X68.719 Y42.132 F250
M106 S0
M106 S255
G1 X69.476 Y41.965 F250
M106 S0
M106 S255
G1 X70.324 Y41.917 F250
M106 S0
M106 S255
G1 X70.963 Y41.835 F250
M106 S0
M106 S255
G1 X71.174 Y41.77 F250
M106 S0
M106 S255
G1 X71.362 Y41.661 F250
M106 S0
G0 X51.826 Y9.783 F6000
M106 S255
G1 X51.826 Y9.783 F250
M106 S0
M106 S255
G1 X52.633 Y9.718 F250
M106 S0
M106 S255
G1 X53.439 Y9.651 F250
M106 S0
M106 S255
G1 X53.685 Y9.667 F250
M106 S0
M106 S255
G1 X53.919 Y9.739 F250
M106 S0
G0 X89.722 Y77.856 F6000
M106 S255
G1 X89.722 Y77.856 F250
M106 S0
M106 S255
G1 X89.081 Y77.795 F250
M106 S0
M106 S255
G1 X88.39 Y77.805 F250
M106 S0
M106 S255
G1 X88.597 Y77.266 F250
M106 S0
M106 S255
G1 X88.631 Y76.766 F250
M106 S0
G0 X94.344 Y100.314 F6000
M106 S255
G1 X94.344 Y100.314 F250
M106 S0
M106 S255
G1 X93.516 Y99.355 F250
M106 S0
G0 X89.634 Y103.105 F6000
M106 S255
G1 X89.634 Y103.105 F250
M106 S0
M106 S255
G1 X90.152 Y102.879 F250
M106 S0
M106 S255
G1 X90.619 Y102.516 F250
M106 S0
M106 S255
G1 X91.081 Y102.199 F250
M106 S0
M106 S255
G1 X91.553 Y101.84 F250
M106 S0
G0 X13.799 Y8.387 F6000
M106 S255
G1 X13.799 Y8.387 F250
M106 S0
M106 S255
G1 X13.8 Y8.299 F250
M106 S0
M106 S255
G1 X13.758 Y8.248 F250
M106 S0
M106 S255
G1 X13.233 Y8.396 F250
M106 S0
M106 S255
G1 X12.497 Y8.459 F250
M106 S0
M106 S255
G1 X11.803 Y8.444 F250
M106 S0
M106 S255
G1 X11.186 Y8.492 F250
M106 S0
M106 S255
G1 X10.572 Y8.518 F250
M106 S0
G0 X22.957 Y77.376 F6000
M106 S255
G1 X22.957 Y77.376 F250
M106 S0
M106 S255
G1 X22.917 Y77.029 F250
M106 S0
M106 S255
G1 X22.746 Y76.716 F250
M106 S0
M106 S255
G1 X22.622 Y76.549 F250
M106 S0
M106 S255
G1 X22.652 Y76.329 F250
M106 S0
G0 X14.061 Y78.51 F6000
M106 S255
G1 X14.061 Y78.51 F250
M106 S0
M106 S255
G1 X14.001 Y78.098 F250
M106 S0
M106 S255
G1 X14.013 Y77.687 F250
M106 S0
M106 S255
G1 X14.049 Y77.128 F250
M106 S0
M106 S255
G1 X13.973 Y76.512 F250
M106 S0
M106 S255
G1 X13.842 Y76.083 F250
M106 S0
M106 S255
G1 X13.858 Y75.991 F250
M106 S0
M106 S255
G1 X13.886 Y75.893 F250
M106 S0
G0 X46.418 Y76.94 F6000
M106 S255
G1 X46.418 Y76.94 F250
M106 S0
M106 S255
G1 X45.948 Y76.798 F250
M106 S0
M106 S255
G1 X45.457 Y76.779 F250
M106 S0
M106 S255
G1 X45.237 Y76.722 F250
M106 S0
M106 S255
G1 X45.066 Y76.591 F250
M106 S0
G0 X96.83 Y78.03 F6000
M106 S255
G1 X96.83 Y78.03 F250
M106 S0
M106 S255
G1 X96.896 Y77.602 F250
M106 S0
M106 S255
G1 X96.857 Y77.169 F250
M106 S0
M106 S255
G1 X96.783 Y76.859 F250
M106 S0
M106 S255
G1 X96.949 Y76.71 F250
M106 S0
M106 S255
G1 X97.228 Y76.673 F250
M106 S0
M106 S255
G1 X97.509 Y76.655 F250
M106 S0
M106 S255
G1 X97.789 Y76.635 F250
M106 S0
G0 X40.749 Y68.96 F6000
M106 S255
G1 X40.749 Y68.96 F250
M106 S0
M106 S255
G1 X41.061 Y68.755 F250
M106 S0
M106 S255
G1 X41.404 Y68.613 F250
M106 S0
M106 S255
G1 X41.617 Y68.517 F250
M106 S0
M106 S255
G1 X41.709 Y68.305 F250
M106 S0
G0 X75.592 Y69.788 F6000
M106 S255
G1 X75.592 Y69.788 F250
M106 S0
M106 S255
G1 X75.574 Y69.226 F250
M106 S0
M106 S255
G1 X75.749 Y68.645 F250
M106 S0
M106 S255
G1 X75.279 Y68.572 F250
M106 S0
M106 S255
G1 X74.851 Y68.393 F250
M106 S0
G0 X49.078 Y72.187 F6000
M106 S255
G1 X49.078 Y72.187 F250
M106 S0
M106 S255
G1 X48.926 Y71.766 F250
M106 S0
M106 S255
G1 X48.943 Y71.328 F250
M106 S0
M106 S255
G1 X48.995 Y70.597 F250
M106 S0
M106 S255
G1 X48.985 Y69.719 F250
M106 S0
M106 S255
G1 X48.943 Y69.094 F250
M106 S0
M106 S255
G1 X48.892 Y68.996 F250
M106 S0
M106 S255
G1 X48.817 Y68.916 F250
M106 S0
G0 X10.267 Y60.5 F6000
M106 S255
G1 X10.267 Y60.5 F250
M106 S0
M106 S255
G1 X10.931 Y60.511 F250
M106 S0
M106 S255
G1 X11.706 Y60.151 F250
M106 S0
G0 X73.63 Y35.992 F6000
M106 S255
G1 X73.63 Y35.992 F250
M106 S0
M106 S255
G1 X73.586 Y33.07 F250
M106 S0
G0 X48.773 Y31.631 F6000
M106 S255
G1 X48.773 Y31.631 F250
M106 S0
M106 S255
G1 X47.334 Y31.718 F250
M106 S0
G0 X64.298 Y84.964 F6000
M106 S255
G1 X64.298 Y84.964 F250
M106 S0
M106 S255
G1 X62.51 Y84.659 F250
M106 S0
G0 X81.654 Y85.487 F6000
M106 S255
G1 X81.654 Y85.487 F250
M106 S0
M106 S255
G1 X80.72 Y85.444 F250
M106 S0
M106 S255
G1 X79.784 Y85.416 F250
M106 S0
M106 S255
G1 X79.354 Y85.504 F250
M106 S0
M106 S255
G1 X79.162 Y85.496 F250
M106 S0
M106 S255
G1 X78.942 Y85.396 F250
M106 S0
M106 S255
G1 X78.645 Y85.349 F250
M106 S0
M106 S255
G1 X78.34 Y85.356 F250
M106 S0
G0 X63.513 Y86.229 F6000
M106 S255
G1 X63.513 Y86.229 F250
M106 S0
M106 S255
G1 X62.899 Y85.801 F250
M106 S0
M106 S255
G1 X62.252 Y85.351 F250
M106 S0
M106 S255
G1 X61.678 Y85.677 F250
M106 S0
M106 S255
G1 X60.984 Y85.618 F250
M106 S0
G0 X39.528 Y59.627 F6000
M106 S255
G1 X39.528 Y59.627 F250
M106 S0
M106 S255
G1 X39.104 Y59.482 F250
M106 S0
M106 S255
G1 X38.656 Y59.501 F250
M106 S0
M106 S255
G1 X38.431 Y59.483 F250
M106 S0
M106 S255
G1 X38.22 Y59.409 F250
M106 S0
G0 X12.927 Y81.039 F6000
M106 S255
G1 X12.927 Y81.039 F250
M106 S0
M106 S255
G1 X12.389 Y81.092 F250
M106 S0
M106 S255
G1 X11.847 Y81.119 F250
M106 S0
M106 S255
G1 X11.475 Y81.09 F250
M106 S0
M106 S255
G1 X11.285 Y81.071 F250
M106 S0
M106 S255
G1 X11.088 Y81.011 F250
M106 S0
M106 S255
G1 X10.781 Y80.9 F250
M106 S0
M106 S255
G1 X10.459 Y80.943 F250
M106 S0
M106 S255
G1 X10.222 Y81.136 F250
M106 S0
M106 S255
G1 X10.013 Y81.175 F250
M106 S0
M106 S255
G1 X9.787 Y81.17 F250
M106 S0
G0 X43.017 Y25.918 F6000
M106 S255
G1 X43.017 Y25.918 F250
M106 S0
M106 S255
G1 X42.799 Y24.784 F250
M106 S0
G0 X57.059 Y84.441 F6000
M106 S255
G1 X57.059 Y84.441 F250
M106 S0
M106 S255
G1 X56.012 Y84.44 F250
M106 S0
M106 S255
G1 X54.966 Y84.441 F250
M106 S0
M106 S255
G1 X54.529 Y84.526 F250
M106 S0
M106 S255
G1 X54.093 Y84.441 F250
M106 S0
G0 X41.272 Y91.767 F6000
M106 S255
G1 X41.272 Y91.767 F250
M106 S0
M106 S255
G1 X41.817 Y91.728 F250
M106 S0
M106 S255
G1 X42.363 Y91.76 F250
M106 S0
M106 S255
