;GCode generated by Numa's program v0.0
G0 X15.074 Y100.133 F6000
M106 S255
G1 X15.074 Y100.133 F400
M106 S0
M106 S255
G1 X10.074 Y95.133 F400
M106 S0
G0 X15.074 Y100.133 F6000
M106 S255
G1 X15.074 Y100.133 F400
M106 S0
M106 S255
G1 X10.074 Y95.133 F400
M106 S0
G0 X79.555 Y95.133 F6000
M106 S255
G1 X79.555 Y95.133 F400
M106 S0
M106 S255
G1 X74.555 Y100.133 F400
M106 S0
G0 X79.555 Y95.133 F6000
M106 S255
G1 X79.555 Y95.133 F400
M106 S0
M106 S255
G1 X74.555 Y100.133 F400
M106 S0
G0 X15.074 Y100.133 F6000
M106 S255
G1 X15.074 Y100.133 F400
M106 S0
M106 S255
G1 X74.555 Y100.133 F400
M106 S0
G0 X15.074 Y100.133 F6000
M106 S255
G1 X15.074 Y100.133 F400
M106 S0
M106 S255
G1 X74.555 Y100.133 F400
M106 S0
G0 X74.555 Y72.48 F6000
M106 S255
G1 X74.555 Y72.48 F400
M106 S0
M106 S255
G1 X79.555 Y77.48 F400
M106 S0
G0 X74.555 Y72.48 F6000
M106 S255
G1 X74.555 Y72.48 F400
M106 S0
M106 S255
G1 X79.555 Y77.48 F400
M106 S0
G0 X79.555 Y95.133 F6000
M106 S255
G1 X79.555 Y95.133 F400
M106 S0
M106 S255
G1 X79.555 Y77.48 F400
M106 S0
G0 X79.555 Y95.133 F6000
M106 S255
G1 X79.555 Y95.133 F400
M106 S0
M106 S255
G1 X79.555 Y77.48 F400
M106 S0
G0 X74.555 Y72.48 F6000
M106 S255
G1 X74.555 Y72.48 F400
M106 S0
M106 S255
G1 X15.074 Y72.48 F400
M106 S0
G0 X74.555 Y72.48 F6000
M106 S255
G1 X74.555 Y72.48 F400
M106 S0
M106 S255
G1 X15.074 Y72.48 F400
M106 S0
G0 X10.074 Y77.48 F6000
M106 S255
G1 X10.074 Y77.48 F400
M106 S0
M106 S255
G1 X15.074 Y72.48 F400
M106 S0
G0 X10.074 Y77.48 F6000
M106 S255
G1 X10.074 Y77.48 F400
M106 S0
M106 S255
G1 X15.074 Y72.48 F400
M106 S0
G0 X10.074 Y77.48 F6000
M106 S255
G1 X10.074 Y77.48 F400
M106 S0
M106 S255
G1 X10.074 Y95.133 F400
M106 S0
G0 X10.074 Y77.48 F6000
M106 S255
G1 X10.074 Y77.48 F400
M106 S0
M106 S255
G1 X10.074 Y95.133 F400
M106 S0
G0 X15.074 Y67.814 F6000
M106 S255
G1 X15.074 Y67.814 F400
M106 S0
M106 S255
G1 X10.074 Y62.814 F400
M106 S0
G0 X15.074 Y67.814 F6000
M106 S255
G1 X15.074 Y67.814 F400
M106 S0
M106 S255
G1 X10.074 Y62.814 F400
M106 S0
G0 X79.555 Y62.814 F6000
M106 S255
G1 X79.555 Y62.814 F400
M106 S0
M106 S255
G1 X74.555 Y67.814 F400
M106 S0
G0 X79.555 Y62.814 F6000
M106 S255
G1 X79.555 Y62.814 F400
M106 S0
M106 S255
G1 X74.555 Y67.814 F400
M106 S0
G0 X15.074 Y67.814 F6000
M106 S255
G1 X15.074 Y67.814 F400
M106 S0
M106 S255
G1 X74.555 Y67.814 F400
M106 S0
G0 X15.074 Y67.814 F6000
M106 S255
G1 X15.074 Y67.814 F400
M106 S0
M106 S255
G1 X74.555 Y67.814 F400
M106 S0
G0 X74.555 Y40.162 F6000
M106 S255
G1 X74.555 Y40.162 F400
M106 S0
M106 S255
G1 X79.555 Y45.162 F400
M106 S0
G0 X74.555 Y40.162 F6000
M106 S255
G1 X74.555 Y40.162 F400
M106 S0
M106 S255
G1 X79.555 Y45.162 F400
M106 S0
G0 X79.555 Y62.814 F6000
M106 S255
G1 X79.555 Y62.814 F400
M106 S0
M106 S255
G1 X79.555 Y45.162 F400
M106 S0
G0 X79.555 Y62.814 F6000
M106 S255
G1 X79.555 Y62.814 F400
M106 S0
M106 S255
G1 X79.555 Y45.162 F400
M106 S0
G0 X74.555 Y40.162 F6000
M106 S255
G1 X74.555 Y40.162 F400
M106 S0
M106 S255
G1 X15.074 Y40.162 F400
M106 S0
G0 X74.555 Y40.162 F6000
M106 S255
G1 X74.555 Y40.162 F400
M106 S0
M106 S255
G1 X15.074 Y40.162 F400
M106 S0
G0 X10.074 Y45.162 F6000
M106 S255
G1 X10.074 Y45.162 F400
M106 S0
M106 S255
G1 X15.074 Y40.162 F400
M106 S0
G0 X10.074 Y45.162 F6000
M106 S255
G1 X10.074 Y45.162 F400
M106 S0
M106 S255
G1 X15.074 Y40.162 F400
M106 S0
G0 X10.074 Y45.162 F6000
M106 S255
G1 X10.074 Y45.162 F400
M106 S0
M106 S255
G1 X10.074 Y62.814 F400
M106 S0
G0 X10.074 Y45.162 F6000
M106 S255
G1 X10.074 Y45.162 F400
M106 S0
M106 S255
G1 X10.074 Y62.814 F400
M106 S0
M106 S0
