;GCode generated by Numa's program v0.0
G0 X79.037 Y97.349 F6000
M106 S255
G1 X79.037 Y97.349 F600
M106 S0
M106 S255
G1 X74.215 Y100.133 F600
M106 S0
G0 X79.555 Y93.383 F6000
M106 S255
G1 X79.555 Y93.383 F600
M106 S0
M106 S255
G1 X67.865 Y100.133 F600
M106 S0
G0 X79.555 Y89.717 F6000
M106 S255
G1 X79.555 Y89.717 F600
M106 S0
M106 S255
G1 X61.515 Y100.133 F600
M106 S0
G0 X79.555 Y86.051 F6000
M106 S255
G1 X79.555 Y86.051 F600
M106 S0
M106 S255
G1 X55.165 Y100.133 F600
M106 S0
G0 X79.555 Y82.385 F6000
M106 S255
G1 X79.555 Y82.385 F600
M106 S0
M106 S255
G1 X48.815 Y100.133 F600
M106 S0
G0 X79.555 Y78.719 F6000
M106 S255
G1 X79.555 Y78.719 F600
M106 S0
M106 S255
G1 X42.465 Y100.133 F600
M106 S0
G0 X79.07 Y75.332 F6000
M106 S255
G1 X79.07 Y75.332 F600
M106 S0
M106 S255
G1 X36.115 Y100.133 F600
M106 S0
G0 X76.767 Y72.996 F6000
M106 S255
G1 X76.767 Y72.996 F600
M106 S0
M106 S255
G1 X29.765 Y100.133 F600
M106 S0
G0 X71.311 Y72.48 F6000
M106 S255
G1 X71.311 Y72.48 F600
M106 S0
M106 S255
G1 X23.415 Y100.133 F600
M106 S0
G0 X64.961 Y72.48 F6000
M106 S255
G1 X64.961 Y72.48 F600
M106 S0
M106 S255
G1 X17.065 Y100.133 F600
M106 S0
G0 X58.611 Y72.48 F6000
M106 S255
G1 X58.611 Y72.48 F600
M106 S0
M106 S255
G1 X12.24 Y99.252 F600
M106 S0
G0 X52.261 Y72.48 F6000
M106 S255
G1 X52.261 Y72.48 F600
M106 S0
M106 S255
G1 X10.323 Y96.693 F600
M106 S0
G0 X45.911 Y72.48 F6000
M106 S255
G1 X45.911 Y72.48 F600
M106 S0
M106 S255
G1 X10.074 Y93.171 F600
M106 S0
G0 X39.561 Y72.48 F6000
M106 S255
G1 X39.561 Y72.48 F600
M106 S0
M106 S255
G1 X10.074 Y89.504 F600
M106 S0
G0 X33.211 Y72.48 F6000
M106 S255
G1 X33.211 Y72.48 F600
M106 S0
M106 S255
G1 X10.074 Y85.838 F600
M106 S0
G0 X26.861 Y72.48 F6000
M106 S255
G1 X26.861 Y72.48 F600
M106 S0
M106 S255
G1 X10.074 Y82.172 F600
M106 S0
G0 X20.511 Y72.48 F6000
M106 S255
G1 X20.511 Y72.48 F600
M106 S0
M106 S255
G1 X10.074 Y78.506 F600
M106 S0
G0 X13.932 Y72.612 F6000
M106 S255
G1 X13.932 Y72.612 F600
M106 S0
M106 S255
G1 X11.429 Y74.057 F600
M106 S0
G0 X79.375 Y76.15 F6000
M106 S255
G1 X79.375 Y76.15 F600
M106 S0
M106 S255
G1 X79.375 Y96.463 F600
M106 S0
G0 X76.2 Y72.759 F6000
M106 S255
G1 X76.2 Y72.759 F600
M106 S0
M106 S255
G1 X76.2 Y99.854 F600
M106 S0
G0 X73.025 Y72.48 F6000
M106 S255
G1 X73.025 Y72.48 F600
M106 S0
M106 S255
G1 X73.025 Y100.133 F600
M106 S0
G0 X69.85 Y72.48 F6000
M106 S255
G1 X69.85 Y72.48 F600
M106 S0
M106 S255
G1 X69.85 Y100.133 F600
M106 S0
G0 X66.675 Y72.48 F6000
M106 S255
G1 X66.675 Y72.48 F600
M106 S0
M106 S255
G1 X66.675 Y100.133 F600
M106 S0
G0 X63.5 Y72.48 F6000
M106 S255
G1 X63.5 Y72.48 F600
M106 S0
M106 S255
G1 X63.5 Y100.133 F600
M106 S0
G0 X60.325 Y72.48 F6000
M106 S255
G1 X60.325 Y72.48 F600
M106 S0
M106 S255
G1 X60.325 Y100.133 F600
M106 S0
G0 X57.15 Y72.48 F6000
M106 S255
G1 X57.15 Y72.48 F600
M106 S0
M106 S255
G1 X57.15 Y100.133 F600
M106 S0
G0 X53.975 Y72.48 F6000
M106 S255
G1 X53.975 Y72.48 F600
M106 S0
M106 S255
G1 X53.975 Y100.133 F600
M106 S0
G0 X50.8 Y72.48 F6000
M106 S255
G1 X50.8 Y72.48 F600
M106 S0
M106 S255
G1 X50.8 Y100.133 F600
M106 S0
G0 X47.625 Y72.48 F6000
M106 S255
G1 X47.625 Y72.48 F600
M106 S0
M106 S255
G1 X47.625 Y100.133 F600
M106 S0
G0 X44.45 Y72.48 F6000
M106 S255
G1 X44.45 Y72.48 F600
M106 S0
M106 S255
G1 X44.45 Y100.133 F600
M106 S0
G0 X41.275 Y72.48 F6000
M106 S255
G1 X41.275 Y72.48 F600
M106 S0
M106 S255
G1 X41.275 Y100.133 F600
M106 S0
G0 X38.1 Y72.48 F6000
M106 S255
G1 X38.1 Y72.48 F600
M106 S0
M106 S255
G1 X38.1 Y100.133 F600
M106 S0
G0 X34.925 Y72.48 F6000
M106 S255
G1 X34.925 Y72.48 F600
M106 S0
M106 S255
G1 X34.925 Y100.133 F600
M106 S0
G0 X31.75 Y72.48 F6000
M106 S255
G1 X31.75 Y72.48 F600
M106 S0
M106 S255
G1 X31.75 Y100.133 F600
M106 S0
G0 X28.575 Y72.48 F6000
M106 S255
G1 X28.575 Y72.48 F600
M106 S0
M106 S255
G1 X28.575 Y100.133 F600
M106 S0
G0 X25.4 Y72.48 F6000
M106 S255
G1 X25.4 Y72.48 F600
M106 S0
M106 S255
G1 X25.4 Y100.133 F600
M106 S0
G0 X22.225 Y72.48 F6000
M106 S255
G1 X22.225 Y72.48 F600
M106 S0
M106 S255
G1 X22.225 Y100.133 F600
M106 S0
G0 X19.05 Y72.48 F6000
M106 S255
G1 X19.05 Y72.48 F600
M106 S0
M106 S255
G1 X19.05 Y100.133 F600
M106 S0
G0 X15.875 Y72.48 F6000
M106 S255
G1 X15.875 Y72.48 F600
M106 S0
M106 S255
G1 X15.875 Y100.133 F600
M106 S0
G0 X12.7 Y73.08 F6000
M106 S255
G1 X12.7 Y73.08 F600
M106 S0
M106 S255
G1 X12.7 Y99.533 F600
M106 S0
G0 X74.746 Y72.484 F6000
M106 S255
G1 X74.746 Y72.484 F600
M106 S0
M106 S255
G1 X78.787 Y74.817 F600
M106 S0
G0 X68.389 Y72.48 F6000
M106 S255
G1 X68.389 Y72.48 F600
M106 S0
M106 S255
G1 X79.555 Y78.927 F600
M106 S0
G0 X62.039 Y72.48 F6000
M106 S255
G1 X62.039 Y72.48 F600
M106 S0
M106 S255
G1 X79.555 Y82.593 F600
M106 S0
G0 X55.689 Y72.48 F6000
M106 S255
G1 X55.689 Y72.48 F600
M106 S0
M106 S255
G1 X79.555 Y86.259 F600
M106 S0
G0 X49.339 Y72.48 F6000
M106 S255
G1 X49.339 Y72.48 F600
M106 S0
M106 S255
G1 X79.555 Y89.925 F600
M106 S0
G0 X42.989 Y72.48 F6000
M106 S255
G1 X42.989 Y72.48 F600
M106 S0
M106 S255
G1 X79.555 Y93.591 F600
M106 S0
G0 X36.639 Y72.48 F6000
M106 S255
G1 X36.639 Y72.48 F600
M106 S0
M106 S255
G1 X79.177 Y97.039 F600
M106 S0
G0 X30.289 Y72.48 F6000
M106 S255
G1 X30.289 Y72.48 F600
M106 S0
M106 S255
G1 X77.04 Y99.472 F600
M106 S0
G0 X23.939 Y72.48 F6000
M106 S255
G1 X23.939 Y72.48 F600
M106 S0
M106 S255
G1 X71.835 Y100.133 F600
M106 S0
G0 X17.589 Y72.48 F6000
M106 S255
G1 X17.589 Y72.48 F600
M106 S0
M106 S255
G1 X65.485 Y100.133 F600
M106 S0
G0 X12.488 Y73.201 F6000
M106 S255
G1 X12.488 Y73.201 F600
M106 S0
M106 S255
G1 X59.135 Y100.133 F600
M106 S0
G0 X10.413 Y75.669 F6000
M106 S255
G1 X10.413 Y75.669 F600
M106 S0
M106 S255
G1 X52.785 Y100.133 F600
M106 S0
G0 X10.074 Y79.14 F6000
M106 S255
G1 X10.074 Y79.14 F600
M106 S0
M106 S255
G1 X46.435 Y100.133 F600
M106 S0
G0 X10.074 Y82.806 F6000
M106 S255
G1 X10.074 Y82.806 F600
M106 S0
M106 S255
G1 X40.085 Y100.133 F600
M106 S0
G0 X10.074 Y86.472 F6000
M106 S255
G1 X10.074 Y86.472 F600
M106 S0
M106 S255
G1 X33.735 Y100.133 F600
M106 S0
G0 X10.074 Y90.138 F6000
M106 S255
G1 X10.074 Y90.138 F600
M106 S0
M106 S255
G1 X27.385 Y100.133 F600
M106 S0
G0 X10.074 Y93.804 F6000
M106 S255
G1 X10.074 Y93.804 F600
M106 S0
M106 S255
G1 X21.035 Y100.133 F600
M106 S0
G0 X10.969 Y97.987 F6000
M106 S255
G1 X10.969 Y97.987 F600
M106 S0
M106 S255
G1 X14.654 Y100.115 F600
M106 S0
G0 X78.61 Y65.739 F6000
M106 S255
G1 X78.61 Y65.739 F600
M106 S0
M106 S255
G1 X76.99 Y66.675 F600
M106 S0
G0 X65.991 Y66.675 F6000
M106 S255
G1 X65.991 Y66.675 F600
M106 S0
M106 S255
G1 X64.018 Y67.814 F600
M106 S0
G0 X71.49 Y63.5 F6000
M106 S255
G1 X71.49 Y63.5 F600
M106 S0
M106 S255
G1 X68.741 Y65.088 F600
M106 S0
G0 X76.99 Y60.325 F6000
M106 S255
G1 X76.99 Y60.325 F600
M106 S0
M106 S255
G1 X74.24 Y61.913 F600
M106 S0
G0 X57.742 Y65.088 F6000
M106 S255
G1 X57.742 Y65.088 F600
M106 S0
M106 S255
G1 X54.993 Y66.675 F600
M106 S0
G0 X63.242 Y61.913 F6000
M106 S255
G1 X63.242 Y61.913 F600
M106 S0
M106 S255
G1 X60.492 Y63.5 F600
M106 S0
G0 X68.741 Y58.738 F6000
M106 S255
G1 X68.741 Y58.738 F600
M106 S0
M106 S255
G1 X65.991 Y60.325 F600
M106 S0
G0 X74.24 Y55.563 F6000
M106 S255
G1 X74.24 Y55.563 F600
M106 S0
M106 S255
G1 X71.49 Y57.15 F600
M106 S0
G0 X79.555 Y52.494 F6000
M106 S255
G1 X79.555 Y52.494 F600
M106 S0
M106 S255
G1 X76.99 Y53.975 F600
M106 S0
G0 X43.994 Y66.675 F6000
M106 S255
G1 X43.994 Y66.675 F600
M106 S0
M106 S255
G1 X42.021 Y67.814 F600
M106 S0
G0 X49.493 Y63.5 F6000
M106 S255
G1 X49.493 Y63.5 F600
M106 S0
M106 S255
G1 X46.744 Y65.088 F600
M106 S0
G0 X54.993 Y60.325 F6000
M106 S255
G1 X54.993 Y60.325 F600
M106 S0
M106 S255
G1 X52.243 Y61.913 F600
M106 S0
G0 X60.492 Y57.15 F6000
M106 S255
G1 X60.492 Y57.15 F600
M106 S0
M106 S255
G1 X57.742 Y58.738 F600
M106 S0
G0 X65.991 Y53.975 F6000
M106 S255
G1 X65.991 Y53.975 F600
M106 S0
M106 S255
G1 X63.242 Y55.563 F600
M106 S0
G0 X71.49 Y50.8 F6000
M106 S255
G1 X71.49 Y50.8 F600
M106 S0
M106 S255
G1 X68.741 Y52.388 F600
M106 S0
G0 X76.99 Y47.625 F6000
M106 S255
G1 X76.99 Y47.625 F600
M106 S0
M106 S255
G1 X74.24 Y49.213 F600
M106 S0
G0 X35.745 Y65.088 F6000
M106 S255
G1 X35.745 Y65.088 F600
M106 S0
M106 S255
G1 X32.996 Y66.675 F600
M106 S0
G0 X41.244 Y61.913 F6000
M106 S255
G1 X41.244 Y61.913 F600
M106 S0
M106 S255
G1 X38.495 Y63.5 F600
M106 S0
G0 X46.744 Y58.738 F6000
M106 S255
G1 X46.744 Y58.738 F600
M106 S0
M106 S255
G1 X43.994 Y60.325 F600
M106 S0
G0 X52.243 Y55.563 F6000
M106 S255
G1 X52.243 Y55.563 F600
M106 S0
M106 S255
G1 X49.493 Y57.15 F600
M106 S0
G0 X57.742 Y52.388 F6000
M106 S255
G1 X57.742 Y52.388 F600
M106 S0
M106 S255
G1 X54.993 Y53.975 F600
M106 S0
G0 X63.242 Y49.213 F6000
M106 S255
G1 X63.242 Y49.213 F600
M106 S0
M106 S255
G1 X60.492 Y50.8 F600
M106 S0
G0 X68.741 Y46.038 F6000
M106 S255
G1 X68.741 Y46.038 F600
M106 S0
M106 S255
G1 X65.991 Y47.625 F600
M106 S0
G0 X74.24 Y42.863 F6000
M106 S255
G1 X74.24 Y42.863 F600
M106 S0
M106 S255
G1 X71.49 Y44.45 F600
M106 S0
G0 X77.391 Y41.043 F6000
M106 S255
G1 X77.391 Y41.043 F600
M106 S0
M106 S255
G1 X76.99 Y41.275 F600
M106 S0
G0 X21.997 Y66.675 F6000
M106 S255
G1 X21.997 Y66.675 F600
M106 S0
M106 S255
G1 X20.024 Y67.814 F600
M106 S0
G0 X27.496 Y63.5 F6000
M106 S255
G1 X27.496 Y63.5 F600
M106 S0
M106 S255
G1 X24.747 Y65.088 F600
M106 S0
G0 X32.996 Y60.325 F6000
M106 S255
G1 X32.996 Y60.325 F600
M106 S0
M106 S255
G1 X30.246 Y61.913 F600
M106 S0
G0 X38.495 Y57.15 F6000
M106 S255
G1 X38.495 Y57.15 F600
M106 S0
M106 S255
G1 X35.745 Y58.738 F600
M106 S0
G0 X43.994 Y53.975 F6000
M106 S255
G1 X43.994 Y53.975 F600
M106 S0
M106 S255
G1 X41.244 Y55.563 F600
M106 S0
G0 X49.493 Y50.8 F6000
M106 S255
G1 X49.493 Y50.8 F600
M106 S0
M106 S255
G1 X46.744 Y52.388 F600
M106 S0
G0 X54.993 Y47.625 F6000
M106 S255
G1 X54.993 Y47.625 F600
M106 S0
M106 S255
G1 X52.243 Y49.213 F600
M106 S0
G0 X60.492 Y44.45 F6000
M106 S255
G1 X60.492 Y44.45 F600
M106 S0
M106 S255
G1 X57.742 Y46.038 F600
M106 S0
G0 X65.991 Y41.275 F6000
M106 S255
G1 X65.991 Y41.275 F600
M106 S0
M106 S255
G1 X63.242 Y42.863 F600
M106 S0
G0 X13.748 Y65.088 F6000
M106 S255
G1 X13.748 Y65.088 F600
M106 S0
M106 S255
G1 X11.547 Y66.358 F600
M106 S0
G0 X19.247 Y61.913 F6000
M106 S255
G1 X19.247 Y61.913 F600
M106 S0
M106 S255
G1 X16.498 Y63.5 F600
M106 S0
G0 X24.747 Y58.738 F6000
M106 S255
G1 X24.747 Y58.738 F600
M106 S0
M106 S255
G1 X21.997 Y60.325 F600
M106 S0
G0 X30.246 Y55.563 F6000
M106 S255
G1 X30.246 Y55.563 F600
M106 S0
M106 S255
G1 X27.496 Y57.15 F600
M106 S0
G0 X35.745 Y52.388 F6000
M106 S255
G1 X35.745 Y52.388 F600
M106 S0
M106 S255
G1 X32.996 Y53.975 F600
M106 S0
G0 X41.244 Y49.213 F6000
M106 S255
G1 X41.244 Y49.213 F600
M106 S0
M106 S255
G1 X38.495 Y50.8 F600
M106 S0
G0 X46.744 Y46.038 F6000
M106 S255
G1 X46.744 Y46.038 F600
M106 S0
M106 S255
G1 X43.994 Y47.625 F600
M106 S0
G0 X52.243 Y42.863 F6000
M106 S255
G1 X52.243 Y42.863 F600
M106 S0
M106 S255
G1 X49.493 Y44.45 F600
M106 S0
G0 X56.921 Y40.162 F6000
M106 S255
G1 X56.921 Y40.162 F600
M106 S0
M106 S255
G1 X54.993 Y41.275 F600
M106 S0
G0 X10.999 Y60.325 F6000
M106 S255
G1 X10.999 Y60.325 F600
M106 S0
M106 S255
G1 X10.074 Y60.859 F600
M106 S0
G0 X16.498 Y57.15 F6000
M106 S255
G1 X16.498 Y57.15 F600
M106 S0
M106 S255
G1 X13.748 Y58.738 F600
M106 S0
G0 X21.997 Y53.975 F6000
M106 S255
G1 X21.997 Y53.975 F600
M106 S0
M106 S255
G1 X19.247 Y55.563 F600
M106 S0
G0 X27.496 Y50.8 F6000
M106 S255
G1 X27.496 Y50.8 F600
M106 S0
M106 S255
G1 X24.747 Y52.388 F600
M106 S0
G0 X32.996 Y47.625 F6000
M106 S255
G1 X32.996 Y47.625 F600
M106 S0
M106 S255
G1 X30.246 Y49.213 F600
M106 S0
G0 X38.495 Y44.45 F6000
M106 S255
G1 X38.495 Y44.45 F600
M106 S0
M106 S255
G1 X35.745 Y46.038 F600
M106 S0
G0 X43.994 Y41.275 F6000
M106 S255
G1 X43.994 Y41.275 F600
M106 S0
M106 S255
G1 X41.244 Y42.863 F600
M106 S0
G0 X13.748 Y52.388 F6000
M106 S255
G1 X13.748 Y52.388 F600
M106 S0
M106 S255
G1 X10.999 Y53.975 F600
M106 S0
G0 X19.247 Y49.213 F6000
M106 S255
G1 X19.247 Y49.213 F600
M106 S0
M106 S255
G1 X16.498 Y50.8 F600
M106 S0
G0 X24.747 Y46.038 F6000
M106 S255
G1 X24.747 Y46.038 F600
M106 S0
M106 S255
G1 X21.997 Y47.625 F600
M106 S0
G0 X30.246 Y42.863 F6000
M106 S255
G1 X30.246 Y42.863 F600
M106 S0
M106 S255
G1 X27.496 Y44.45 F600
M106 S0
G0 X34.924 Y40.162 F6000
M106 S255
G1 X34.924 Y40.162 F600
M106 S0
M106 S255
G1 X32.996 Y41.275 F600
M106 S0
G0 X10.999 Y47.625 F6000
M106 S255
G1 X10.999 Y47.625 F600
M106 S0
M106 S255
G1 X10.074 Y48.159 F600
M106 S0
G0 X16.498 Y44.45 F6000
M106 S255
G1 X16.498 Y44.45 F600
M106 S0
M106 S255
G1 X13.748 Y46.038 F600
M106 S0
G0 X21.997 Y41.275 F6000
M106 S255
G1 X21.997 Y41.275 F600
M106 S0
M106 S255
G1 X19.247 Y42.863 F600
M106 S0
G0 X76.99 Y63.5 F6000
M106 S255
G1 X76.99 Y63.5 F600
M106 S0
M106 S255
G1 X76.99 Y66.675 F600
M106 S0
G0 X76.99 Y57.15 F6000
M106 S255
G1 X76.99 Y57.15 F600
M106 S0
M106 S255
G1 X76.99 Y60.325 F600
M106 S0
G0 X76.99 Y50.8 F6000
M106 S255
G1 X76.99 Y50.8 F600
M106 S0
M106 S255
G1 X76.99 Y53.975 F600
M106 S0
G0 X76.99 Y44.45 F6000
M106 S255
G1 X76.99 Y44.45 F600
M106 S0
M106 S255
G1 X76.99 Y47.625 F600
M106 S0
G0 X76.99 Y40.794 F6000
M106 S255
G1 X76.99 Y40.794 F600
M106 S0
M106 S255
G1 X76.99 Y41.275 F600
M106 S0
G0 X71.49 Y63.5 F6000
M106 S255
G1 X71.49 Y63.5 F600
M106 S0
M106 S255
G1 X71.49 Y66.675 F600
M106 S0
G0 X71.49 Y57.15 F6000
M106 S255
G1 X71.49 Y57.15 F600
M106 S0
M106 S255
G1 X71.49 Y60.325 F600
M106 S0
G0 X71.49 Y50.8 F6000
M106 S255
G1 X71.49 Y50.8 F600
M106 S0
M106 S255
G1 X71.49 Y53.975 F600
M106 S0
G0 X71.49 Y44.45 F6000
M106 S255
G1 X71.49 Y44.45 F600
M106 S0
M106 S255
G1 X71.49 Y47.625 F600
M106 S0
G0 X71.49 Y40.162 F6000
M106 S255
G1 X71.49 Y40.162 F600
M106 S0
M106 S255
G1 X71.49 Y41.275 F600
M106 S0
G0 X65.991 Y63.5 F6000
M106 S255
G1 X65.991 Y63.5 F600
M106 S0
M106 S255
G1 X65.991 Y66.675 F600
M106 S0
G0 X65.991 Y57.15 F6000
M106 S255
G1 X65.991 Y57.15 F600
M106 S0
M106 S255
G1 X65.991 Y60.325 F600
M106 S0
G0 X65.991 Y50.8 F6000
M106 S255
G1 X65.991 Y50.8 F600
M106 S0
M106 S255
G1 X65.991 Y53.975 F600
M106 S0
G0 X65.991 Y44.45 F6000
M106 S255
G1 X65.991 Y44.45 F600
M106 S0
M106 S255
G1 X65.991 Y47.625 F600
M106 S0
G0 X65.991 Y40.162 F6000
M106 S255
G1 X65.991 Y40.162 F600
M106 S0
M106 S255
G1 X65.991 Y41.275 F600
M106 S0
G0 X60.492 Y63.5 F6000
M106 S255
G1 X60.492 Y63.5 F600
M106 S0
M106 S255
G1 X60.492 Y66.675 F600
M106 S0
G0 X60.492 Y57.15 F6000
M106 S255
G1 X60.492 Y57.15 F600
M106 S0
M106 S255
G1 X60.492 Y60.325 F600
M106 S0
G0 X60.492 Y50.8 F6000
M106 S255
G1 X60.492 Y50.8 F600
M106 S0
M106 S255
G1 X60.492 Y53.975 F600
M106 S0
G0 X60.492 Y44.45 F6000
M106 S255
G1 X60.492 Y44.45 F600
M106 S0
M106 S255
G1 X60.492 Y47.625 F600
M106 S0
G0 X60.492 Y40.162 F6000
M106 S255
G1 X60.492 Y40.162 F600
M106 S0
M106 S255
G1 X60.492 Y41.275 F600
M106 S0
G0 X54.993 Y63.5 F6000
M106 S255
G1 X54.993 Y63.5 F600
M106 S0
M106 S255
G1 X54.993 Y66.675 F600
M106 S0
G0 X54.993 Y57.15 F6000
M106 S255
G1 X54.993 Y57.15 F600
M106 S0
M106 S255
G1 X54.993 Y60.325 F600
M106 S0
G0 X54.993 Y50.8 F6000
M106 S255
G1 X54.993 Y50.8 F600
M106 S0
M106 S255
G1 X54.993 Y53.975 F600
M106 S0
G0 X54.993 Y44.45 F6000
M106 S255
G1 X54.993 Y44.45 F600
M106 S0
M106 S255
G1 X54.993 Y47.625 F600
M106 S0
G0 X54.993 Y40.162 F6000
M106 S255
G1 X54.993 Y40.162 F600
M106 S0
M106 S255
G1 X54.993 Y41.275 F600
M106 S0
G0 X49.493 Y63.5 F6000
M106 S255
G1 X49.493 Y63.5 F600
M106 S0
M106 S255
G1 X49.493 Y66.675 F600
M106 S0
G0 X49.493 Y57.15 F6000
M106 S255
G1 X49.493 Y57.15 F600
M106 S0
M106 S255
G1 X49.493 Y60.325 F600
M106 S0
G0 X49.493 Y50.8 F6000
M106 S255
G1 X49.493 Y50.8 F600
M106 S0
M106 S255
G1 X49.493 Y53.975 F600
M106 S0
G0 X49.493 Y44.45 F6000
M106 S255
G1 X49.493 Y44.45 F600
M106 S0
M106 S255
G1 X49.493 Y47.625 F600
M106 S0
G0 X49.493 Y40.162 F6000
M106 S255
G1 X49.493 Y40.162 F600
M106 S0
M106 S255
G1 X49.493 Y41.275 F600
M106 S0
G0 X43.994 Y63.5 F6000
M106 S255
G1 X43.994 Y63.5 F600
M106 S0
M106 S255
G1 X43.994 Y66.675 F600
M106 S0
G0 X43.994 Y57.15 F6000
M106 S255
G1 X43.994 Y57.15 F600
M106 S0
M106 S255
G1 X43.994 Y60.325 F600
M106 S0
G0 X43.994 Y50.8 F6000
M106 S255
G1 X43.994 Y50.8 F600
M106 S0
M106 S255
G1 X43.994 Y53.975 F600
M106 S0
G0 X43.994 Y44.45 F6000
M106 S255
G1 X43.994 Y44.45 F600
M106 S0
M106 S255
G1 X43.994 Y47.625 F600
M106 S0
G0 X43.994 Y40.162 F6000
M106 S255
G1 X43.994 Y40.162 F600
M106 S0
M106 S255
G1 X43.994 Y41.275 F600
M106 S0
G0 X38.495 Y63.5 F6000
M106 S255
G1 X38.495 Y63.5 F600
M106 S0
M106 S255
G1 X38.495 Y66.675 F600
M106 S0
G0 X38.495 Y57.15 F6000
M106 S255
G1 X38.495 Y57.15 F600
M106 S0
M106 S255
G1 X38.495 Y60.325 F600
M106 S0
G0 X38.495 Y50.8 F6000
M106 S255
G1 X38.495 Y50.8 F600
M106 S0
M106 S255
G1 X38.495 Y53.975 F600
M106 S0
G0 X38.495 Y44.45 F6000
M106 S255
G1 X38.495 Y44.45 F600
M106 S0
M106 S255
G1 X38.495 Y47.625 F600
M106 S0
G0 X38.495 Y40.162 F6000
M106 S255
G1 X38.495 Y40.162 F600
M106 S0
M106 S255
G1 X38.495 Y41.275 F600
M106 S0
G0 X32.996 Y63.5 F6000
M106 S255
G1 X32.996 Y63.5 F600
M106 S0
M106 S255
G1 X32.996 Y66.675 F600
M106 S0
G0 X32.996 Y57.15 F6000
M106 S255
G1 X32.996 Y57.15 F600
M106 S0
M106 S255
G1 X32.996 Y60.325 F600
M106 S0
G0 X32.996 Y50.8 F6000
M106 S255
G1 X32.996 Y50.8 F600
M106 S0
M106 S255
G1 X32.996 Y53.975 F600
M106 S0
G0 X32.996 Y44.45 F6000
M106 S255
G1 X32.996 Y44.45 F600
M106 S0
M106 S255
G1 X32.996 Y47.625 F600
M106 S0
G0 X32.996 Y40.162 F6000
M106 S255
G1 X32.996 Y40.162 F600
M106 S0
M106 S255
G1 X32.996 Y41.275 F600
M106 S0
G0 X27.496 Y63.5 F6000
M106 S255
G1 X27.496 Y63.5 F600
M106 S0
M106 S255
G1 X27.496 Y66.675 F600
M106 S0
G0 X27.496 Y57.15 F6000
M106 S255
G1 X27.496 Y57.15 F600
M106 S0
M106 S255
G1 X27.496 Y60.325 F600
M106 S0
G0 X27.496 Y50.8 F6000
M106 S255
G1 X27.496 Y50.8 F600
M106 S0
M106 S255
G1 X27.496 Y53.975 F600
M106 S0
G0 X27.496 Y44.45 F6000
M106 S255
G1 X27.496 Y44.45 F600
M106 S0
M106 S255
G1 X27.496 Y47.625 F600
M106 S0
G0 X27.496 Y40.162 F6000
M106 S255
G1 X27.496 Y40.162 F600
M106 S0
M106 S255
G1 X27.496 Y41.275 F600
M106 S0
G0 X21.997 Y63.5 F6000
M106 S255
G1 X21.997 Y63.5 F600
M106 S0
M106 S255
G1 X21.997 Y66.675 F600
M106 S0
G0 X21.997 Y57.15 F6000
M106 S255
G1 X21.997 Y57.15 F600
M106 S0
M106 S255
G1 X21.997 Y60.325 F600
M106 S0
G0 X21.997 Y50.8 F6000
M106 S255
G1 X21.997 Y50.8 F600
M106 S0
M106 S255
G1 X21.997 Y53.975 F600
M106 S0
G0 X21.997 Y44.45 F6000
M106 S255
G1 X21.997 Y44.45 F600
M106 S0
M106 S255
G1 X21.997 Y47.625 F600
M106 S0
G0 X21.997 Y40.162 F6000
M106 S255
G1 X21.997 Y40.162 F600
M106 S0
M106 S255
G1 X21.997 Y41.275 F600
M106 S0
G0 X16.498 Y63.5 F6000
M106 S255
G1 X16.498 Y63.5 F600
M106 S0
M106 S255
G1 X16.498 Y66.675 F600
M106 S0
G0 X16.498 Y57.15 F6000
M106 S255
G1 X16.498 Y57.15 F600
M106 S0
M106 S255
G1 X16.498 Y60.325 F600
M106 S0
G0 X16.498 Y50.8 F6000
M106 S255
G1 X16.498 Y50.8 F600
M106 S0
M106 S255
G1 X16.498 Y53.975 F600
M106 S0
G0 X16.498 Y44.45 F6000
M106 S255
G1 X16.498 Y44.45 F600
M106 S0
M106 S255
G1 X16.498 Y47.625 F600
M106 S0
G0 X16.498 Y40.162 F6000
M106 S255
G1 X16.498 Y40.162 F600
M106 S0
M106 S255
G1 X16.498 Y41.275 F600
M106 S0
G0 X10.999 Y63.5 F6000
M106 S255
G1 X10.999 Y63.5 F600
M106 S0
M106 S255
G1 X10.999 Y65.711 F600
M106 S0
G0 X10.999 Y57.15 F6000
M106 S255
G1 X10.999 Y57.15 F600
M106 S0
M106 S255
G1 X10.999 Y60.325 F600
M106 S0
G0 X10.999 Y50.8 F6000
M106 S255
G1 X10.999 Y50.8 F600
M106 S0
M106 S255
G1 X10.999 Y53.975 F600
M106 S0
G0 X10.999 Y44.45 F6000
M106 S255
G1 X10.999 Y44.45 F600
M106 S0
M106 S255
G1 X10.999 Y47.625 F600
M106 S0
G0 X76.99 Y44.45 F6000
M106 S255
G1 X76.99 Y44.45 F600
M106 S0
M106 S255
G1 X79.555 Y45.931 F600
M106 S0
G0 X71.49 Y41.275 F6000
M106 S255
G1 X71.49 Y41.275 F600
M106 S0
M106 S255
G1 X74.24 Y42.862 F600
M106 S0
G0 X74.24 Y49.213 F6000
M106 S255
G1 X74.24 Y49.213 F600
M106 S0
M106 S255
G1 X76.99 Y50.8 F600
M106 S0
G0 X68.741 Y46.038 F6000
M106 S255
G1 X68.741 Y46.038 F600
M106 S0
M106 S255
G1 X71.49 Y47.625 F600
M106 S0
G0 X63.242 Y42.863 F6000
M106 S255
G1 X63.242 Y42.863 F600
M106 S0
M106 S255
G1 X65.991 Y44.45 F600
M106 S0
G0 X58.564 Y40.162 F6000
M106 S255
G1 X58.564 Y40.162 F600
M106 S0
M106 S255
G1 X60.492 Y41.275 F600
M106 S0
G0 X76.99 Y57.15 F6000
M106 S255
G1 X76.99 Y57.15 F600
M106 S0
M106 S255
G1 X79.555 Y58.631 F600
M106 S0
G0 X71.49 Y53.975 F6000
M106 S255
G1 X71.49 Y53.975 F600
M106 S0
M106 S255
G1 X74.24 Y55.563 F600
M106 S0
G0 X65.991 Y50.8 F6000
M106 S255
G1 X65.991 Y50.8 F600
M106 S0
M106 S255
G1 X68.741 Y52.388 F600
M106 S0
G0 X60.492 Y47.625 F6000
M106 S255
G1 X60.492 Y47.625 F600
M106 S0
M106 S255
G1 X63.242 Y49.213 F600
M106 S0
G0 X54.993 Y44.45 F6000
M106 S255
G1 X54.993 Y44.45 F600
M106 S0
M106 S255
G1 X57.742 Y46.038 F600
M106 S0
G0 X49.493 Y41.275 F6000
M106 S255
G1 X49.493 Y41.275 F600
M106 S0
M106 S255
G1 X52.243 Y42.863 F600
M106 S0
G0 X74.24 Y61.913 F6000
M106 S255
G1 X74.24 Y61.913 F600
M106 S0
M106 S255
G1 X76.99 Y63.5 F600
M106 S0
G0 X68.741 Y58.738 F6000
M106 S255
G1 X68.741 Y58.738 F600
M106 S0
M106 S255
G1 X71.49 Y60.325 F600
M106 S0
G0 X63.242 Y55.563 F6000
M106 S255
G1 X63.242 Y55.563 F600
M106 S0
M106 S255
G1 X65.991 Y57.15 F600
M106 S0
G0 X57.742 Y52.388 F6000
M106 S255
G1 X57.742 Y52.388 F600
M106 S0
M106 S255
G1 X60.492 Y53.975 F600
M106 S0
G0 X52.243 Y49.213 F6000
M106 S255
G1 X52.243 Y49.213 F600
M106 S0
M106 S255
G1 X54.993 Y50.8 F600
M106 S0
G0 X46.744 Y46.038 F6000
M106 S255
G1 X46.744 Y46.038 F600
M106 S0
M106 S255
G1 X49.493 Y47.625 F600
M106 S0
G0 X41.244 Y42.863 F6000
M106 S255
G1 X41.244 Y42.863 F600
M106 S0
M106 S255
G1 X43.994 Y44.45 F600
M106 S0
G0 X36.567 Y40.162 F6000
M106 S255
G1 X36.567 Y40.162 F600
M106 S0
M106 S255
G1 X38.495 Y41.275 F600
M106 S0
G0 X71.49 Y66.675 F6000
M106 S255
G1 X71.49 Y66.675 F600
M106 S0
M106 S255
G1 X73.463 Y67.814 F600
M106 S0
G0 X65.991 Y63.5 F6000
M106 S255
G1 X65.991 Y63.5 F600
M106 S0
M106 S255
G1 X68.741 Y65.088 F600
M106 S0
G0 X60.492 Y60.325 F6000
M106 S255
G1 X60.492 Y60.325 F600
M106 S0
M106 S255
G1 X63.242 Y61.913 F600
M106 S0
G0 X54.993 Y57.15 F6000
M106 S255
G1 X54.993 Y57.15 F600
M106 S0
M106 S255
G1 X57.742 Y58.738 F600
M106 S0
G0 X49.493 Y53.975 F6000
M106 S255
G1 X49.493 Y53.975 F600
M106 S0
M106 S255
G1 X52.243 Y55.563 F600
M106 S0
G0 X43.994 Y50.8 F6000
M106 S255
G1 X43.994 Y50.8 F600
M106 S0
M106 S255
G1 X46.744 Y52.388 F600
M106 S0
G0 X38.495 Y47.625 F6000
M106 S255
G1 X38.495 Y47.625 F600
M106 S0
M106 S255
G1 X41.244 Y49.213 F600
M106 S0
G0 X32.996 Y44.45 F6000
M106 S255
G1 X32.996 Y44.45 F600
M106 S0
M106 S255
G1 X35.745 Y46.038 F600
M106 S0
G0 X27.496 Y41.275 F6000
M106 S255
G1 X27.496 Y41.275 F600
M106 S0
M106 S255
G1 X30.246 Y42.863 F600
M106 S0
G0 X57.742 Y65.088 F6000
M106 S255
G1 X57.742 Y65.088 F600
M106 S0
M106 S255
G1 X60.492 Y66.675 F600
M106 S0
G0 X52.243 Y61.913 F6000
M106 S255
G1 X52.243 Y61.913 F600
M106 S0
M106 S255
G1 X54.993 Y63.5 F600
M106 S0
G0 X46.744 Y58.738 F6000
M106 S255
G1 X46.744 Y58.738 F600
M106 S0
M106 S255
G1 X49.493 Y60.325 F600
M106 S0
G0 X41.244 Y55.563 F6000
M106 S255
G1 X41.244 Y55.563 F600
M106 S0
M106 S255
G1 X43.994 Y57.15 F600
M106 S0
G0 X35.745 Y52.388 F6000
M106 S255
G1 X35.745 Y52.388 F600
M106 S0
M106 S255
G1 X38.495 Y53.975 F600
M106 S0
G0 X30.246 Y49.213 F6000
M106 S255
G1 X30.246 Y49.213 F600
M106 S0
M106 S255
G1 X32.996 Y50.8 F600
M106 S0
G0 X24.747 Y46.038 F6000
M106 S255
G1 X24.747 Y46.038 F600
M106 S0
M106 S255
G1 X27.496 Y47.625 F600
M106 S0
G0 X19.247 Y42.863 F6000
M106 S255
G1 X19.247 Y42.863 F600
M106 S0
M106 S255
G1 X21.997 Y44.45 F600
M106 S0
G0 X14.607 Y40.184 F6000
M106 S255
G1 X14.607 Y40.184 F600
M106 S0
M106 S255
G1 X16.498 Y41.275 F600
M106 S0
G0 X49.493 Y66.675 F6000
M106 S255
G1 X49.493 Y66.675 F600
M106 S0
M106 S255
G1 X51.466 Y67.814 F600
M106 S0
G0 X43.994 Y63.5 F6000
M106 S255
G1 X43.994 Y63.5 F600
M106 S0
M106 S255
G1 X46.744 Y65.088 F600
M106 S0
G0 X38.495 Y60.325 F6000
M106 S255
G1 X38.495 Y60.325 F600
M106 S0
M106 S255
G1 X41.244 Y61.913 F600
M106 S0
G0 X32.996 Y57.15 F6000
M106 S255
G1 X32.996 Y57.15 F600
M106 S0
M106 S255
G1 X35.745 Y58.738 F600
M106 S0
G0 X27.496 Y53.975 F6000
M106 S255
G1 X27.496 Y53.975 F600
M106 S0
M106 S255
G1 X30.246 Y55.563 F600
M106 S0
G0 X21.997 Y50.8 F6000
M106 S255
G1 X21.997 Y50.8 F600
M106 S0
M106 S255
G1 X24.747 Y52.388 F600
M106 S0
G0 X16.498 Y47.625 F6000
M106 S255
G1 X16.498 Y47.625 F600
M106 S0
M106 S255
G1 X19.247 Y49.213 F600
M106 S0
G0 X10.999 Y44.45 F6000
M106 S255
G1 X10.999 Y44.45 F600
M106 S0
M106 S255
G1 X13.748 Y46.038 F600
M106 S0
G0 X35.745 Y65.088 F6000
M106 S255
G1 X35.745 Y65.088 F600
M106 S0
M106 S255
G1 X38.495 Y66.675 F600
M106 S0
G0 X30.246 Y61.913 F6000
M106 S255
G1 X30.246 Y61.913 F600
M106 S0
M106 S255
G1 X32.996 Y63.5 F600
M106 S0
G0 X24.747 Y58.738 F6000
M106 S255
G1 X24.747 Y58.738 F600
M106 S0
M106 S255
G1 X27.496 Y60.325 F600
M106 S0
G0 X19.247 Y55.563 F6000
M106 S255
G1 X19.247 Y55.563 F600
M106 S0
M106 S255
G1 X21.997 Y57.15 F600
M106 S0
G0 X13.748 Y52.388 F6000
M106 S255
G1 X13.748 Y52.388 F600
M106 S0
M106 S255
G1 X16.498 Y53.975 F600
M106 S0
G0 X10.074 Y50.266 F6000
M106 S255
G1 X10.074 Y50.266 F600
M106 S0
M106 S255
G1 X10.999 Y50.8 F600
M106 S0
G0 X27.496 Y66.675 F6000
M106 S255
G1 X27.496 Y66.675 F600
M106 S0
M106 S255
G1 X29.469 Y67.814 F600
M106 S0
G0 X21.997 Y63.5 F6000
M106 S255
G1 X21.997 Y63.5 F600
M106 S0
M106 S255
G1 X24.747 Y65.088 F600
M106 S0
G0 X16.498 Y60.325 F6000
M106 S255
G1 X16.498 Y60.325 F600
M106 S0
M106 S255
G1 X19.247 Y61.913 F600
M106 S0
G0 X10.999 Y57.15 F6000
M106 S255
G1 X10.999 Y57.15 F600
M106 S0
M106 S255
G1 X13.748 Y58.738 F600
M106 S0
G0 X13.748 Y65.088 F6000
M106 S255
G1 X13.748 Y65.088 F600
M106 S0
M106 S255
G1 X16.498 Y66.675 F600
M106 S0
G0 X10.076 Y62.968 F6000
M106 S255
G1 X10.076 Y62.968 F600
M106 S0
M106 S255
G1 X10.999 Y63.5 F600
M106 S0
M106 S0
