;GCode generated by Numa's program v0.0
G0 X0.0 Y0.0 F6000
M106 S255
G1 X0.0 Y0.0 F800
M106 S0
M106 S255
G1 X0.0 Y80.0 F800
M106 S0
M106 S255
G1 X120.0 Y80.0 F800
M106 S0
M106 S255
G1 X120.0 Y0.0 F800
M106 S0
M106 S255
G1 X-0.0 Y0.0 F800
M106 S0
G0 X17.169 Y36.815 F6000
M106 S255
G1 X17.169 Y36.815 F800
M106 S0
M106 S255
G1 X27.022 Y71.276 F800
M106 S0
M106 S255
G1 X33.244 Y8.313 F800
M106 S0
M106 S255
G1 X46.467 Y76.199 F800
M106 S0
M106 S255
G1 X67.987 Y76.199 F800
M106 S0
M106 S255
G1 X67.987 Y64.539 F800
M106 S0
G0 X63.32 Y69.721 F6000
M106 S255
G1 X63.32 Y69.721 F800
M106 S0
M106 S255
G1 X63.32 Y56.507 F800
M106 S0
M106 S255
G1 X79.394 Y56.507 F800
M106 S0
M106 S255
G1 X79.394 Y68.685 F800
M106 S0
M106 S255
G1 X109.988 Y68.685 F800
M106 S0
G0 X87.691 Y58.58 F6000
M106 S255
G1 X87.691 Y58.58 F800
M106 S0
M106 S255
G1 X87.691 Y10.386 F800
M106 S0
M106 S255
G1 X55.801 Y10.386 F800
M106 S0
M106 S255
G1 X55.801 Y26.709 F800
M106 S0
M106 S255
G1 X76.802 Y26.709 F800
M106 S0
M106 S255
G1 X76.802 Y16.863 F800
M106 S0
M106 S255
G1 X61.764 Y16.863 F800
M106 S0
M106 S255
G1 X61.764 Y21.786 F800
M106 S0
M106 S255
G1 X70.839 Y21.786 F800
M106 S0
G0 X55.542 Y46.661 F6000
M106 S255
G1 X55.542 Y46.661 F800
M106 S0
M106 S255
G1 X63.838 Y46.661 F800
M106 S0
G0 X55.542 Y39.924 F6000
M106 S255
G1 X55.542 Y39.924 F800
M106 S0
M106 S255
G1 X70.32 Y39.924 F800
M106 S0
G0 X55.801 Y32.41 F6000
M106 S255
G1 X55.801 Y32.41 F800
M106 S0
M106 S255
G1 X80.95 Y32.41 F800
M106 S0
M106 S0
