;GCode generated by Numa's program v0.0
G0 X32.168 Y118.84 F6000
M106 S255
G1 X32.168 Y118.84 F450
M106 S0
M106 S255
G1 X32.168 Y119.551 F450
M106 S0
M106 S255
G1 X32.612 Y119.551 F450
M106 S0
M106 S255
G1 X32.612 Y118.84 F450
M106 S0
M106 S255
G1 X32.537 Y118.032 F450
M106 S0
M106 S255
G1 X32.261 Y118.032 F450
M106 S0
M106 S255
G1 X32.168 Y118.84 F450
M106 S0
G0 X51.402 Y118.84 F6000
M106 S255
G1 X51.402 Y118.84 F450
M106 S0
M106 S255
G1 X51.402 Y119.551 F450
M106 S0
M106 S255
G1 X51.846 Y119.551 F450
M106 S0
M106 S255
G1 X51.846 Y118.84 F450
M106 S0
M106 S255
G1 X51.771 Y118.032 F450
M106 S0
M106 S255
G1 X51.495 Y118.032 F450
M106 S0
M106 S255
G1 X51.402 Y118.84 F450
M106 S0
G0 X79.219 Y111.464 F6000
M106 S255
G1 X79.219 Y111.464 F450
M106 S0
M106 S255
G1 X79.219 Y112.176 F450
M106 S0
M106 S255
G1 X79.663 Y112.176 F450
M106 S0
M106 S255
G1 X79.663 Y111.464 F450
M106 S0
M106 S255
G1 X79.588 Y110.657 F450
M106 S0
M106 S255
G1 X79.312 Y110.657 F450
M106 S0
M106 S255
G1 X79.219 Y111.464 F450
M106 S0
G0 X5.99 Y104.089 F6000
M106 S255
G1 X5.99 Y104.089 F450
M106 S0
M106 S255
G1 X5.99 Y104.8 F450
M106 S0
M106 S255
G1 X6.434 Y104.8 F450
M106 S0
M106 S255
G1 X6.434 Y104.089 F450
M106 S0
M106 S255
G1 X6.359 Y103.282 F450
M106 S0
M106 S255
G1 X6.083 Y103.282 F450
M106 S0
M106 S255
G1 X5.99 Y104.089 F450
M106 S0
G0 X44.514 Y104.089 F6000
M106 S255
G1 X44.514 Y104.089 F450
M106 S0
M106 S255
G1 X44.514 Y104.8 F450
M106 S0
M106 S255
G1 X44.959 Y104.8 F450
M106 S0
M106 S255
G1 X44.959 Y104.089 F450
M106 S0
M106 S255
G1 X44.884 Y103.282 F450
M106 S0
M106 S255
G1 X44.607 Y103.282 F450
M106 S0
M106 S255
G1 X44.514 Y104.089 F450
M106 S0
G0 X26.151 Y30.335 F6000
M106 S255
G1 X26.151 Y30.335 F450
M106 S0
M106 S255
G1 X26.151 Y31.046 F450
M106 S0
M106 S255
G1 X26.595 Y31.046 F450
M106 S0
M106 S255
G1 X26.595 Y30.335 F450
M106 S0
M106 S255
G1 X26.52 Y29.528 F450
M106 S0
M106 S255
G1 X26.244 Y29.528 F450
M106 S0
M106 S255
G1 X26.151 Y30.335 F450
M106 S0
G0 X36.369 Y5.589 F6000
M106 S255
G1 X36.369 Y5.589 F450
M106 S0
M106 S255
G1 X36.382 Y5.574 F450
M106 S0
M106 S255
G1 X36.404 Y5.548 F450
M106 S0
M106 S255
G1 X36.404 Y5.527 F450
M106 S0
M106 S255
G1 X36.233 Y5.401 F450
M106 S0
M106 S255
G1 X36.078 Y5.297 F450
M106 S0
M106 S255
G1 X35.939 Y5.216 F450
M106 S0
M106 S255
G1 X35.813 Y5.159 F450
M106 S0
M106 S255
G1 X35.702 Y5.126 F450
M106 S0
M106 S255
G1 X35.605 Y5.118 F450
M106 S0
M106 S255
G1 X35.533 Y5.13 F450
M106 S0
M106 S255
G1 X35.474 Y5.16 F450
M106 S0
M106 S255
G1 X35.428 Y5.208 F450
M106 S0
M106 S255
G1 X35.397 Y5.27 F450
M106 S0
M106 S255
G1 X35.38 Y5.345 F450
M106 S0
M106 S255
G1 X35.378 Y5.456 F450
M106 S0
M106 S255
G1 X35.42 Y5.664 F450
M106 S0
M106 S255
G1 X35.516 Y5.92 F450
M106 S0
M106 S255
G1 X35.665 Y6.224 F450
M106 S0
M106 S255
G1 X35.872 Y6.559 F450
M106 S0
M106 S255
G1 X36.138 Y6.919 F450
M106 S0
M106 S255
G1 X36.463 Y7.303 F450
M106 S0
M106 S255
G1 X36.839 Y7.684 F450
M106 S0
M106 S255
G1 X37.266 Y8.057 F450
M106 S0
M106 S255
G1 X37.399 Y8.272 F450
M106 S0
M106 S255
G1 X37.137 Y8.297 F450
M106 S0
M106 S255
G1 X36.873 Y8.309 F450
M106 S0
M106 S255
G1 X36.633 Y8.309 F450
M106 S0
M106 S255
G1 X36.441 Y8.299 F450
M106 S0
M106 S255
G1 X36.281 Y8.278 F450
M106 S0
M106 S255
G1 X36.148 Y8.247 F450
M106 S0
M106 S255
G1 X36.022 Y8.207 F450
M106 S0
M106 S255
G1 X35.898 Y8.16 F450
M106 S0
M106 S255
G1 X35.826 Y8.127 F450
M106 S0
M106 S255
G1 X35.779 Y8.103 F450
M106 S0
M106 S255
G1 X35.73 Y8.072 F450
M106 S0
M106 S255
G1 X35.682 Y8.041 F450
M106 S0
M106 S255
G1 X35.647 Y8.02 F450
M106 S0
M106 S255
G1 X35.628 Y8.011 F450
M106 S0
M106 S255
G1 X35.611 Y8.013 F450
M106 S0
M106 S255
G1 X35.59 Y8.022 F450
M106 S0
M106 S255
G1 X35.566 Y8.038 F450
M106 S0
M106 S255
G1 X35.543 Y8.06 F450
M106 S0
M106 S255
G1 X35.529 Y8.085 F450
M106 S0
M106 S255
G1 X35.523 Y8.112 F450
M106 S0
M106 S255
G1 X35.534 Y8.162 F450
M106 S0
M106 S255
G1 X35.575 Y8.238 F450
M106 S0
M106 S255
G1 X35.645 Y8.34 F450
M106 S0
M106 S255
G1 X35.726 Y8.451 F450
M106 S0
M106 S255
G1 X35.793 Y8.55 F450
M106 S0
M106 S255
G1 X35.846 Y8.636 F450
M106 S0
M106 S255
G1 X35.905 Y8.727 F450
M106 S0
M106 S255
G1 X35.967 Y8.799 F450
M106 S0
M106 S255
G1 X36.029 Y8.849 F450
M106 S0
M106 S255
G1 X36.114 Y8.875 F450
M106 S0
M106 S255
G1 X36.264 Y8.902 F450
M106 S0
M106 S255
G1 X36.479 Y8.928 F450
M106 S0
M106 S255
G1 X36.743 Y8.95 F450
M106 S0
M106 S255
G1 X37.046 Y8.962 F450
M106 S0
M106 S255
G1 X37.344 Y8.965 F450
M106 S0
M106 S255
G1 X37.406 Y8.964 F450
M106 S0
M106 S255
G1 X37.477 Y8.963 F450
M106 S0
M106 S255
G1 X37.555 Y8.96 F450
M106 S0
M106 S255
G1 X37.638 Y8.956 F450
M106 S0
M106 S255
G1 X37.726 Y8.95 F450
M106 S0
M106 S255
G1 X37.817 Y8.944 F450
M106 S0
M106 S255
G1 X37.897 Y8.938 F450
M106 S0
M106 S255
G1 X37.96 Y8.934 F450
M106 S0
M106 S255
G1 X38.006 Y8.905 F450
M106 S0
M106 S255
G1 X38.041 Y8.816 F450
M106 S0
M106 S255
G1 X38.07 Y8.723 F450
M106 S0
M106 S255
G1 X38.092 Y8.626 F450
M106 S0
M106 S255
G1 X38.107 Y8.539 F450
M106 S0
M106 S255
G1 X38.115 Y8.465 F450
M106 S0
M106 S255
G1 X38.116 Y8.405 F450
M106 S0
M106 S255
G1 X38.11 Y8.358 F450
M106 S0
M106 S255
G1 X38.099 Y8.319 F450
M106 S0
M106 S255
G1 X38.081 Y8.287 F450
M106 S0
M106 S255
G1 X38.053 Y8.253 F450
M106 S0
M106 S255
G1 X38.014 Y8.215 F450
M106 S0
M106 S255
G1 X37.941 Y8.15 F450
M106 S0
M106 S255
G1 X37.841 Y8.06 F450
M106 S0
M106 S255
G1 X37.739 Y7.966 F450
M106 S0
M106 S255
G1 X37.632 Y7.865 F450
M106 S0
M106 S255
G1 X37.515 Y7.748 F450
M106 S0
M106 S255
G1 X37.386 Y7.614 F450
M106 S0
M106 S255
G1 X37.249 Y7.464 F450
M106 S0
M106 S255
G1 X37.114 Y7.309 F450
M106 S0
M106 S255
G1 X36.984 Y7.147 F450
M106 S0
M106 S255
G1 X36.856 Y6.978 F450
M106 S0
M106 S255
G1 X36.729 Y6.798 F450
M106 S0
M106 S255
G1 X36.602 Y6.607 F450
M106 S0
M106 S255
G1 X36.482 Y6.412 F450
M106 S0
M106 S255
G1 X36.381 Y6.23 F450
M106 S0
M106 S255
G1 X36.299 Y6.06 F450
M106 S0
M106 S255
G1 X36.238 Y5.903 F450
M106 S0
M106 S255
G1 X36.201 Y5.766 F450
M106 S0
M106 S255
G1 X36.187 Y5.646 F450
M106 S0
M106 S255
G1 X36.191 Y5.592 F450
M106 S0
M106 S255
G1 X36.209 Y5.563 F450
M106 S0
M106 S255
G1 X36.238 Y5.553 F450
M106 S0
M106 S255
G1 X36.279 Y5.557 F450
M106 S0
M106 S255
G1 X36.322 Y5.569 F450
M106 S0
M106 S255
G1 X36.369 Y5.589 F450
M106 S0
G0 X33.798 Y6.645 F6000
M106 S255
G1 X33.798 Y6.645 F450
M106 S0
M106 S255
G1 X33.97 Y6.985 F450
M106 S0
M106 S255
G1 X34.149 Y7.288 F450
M106 S0
M106 S255
G1 X34.333 Y7.556 F450
M106 S0
M106 S255
G1 X34.518 Y7.8 F450
M106 S0
M106 S255
G1 X34.701 Y8.028 F450
M106 S0
M106 S255
G1 X34.878 Y8.235 F450
M106 S0
M106 S255
G1 X35.001 Y8.386 F450
M106 S0
M106 S255
G1 X35.059 Y8.474 F450
M106 S0
M106 S255
G1 X35.063 Y8.502 F450
M106 S0
M106 S255
G1 X35.058 Y8.517 F450
M106 S0
M106 S255
G1 X35.047 Y8.529 F450
M106 S0
M106 S255
G1 X35.033 Y8.538 F450
M106 S0
M106 S255
G1 X35.015 Y8.543 F450
M106 S0
M106 S255
G1 X34.995 Y8.545 F450
M106 S0
M106 S255
G1 X34.905 Y8.51 F450
M106 S0
M106 S255
G1 X34.719 Y8.407 F450
M106 S0
M106 S255
G1 X34.438 Y8.234 F450
M106 S0
M106 S255
G1 X34.137 Y8.035 F450
M106 S0
M106 S255
G1 X33.871 Y7.846 F450
M106 S0
M106 S255
G1 X33.639 Y7.666 F450
M106 S0
M106 S255
G1 X33.427 Y7.477 F450
M106 S0
M106 S255
G1 X33.233 Y7.278 F450
M106 S0
M106 S255
G1 X33.056 Y7.066 F450
M106 S0
M106 S255
G1 X32.901 Y6.842 F450
M106 S0
M106 S255
G1 X32.768 Y6.604 F450
M106 S0
M106 S255
G1 X33.068 Y6.577 F450
M106 S0
M106 S255
G1 X33.447 Y6.609 F450
M106 S0
M106 S255
G1 X33.798 Y6.645 F450
M106 S0
G0 X34.755 Y6.222 F6000
M106 S255
G1 X34.755 Y6.222 F450
M106 S0
M106 S255
G1 X34.585 Y6.186 F450
M106 S0
M106 S255
G1 X34.274 Y6.12 F450
M106 S0
M106 S255
G1 X34.118 Y6.078 F450
M106 S0
M106 S255
G1 X34.066 Y5.913 F450
M106 S0
M106 S255
G1 X34.028 Y5.737 F450
M106 S0
M106 S255
G1 X34.011 Y5.565 F450
M106 S0
M106 S255
G1 X34.055 Y5.513 F450
M106 S0
M106 S255
G1 X34.079 Y5.461 F450
M106 S0
M106 S255
G1 X34.085 Y5.409 F450
M106 S0
M106 S255
G1 X34.051 Y5.35 F450
M106 S0
M106 S255
G1 X33.967 Y5.274 F450
M106 S0
M106 S255
G1 X33.837 Y5.182 F450
M106 S0
M106 S255
G1 X33.716 Y5.109 F450
M106 S0
M106 S255
G1 X33.628 Y5.069 F450
M106 S0
M106 S255
G1 X33.56 Y5.063 F450
M106 S0
M106 S255
G1 X33.49 Y5.103 F450
M106 S0
M106 S255
G1 X33.453 Y5.193 F450
M106 S0
M106 S255
G1 X33.448 Y5.367 F450
M106 S0
M106 S255
G1 X33.466 Y5.612 F450
M106 S0
M106 S255
G1 X33.507 Y5.852 F450
M106 S0
M106 S255
G1 X33.502 Y5.988 F450
M106 S0
M106 S255
G1 X33.4 Y5.982 F450
M106 S0
M106 S255
G1 X33.277 Y5.972 F450
M106 S0
M106 S255
G1 X33.141 Y5.957 F450
M106 S0
M106 S255
G1 X33.028 Y5.946 F450
M106 S0
M106 S255
G1 X32.946 Y5.941 F450
M106 S0
M106 S255
G1 X32.853 Y5.941 F450
M106 S0
M106 S255
G1 X32.748 Y5.948 F450
M106 S0
M106 S255
G1 X32.661 Y5.963 F450
M106 S0
M106 S255
G1 X32.591 Y5.985 F450
M106 S0
M106 S255
G1 X32.533 Y6.018 F450
M106 S0
M106 S255
G1 X32.487 Y6.063 F450
M106 S0
M106 S255
G1 X32.451 Y6.126 F450
M106 S0
M106 S255
G1 X32.418 Y6.206 F450
M106 S0
M106 S255
G1 X32.386 Y6.304 F450
M106 S0
M106 S255
G1 X32.359 Y6.408 F450
M106 S0
M106 S255
G1 X32.341 Y6.495 F450
M106 S0
M106 S255
G1 X32.333 Y6.562 F450
M106 S0
M106 S255
G1 X32.339 Y6.617 F450
M106 S0
M106 S255
G1 X32.364 Y6.695 F450
M106 S0
M106 S255
G1 X32.409 Y6.798 F450
M106 S0
M106 S255
G1 X32.473 Y6.923 F450
M106 S0
M106 S255
G1 X32.557 Y7.062 F450
M106 S0
M106 S255
G1 X32.66 Y7.214 F450
M106 S0
M106 S255
G1 X32.78 Y7.372 F450
M106 S0
M106 S255
G1 X32.912 Y7.523 F450
M106 S0
M106 S255
G1 X33.055 Y7.667 F450
M106 S0
M106 S255
G1 X33.224 Y7.819 F450
M106 S0
M106 S255
G1 X33.417 Y7.973 F450
M106 S0
M106 S255
G1 X33.632 Y8.128 F450
M106 S0
M106 S255
G1 X33.854 Y8.277 F450
M106 S0
M106 S255
G1 X34.071 Y8.413 F450
M106 S0
M106 S255
G1 X34.282 Y8.536 F450
M106 S0
M106 S255
G1 X34.481 Y8.645 F450
M106 S0
M106 S255
G1 X34.666 Y8.74 F450
M106 S0
M106 S255
G1 X34.836 Y8.82 F450
M106 S0
M106 S255
G1 X34.972 Y8.879 F450
M106 S0
M106 S255
G1 X35.062 Y8.912 F450
M106 S0
M106 S255
G1 X35.121 Y8.919 F450
M106 S0
M106 S255
G1 X35.196 Y8.892 F450
M106 S0
M106 S255
G1 X35.238 Y8.827 F450
M106 S0
M106 S255
G1 X35.247 Y8.748 F450
M106 S0
M106 S255
G1 X35.236 Y8.708 F450
M106 S0
M106 S255
G1 X35.211 Y8.642 F450
M106 S0
M106 S255
G1 X35.208 Y8.564 F450
M106 S0
M106 S255
G1 X35.254 Y8.506 F450
M106 S0
M106 S255
G1 X35.279 Y8.452 F450
M106 S0
M106 S255
G1 X35.283 Y8.395 F450
M106 S0
M106 S255
G1 X35.277 Y8.329 F450
M106 S0
M106 S255
G1 X35.265 Y8.268 F450
M106 S0
M106 S255
G1 X35.247 Y8.21 F450
M106 S0
M106 S255
G1 X35.225 Y8.155 F450
M106 S0
M106 S255
G1 X35.197 Y8.103 F450
M106 S0
M106 S255
G1 X35.166 Y8.052 F450
M106 S0
M106 S255
G1 X35.131 Y7.997 F450
M106 S0
M106 S255
G1 X35.093 Y7.938 F450
M106 S0
M106 S255
G1 X35.028 Y7.836 F450
M106 S0
M106 S255
G1 X34.956 Y7.723 F450
M106 S0
M106 S255
G1 X34.899 Y7.635 F450
M106 S0
M106 S255
G1 X34.852 Y7.562 F450
M106 S0
M106 S255
G1 X34.797 Y7.476 F450
M106 S0
M106 S255
G1 X34.731 Y7.373 F450
M106 S0
M106 S255
G1 X34.659 Y7.26 F450
M106 S0
M106 S255
G1 X34.595 Y7.157 F450
M106 S0
M106 S255
G1 X34.54 Y7.065 F450
M106 S0
M106 S255
G1 X34.491 Y6.977 F450
M106 S0
M106 S255
G1 X34.441 Y6.878 F450
M106 S0
M106 S255
G1 X34.389 Y6.766 F450
M106 S0
M106 S255
G1 X34.611 Y6.783 F450
M106 S0
M106 S255
G1 X34.803 Y6.814 F450
M106 S0
M106 S255
G1 X34.897 Y6.825 F450
M106 S0
M106 S255
G1 X34.971 Y6.816 F450
M106 S0
M106 S255
G1 X35.019 Y6.782 F450
M106 S0
M106 S255
G1 X35.037 Y6.725 F450
M106 S0
M106 S255
G1 X35.008 Y6.609 F450
M106 S0
M106 S255
G1 X34.914 Y6.441 F450
M106 S0
M106 S255
G1 X34.755 Y6.222 F450
M106 S0
G0 X31.238 Y7.429 F6000
M106 S255
G1 X31.238 Y7.429 F450
M106 S0
M106 S255
G1 X31.364 Y7.541 F450
M106 S0
M106 S255
G1 X31.506 Y7.665 F450
M106 S0
M106 S255
G1 X31.664 Y7.802 F450
M106 S0
M106 S255
G1 X31.817 Y7.935 F450
M106 S0
M106 S255
G1 X31.959 Y8.058 F450
M106 S0
M106 S255
G1 X32.088 Y8.17 F450
M106 S0
M106 S255
G1 X32.191 Y8.262 F450
M106 S0
M106 S255
G1 X32.266 Y8.334 F450
M106 S0
M106 S255
G1 X32.315 Y8.386 F450
M106 S0
M106 S255
G1 X32.346 Y8.423 F450
M106 S0
M106 S255
G1 X32.357 Y8.447 F450
M106 S0
M106 S255
G1 X32.316 Y8.494 F450
M106 S0
M106 S255
G1 X32.173 Y8.524 F450
M106 S0
M106 S255
G1 X31.918 Y8.533 F450
M106 S0
M106 S255
G1 X31.594 Y8.51 F450
M106 S0
M106 S255
G1 X31.335 Y8.451 F450
M106 S0
M106 S255
G1 X31.141 Y8.356 F450
M106 S0
M106 S255
G1 X31.013 Y8.231 F450
M106 S0
M106 S255
G1 X30.95 Y8.077 F450
M106 S0
M106 S255
G1 X30.947 Y7.954 F450
M106 S0
M106 S255
G1 X30.968 Y7.865 F450
M106 S0
M106 S255
G1 X31.01 Y7.764 F450
M106 S0
M106 S255
G1 X31.07 Y7.656 F450
M106 S0
M106 S255
G1 X31.146 Y7.544 F450
M106 S0
M106 S255
G1 X31.238 Y7.429 F450
M106 S0
G0 X31.079 Y6.831 F6000
M106 S255
G1 X31.079 Y6.831 F450
M106 S0
M106 S255
G1 X30.81 Y6.538 F450
M106 S0
M106 S255
G1 X30.588 Y6.277 F450
M106 S0
M106 S255
G1 X30.414 Y6.049 F450
M106 S0
M106 S255
G1 X30.296 Y5.871 F450
M106 S0
M106 S255
G1 X30.237 Y5.751 F450
M106 S0
M106 S255
G1 X30.241 Y5.647 F450
M106 S0
M106 S255
G1 X30.33 Y5.557 F450
M106 S0
M106 S255
G1 X30.51 Y5.518 F450
M106 S0
M106 S255
G1 X30.628 Y5.521 F450
M106 S0
M106 S255
G1 X30.712 Y5.538 F450
M106 S0
M106 S255
G1 X30.8 Y5.569 F450
M106 S0
M106 S255
G1 X30.886 Y5.613 F450
M106 S0
M106 S255
G1 X30.966 Y5.667 F450
M106 S0
M106 S255
G1 X31.039 Y5.732 F450
M106 S0
M106 S255
G1 X31.105 Y5.81 F450
M106 S0
M106 S255
G1 X31.161 Y5.9 F450
M106 S0
M106 S255
G1 X31.206 Y6.003 F450
M106 S0
M106 S255
G1 X31.236 Y6.115 F450
M106 S0
M106 S255
G1 X31.249 Y6.233 F450
M106 S0
M106 S255
G1 X31.237 Y6.436 F450
M106 S0
M106 S255
G1 X31.18 Y6.645 F450
M106 S0
M106 S255
G1 X31.079 Y6.831 F450
M106 S0
G0 X31.418 Y7.17 F6000
M106 S255
G1 X31.418 Y7.17 F450
M106 S0
M106 S255
G1 X31.505 Y7.006 F450
M106 S0
M106 S255
G1 X31.578 Y6.858 F450
M106 S0
M106 S255
G1 X31.638 Y6.726 F450
M106 S0
M106 S255
G1 X31.68 Y6.605 F450
M106 S0
M106 S255
G1 X31.705 Y6.49 F450
M106 S0
M106 S255
G1 X31.711 Y6.358 F450
M106 S0
M106 S255
G1 X31.684 Y6.103 F450
M106 S0
M106 S255
G1 X31.613 Y5.877 F450
M106 S0
M106 S255
G1 X31.5 Y5.68 F450
M106 S0
M106 S255
G1 X31.359 Y5.514 F450
M106 S0
M106 S255
G1 X31.198 Y5.383 F450
M106 S0
M106 S255
G1 X31.016 Y5.285 F450
M106 S0
M106 S255
G1 X30.828 Y5.219 F450
M106 S0
M106 S255
G1 X30.638 Y5.184 F450
M106 S0
M106 S255
G1 X30.456 Y5.18 F450
M106 S0
M106 S255
G1 X30.298 Y5.206 F450
M106 S0
M106 S255
G1 X30.147 Y5.263 F450
M106 S0
M106 S255
G1 X30.007 Y5.35 F450
M106 S0
M106 S255
G1 X29.909 Y5.456 F450
M106 S0
M106 S255
G1 X29.86 Y5.578 F450
M106 S0
M106 S255
G1 X29.858 Y5.698 F450
M106 S0
M106 S255
G1 X29.885 Y5.813 F450
M106 S0
M106 S255
G1 X29.939 Y5.943 F450
M106 S0
M106 S255
G1 X30.021 Y6.087 F450
M106 S0
M106 S255
G1 X30.129 Y6.246 F450
M106 S0
M106 S255
G1 X30.262 Y6.419 F450
M106 S0
M106 S255
G1 X30.422 Y6.607 F450
M106 S0
M106 S255
G1 X30.606 Y6.813 F450
M106 S0
M106 S255
G1 X30.816 Y7.035 F450
M106 S0
M106 S255
G1 X30.692 Y7.348 F450
M106 S0
M106 S255
G1 X30.515 Y7.674 F450
M106 S0
M106 S255
G1 X30.442 Y7.978 F450
M106 S0
M106 S255
G1 X30.448 Y8.196 F450
M106 S0
M106 S255
G1 X30.486 Y8.376 F450
M106 S0
M106 S255
G1 X30.553 Y8.537 F450
M106 S0
M106 S255
G1 X30.65 Y8.679 F450
M106 S0
M106 S255
G1 X30.775 Y8.804 F450
M106 S0
M106 S255
G1 X30.93 Y8.91 F450
M106 S0
M106 S255
G1 X31.112 Y8.999 F450
M106 S0
M106 S255
G1 X31.322 Y9.07 F450
M106 S0
M106 S255
G1 X31.557 Y9.124 F450
M106 S0
M106 S255
G1 X31.822 Y9.162 F450
M106 S0
M106 S255
G1 X32.116 Y9.184 F450
M106 S0
M106 S255
G1 X32.432 Y9.19 F450
M106 S0
M106 S255
G1 X32.622 Y9.187 F450
M106 S0
M106 S255
G1 X32.767 Y9.177 F450
M106 S0
M106 S255
G1 X32.867 Y9.162 F450
M106 S0
M106 S255
G1 X32.933 Y9.133 F450
M106 S0
M106 S255
G1 X32.969 Y9.086 F450
M106 S0
M106 S255
G1 X32.978 Y9.032 F450
M106 S0
M106 S255
G1 X32.973 Y9.004 F450
M106 S0
M106 S255
G1 X32.959 Y8.963 F450
M106 S0
M106 S255
G1 X32.939 Y8.912 F450
M106 S0
M106 S255
G1 X32.911 Y8.853 F450
M106 S0
M106 S255
G1 X32.876 Y8.788 F450
M106 S0
M106 S255
G1 X32.836 Y8.718 F450
M106 S0
M106 S255
G1 X32.791 Y8.648 F450
M106 S0
M106 S255
G1 X32.743 Y8.582 F450
M106 S0
M106 S255
G1 X32.703 Y8.531 F450
M106 S0
M106 S255
G1 X32.675 Y8.504 F450
M106 S0
M106 S255
G1 X32.646 Y8.487 F450
M106 S0
M106 S255
G1 X32.615 Y8.478 F450
M106 S0
M106 S255
G1 X32.57 Y8.475 F450
M106 S0
M106 S255
G1 X32.51 Y8.477 F450
M106 S0
M106 S255
G1 X32.499 Y8.445 F450
M106 S0
M106 S255
G1 X32.523 Y8.392 F450
M106 S0
M106 S255
G1 X32.533 Y8.346 F450
M106 S0
M106 S255
G1 X32.53 Y8.296 F450
M106 S0
M106 S255
G1 X32.509 Y8.24 F450
M106 S0
M106 S255
G1 X32.469 Y8.183 F450
M106 S0
M106 S255
G1 X32.406 Y8.118 F450
M106 S0
M106 S255
G1 X32.307 Y8.026 F450
M106 S0
M106 S255
G1 X32.171 Y7.904 F450
M106 S0
M106 S255
G1 X32.013 Y7.765 F450
M106 S0
M106 S255
G1 X31.87 Y7.632 F450
M106 S0
M106 S255
G1 X31.741 Y7.506 F450
M106 S0
M106 S255
G1 X31.685 Y7.449 F450
M106 S0
M106 S255
G1 X31.633 Y7.395 F450
M106 S0
M106 S255
G1 X31.575 Y7.334 F450
M106 S0
M106 S255
G1 X31.516 Y7.272 F450
M106 S0
M106 S255
G1 X31.464 Y7.217 F450
M106 S0
M106 S255
G1 X31.418 Y7.17 F450
M106 S0
G0 X28.486 Y8.047 F6000
M106 S255
G1 X28.486 Y8.047 F450
M106 S0
M106 S255
G1 X28.486 Y8.114 F450
M106 S0
M106 S255
G1 X28.486 Y8.236 F450
M106 S0
M106 S255
G1 X28.492 Y8.299 F450
M106 S0
M106 S255
G1 X28.567 Y8.364 F450
M106 S0
M106 S255
G1 X28.643 Y8.428 F450
M106 S0
M106 S255
G1 X28.719 Y8.49 F450
M106 S0
M106 S255
G1 X28.799 Y8.555 F450
M106 S0
M106 S255
G1 X28.886 Y8.622 F450
M106 S0
M106 S255
G1 X28.978 Y8.694 F450
M106 S0
M106 S255
G1 X29.074 Y8.764 F450
M106 S0
M106 S255
G1 X29.171 Y8.833 F450
M106 S0
M106 S255
G1 X29.271 Y8.899 F450
M106 S0
M106 S255
G1 X29.38 Y8.966 F450
M106 S0
M106 S255
G1 X29.498 Y9.035 F450
M106 S0
M106 S255
G1 X29.614 Y8.999 F450
M106 S0
M106 S255
G1 X29.69 Y8.838 F450
M106 S0
M106 S255
G1 X29.727 Y8.683 F450
M106 S0
M106 S255
G1 X29.729 Y8.568 F450
M106 S0
M106 S255
G1 X29.717 Y8.479 F450
M106 S0
M106 S255
G1 X29.692 Y8.383 F450
M106 S0
M106 S255
G1 X29.656 Y8.281 F450
M106 S0
M106 S255
G1 X29.611 Y8.168 F450
M106 S0
M106 S255
G1 X29.557 Y8.046 F450
M106 S0
M106 S255
G1 X29.494 Y7.91 F450
M106 S0
M106 S255
G1 X29.42 Y7.752 F450
M106 S0
M106 S255
G1 X29.336 Y7.572 F450
M106 S0
M106 S255
G1 X29.135 Y7.118 F450
M106 S0
M106 S255
G1 X28.947 Y6.665 F450
M106 S0
M106 S255
G1 X28.801 Y6.277 F450
M106 S0
M106 S255
G1 X28.698 Y5.958 F450
M106 S0
M106 S255
G1 X28.636 Y5.717 F450
M106 S0
M106 S255
G1 X28.615 Y5.553 F450
M106 S0
M106 S255
G1 X28.617 Y5.532 F450
M106 S0
M106 S255
G1 X28.625 Y5.491 F450
M106 S0
M106 S255
G1 X28.637 Y5.43 F450
M106 S0
M106 S255
G1 X28.649 Y5.366 F450
M106 S0
M106 S255
G1 X28.655 Y5.316 F450
M106 S0
M106 S255
G1 X28.657 Y5.272 F450
M106 S0
M106 S255
G1 X28.649 Y5.225 F450
M106 S0
M106 S255
G1 X28.629 Y5.198 F450
M106 S0
M106 S255
G1 X28.598 Y5.189 F450
M106 S0
M106 S255
G1 X28.556 Y5.194 F450
M106 S0
M106 S255
G1 X28.505 Y5.21 F450
M106 S0
M106 S255
G1 X28.412 Y5.254 F450
M106 S0
M106 S255
G1 X28.285 Y5.33 F450
M106 S0
M106 S255
G1 X28.193 Y5.403 F450
M106 S0
M106 S255
G1 X28.136 Y5.475 F450
M106 S0
M106 S255
G1 X28.1 Y5.559 F450
M106 S0
M106 S255
G1 X28.082 Y5.657 F450
M106 S0
M106 S255
G1 X28.088 Y5.826 F450
M106 S0
M106 S255
G1 X28.141 Y6.106 F450
M106 S0
M106 S255
G1 X28.244 Y6.461 F450
M106 S0
M106 S255
G1 X28.343 Y6.744 F450
M106 S0
M106 S255
G1 X28.427 Y6.956 F450
M106 S0
M106 S255
G1 X28.519 Y7.167 F450
M106 S0
M106 S255
G1 X28.62 Y7.378 F450
M106 S0
M106 S255
G1 X28.728 Y7.591 F450
M106 S0
M106 S255
G1 X28.844 Y7.805 F450
M106 S0
M106 S255
G1 X28.963 Y8.017 F450
M106 S0
M106 S255
G1 X29.077 Y8.217 F450
M106 S0
M106 S255
G1 X29.187 Y8.405 F450
M106 S0
M106 S255
G1 X28.982 Y8.325 F450
M106 S0
M106 S255
G1 X28.738 Y8.197 F450
M106 S0
M106 S255
G1 X28.486 Y8.047 F450
M106 S0
G0 X24.92 Y6.21 F6000
M106 S255
G1 X24.92 Y6.21 F450
M106 S0
M106 S255
G1 X25.107 Y6.293 F450
M106 S0
M106 S255
G1 X25.272 Y6.39 F450
M106 S0
M106 S255
G1 X25.417 Y6.499 F450
M106 S0
M106 S255
G1 X25.536 Y6.61 F450
M106 S0
M106 S255
G1 X25.63 Y6.718 F450
M106 S0
M106 S255
G1 X25.696 Y6.819 F450
M106 S0
M106 S255
G1 X25.739 Y6.903 F450
M106 S0
M106 S255
G1 X25.757 Y6.966 F450
M106 S0
M106 S255
G1 X25.753 Y7.011 F450
M106 S0
M106 S255
G1 X25.732 Y7.038 F450
M106 S0
M106 S255
G1 X25.695 Y7.047 F450
M106 S0
M106 S255
G1 X25.647 Y7.038 F450
M106 S0
M106 S255
G1 X25.58 Y7.011 F450
M106 S0
M106 S255
G1 X25.497 Y6.965 F450
M106 S0
M106 S255
G1 X25.408 Y6.907 F450
M106 S0
M106 S255
G1 X25.318 Y6.837 F450
M106 S0
M106 S255
G1 X25.229 Y6.757 F450
M106 S0
M106 S255
G1 X25.145 Y6.666 F450
M106 S0
M106 S255
G1 X25.068 Y6.564 F450
M106 S0
M106 S255
G1 X25.001 Y6.453 F450
M106 S0
M106 S255
G1 X24.951 Y6.335 F450
M106 S0
M106 S255
G1 X24.92 Y6.21 F450
M106 S0
G0 X24.89 Y6.015 F6000
M106 S255
G1 X24.89 Y6.015 F450
M106 S0
M106 S255
G1 X24.89 Y5.994 F450
M106 S0
M106 S255
G1 X24.89 Y5.957 F450
M106 S0
M106 S255
G1 X24.891 Y5.928 F450
M106 S0
M106 S255
G1 X24.903 Y5.817 F450
M106 S0
M106 S255
G1 X24.936 Y5.724 F450
M106 S0
M106 S255
G1 X24.99 Y5.651 F450
M106 S0
M106 S255
G1 X25.059 Y5.599 F450
M106 S0
M106 S255
G1 X25.141 Y5.571 F450
M106 S0
M106 S255
G1 X25.236 Y5.566 F450
M106 S0
M106 S255
G1 X25.34 Y5.579 F450
M106 S0
M106 S255
G1 X25.445 Y5.608 F450
M106 S0
M106 S255
G1 X25.554 Y5.654 F450
M106 S0
M106 S255
G1 X25.662 Y5.711 F450
M106 S0
M106 S255
G1 X25.77 Y5.779 F450
M106 S0
M106 S255
G1 X25.88 Y5.859 F450
M106 S0
M106 S255
G1 X26.004 Y5.956 F450
M106 S0
M106 S255
G1 X26.144 Y6.072 F450
M106 S0
M106 S255
G1 X26.205 Y6.103 F450
M106 S0
M106 S255
G1 X26.205 Y6.017 F450
M106 S0
M106 S255
G1 X26.205 Y5.945 F450
M106 S0
M106 S255
G1 X26.044 Y5.754 F450
M106 S0
M106 S255
G1 X25.822 Y5.527 F450
M106 S0
M106 S255
G1 X25.61 Y5.345 F450
M106 S0
M106 S255
G1 X25.404 Y5.211 F450
M106 S0
M106 S255
G1 X25.196 Y5.128 F450
M106 S0
M106 S255
G1 X24.987 Y5.097 F450
M106 S0
M106 S255
G1 X24.81 Y5.117 F450
M106 S0
M106 S255
G1 X24.663 Y5.186 F450
M106 S0
M106 S255
G1 X24.542 Y5.304 F450
M106 S0
M106 S255
G1 X24.453 Y5.465 F450
M106 S0
M106 S255
G1 X24.401 Y5.662 F450
M106 S0
M106 S255
G1 X24.386 Y5.893 F450
M106 S0
M106 S255
G1 X24.407 Y6.102 F450
M106 S0
M106 S255
G1 X24.463 Y6.297 F450
M106 S0
M106 S255
G1 X24.554 Y6.478 F450
M106 S0
M106 S255
G1 X24.687 Y6.66 F450
M106 S0
M106 S255
G1 X24.864 Y6.848 F450
M106 S0
M106 S255
G1 X25.061 Y7.024 F450
M106 S0
M106 S255
G1 X25.217 Y7.14 F450
M106 S0
M106 S255
G1 X25.373 Y7.233 F450
M106 S0
M106 S255
G1 X25.528 Y7.304 F450
M106 S0
M106 S255
G1 X25.673 Y7.351 F450
M106 S0
M106 S255
G1 X25.806 Y7.375 F450
M106 S0
M106 S255
G1 X25.916 Y7.376 F450
M106 S0
M106 S255
G1 X25.999 Y7.36 F450
M106 S0
M106 S255
G1 X26.068 Y7.33 F450
M106 S0
M106 S255
G1 X26.123 Y7.284 F450
M106 S0
M106 S255
G1 X26.158 Y7.222 F450
M106 S0
M106 S255
G1 X26.174 Y7.145 F450
M106 S0
M106 S255
G1 X26.167 Y7.028 F450
M106 S0
M106 S255
G1 X26.126 Y6.898 F450
M106 S0
M106 S255
G1 X26.053 Y6.769 F450
M106 S0
M106 S255
G1 X25.945 Y6.64 F450
M106 S0
M106 S255
G1 X25.802 Y6.511 F450
M106 S0
M106 S255
G1 X25.623 Y6.383 F450
M106 S0
M106 S255
G1 X25.411 Y6.257 F450
M106 S0
M106 S255
G1 X25.166 Y6.135 F450
M106 S0
M106 S255
G1 X24.89 Y6.015 F450
M106 S0
G0 X22.586 Y5.892 F6000
M106 S255
G1 X22.586 Y5.892 F450
M106 S0
M106 S255
G1 X22.586 Y5.944 F450
M106 S0
M106 S255
G1 X22.586 Y6.04 F450
M106 S0
M106 S255
G1 X22.592 Y6.095 F450
M106 S0
M106 S255
G1 X22.692 Y6.218 F450
M106 S0
M106 S255
G1 X22.774 Y6.328 F450
M106 S0
M106 S255
G1 X22.824 Y6.417 F450
M106 S0
M106 S255
G1 X22.766 Y6.442 F450
M106 S0
M106 S255
G1 X22.72 Y6.47 F450
M106 S0
M106 S255
G1 X22.687 Y6.501 F450
M106 S0
M106 S255
G1 X22.664 Y6.542 F450
M106 S0
M106 S255
G1 X22.652 Y6.593 F450
M106 S0
M106 S255
G1 X22.649 Y6.657 F450
M106 S0
M106 S255
G1 X22.665 Y6.741 F450
M106 S0
M106 S255
G1 X22.701 Y6.837 F450
M106 S0
M106 S255
G1 X22.758 Y6.946 F450
M106 S0
M106 S255
G1 X22.827 Y7.055 F450
M106 S0
M106 S255
G1 X22.906 Y7.158 F450
M106 S0
M106 S255
G1 X22.993 Y7.256 F450
M106 S0
M106 S255
G1 X23.078 Y7.333 F450
M106 S0
M106 S255
G1 X23.158 Y7.387 F450
M106 S0
M106 S255
G1 X23.213 Y7.413 F450
M106 S0
M106 S255
G1 X23.241 Y7.423 F450
M106 S0
M106 S255
G1 X23.268 Y7.428 F450
M106 S0
M106 S255
G1 X23.3 Y7.427 F450
M106 S0
M106 S255
G1 X23.327 Y7.414 F450
M106 S0
M106 S255
G1 X23.34 Y7.388 F450
M106 S0
M106 S255
G1 X23.339 Y7.349 F450
M106 S0
M106 S255
G1 X23.316 Y7.289 F450
M106 S0
M106 S255
G1 X23.272 Y7.204 F450
M106 S0
M106 S255
G1 X23.484 Y7.2 F450
M106 S0
M106 S255
G1 X23.788 Y7.241 F450
M106 S0
M106 S255
G1 X23.987 Y7.259 F450
M106 S0
M106 S255
G1 X24.056 Y7.26 F450
M106 S0
M106 S255
G1 X24.088 Y7.257 F450
M106 S0
M106 S255
G1 X24.111 Y7.251 F450
M106 S0
M106 S255
G1 X24.14 Y7.231 F450
M106 S0
M106 S255
G1 X24.17 Y7.192 F450
M106 S0
M106 S255
G1 X24.195 Y7.136 F450
M106 S0
M106 S255
G1 X24.216 Y7.069 F450
M106 S0
M106 S255
G1 X24.228 Y7.002 F450
M106 S0
M106 S255
G1 X24.233 Y6.935 F450
M106 S0
M106 S255
G1 X24.229 Y6.887 F450
M106 S0
M106 S255
G1 X24.211 Y6.841 F450
M106 S0
M106 S255
G1 X24.181 Y6.792 F450
M106 S0
M106 S255
G1 X24.136 Y6.736 F450
M106 S0
M106 S255
G1 X24.072 Y6.664 F450
M106 S0
M106 S255
G1 X23.99 Y6.576 F450
M106 S0
M106 S255
G1 X23.888 Y6.457 F450
M106 S0
M106 S255
G1 X23.797 Y6.331 F450
M106 S0
M106 S255
G1 X23.718 Y6.197 F450
M106 S0
M106 S255
G1 X23.658 Y6.072 F450
M106 S0
M106 S255
G1 X23.622 Y5.971 F450
M106 S0
M106 S255
G1 X23.612 Y5.889 F450
M106 S0
M106 S255
G1 X23.636 Y5.813 F450
M106 S0
M106 S255
G1 X23.7 Y5.769 F450
M106 S0
M106 S255
G1 X23.806 Y5.758 F450
M106 S0
M106 S255
G1 X23.971 Y5.814 F450
M106 S0
M106 S255
G1 X24.199 Y5.956 F450
M106 S0
M106 S255
G1 X24.422 Y6.126 F450
M106 S0
M106 S255
G1 X24.422 Y6.055 F450
M106 S0
M106 S255
G1 X24.422 Y5.959 F450
M106 S0
M106 S255
G1 X24.377 Y5.881 F450
M106 S0
M106 S255
G1 X24.223 Y5.723 F450
M106 S0
M106 S255
G1 X24.089 Y5.591 F450
M106 S0
M106 S255
G1 X23.975 Y5.484 F450
M106 S0
M106 S255
G1 X23.869 Y5.393 F450
M106 S0
M106 S255
G1 X23.769 Y5.317 F450
M106 S0
M106 S255
G1 X23.675 Y5.256 F450
M106 S0
M106 S255
G1 X23.587 Y5.214 F450
M106 S0
M106 S255
G1 X23.506 Y5.193 F450
M106 S0
M106 S255
G1 X23.427 Y5.193 F450
M106 S0
M106 S255
G1 X23.35 Y5.218 F450
M106 S0
M106 S255
G1 X23.284 Y5.27 F450
M106 S0
M106 S255
G1 X23.228 Y5.349 F450
M106 S0
M106 S255
G1 X23.191 Y5.452 F450
M106 S0
M106 S255
G1 X23.173 Y5.579 F450
M106 S0
M106 S255
G1 X23.173 Y5.692 F450
M106 S0
M106 S255
G1 X23.19 Y5.789 F450
M106 S0
M106 S255
G1 X23.222 Y5.894 F450
M106 S0
M106 S255
G1 X23.268 Y6.007 F450
M106 S0
M106 S255
G1 X23.329 Y6.127 F450
M106 S0
M106 S255
G1 X23.405 Y6.253 F450
M106 S0
M106 S255
G1 X23.493 Y6.384 F450
M106 S0
M106 S255
G1 X23.588 Y6.516 F450
M106 S0
M106 S255
G1 X23.691 Y6.647 F450
M106 S0
M106 S255
G1 X23.672 Y6.669 F450
M106 S0
M106 S255
G1 X23.609 Y6.656 F450
M106 S0
M106 S255
G1 X23.541 Y6.643 F450
M106 S0
M106 S255
G1 X23.469 Y6.63 F450
M106 S0
M106 S255
G1 X23.393 Y6.616 F450
M106 S0
M106 S255
G1 X23.316 Y6.602 F450
M106 S0
M106 S255
G1 X23.241 Y6.588 F450
M106 S0
M106 S255
G1 X23.178 Y6.577 F450
M106 S0
M106 S255
G1 X23.128 Y6.568 F450
M106 S0
M106 S255
G1 X22.99 Y6.336 F450
M106 S0
M106 S255
G1 X22.807 Y6.106 F450
M106 S0
M106 S255
G1 X22.586 Y5.892 F450
M106 S0
G0 X21.091 Y6.567 F6000
M106 S255
G1 X21.091 Y6.567 F450
M106 S0
M106 S255
G1 X21.203 Y6.67 F450
M106 S0
M106 S255
G1 X21.315 Y6.785 F450
M106 S0
M106 S255
G1 X21.428 Y6.914 F450
M106 S0
M106 S255
G1 X21.566 Y7.081 F450
M106 S0
M106 S255
G1 X21.742 Y7.298 F450
M106 S0
M106 S255
G1 X21.946 Y7.555 F450
M106 S0
M106 S255
G1 X22.125 Y7.788 F450
M106 S0
M106 S255
G1 X22.273 Y7.991 F450
M106 S0
M106 S255
G1 X22.391 Y8.164 F450
M106 S0
M106 S255
G1 X22.486 Y8.316 F450
M106 S0
M106 S255
G1 X22.561 Y8.446 F450
M106 S0
M106 S255
G1 X22.615 Y8.554 F450
M106 S0
M106 S255
G1 X22.647 Y8.636 F450
M106 S0
M106 S255
G1 X22.658 Y8.692 F450
M106 S0
M106 S255
G1 X22.655 Y8.718 F450
M106 S0
M106 S255
G1 X22.645 Y8.733 F450
M106 S0
M106 S255
G1 X22.623 Y8.736 F450
M106 S0
M106 S255
G1 X22.551 Y8.697 F450
M106 S0
M106 S255
G1 X22.442 Y8.603 F450
M106 S0
M106 S255
G1 X22.298 Y8.454 F450
M106 S0
M106 S255
G1 X22.136 Y8.262 F450
M106 S0
M106 S255
G1 X21.958 Y8.028 F450
M106 S0
M106 S255
G1 X21.735 Y7.712 F450
M106 S0
M106 S255
G1 X21.528 Y7.411 F450
M106 S0
M106 S255
G1 X21.374 Y7.176 F450
M106 S0
M106 S255
G1 X21.261 Y6.983 F450
M106 S0
M106 S255
G1 X21.167 Y6.781 F450
M106 S0
M106 S255
G1 X21.091 Y6.567 F450
M106 S0
G0 X22.616 Y6.117 F6000
M106 S255
G1 X22.616 Y6.117 F450
M106 S0
M106 S255
G1 X22.616 Y6.064 F450
M106 S0
M106 S255
G1 X22.616 Y5.968 F450
M106 S0
M106 S255
G1 X22.6 Y5.912 F450
M106 S0
M106 S255
G1 X22.404 Y5.803 F450
M106 S0
M106 S255
G1 X22.24 Y5.741 F450
M106 S0
M106 S255
G1 X22.113 Y5.724 F450
M106 S0
M106 S255
G1 X22.044 Y5.729 F450
M106 S0
M106 S255
G1 X21.972 Y5.742 F450
M106 S0
M106 S255
G1 X21.873 Y5.706 F450
M106 S0
M106 S255
G1 X21.701 Y5.503 F450
M106 S0
M106 S255
G1 X21.547 Y5.343 F450
M106 S0
M106 S255
G1 X21.411 Y5.225 F450
M106 S0
M106 S255
G1 X21.278 Y5.146 F450
M106 S0
M106 S255
G1 X21.145 Y5.104 F450
M106 S0
M106 S255
G1 X21.006 Y5.101 F450
M106 S0
M106 S255
G1 X20.873 Y5.149 F450
M106 S0
M106 S255
G1 X20.764 Y5.252 F450
M106 S0
M106 S255
G1 X20.68 Y5.408 F450
M106 S0
M106 S255
G1 X20.624 Y5.596 F450
M106 S0
M106 S255
G1 X20.596 Y5.81 F450
M106 S0
M106 S255
G1 X20.602 Y6.094 F450
M106 S0
M106 S255
G1 X20.671 Y6.44 F450
M106 S0
M106 S255
G1 X20.806 Y6.807 F450
M106 S0
M106 S255
G1 X21.003 Y7.187 F450
M106 S0
M106 S255
G1 X21.23 Y7.553 F450
M106 S0
M106 S255
G1 X21.485 Y7.903 F450
M106 S0
M106 S255
G1 X21.76 Y8.23 F450
M106 S0
M106 S255
G1 X22.031 Y8.519 F450
M106 S0
M106 S255
G1 X22.296 Y8.769 F450
M106 S0
M106 S255
G1 X22.541 Y8.969 F450
M106 S0
M106 S255
G1 X22.73 Y9.095 F450
M106 S0
M106 S255
G1 X22.862 Y9.147 F450
M106 S0
M106 S255
G1 X22.942 Y9.134 F450
M106 S0
M106 S255
G1 X22.99 Y9.08 F450
M106 S0
M106 S255
G1 X23.009 Y8.984 F450
M106 S0
M106 S255
G1 X22.823 Y8.385 F450
M106 S0
M106 S255
G1 X22.168 Y7.468 F450
M106 S0
M106 S255
G1 X21.043 Y6.277 F450
M106 S0
M106 S255
G1 X20.989 Y6.181 F450
M106 S0
M106 S255
G1 X20.987 Y6.108 F450
M106 S0
M106 S255
G1 X20.986 Y6.005 F450
M106 S0
M106 S255
G1 X21.014 Y5.773 F450
M106 S0
M106 S255
G1 X21.094 Y5.639 F450
M106 S0
M106 S255
G1 X21.215 Y5.601 F450
M106 S0
M106 S255
G1 X21.274 Y5.611 F450
M106 S0
M106 S255
G1 X21.335 Y5.638 F450
M106 S0
M106 S255
G1 X21.395 Y5.681 F450
M106 S0
M106 S255
G1 X21.471 Y5.749 F450
M106 S0
M106 S255
G1 X21.569 Y5.848 F450
M106 S0
M106 S255
G1 X21.643 Y5.968 F450
M106 S0
M106 S255
G1 X21.607 Y6.064 F450
M106 S0
M106 S255
G1 X21.587 Y6.14 F450
M106 S0
M106 S255
G1 X21.585 Y6.218 F450
M106 S0
M106 S255
G1 X21.611 Y6.336 F450
M106 S0
M106 S255
G1 X21.669 Y6.461 F450
M106 S0
M106 S255
G1 X21.757 Y6.59 F450
M106 S0
M106 S255
G1 X21.857 Y6.71 F450
M106 S0
M106 S255
G1 X21.966 Y6.818 F450
M106 S0
M106 S255
G1 X22.08 Y6.911 F450
M106 S0
M106 S255
G1 X22.176 Y6.974 F450
M106 S0
M106 S255
G1 X22.251 Y7.005 F450
M106 S0
M106 S255
G1 X22.319 Y7.002 F450
M106 S0
M106 S255
G1 X22.373 Y6.958 F450
M106 S0
M106 S255
G1 X22.398 Y6.873 F450
M106 S0
M106 S255
G1 X22.396 Y6.771 F450
M106 S0
M106 S255
G1 X22.378 Y6.664 F450
M106 S0
M106 S255
G1 X22.343 Y6.545 F450
M106 S0
M106 S255
G1 X22.291 Y6.413 F450
M106 S0
M106 S255
G1 X22.225 Y6.269 F450
M106 S0
M106 S255
G1 X22.144 Y6.112 F450
M106 S0
M106 S255
G1 X22.149 Y6.054 F450
M106 S0
M106 S255
G1 X22.178 Y6.032 F450
M106 S0
M106 S255
G1 X22.201 Y6.016 F450
M106 S0
M106 S255
G1 X22.225 Y6.004 F450
M106 S0
M106 S255
G1 X22.255 Y5.997 F450
M106 S0
M106 S255
G1 X22.292 Y5.994 F450
M106 S0
M106 S255
G1 X22.386 Y6.006 F450
M106 S0
M106 S255
G1 X22.496 Y6.047 F450
M106 S0
M106 S255
G1 X22.616 Y6.117 F450
M106 S0
G0 X18.609 Y5.712 F6000
M106 S255
G1 X18.609 Y5.712 F450
M106 S0
M106 S255
G1 X18.875 Y5.948 F450
M106 S0
M106 S255
G1 X19.115 Y6.163 F450
M106 S0
M106 S255
G1 X19.327 Y6.356 F450
M106 S0
M106 S255
G1 X19.512 Y6.525 F450
M106 S0
M106 S255
G1 X19.668 Y6.668 F450
M106 S0
M106 S255
G1 X19.795 Y6.784 F450
M106 S0
M106 S255
G1 X19.904 Y6.883 F450
M106 S0
M106 S255
G1 X20.004 Y6.972 F450
M106 S0
M106 S255
G1 X20.094 Y7.049 F450
M106 S0
M106 S255
G1 X20.169 Y7.107 F450
M106 S0
M106 S255
G1 X20.222 Y7.14 F450
M106 S0
M106 S255
G1 X20.257 Y7.149 F450
M106 S0
M106 S255
G1 X20.303 Y7.13 F450
M106 S0
M106 S255
G1 X20.347 Y7.077 F450
M106 S0
M106 S255
G1 X20.39 Y6.99 F450
M106 S0
M106 S255
G1 X20.423 Y6.901 F450
M106 S0
M106 S255
G1 X20.441 Y6.825 F450
M106 S0
M106 S255
G1 X20.445 Y6.766 F450
M106 S0
M106 S255
G1 X20.415 Y6.703 F450
M106 S0
M106 S255
G1 X20.341 Y6.604 F450
M106 S0
M106 S255
G1 X20.225 Y6.472 F450
M106 S0
M106 S255
G1 X20.113 Y6.344 F450
M106 S0
M106 S255
G1 X20.022 Y6.235 F450
M106 S0
M106 S255
G1 X19.954 Y6.145 F450
M106 S0
M106 S255
G1 X19.907 Y6.058 F450
M106 S0
M106 S255
G1 X19.881 Y5.968 F450
M106 S0
M106 S255
G1 X19.876 Y5.888 F450
M106 S0
M106 S255
G1 X19.886 Y5.839 F450
M106 S0
M106 S255
G1 X19.908 Y5.797 F450
M106 S0
M106 S255
G1 X19.942 Y5.763 F450
M106 S0
M106 S255
G1 X19.983 Y5.739 F450
M106 S0
M106 S255
G1 X20.028 Y5.726 F450
M106 S0
M106 S255
G1 X20.081 Y5.725 F450
M106 S0
M106 S255
G1 X20.147 Y5.743 F450
M106 S0
M106 S255
G1 X20.22 Y5.782 F450
M106 S0
M106 S255
G1 X20.303 Y5.841 F450
M106 S0
M106 S255
G1 X20.414 Y5.931 F450
M106 S0
M106 S255
G1 X20.556 Y6.053 F450
M106 S0
M106 S255
G1 X20.65 Y6.122 F450
M106 S0
M106 S255
G1 X20.65 Y6.033 F450
M106 S0
M106 S255
G1 X20.65 Y5.94 F450
M106 S0
M106 S255
G1 X20.568 Y5.845 F450
M106 S0
M106 S255
G1 X20.402 Y5.694 F450
M106 S0
M106 S255
G1 X20.248 Y5.558 F450
M106 S0
M106 S255
G1 X20.104 Y5.439 F450
M106 S0
M106 S255
G1 X19.973 Y5.339 F450
M106 S0
M106 S255
G1 X19.855 Y5.26 F450
M106 S0
M106 S255
G1 X19.749 Y5.201 F450
M106 S0
M106 S255
G1 X19.655 Y5.162 F450
M106 S0
M106 S255
G1 X19.574 Y5.144 F450
M106 S0
M106 S255
G1 X19.508 Y5.144 F450
M106 S0
M106 S255
G1 X19.452 Y5.162 F450
M106 S0
M106 S255
G1 X19.404 Y5.195 F450
M106 S0
M106 S255
G1 X19.363 Y5.243 F450
M106 S0
M106 S255
G1 X19.337 Y5.299 F450
M106 S0
M106 S255
G1 X19.324 Y5.363 F450
M106 S0
M106 S255
G1 X19.325 Y5.432 F450
M106 S0
M106 S255
G1 X19.335 Y5.502 F450
M106 S0
M106 S255
G1 X19.352 Y5.572 F450
M106 S0
M106 S255
G1 X19.378 Y5.645 F450
M106 S0
M106 S255
G1 X19.413 Y5.726 F450
M106 S0
M106 S255
G1 X19.456 Y5.816 F450
M106 S0
M106 S255
G1 X19.509 Y5.916 F450
M106 S0
M106 S255
G1 X19.573 Y6.03 F450
M106 S0
M106 S255
G1 X19.648 Y6.156 F450
M106 S0
M106 S255
G1 X19.729 Y6.29 F450
M106 S0
M106 S255
G1 X19.806 Y6.417 F450
M106 S0
M106 S255
G1 X19.878 Y6.536 F450
M106 S0
M106 S255
G1 X19.738 Y6.432 F450
M106 S0
M106 S255
G1 X19.551 Y6.269 F450
M106 S0
M106 S255
G1 X19.381 Y6.11 F450
M106 S0
M106 S255
G1 X19.227 Y5.959 F450
M106 S0
M106 S255
G1 X19.093 Y5.82 F450
M106 S0
M106 S255
G1 X18.979 Y5.695 F450
M106 S0
M106 S255
G1 X18.883 Y5.585 F450
M106 S0
M106 S255
G1 X18.801 Y5.491 F450
M106 S0
M106 S255
G1 X18.733 Y5.414 F450
M106 S0
M106 S255
G1 X18.629 Y5.312 F450
M106 S0
M106 S255
G1 X18.523 Y5.245 F450
M106 S0
M106 S255
G1 X18.422 Y5.22 F450
M106 S0
M106 S255
G1 X18.333 Y5.241 F450
M106 S0
M106 S255
G1 X18.278 Y5.312 F450
M106 S0
M106 S255
G1 X18.258 Y5.434 F450
M106 S0
M106 S255
G1 X18.27 Y5.514 F450
M106 S0
M106 S255
G1 X18.309 Y5.622 F450
M106 S0
M106 S255
G1 X18.374 Y5.762 F450
M106 S0
M106 S255
G1 X18.464 Y5.933 F450
M106 S0
M106 S255
G1 X18.576 Y6.132 F450
M106 S0
M106 S255
G1 X18.708 Y6.357 F450
M106 S0
M106 S255
G1 X18.718 Y6.377 F450
M106 S0
M106 S255
G1 X18.724 Y6.402 F450
M106 S0
M106 S255
G1 X18.726 Y6.434 F450
M106 S0
M106 S255
G1 X18.719 Y6.467 F450
M106 S0
M106 S255
G1 X18.698 Y6.486 F450
M106 S0
M106 S255
G1 X18.662 Y6.492 F450
M106 S0
M106 S255
G1 X18.61 Y6.476 F450
M106 S0
M106 S255
G1 X18.545 Y6.431 F450
M106 S0
M106 S255
G1 X18.465 Y6.357 F450
M106 S0
M106 S255
G1 X18.349 Y6.235 F450
M106 S0
M106 S255
G1 X18.179 Y6.051 F450
M106 S0
M106 S255
G1 X17.984 Y5.835 F450
M106 S0
M106 S255
G1 X17.913 Y5.75 F450
M106 S0
M106 S255
G1 X17.837 Y5.65 F450
M106 S0
M106 S255
G1 X17.755 Y5.535 F450
M106 S0
M106 S255
G1 X17.682 Y5.433 F450
M106 S0
M106 S255
G1 X17.625 Y5.359 F450
M106 S0
M106 S255
G1 X17.584 Y5.31 F450
M106 S0
M106 S255
G1 X17.547 Y5.28 F450
M106 S0
M106 S255
G1 X17.511 Y5.263 F450
M106 S0
M106 S255
G1 X17.465 Y5.26 F450
M106 S0
M106 S255
G1 X17.395 Y5.293 F450
M106 S0
M106 S255
G1 X17.328 Y5.37 F450
M106 S0
M106 S255
G1 X17.266 Y5.489 F450
M106 S0
M106 S255
G1 X17.219 Y5.63 F450
M106 S0
M106 S255
G1 X17.195 Y5.785 F450
M106 S0
M106 S255
G1 X17.19 Y5.938 F450
M106 S0
M106 S255
G1 X17.202 Y6.054 F450
M106 S0
M106 S255
G1 X17.227 Y6.158 F450
M106 S0
M106 S255
G1 X17.267 Y6.252 F450
M106 S0
M106 S255
G1 X17.322 Y6.356 F450
M106 S0
M106 S255
G1 X17.392 Y6.475 F450
M106 S0
M106 S255
G1 X17.493 Y6.629 F450
M106 S0
M106 S255
G1 X17.614 Y6.791 F450
M106 S0
M106 S255
G1 X17.718 Y6.916 F450
M106 S0
M106 S255
G1 X17.807 Y7.004 F450
M106 S0
M106 S255
G1 X17.896 Y7.062 F450
M106 S0
M106 S255
G1 X17.988 Y7.091 F450
M106 S0
M106 S255
G1 X18.065 Y7.095 F450
M106 S0
M106 S255
G1 X18.118 Y7.087 F450
M106 S0
M106 S255
G1 X18.165 Y7.072 F450
M106 S0
M106 S255
G1 X18.204 Y7.049 F450
M106 S0
M106 S255
G1 X18.231 Y7.02 F450
M106 S0
M106 S255
G1 X18.245 Y6.985 F450
M106 S0
M106 S255
G1 X18.243 Y6.942 F450
M106 S0
M106 S255
G1 X18.217 Y6.88 F450
M106 S0
M106 S255
G1 X18.167 Y6.8 F450
M106 S0
M106 S255
G1 X18.093 Y6.705 F450
M106 S0
M106 S255
G1 X18.005 Y6.605 F450
M106 S0
M106 S255
G1 X17.904 Y6.504 F450
M106 S0
M106 S255
G1 X17.823 Y6.426 F450
M106 S0
M106 S255
G1 X17.765 Y6.357 F450
M106 S0
M106 S255
G1 X17.708 Y6.279 F450
M106 S0
M106 S255
G1 X17.657 Y6.197 F450
M106 S0
M106 S255
G1 X17.623 Y6.129 F450
M106 S0
M106 S255
G1 X17.608 Y6.077 F450
M106 S0
M106 S255
G1 X17.61 Y6.031 F450
M106 S0
M106 S255
G1 X17.627 Y5.998 F450
M106 S0
M106 S255
G1 X17.658 Y5.983 F450
M106 S0
M106 S255
G1 X17.702 Y5.994 F450
M106 S0
M106 S255
G1 X17.779 Y6.051 F450
M106 S0
M106 S255
G1 X17.891 Y6.155 F450
M106 S0
M106 S255
G1 X18.032 Y6.298 F450
M106 S0
M106 S255
G1 X18.183 Y6.45 F450
M106 S0
M106 S255
G1 X18.343 Y6.61 F450
M106 S0
M106 S255
G1 X18.508 Y6.772 F450
M106 S0
M106 S255
G1 X18.664 Y6.914 F450
M106 S0
M106 S255
G1 X18.813 Y7.038 F450
M106 S0
M106 S255
G1 X18.951 Y7.137 F450
M106 S0
M106 S255
G1 X19.074 Y7.199 F450
M106 S0
M106 S255
G1 X19.183 Y7.224 F450
M106 S0
M106 S255
G1 X19.248 Y7.219 F450
M106 S0
M106 S255
G1 X19.3 Y7.199 F450
M106 S0
M106 S255
G1 X19.344 Y7.163 F450
M106 S0
M106 S255
G1 X19.378 Y7.115 F450
M106 S0
M106 S255
G1 X19.399 Y7.06 F450
M106 S0
M106 S255
G1 X19.407 Y6.997 F450
M106 S0
M106 S255
G1 X19.399 Y6.941 F450
M106 S0
M106 S255
G1 X19.371 Y6.862 F450
M106 S0
M106 S255
G1 X19.322 Y6.76 F450
M106 S0
M106 S255
G1 X19.253 Y6.635 F450
M106 S0
M106 S255
G1 X19.165 Y6.493 F450
M106 S0
M106 S255
G1 X19.059 Y6.331 F450
M106 S0
M106 S255
G1 X18.932 Y6.149 F450
M106 S0
M106 S255
G1 X18.782 Y5.943 F450
M106 S0
M106 S255
G1 X18.609 Y5.712 F450
M106 S0
G0 X15.953 Y6.21 F6000
M106 S255
G1 X15.953 Y6.21 F450
M106 S0
M106 S255
G1 X16.139 Y6.293 F450
M106 S0
M106 S255
G1 X16.305 Y6.39 F450
M106 S0
M106 S255
G1 X16.45 Y6.499 F450
M106 S0
M106 S255
G1 X16.569 Y6.61 F450
M106 S0
M106 S255
G1 X16.662 Y6.718 F450
M106 S0
M106 S255
G1 X16.729 Y6.819 F450
M106 S0
M106 S255
G1 X16.772 Y6.903 F450
M106 S0
M106 S255
G1 X16.79 Y6.966 F450
M106 S0
M106 S255
G1 X16.786 Y7.011 F450
M106 S0
M106 S255
G1 X16.765 Y7.038 F450
M106 S0
M106 S255
G1 X16.728 Y7.047 F450
M106 S0
M106 S255
G1 X16.679 Y7.038 F450
M106 S0
M106 S255
G1 X16.613 Y7.011 F450
M106 S0
M106 S255
G1 X16.53 Y6.965 F450
M106 S0
M106 S255
G1 X16.441 Y6.907 F450
M106 S0
M106 S255
G1 X16.351 Y6.837 F450
M106 S0
M106 S255
G1 X16.261 Y6.757 F450
M106 S0
M106 S255
G1 X16.178 Y6.666 F450
M106 S0
M106 S255
G1 X16.101 Y6.564 F450
M106 S0
M106 S255
G1 X16.033 Y6.453 F450
M106 S0
M106 S255
G1 X15.984 Y6.335 F450
M106 S0
M106 S255
G1 X15.953 Y6.21 F450
M106 S0
G0 X15.923 Y6.015 F6000
M106 S255
G1 X15.923 Y6.015 F450
M106 S0
M106 S255
G1 X15.923 Y5.994 F450
M106 S0
M106 S255
G1 X15.923 Y5.957 F450
M106 S0
M106 S255
G1 X15.923 Y5.928 F450
M106 S0
M106 S255
G1 X15.936 Y5.817 F450
M106 S0
M106 S255
G1 X15.969 Y5.724 F450
M106 S0
M106 S255
G1 X16.023 Y5.651 F450
M106 S0
M106 S255
G1 X16.092 Y5.599 F450
M106 S0
M106 S255
G1 X16.173 Y5.571 F450
M106 S0
M106 S255
G1 X16.269 Y5.566 F450
M106 S0
M106 S255
G1 X16.372 Y5.579 F450
M106 S0
M106 S255
G1 X16.478 Y5.608 F450
M106 S0
M106 S255
G1 X16.586 Y5.654 F450
M106 S0
M106 S255
G1 X16.695 Y5.711 F450
M106 S0
M106 S255
G1 X16.803 Y5.779 F450
M106 S0
M106 S255
G1 X16.912 Y5.859 F450
M106 S0
M106 S255
G1 X17.037 Y5.956 F450
M106 S0
M106 S255
G1 X17.177 Y6.072 F450
M106 S0
M106 S255
G1 X17.238 Y6.103 F450
M106 S0
M106 S255
G1 X17.238 Y6.017 F450
M106 S0
M106 S255
G1 X17.238 Y5.945 F450
M106 S0
M106 S255
G1 X17.076 Y5.754 F450
M106 S0
M106 S255
G1 X16.855 Y5.527 F450
M106 S0
M106 S255
G1 X16.643 Y5.345 F450
M106 S0
M106 S255
G1 X16.437 Y5.211 F450
M106 S0
M106 S255
G1 X16.229 Y5.128 F450
M106 S0
M106 S255
G1 X16.019 Y5.097 F450
M106 S0
M106 S255
G1 X15.843 Y5.117 F450
M106 S0
M106 S255
G1 X15.696 Y5.186 F450
M106 S0
M106 S255
G1 X15.575 Y5.304 F450
M106 S0
M106 S255
G1 X15.486 Y5.465 F450
M106 S0
M106 S255
G1 X15.434 Y5.662 F450
M106 S0
M106 S255
G1 X15.419 Y5.893 F450
M106 S0
M106 S255
G1 X15.44 Y6.102 F450
M106 S0
M106 S255
G1 X15.496 Y6.297 F450
M106 S0
M106 S255
G1 X15.587 Y6.478 F450
M106 S0
M106 S255
G1 X15.72 Y6.66 F450
M106 S0
M106 S255
G1 X15.896 Y6.848 F450
M106 S0
M106 S255
G1 X16.093 Y7.024 F450
M106 S0
M106 S255
G1 X16.25 Y7.14 F450
M106 S0
M106 S255
G1 X16.406 Y7.233 F450
M106 S0
M106 S255
G1 X16.561 Y7.304 F450
M106 S0
M106 S255
G1 X16.706 Y7.351 F450
M106 S0
M106 S255
G1 X16.839 Y7.375 F450
M106 S0
M106 S255
G1 X16.949 Y7.376 F450
M106 S0
M106 S255
G1 X17.032 Y7.36 F450
M106 S0
M106 S255
G1 X17.101 Y7.33 F450
M106 S0
M106 S255
G1 X17.156 Y7.284 F450
M106 S0
M106 S255
G1 X17.191 Y7.222 F450
M106 S0
M106 S255
G1 X17.207 Y7.145 F450
M106 S0
M106 S255
G1 X17.2 Y7.028 F450
M106 S0
M106 S255
G1 X17.159 Y6.898 F450
M106 S0
M106 S255
G1 X17.085 Y6.769 F450
M106 S0
M106 S255
G1 X16.978 Y6.64 F450
M106 S0
M106 S255
G1 X16.834 Y6.511 F450
M106 S0
M106 S255
G1 X16.656 Y6.383 F450
M106 S0
M106 S255
G1 X16.443 Y6.257 F450
M106 S0
M106 S255
G1 X16.199 Y6.135 F450
M106 S0
M106 S255
G1 X15.923 Y6.015 F450
M106 S0
G0 X14.96 Y7.681 F6000
M106 S255
G1 X14.96 Y7.681 F450
M106 S0
M106 S255
G1 X14.994 Y7.681 F450
M106 S0
M106 S255
G1 X15.057 Y7.681 F450
M106 S0
M106 S255
G1 X15.094 Y7.69 F450
M106 S0
M106 S255
G1 X15.198 Y7.862 F450
M106 S0
M106 S255
G1 X15.296 Y7.996 F450
M106 S0
M106 S255
G1 X15.386 Y8.092 F450
M106 S0
M106 S255
G1 X15.478 Y8.156 F450
M106 S0
M106 S255
G1 X15.579 Y8.193 F450
M106 S0
M106 S255
G1 X15.688 Y8.203 F450
M106 S0
M106 S255
G1 X15.775 Y8.191 F450
M106 S0
M106 S255
G1 X15.824 Y8.163 F450
M106 S0
M106 S255
G1 X15.836 Y8.122 F450
M106 S0
M106 S255
G1 X15.815 Y8.078 F450
M106 S0
M106 S255
G1 X15.764 Y8.006 F450
M106 S0
M106 S255
G1 X15.686 Y7.906 F450
M106 S0
M106 S255
G1 X15.609 Y7.807 F450
M106 S0
M106 S255
G1 X15.547 Y7.72 F450
M106 S0
M106 S255
G1 X15.533 Y7.663 F450
M106 S0
M106 S255
G1 X15.598 Y7.656 F450
M106 S0
M106 S255
G1 X15.658 Y7.649 F450
M106 S0
M106 S255
G1 X15.712 Y7.643 F450
M106 S0
M106 S255
G1 X15.759 Y7.637 F450
M106 S0
M106 S255
G1 X15.799 Y7.632 F450
M106 S0
M106 S255
G1 X15.77 Y7.543 F450
M106 S0
M106 S255
G1 X15.636 Y7.324 F450
M106 S0
M106 S255
G1 X15.482 Y7.102 F450
M106 S0
M106 S255
G1 X15.364 Y6.98 F450
M106 S0
M106 S255
G1 X15.313 Y6.984 F450
M106 S0
M106 S255
G1 X15.268 Y6.987 F450
M106 S0
M106 S255
G1 X15.229 Y6.99 F450
M106 S0
M106 S255
G1 X15.19 Y6.993 F450
M106 S0
M106 S255
G1 X15.15 Y6.997 F450
M106 S0
M106 S255
G1 X15.11 Y7.0 F450
M106 S0
M106 S255
G1 X15.064 Y7.003 F450
M106 S0
M106 S255
G1 X15.012 Y7.007 F450
M106 S0
M106 S255
G1 X14.926 Y6.904 F450
M106 S0
M106 S255
G1 X14.83 Y6.742 F450
M106 S0
M106 S255
G1 X14.745 Y6.591 F450
M106 S0
M106 S255
G1 X14.673 Y6.453 F450
M106 S0
M106 S255
G1 X14.612 Y6.323 F450
M106 S0
M106 S255
G1 X14.563 Y6.2 F450
M106 S0
M106 S255
G1 X14.526 Y6.085 F450
M106 S0
M106 S255
G1 X14.502 Y5.974 F450
M106 S0
M106 S255
G1 X14.492 Y5.867 F450
M106 S0
M106 S255
G1 X14.502 Y5.749 F450
M106 S0
M106 S255
G1 X14.55 Y5.668 F450
M106 S0
M106 S255
G1 X14.635 Y5.635 F450
M106 S0
M106 S255
G1 X14.724 Y5.643 F450
M106 S0
M106 S255
G1 X14.822 Y5.679 F450
M106 S0
M106 S255
G1 X14.937 Y5.743 F450
M106 S0
M106 S255
G1 X15.072 Y5.836 F450
M106 S0
M106 S255
G1 X15.236 Y5.959 F450
M106 S0
M106 S255
G1 X15.428 Y6.112 F450
M106 S0
M106 S255
G1 X15.449 Y6.084 F450
M106 S0
M106 S255
G1 X15.449 Y5.986 F450
M106 S0
M106 S255
G1 X15.449 Y5.928 F450
M106 S0
M106 S255
G1 X14.971 Y5.453 F450
M106 S0
M106 S255
G1 X14.563 Y5.15 F450
M106 S0
M106 S255
G1 X14.252 Y5.049 F450
M106 S0
M106 S255
G1 X14.166 Y5.061 F450
M106 S0
M106 S255
G1 X14.093 Y5.097 F450
M106 S0
M106 S255
G1 X14.031 Y5.157 F450
M106 S0
M106 S255
G1 X13.986 Y5.236 F450
M106 S0
M106 S255
G1 X13.959 Y5.329 F450
M106 S0
M106 S255
G1 X13.952 Y5.431 F450
M106 S0
M106 S255
G1 X13.958 Y5.512 F450
M106 S0
M106 S255
G1 X13.975 Y5.603 F450
M106 S0
M106 S255
G1 X14.003 Y5.704 F450
M106 S0
M106 S255
G1 X14.046 Y5.831 F450
M106 S0
M106 S255
G1 X14.105 Y5.994 F450
M106 S0
M106 S255
G1 X14.159 Y6.145 F450
M106 S0
M106 S255
G1 X14.131 Y6.121 F450
M106 S0
M106 S255
G1 X14.104 Y6.097 F450
M106 S0
M106 S255
G1 X14.079 Y6.074 F450
M106 S0
M106 S255
G1 X14.054 Y6.051 F450
M106 S0
M106 S255
G1 X14.031 Y6.03 F450
M106 S0
M106 S255
G1 X14.01 Y6.011 F450
M106 S0
M106 S255
G1 X13.987 Y5.991 F450
M106 S0
M106 S255
G1 X13.964 Y5.97 F450
M106 S0
M106 S255
G1 X13.94 Y5.949 F450
M106 S0
M106 S255
G1 X13.916 Y5.927 F450
M106 S0
M106 S255
G1 X13.891 Y5.905 F450
M106 S0
M106 S255
G1 X13.877 Y5.902 F450
M106 S0
M106 S255
G1 X13.877 Y5.988 F450
M106 S0
M106 S255
G1 X13.877 Y6.08 F450
M106 S0
M106 S255
G1 X13.976 Y6.189 F450
M106 S0
M106 S255
G1 X14.218 Y6.455 F450
M106 S0
M106 S255
G1 X14.491 Y6.813 F450
M106 S0
M106 S255
G1 X14.624 Y7.027 F450
M106 S0
M106 S255
G1 X14.595 Y7.029 F450
M106 S0
M106 S255
G1 X14.567 Y7.03 F450
M106 S0
M106 S255
G1 X14.54 Y7.031 F450
M106 S0
M106 S255
G1 X14.51 Y7.032 F450
M106 S0
M106 S255
G1 X14.476 Y7.032 F450
M106 S0
M106 S255
G1 X14.393 Y7.031 F450
M106 S0
M106 S255
G1 X14.296 Y7.025 F450
M106 S0
M106 S255
G1 X14.22 Y7.014 F450
M106 S0
M106 S255
G1 X14.182 Y7.004 F450
M106 S0
M106 S255
G1 X14.159 Y6.998 F450
M106 S0
M106 S255
G1 X14.137 Y6.991 F450
M106 S0
M106 S255
G1 X14.116 Y6.984 F450
M106 S0
M106 S255
G1 X14.1 Y6.98 F450
M106 S0
M106 S255
G1 X14.089 Y6.978 F450
M106 S0
M106 S255
G1 X14.081 Y6.98 F450
M106 S0
M106 S255
G1 X14.077 Y6.985 F450
M106 S0
M106 S255
G1 X14.075 Y6.994 F450
M106 S0
M106 S255
G1 X14.084 Y7.057 F450
M106 S0
M106 S255
G1 X14.12 Y7.154 F450
M106 S0
M106 S255
G1 X14.185 Y7.274 F450
M106 S0
M106 S255
G1 X14.254 Y7.383 F450
M106 S0
M106 S255
G1 X14.318 Y7.47 F450
M106 S0
M106 S255
G1 X14.379 Y7.537 F450
M106 S0
M106 S255
G1 X14.443 Y7.587 F450
M106 S0
M106 S255
G1 X14.515 Y7.625 F450
M106 S0
M106 S255
G1 X14.597 Y7.651 F450
M106 S0
M106 S255
G1 X14.694 Y7.668 F450
M106 S0
M106 S255
G1 X14.815 Y7.677 F450
M106 S0
M106 S255
G1 X14.96 Y7.681 F450
M106 S0
G0 X12.595 Y5.724 F6000
M106 S255
G1 X12.595 Y5.724 F450
M106 S0
M106 S255
G1 X12.793 Y5.941 F450
M106 S0
M106 S255
G1 X12.951 Y6.133 F450
M106 S0
M106 S255
G1 X13.067 Y6.3 F450
M106 S0
M106 S255
G1 X13.143 Y6.44 F450
M106 S0
M106 S255
G1 X13.18 Y6.552 F450
M106 S0
M106 S255
G1 X13.178 Y6.633 F450
M106 S0
M106 S255
G1 X13.146 Y6.683 F450
M106 S0
M106 S255
G1 X13.084 Y6.702 F450
M106 S0
M106 S255
G1 X12.965 Y6.678 F450
M106 S0
M106 S255
G1 X12.81 Y6.586 F450
M106 S0
M106 S255
G1 X12.622 Y6.428 F450
M106 S0
M106 S255
G1 X12.419 Y6.216 F450
M106 S0
M106 S255
G1 X12.211 Y5.956 F450
M106 S0
M106 S255
G1 X12.157 Y5.794 F450
M106 S0
M106 S255
G1 X12.284 Y5.803 F450
M106 S0
M106 S255
G1 X12.371 Y5.805 F450
M106 S0
M106 S255
G1 X12.431 Y5.795 F450
M106 S0
M106 S255
G1 X12.506 Y5.768 F450
M106 S0
M106 S255
G1 X12.595 Y5.724 F450
M106 S0
G0 X11.377 Y5.871 F6000
M106 S255
G1 X11.377 Y5.871 F450
M106 S0
M106 S255
G1 X11.377 Y5.927 F450
M106 S0
M106 S255
G1 X11.377 Y6.03 F450
M106 S0
M106 S255
G1 X11.39 Y6.096 F450
M106 S0
M106 S255
G1 X11.66 Y6.398 F450
M106 S0
M106 S255
G1 X11.904 Y6.688 F450
M106 S0
M106 S255
G1 X12.121 Y6.965 F450
M106 S0
M106 S255
G1 X12.31 Y7.215 F450
M106 S0
M106 S255
G1 X12.47 Y7.427 F450
M106 S0
M106 S255
G1 X12.6 Y7.601 F450
M106 S0
M106 S255
G1 X12.714 Y7.741 F450
M106 S0
M106 S255
G1 X12.818 Y7.849 F450
M106 S0
M106 S255
G1 X12.913 Y7.925 F450
M106 S0
M106 S255
G1 X13.015 Y7.976 F450
M106 S0
M106 S255
G1 X13.134 Y8.004 F450
M106 S0
M106 S255
G1 X13.25 Y8.01 F450
M106 S0
M106 S255
G1 X13.302 Y7.997 F450
M106 S0
M106 S255
G1 X13.33 Y7.966 F450
M106 S0
M106 S255
G1 X13.336 Y7.92 F450
M106 S0
M106 S255
G1 X13.321 Y7.866 F450
M106 S0
M106 S255
G1 X13.287 Y7.799 F450
M106 S0
M106 S255
G1 X13.235 Y7.719 F450
M106 S0
M106 S255
G1 X13.17 Y7.634 F450
M106 S0
M106 S255
G1 X13.094 Y7.548 F450
M106 S0
M106 S255
G1 X12.998 Y7.45 F450
M106 S0
M106 S255
G1 X12.884 Y7.319 F450
M106 S0
M106 S255
G1 X12.771 Y7.168 F450
M106 S0
M106 S255
G1 X12.659 Y6.996 F450
M106 S0
M106 S255
G1 X12.539 Y6.795 F450
M106 S0
M106 S255
G1 X12.409 Y6.561 F450
M106 S0
M106 S255
G1 X12.391 Y6.468 F450
M106 S0
M106 S255
G1 X12.511 Y6.564 F450
M106 S0
M106 S255
G1 X12.644 Y6.67 F450
M106 S0
M106 S255
G1 X12.783 Y6.784 F450
M106 S0
M106 S255
G1 X12.908 Y6.883 F450
M106 S0
M106 S255
G1 X13.015 Y6.965 F450
M106 S0
M106 S255
G1 X13.107 Y7.031 F450
M106 S0
M106 S255
G1 X13.197 Y7.087 F450
M106 S0
M106 S255
G1 X13.286 Y7.134 F450
M106 S0
M106 S255
G1 X13.375 Y7.171 F450
M106 S0
M106 S255
G1 X13.463 Y7.195 F450
M106 S0
M106 S255
G1 X13.553 Y7.206 F450
M106 S0
M106 S255
G1 X13.617 Y7.205 F450
M106 S0
M106 S255
G1 X13.659 Y7.197 F450
M106 S0
M106 S255
G1 X13.687 Y7.182 F450
M106 S0
M106 S255
G1 X13.703 Y7.159 F450
M106 S0
M106 S255
G1 X13.713 Y7.122 F450
M106 S0
M106 S255
G1 X13.717 Y7.073 F450
M106 S0
M106 S255
G1 X13.71 Y6.942 F450
M106 S0
M106 S255
G1 X13.678 Y6.791 F450
M106 S0
M106 S255
G1 X13.62 Y6.642 F450
M106 S0
M106 S255
G1 X13.538 Y6.493 F450
M106 S0
M106 S255
G1 X13.434 Y6.341 F450
M106 S0
M106 S255
G1 X13.308 Y6.185 F450
M106 S0
M106 S255
G1 X13.16 Y6.023 F450
M106 S0
M106 S255
G1 X12.99 Y5.851 F450
M106 S0
M106 S255
G1 X12.798 Y5.67 F450
M106 S0
M106 S255
G1 X12.843 Y5.632 F450
M106 S0
M106 S255
G1 X12.916 Y5.618 F450
M106 S0
M106 S255
G1 X12.991 Y5.613 F450
M106 S0
M106 S255
G1 X13.244 Y5.668 F450
M106 S0
M106 S255
G1 X13.558 Y5.845 F450
M106 S0
M106 S255
G1 X13.928 Y6.144 F450
M106 S0
M106 S255
G1 X13.928 Y6.087 F450
M106 S0
M106 S255
G1 X13.928 Y5.981 F450
M106 S0
M106 S255
G1 X13.92 Y5.921 F450
M106 S0
M106 S255
G1 X13.767 Y5.786 F450
M106 S0
M106 S255
G1 X13.616 Y5.656 F450
M106 S0
M106 S255
G1 X13.468 Y5.532 F450
M106 S0
M106 S255
G1 X13.324 Y5.42 F450
M106 S0
M106 S255
G1 X13.186 Y5.325 F450
M106 S0
M106 S255
G1 X13.054 Y5.246 F450
M106 S0
M106 S255
G1 X12.928 Y5.188 F450
M106 S0
M106 S255
G1 X12.809 Y5.156 F450
M106 S0
M106 S255
G1 X12.71 Y5.148 F450
M106 S0
M106 S255
G1 X12.669 Y5.15 F450
M106 S0
M106 S255
G1 X12.625 Y5.155 F450
M106 S0
M106 S255
G1 X12.58 Y5.163 F450
M106 S0
M106 S255
G1 X12.536 Y5.174 F450
M106 S0
M106 S255
G1 X12.494 Y5.185 F450
M106 S0
M106 S255
G1 X12.455 Y5.198 F450
M106 S0
M106 S255
G1 X12.41 Y5.214 F450
M106 S0
M106 S255
G1 X12.358 Y5.234 F450
M106 S0
M106 S255
G1 X12.299 Y5.258 F450
M106 S0
M106 S255
G1 X12.246 Y5.278 F450
M106 S0
M106 S255
G1 X12.203 Y5.294 F450
M106 S0
M106 S255
G1 X12.158 Y5.295 F450
M106 S0
M106 S255
G1 X12.11 Y5.284 F450
M106 S0
M106 S255
G1 X12.081 Y5.278 F450
M106 S0
M106 S255
G1 X12.042 Y5.279 F450
M106 S0
M106 S255
G1 X11.963 Y5.296 F450
M106 S0
M106 S255
G1 X11.876 Y5.334 F450
M106 S0
M106 S255
G1 X11.794 Y5.296 F450
M106 S0
M106 S255
G1 X11.723 Y5.141 F450
M106 S0
M106 S255
G1 X11.647 Y4.959 F450
M106 S0
M106 S255
G1 X11.568 Y4.76 F450
M106 S0
M106 S255
G1 X11.497 Y4.583 F450
M106 S0
M106 S255
G1 X11.434 Y4.434 F450
M106 S0
M106 S255
G1 X11.376 Y4.31 F450
M106 S0
M106 S255
G1 X11.308 Y4.192 F450
M106 S0
M106 S255
G1 X11.228 Y4.077 F450
M106 S0
M106 S255
G1 X11.164 Y4.006 F450
M106 S0
M106 S255
G1 X11.125 Y3.975 F450
M106 S0
M106 S255
G1 X11.096 Y3.96 F450
M106 S0
M106 S255
G1 X11.037 Y3.971 F450
M106 S0
M106 S255
G1 X10.984 Y4.032 F450
M106 S0
M106 S255
G1 X10.961 Y4.145 F450
M106 S0
M106 S255
G1 X10.964 Y4.284 F450
M106 S0
M106 S255
G1 X10.986 Y4.423 F450
M106 S0
M106 S255
G1 X11.027 Y4.566 F450
M106 S0
M106 S255
G1 X11.082 Y4.709 F450
M106 S0
M106 S255
G1 X11.147 Y4.848 F450
M106 S0
M106 S255
G1 X11.219 Y4.982 F450
M106 S0
M106 S255
G1 X11.299 Y5.112 F450
M106 S0
M106 S255
G1 X11.384 Y5.244 F450
M106 S0
M106 S255
G1 X11.474 Y5.376 F450
M106 S0
M106 S255
G1 X11.561 Y5.501 F450
M106 S0
M106 S255
G1 X11.629 Y5.603 F450
M106 S0
M106 S255
G1 X11.679 Y5.682 F450
M106 S0
M106 S255
G1 X11.954 Y6.165 F450
M106 S0
M106 S255
G1 X12.207 Y6.64 F450
M106 S0
M106 S255
G1 X12.412 Y7.059 F450
M106 S0
M106 S255
G1 X12.011 Y6.585 F450
M106 S0
M106 S255
G1 X11.655 Y6.173 F450
M106 S0
M106 S255
G1 X11.377 Y5.871 F450
M106 S0
G0 X10.209 Y6.21 F6000
M106 S255
G1 X10.209 Y6.21 F450
M106 S0
M106 S255
G1 X10.395 Y6.293 F450
M106 S0
M106 S255
G1 X10.561 Y6.39 F450
M106 S0
M106 S255
G1 X10.706 Y6.499 F450
M106 S0
M106 S255
G1 X10.825 Y6.61 F450
M106 S0
M106 S255
G1 X10.918 Y6.718 F450
M106 S0
M106 S255
G1 X10.985 Y6.819 F450
M106 S0
M106 S255
G1 X11.028 Y6.903 F450
M106 S0
M106 S255
G1 X11.046 Y6.966 F450
M106 S0
M106 S255
G1 X11.042 Y7.011 F450
M106 S0
M106 S255
G1 X11.021 Y7.038 F450
M106 S0
M106 S255
G1 X10.984 Y7.047 F450
M106 S0
M106 S255
G1 X10.935 Y7.038 F450
M106 S0
M106 S255
G1 X10.869 Y7.011 F450
M106 S0
M106 S255
G1 X10.786 Y6.965 F450
M106 S0
M106 S255
G1 X10.697 Y6.907 F450
M106 S0
M106 S255
G1 X10.607 Y6.837 F450
M106 S0
M106 S255
G1 X10.517 Y6.757 F450
M106 S0
M106 S255
G1 X10.434 Y6.666 F450
M106 S0
M106 S255
G1 X10.357 Y6.564 F450
M106 S0
M106 S255
G1 X10.289 Y6.453 F450
M106 S0
M106 S255
G1 X10.24 Y6.335 F450
M106 S0
M106 S255
G1 X10.209 Y6.21 F450
M106 S0
G0 X10.179 Y6.015 F6000
M106 S255
G1 X10.179 Y6.015 F450
M106 S0
M106 S255
G1 X10.179 Y5.994 F450
M106 S0
M106 S255
G1 X10.179 Y5.957 F450
M106 S0
M106 S255
G1 X10.179 Y5.928 F450
M106 S0
M106 S255
G1 X10.192 Y5.817 F450
M106 S0
M106 S255
G1 X10.225 Y5.724 F450
M106 S0
M106 S255
G1 X10.279 Y5.651 F450
M106 S0
M106 S255
G1 X10.348 Y5.599 F450
M106 S0
M106 S255
G1 X10.429 Y5.571 F450
M106 S0
M106 S255
G1 X10.525 Y5.566 F450
M106 S0
M106 S255
G1 X10.628 Y5.579 F450
M106 S0
M106 S255
G1 X10.734 Y5.608 F450
M106 S0
M106 S255
G1 X10.842 Y5.654 F450
M106 S0
M106 S255
G1 X10.951 Y5.711 F450
M106 S0
M106 S255
G1 X11.059 Y5.779 F450
M106 S0
M106 S255
G1 X11.168 Y5.859 F450
M106 S0
M106 S255
G1 X11.292 Y5.956 F450
M106 S0
M106 S255
G1 X11.433 Y6.072 F450
M106 S0
M106 S255
G1 X11.494 Y6.103 F450
M106 S0
M106 S255
G1 X11.494 Y6.017 F450
M106 S0
M106 S255
G1 X11.494 Y5.945 F450
M106 S0
M106 S255
G1 X11.332 Y5.754 F450
M106 S0
M106 S255
G1 X11.111 Y5.527 F450
M106 S0
M106 S255
G1 X10.899 Y5.345 F450
M106 S0
M106 S255
G1 X10.693 Y5.211 F450
M106 S0
M106 S255
G1 X10.485 Y5.128 F450
M106 S0
M106 S255
G1 X10.275 Y5.097 F450
M106 S0
M106 S255
G1 X10.099 Y5.117 F450
M106 S0
M106 S255
G1 X9.952 Y5.186 F450
M106 S0
M106 S255
G1 X9.831 Y5.304 F450
M106 S0
M106 S255
G1 X9.742 Y5.465 F450
M106 S0
M106 S255
G1 X9.69 Y5.662 F450
M106 S0
M106 S255
G1 X9.675 Y5.893 F450
M106 S0
M106 S255
G1 X9.696 Y6.102 F450
M106 S0
M106 S255
G1 X9.752 Y6.297 F450
M106 S0
M106 S255
G1 X9.843 Y6.478 F450
M106 S0
M106 S255
G1 X9.976 Y6.66 F450
M106 S0
M106 S255
G1 X10.152 Y6.848 F450
M106 S0
M106 S255
G1 X10.349 Y7.024 F450
M106 S0
M106 S255
G1 X10.506 Y7.14 F450
M106 S0
M106 S255
G1 X10.662 Y7.233 F450
M106 S0
M106 S255
G1 X10.817 Y7.304 F450
M106 S0
M106 S255
G1 X10.962 Y7.351 F450
M106 S0
M106 S255
G1 X11.095 Y7.375 F450
M106 S0
M106 S255
G1 X11.204 Y7.376 F450
M106 S0
M106 S255
G1 X11.288 Y7.36 F450
M106 S0
M106 S255
G1 X11.357 Y7.33 F450
M106 S0
M106 S255
G1 X11.412 Y7.284 F450
M106 S0
M106 S255
G1 X11.447 Y7.222 F450
M106 S0
M106 S255
G1 X11.463 Y7.145 F450
M106 S0
M106 S255
G1 X11.455 Y7.028 F450
M106 S0
M106 S255
G1 X11.415 Y6.898 F450
M106 S0
M106 S255
G1 X11.341 Y6.769 F450
M106 S0
M106 S255
G1 X11.234 Y6.64 F450
M106 S0
M106 S255
G1 X11.09 Y6.511 F450
M106 S0
M106 S255
G1 X10.912 Y6.383 F450
M106 S0
M106 S255
G1 X10.699 Y6.257 F450
M106 S0
M106 S255
G1 X10.455 Y6.135 F450
M106 S0
M106 S255
G1 X10.179 Y6.015 F450
M106 S0
G0 X8.889 Y6.498 F6000
M106 S255
G1 X8.889 Y6.498 F450
M106 S0
M106 S255
G1 X8.873 Y6.63 F450
M106 S0
M106 S255
G1 X8.845 Y6.856 F450
M106 S0
M106 S255
G1 X8.797 Y6.895 F450
M106 S0
M106 S255
G1 X8.578 Y6.665 F450
M106 S0
M106 S255
G1 X8.247 Y6.333 F450
M106 S0
M106 S255
G1 X8.101 Y6.114 F450
M106 S0
M106 S255
G1 X8.202 Y6.078 F450
M106 S0
M106 S255
G1 X8.273 Y6.036 F450
M106 S0
M106 S255
G1 X8.326 Y5.979 F450
M106 S0
M106 S255
G1 X8.391 Y5.89 F450
M106 S0
M106 S255
G1 X8.472 Y5.769 F450
M106 S0
M106 S255
G1 X8.608 Y5.838 F450
M106 S0
M106 S255
G1 X8.718 Y5.924 F450
M106 S0
M106 S255
G1 X8.804 Y6.026 F450
M106 S0
M106 S255
G1 X8.862 Y6.153 F450
M106 S0
M106 S255
G1 X8.891 Y6.308 F450
M106 S0
M106 S255
G1 X8.895 Y6.407 F450
M106 S0
M106 S255
G1 X8.894 Y6.427 F450
M106 S0
M106 S255
G1 X8.894 Y6.446 F450
M106 S0
M106 S255
G1 X8.892 Y6.463 F450
M106 S0
M106 S255
G1 X8.891 Y6.481 F450
M106 S0
M106 S255
G1 X8.889 Y6.498 F450
M106 S0
G0 X7.769 Y6.039 F6000
M106 S255
G1 X7.769 Y6.039 F450
M106 S0
M106 S255
G1 X7.769 Y6.059 F450
M106 S0
M106 S255
G1 X7.769 Y6.094 F450
M106 S0
M106 S255
G1 X7.817 Y6.162 F450
M106 S0
M106 S255
G1 X8.282 Y6.654 F450
M106 S0
M106 S255
G1 X8.633 Y7.032 F450
M106 S0
M106 S255
G1 X8.844 Y7.299 F450
M106 S0
M106 S255
G1 X8.919 Y7.493 F450
M106 S0
M106 S255
G1 X9.038 Y7.601 F450
M106 S0
M106 S255
G1 X9.165 Y7.623 F450
M106 S0
M106 S255
G1 X9.21 Y7.617 F450
M106 S0
M106 S255
G1 X9.257 Y7.602 F450
M106 S0
M106 S255
G1 X9.289 Y7.585 F450
M106 S0
M106 S255
G1 X9.296 Y7.562 F450
M106 S0
M106 S255
G1 X9.304 Y7.536 F450
M106 S0
M106 S255
G1 X9.302 Y7.519 F450
M106 S0
M106 S255
G1 X9.297 Y7.487 F450
M106 S0
M106 S255
G1 X9.294 Y7.448 F450
M106 S0
M106 S255
G1 X9.295 Y7.404 F450
M106 S0
M106 S255
G1 X9.306 Y7.34 F450
M106 S0
M106 S255
G1 X9.327 Y7.254 F450
M106 S0
M106 S255
G1 X9.356 Y7.152 F450
M106 S0
M106 S255
G1 X9.38 Y7.059 F450
M106 S0
M106 S255
G1 X9.4 Y6.977 F450
M106 S0
M106 S255
G1 X9.415 Y6.903 F450
M106 S0
M106 S255
G1 X9.425 Y6.823 F450
M106 S0
M106 S255
G1 X9.429 Y6.737 F450
M106 S0
M106 S255
G1 X9.422 Y6.61 F450
M106 S0
M106 S255
G1 X9.394 Y6.479 F450
M106 S0
M106 S255
G1 X9.344 Y6.352 F450
M106 S0
M106 S255
G1 X9.275 Y6.229 F450
M106 S0
M106 S255
G1 X9.186 Y6.109 F450
M106 S0
M106 S255
G1 X9.078 Y5.993 F450
M106 S0
M106 S255
G1 X8.949 Y5.877 F450
M106 S0
M106 S255
G1 X8.796 Y5.76 F450
M106 S0
M106 S255
G1 X8.643 Y5.651 F450
M106 S0
M106 S255
G1 X8.711 Y5.641 F450
M106 S0
M106 S255
G1 X8.769 Y5.635 F450
M106 S0
M106 S255
G1 X8.823 Y5.634 F450
M106 S0
M106 S255
G1 X8.911 Y5.644 F450
M106 S0
M106 S255
G1 X9.003 Y5.669 F450
M106 S0
M106 S255
G1 X9.1 Y5.707 F450
M106 S0
M106 S255
G1 X9.199 Y5.757 F450
M106 S0
M106 S255
G1 X9.3 Y5.817 F450
M106 S0
M106 S255
G1 X9.402 Y5.887 F450
M106 S0
M106 S255
G1 X9.515 Y5.971 F450
M106 S0
M106 S255
G1 X9.639 Y6.069 F450
M106 S0
M106 S255
G1 X9.711 Y6.116 F450
M106 S0
M106 S255
G1 X9.711 Y6.029 F450
M106 S0
M106 S255
G1 X9.711 Y5.941 F450
M106 S0
M106 S255
G1 X9.57 Y5.794 F450
M106 S0
M106 S255
G1 X9.326 Y5.581 F450
M106 S0
M106 S255
G1 X9.101 Y5.411 F450
M106 S0
M106 S255
G1 X8.895 Y5.284 F450
M106 S0
M106 S255
G1 X8.709 Y5.203 F450
M106 S0
M106 S255
G1 X8.543 Y5.167 F450
M106 S0
M106 S255
G1 X8.363 Y5.181 F450
M106 S0
M106 S255
G1 X8.181 Y5.25 F450
M106 S0
M106 S255
G1 X8.01 Y5.377 F450
M106 S0
M106 S255
G1 X7.909 Y5.486 F450
M106 S0
M106 S255
G1 X7.845 Y5.581 F450
M106 S0
M106 S255
G1 X7.806 Y5.674 F450
M106 S0
M106 S255
G1 X7.786 Y5.774 F450
M106 S0
M106 S255
G1 X7.773 Y5.895 F450
M106 S0
M106 S255
G1 X7.769 Y6.039 F450
M106 S0
G0 X3.832 Y7.924 F6000
M106 S255
G1 X3.832 Y7.924 F450
M106 S0
M106 S255
G1 X3.779 Y7.959 F450
M106 S0
M106 S255
G1 X3.738 Y7.997 F450
M106 S0
M106 S255
G1 X3.708 Y8.036 F450
M106 S0
M106 S255
G1 X3.688 Y8.086 F450
M106 S0
M106 S255
G1 X3.676 Y8.154 F450
M106 S0
M106 S255
G1 X3.673 Y8.243 F450
M106 S0
M106 S255
G1 X3.7 Y8.368 F450
M106 S0
M106 S255
G1 X3.772 Y8.485 F450
M106 S0
M106 S255
G1 X3.89 Y8.593 F450
M106 S0
M106 S255
G1 X4.049 Y8.689 F450
M106 S0
M106 S255
G1 X4.245 Y8.769 F450
M106 S0
M106 S255
G1 X4.479 Y8.834 F450
M106 S0
M106 S255
G1 X4.74 Y8.881 F450
M106 S0
M106 S255
G1 X5.02 Y8.907 F450
M106 S0
M106 S255
G1 X5.322 Y8.913 F450
M106 S0
M106 S255
G1 X5.611 Y8.885 F450
M106 S0
M106 S255
G1 X5.844 Y8.817 F450
M106 S0
M106 S255
G1 X6.023 Y8.708 F450
M106 S0
M106 S255
G1 X6.147 Y8.561 F450
M106 S0
M106 S255
G1 X6.215 Y8.375 F450
M106 S0
M106 S255
G1 X6.229 Y8.178 F450
M106 S0
M106 S255
G1 X6.213 Y8.048 F450
M106 S0
M106 S255
G1 X6.176 Y7.929 F450
M106 S0
M106 S255
G1 X6.118 Y7.821 F450
M106 S0
M106 S255
G1 X6.034 Y7.719 F450
M106 S0
M106 S255
G1 X5.924 Y7.623 F450
M106 S0
M106 S255
G1 X5.767 Y7.528 F450
M106 S0
M106 S255
G1 X5.396 Y7.405 F450
M106 S0
M106 S255
G1 X4.773 Y7.252 F450
M106 S0
M106 S255
G1 X4.367 Y7.133 F450
M106 S0
M106 S255
G1 X4.616 Y7.101 F450
M106 S0
M106 S255
G1 X4.837 Y7.06 F450
M106 S0
M106 S255
G1 X5.03 Y7.009 F450
M106 S0
M106 S255
G1 X5.196 Y6.941 F450
M106 S0
M106 S255
G1 X5.336 Y6.853 F450
M106 S0
M106 S255
G1 X5.448 Y6.746 F450
M106 S0
M106 S255
G1 X5.524 Y6.614 F450
M106 S0
M106 S255
G1 X5.562 Y6.457 F450
M106 S0
M106 S255
G1 X5.559 Y6.27 F450
M106 S0
M106 S255
G1 X5.501 Y6.072 F450
M106 S0
M106 S255
G1 X5.384 Y5.875 F450
M106 S0
M106 S255
G1 X5.21 Y5.682 F450
M106 S0
M106 S255
G1 X4.989 Y5.509 F450
M106 S0
M106 S255
G1 X4.721 Y5.361 F450
M106 S0
M106 S255
G1 X4.412 Y5.239 F450
M106 S0
M106 S255
G1 X4.076 Y5.159 F450
M106 S0
M106 S255
G1 X3.718 Y5.121 F450
M106 S0
M106 S255
G1 X3.415 Y5.123 F450
M106 S0
M106 S255
G1 X3.189 Y5.155 F450
M106 S0
M106 S255
G1 X3.004 Y5.215 F450
M106 S0
M106 S255
G1 X2.862 Y5.301 F450
M106 S0
M106 S255
G1 X2.771 Y5.402 F450
M106 S0
M106 S255
G1 X2.73 Y5.52 F450
M106 S0
M106 S255
G1 X2.732 Y5.612 F450
M106 S0
M106 S255
G1 X2.751 Y5.69 F450
M106 S0
M106 S255
G1 X2.787 Y5.772 F450
M106 S0
M106 S255
G1 X2.837 Y5.854 F450
M106 S0
M106 S255
G1 X2.893 Y5.928 F450
M106 S0
M106 S255
G1 X2.955 Y5.995 F450
M106 S0
M106 S255
G1 X3.02 Y6.05 F450
M106 S0
M106 S255
G1 X3.078 Y6.084 F450
M106 S0
M106 S255
G1 X3.13 Y6.099 F450
M106 S0
M106 S255
G1 X3.159 Y6.097 F450
M106 S0
M106 S255
G1 X3.174 Y6.088 F450
M106 S0
M106 S255
G1 X3.181 Y6.072 F450
M106 S0
M106 S255
G1 X3.178 Y6.054 F450
M106 S0
M106 S255
G1 X3.169 Y6.028 F450
M106 S0
M106 S255
G1 X3.153 Y5.993 F450
M106 S0
M106 S255
G1 X3.136 Y5.97 F450
M106 S0
M106 S255
G1 X3.125 Y5.947 F450
M106 S0
M106 S255
G1 X3.121 Y5.924 F450
M106 S0
M106 S255
G1 X3.134 Y5.879 F450
M106 S0
M106 S255
G1 X3.18 Y5.837 F450
M106 S0
M106 S255
G1 X3.257 Y5.8 F450
M106 S0
M106 S255
G1 X3.359 Y5.771 F450
M106 S0
M106 S255
G1 X3.48 Y5.754 F450
M106 S0
M106 S255
G1 X3.619 Y5.748 F450
M106 S0
M106 S255
G1 X3.82 Y5.756 F450
M106 S0
M106 S255
G1 X4.016 Y5.779 F450
M106 S0
M106 S255
G1 X4.208 Y5.817 F450
M106 S0
M106 S255
G1 X4.392 Y5.868 F450
M106 S0
M106 S255
G1 X4.562 Y5.928 F450
M106 S0
M106 S255
G1 X4.718 Y5.998 F450
M106 S0
M106 S255
G1 X4.857 Y6.074 F450
M106 S0
M106 S255
G1 X4.975 Y6.153 F450
M106 S0
M106 S255
G1 X5.071 Y6.235 F450
M106 S0
M106 S255
G1 X5.141 Y6.315 F450
M106 S0
M106 S255
G1 X5.181 Y6.39 F450
M106 S0
M106 S255
G1 X5.191 Y6.471 F450
M106 S0
M106 S255
G1 X5.151 Y6.592 F450
M106 S0
M106 S255
G1 X5.051 Y6.682 F450
M106 S0
M106 S255
G1 X4.89 Y6.742 F450
M106 S0
M106 S255
G1 X4.668 Y6.781 F450
M106 S0
M106 S255
G1 X4.384 Y6.802 F450
M106 S0
M106 S255
G1 X4.095 Y6.807 F450
M106 S0
M106 S255
G1 X3.973 Y6.802 F450
M106 S0
M106 S255
G1 X3.855 Y6.789 F450
M106 S0
M106 S255
G1 X3.741 Y6.77 F450
M106 S0
M106 S255
G1 X3.657 Y6.755 F450
M106 S0
M106 S255
G1 X3.614 Y6.746 F450
M106 S0
M106 S255
G1 X3.598 Y6.745 F450
M106 S0
M106 S255
G1 X3.576 Y6.759 F450
M106 S0
M106 S255
G1 X3.564 Y6.79 F450
M106 S0
M106 S255
G1 X3.563 Y6.848 F450
M106 S0
M106 S255
G1 X3.575 Y6.939 F450
M106 S0
M106 S255
G1 X3.602 Y7.046 F450
M106 S0
M106 S255
G1 X3.644 Y7.165 F450
M106 S0
M106 S255
G1 X3.692 Y7.263 F450
M106 S0
M106 S255
G1 X3.745 Y7.333 F450
M106 S0
M106 S255
G1 X3.8 Y7.37 F450
M106 S0
M106 S255
G1 X3.902 Y7.4 F450
M106 S0
M106 S255
G1 X4.074 Y7.437 F450
M106 S0
M106 S255
G1 X4.308 Y7.478 F450
M106 S0
M106 S255
G1 X4.532 Y7.519 F450
M106 S0
M106 S255
G1 X4.732 Y7.558 F450
M106 S0
M106 S255
G1 X4.915 Y7.598 F450
M106 S0
M106 S255
G1 X5.116 Y7.653 F450
M106 S0
M106 S255
G1 X5.339 Y7.725 F450
M106 S0
M106 S255
G1 X5.529 Y7.797 F450
M106 S0
M106 S255
G1 X5.656 Y7.863 F450
M106 S0
M106 S255
G1 X5.757 Y7.935 F450
M106 S0
M106 S255
G1 X5.832 Y8.011 F450
M106 S0
M106 S255
G1 X5.881 Y8.084 F450
M106 S0
M106 S255
G1 X5.904 Y8.151 F450
M106 S0
M106 S255
G1 X5.881 Y8.263 F450
M106 S0
M106 S255
G1 X5.733 Y8.362 F450
M106 S0
M106 S255
G1 X5.454 Y8.407 F450
M106 S0
M106 S255
G1 X5.203 Y8.408 F450
M106 S0
M106 S255
G1 X5.016 Y8.399 F450
M106 S0
M106 S255
G1 X4.833 Y8.382 F450
M106 S0
M106 S255
G1 X4.659 Y8.358 F450
M106 S0
M106 S255
G1 X4.51 Y8.331 F450
M106 S0
M106 S255
G1 X4.387 Y8.3 F450
M106 S0
M106 S255
G1 X4.293 Y8.267 F450
M106 S0
M106 S255
G1 X4.233 Y8.235 F450
M106 S0
M106 S255
G1 X4.208 Y8.204 F450
M106 S0
M106 S255
G1 X4.209 Y8.178 F450
M106 S0
M106 S255
G1 X4.218 Y8.156 F450
M106 S0
M106 S255
G1 X4.235 Y8.137 F450
M106 S0
M106 S255
G1 X4.256 Y8.122 F450
M106 S0
M106 S255
G1 X4.277 Y8.109 F450
M106 S0
M106 S255
G1 X4.298 Y8.099 F450
M106 S0
M106 S255
G1 X4.323 Y8.09 F450
M106 S0
M106 S255
G1 X4.357 Y8.078 F450
M106 S0
M106 S255
G1 X4.4 Y8.064 F450
M106 S0
M106 S255
G1 X4.416 Y8.057 F450
M106 S0
M106 S255
G1 X4.428 Y8.049 F450
M106 S0
M106 S255
G1 X4.44 Y8.037 F450
M106 S0
M106 S255
G1 X4.451 Y8.024 F450
M106 S0
M106 S255
G1 X4.457 Y8.009 F450
M106 S0
M106 S255
G1 X4.459 Y7.993 F450
M106 S0
M106 S255
G1 X4.393 Y7.949 F450
M106 S0
M106 S255
G1 X4.184 Y7.925 F450
M106 S0
M106 S255
G1 X3.832 Y7.924 F450
M106 S0
G0 X93.63 Y19.916 F6000
M106 S255
G1 X93.63 Y19.916 F450
M106 S0
M106 S255
G1 X93.595 Y19.922 F450
M106 S0
M106 S255
G1 X93.564 Y19.937 F450
M106 S0
M106 S255
G1 X93.537 Y19.962 F450
M106 S0
M106 S255
G1 X93.518 Y19.996 F450
M106 S0
M106 S255
G1 X93.508 Y20.037 F450
M106 S0
M106 S255
G1 X93.508 Y20.083 F450
M106 S0
M106 S255
G1 X93.524 Y20.143 F450
M106 S0
M106 S255
G1 X93.557 Y20.225 F450
M106 S0
M106 S255
G1 X93.604 Y20.322 F450
M106 S0
M106 S255
G1 X93.661 Y20.414 F450
M106 S0
M106 S255
G1 X93.726 Y20.497 F450
M106 S0
M106 S255
G1 X93.796 Y20.565 F450
M106 S0
M106 S255
G1 X93.869 Y20.604 F450
M106 S0
M106 S255
G1 X93.946 Y20.615 F450
M106 S0
M106 S255
G1 X94.018 Y20.591 F450
M106 S0
M106 S255
G1 X94.057 Y20.527 F450
M106 S0
M106 S255
G1 X94.064 Y20.442 F450
M106 S0
M106 S255
G1 X94.049 Y20.371 F450
M106 S0
M106 S255
G1 X94.016 Y20.287 F450
M106 S0
M106 S255
G1 X93.967 Y20.193 F450
M106 S0
M106 S255
G1 X93.908 Y20.107 F450
M106 S0
M106 S255
G1 X93.841 Y20.03 F450
M106 S0
M106 S255
G1 X93.768 Y19.967 F450
M106 S0
M106 S255
G1 X93.698 Y19.929 F450
M106 S0
M106 S255
G1 X93.63 Y19.916 F450
M106 S0
G0 X91.379 Y20.643 F6000
M106 S255
G1 X91.379 Y20.643 F450
M106 S0
M106 S255
G1 X91.379 Y20.695 F450
M106 S0
M106 S255
G1 X91.379 Y20.791 F450
M106 S0
M106 S255
G1 X91.386 Y20.846 F450
M106 S0
M106 S255
G1 X91.486 Y20.969 F450
M106 S0
M106 S255
G1 X91.568 Y21.079 F450
M106 S0
M106 S255
G1 X91.617 Y21.168 F450
M106 S0
M106 S255
G1 X91.559 Y21.192 F450
M106 S0
M106 S255
G1 X91.514 Y21.22 F450
M106 S0
M106 S255
G1 X91.48 Y21.252 F450
M106 S0
M106 S255
G1 X91.457 Y21.292 F450
M106 S0
M106 S255
G1 X91.445 Y21.344 F450
M106 S0
M106 S255
G1 X91.443 Y21.408 F450
M106 S0
M106 S255
G1 X91.458 Y21.491 F450
M106 S0
M106 S255
G1 X91.494 Y21.588 F450
M106 S0
M106 S255
G1 X91.551 Y21.697 F450
M106 S0
M106 S255
G1 X91.62 Y21.805 F450
M106 S0
M106 S255
G1 X91.699 Y21.909 F450
M106 S0
M106 S255
G1 X91.786 Y22.006 F450
M106 S0
M106 S255
G1 X91.871 Y22.084 F450
M106 S0
M106 S255
G1 X91.951 Y22.138 F450
M106 S0
M106 S255
G1 X92.006 Y22.164 F450
M106 S0
M106 S255
G1 X92.034 Y22.174 F450
M106 S0
M106 S255
G1 X92.061 Y22.179 F450
M106 S0
M106 S255
G1 X92.093 Y22.178 F450
M106 S0
M106 S255
G1 X92.12 Y22.165 F450
M106 S0
M106 S255
G1 X92.134 Y22.138 F450
M106 S0
M106 S255
G1 X92.132 Y22.1 F450
M106 S0
M106 S255
G1 X92.109 Y22.04 F450
M106 S0
M106 S255
G1 X92.065 Y21.955 F450
M106 S0
M106 S255
G1 X92.278 Y21.951 F450
M106 S0
M106 S255
G1 X92.582 Y21.991 F450
M106 S0
M106 S255
G1 X92.78 Y22.01 F450
M106 S0
M106 S255
G1 X92.849 Y22.011 F450
M106 S0
M106 S255
G1 X92.881 Y22.007 F450
M106 S0
M106 S255
G1 X92.905 Y22.001 F450
M106 S0
M106 S255
G1 X92.934 Y21.981 F450
M106 S0
M106 S255
G1 X92.963 Y21.943 F450
M106 S0
M106 S255
G1 X92.989 Y21.887 F450
M106 S0
M106 S255
G1 X93.009 Y21.82 F450
M106 S0
M106 S255
G1 X93.021 Y21.753 F450
M106 S0
M106 S255
G1 X93.026 Y21.685 F450
M106 S0
M106 S255
G1 X93.022 Y21.638 F450
M106 S0
M106 S255
G1 X93.005 Y21.592 F450
M106 S0
M106 S255
G1 X92.974 Y21.543 F450
M106 S0
M106 S255
G1 X92.929 Y21.487 F450
M106 S0
M106 S255
G1 X92.865 Y21.415 F450
M106 S0
M106 S255
G1 X92.783 Y21.327 F450
M106 S0
M106 S255
G1 X92.681 Y21.208 F450
M106 S0
M106 S255
G1 X92.59 Y21.081 F450
M106 S0
M106 S255
G1 X92.511 Y20.948 F450
M106 S0
M106 S255
G1 X92.451 Y20.823 F450
M106 S0
M106 S255
G1 X92.416 Y20.721 F450
M106 S0
M106 S255
G1 X92.405 Y20.64 F450
M106 S0
M106 S255
G1 X92.429 Y20.563 F450
M106 S0
M106 S255
G1 X92.493 Y20.519 F450
M106 S0
M106 S255
G1 X92.599 Y20.509 F450
M106 S0
M106 S255
G1 X92.764 Y20.565 F450
M106 S0
M106 S255
G1 X92.992 Y20.707 F450
M106 S0
M106 S255
G1 X93.216 Y20.877 F450
M106 S0
M106 S255
G1 X93.216 Y20.805 F450
M106 S0
M106 S255
G1 X93.216 Y20.71 F450
M106 S0
M106 S255
G1 X93.17 Y20.631 F450
M106 S0
M106 S255
G1 X93.016 Y20.473 F450
M106 S0
M106 S255
G1 X92.882 Y20.341 F450
M106 S0
M106 S255
G1 X92.768 Y20.234 F450
M106 S0
M106 S255
G1 X92.662 Y20.144 F450
M106 S0
M106 S255
G1 X92.562 Y20.068 F450
M106 S0
M106 S255
G1 X92.468 Y20.007 F450
M106 S0
M106 S255
G1 X92.38 Y19.965 F450
M106 S0
M106 S255
G1 X92.299 Y19.944 F450
M106 S0
M106 S255
G1 X92.22 Y19.943 F450
M106 S0
M106 S255
G1 X92.144 Y19.969 F450
M106 S0
M106 S255
G1 X92.077 Y20.021 F450
M106 S0
M106 S255
G1 X92.021 Y20.1 F450
M106 S0
M106 S255
G1 X91.984 Y20.203 F450
M106 S0
M106 S255
G1 X91.966 Y20.33 F450
M106 S0
M106 S255
G1 X91.967 Y20.443 F450
M106 S0
M106 S255
G1 X91.983 Y20.539 F450
M106 S0
M106 S255
G1 X92.015 Y20.644 F450
M106 S0
M106 S255
G1 X92.062 Y20.758 F450
M106 S0
M106 S255
G1 X92.123 Y20.877 F450
M106 S0
M106 S255
G1 X92.198 Y21.004 F450
M106 S0
M106 S255
G1 X92.286 Y21.135 F450
M106 S0
M106 S255
G1 X92.381 Y21.266 F450
M106 S0
M106 S255
G1 X92.484 Y21.397 F450
M106 S0
M106 S255
G1 X92.466 Y21.42 F450
M106 S0
M106 S255
G1 X92.402 Y21.407 F450
M106 S0
M106 S255
G1 X92.334 Y21.394 F450
M106 S0
M106 S255
G1 X92.262 Y21.38 F450
M106 S0
M106 S255
G1 X92.187 Y21.367 F450
M106 S0
M106 S255
G1 X92.109 Y21.353 F450
M106 S0
M106 S255
G1 X92.034 Y21.339 F450
M106 S0
M106 S255
G1 X91.972 Y21.328 F450
M106 S0
M106 S255
G1 X91.922 Y21.318 F450
M106 S0
M106 S255
G1 X91.783 Y21.087 F450
M106 S0
M106 S255
G1 X91.6 Y20.857 F450
M106 S0
M106 S255
G1 X91.379 Y20.643 F450
M106 S0
G0 X90.458 Y21.078 F6000
M106 S255
G1 X90.458 Y21.078 F450
M106 S0
M106 S255
G1 X90.187 Y20.726 F450
M106 S0
M106 S255
G1 X89.964 Y20.45 F450
M106 S0
M106 S255
G1 X89.789 Y20.251 F450
M106 S0
M106 S255
G1 X89.646 Y20.117 F450
M106 S0
M106 S255
G1 X89.522 Y20.038 F450
M106 S0
M106 S255
G1 X89.418 Y20.016 F450
M106 S0
M106 S255
G1 X89.343 Y20.028 F450
M106 S0
M106 S255
G1 X89.273 Y20.063 F450
M106 S0
M106 S255
G1 X89.206 Y20.119 F450
M106 S0
M106 S255
G1 X89.148 Y20.192 F450
M106 S0
M106 S255
G1 X89.099 Y20.281 F450
M106 S0
M106 S255
G1 X89.06 Y20.385 F450
M106 S0
M106 S255
G1 X89.033 Y20.497 F450
M106 S0
M106 S255
G1 X89.018 Y20.615 F450
M106 S0
M106 S255
G1 X89.014 Y20.727 F450
M106 S0
M106 S255
G1 X89.018 Y20.804 F450
M106 S0
M106 S255
G1 X89.027 Y20.876 F450
M106 S0
M106 S255
G1 X89.041 Y20.943 F450
M106 S0
M106 S255
G1 X89.064 Y21.011 F450
M106 S0
M106 S255
G1 X89.095 Y21.084 F450
M106 S0
M106 S255
G1 X89.136 Y21.161 F450
M106 S0
M106 S255
G1 X89.186 Y21.243 F450
M106 S0
M106 S255
G1 X89.246 Y21.33 F450
M106 S0
M106 S255
G1 X89.315 Y21.421 F450
M106 S0
M106 S255
G1 X89.394 Y21.519 F450
M106 S0
M106 S255
G1 X89.484 Y21.626 F450
M106 S0
M106 S255
G1 X89.567 Y21.722 F450
M106 S0
M106 S255
G1 X89.622 Y21.786 F450
M106 S0
M106 S255
G1 X89.67 Y21.842 F450
M106 S0
M106 S255
G1 X89.713 Y21.891 F450
M106 S0
M106 S255
G1 X89.754 Y21.93 F450
M106 S0
M106 S255
G1 X89.794 Y21.958 F450
M106 S0
M106 S255
G1 X89.836 Y21.976 F450
M106 S0
M106 S255
G1 X89.892 Y21.987 F450
M106 S0
M106 S255
G1 X89.966 Y21.993 F450
M106 S0
M106 S255
G1 X90.04 Y21.992 F450
M106 S0
M106 S255
G1 X90.102 Y21.986 F450
M106 S0
M106 S255
G1 X90.163 Y21.974 F450
M106 S0
M106 S255
G1 X90.219 Y21.957 F450
M106 S0
M106 S255
G1 X90.256 Y21.94 F450
M106 S0
M106 S255
G1 X90.273 Y21.922 F450
M106 S0
M106 S255
G1 X90.27 Y21.888 F450
M106 S0
M106 S255
G1 X90.247 Y21.829 F450
M106 S0
M106 S255
G1 X90.204 Y21.749 F450
M106 S0
M106 S255
G1 X90.139 Y21.652 F450
M106 S0
M106 S255
G1 X90.05 Y21.54 F450
M106 S0
M106 S255
G1 X89.936 Y21.413 F450
M106 S0
M106 S255
G1 X89.8 Y21.277 F450
M106 S0
M106 S255
G1 X89.65 Y21.142 F450
M106 S0
M106 S255
G1 X89.486 Y21.009 F450
M106 S0
M106 S255
G1 X89.42 Y20.892 F450
M106 S0
M106 S255
G1 X89.398 Y20.797 F450
M106 S0
M106 S255
G1 X89.389 Y20.72 F450
M106 S0
M106 S255
G1 X89.397 Y20.647 F450
M106 S0
M106 S255
G1 X89.427 Y20.599 F450
M106 S0
M106 S255
G1 X89.479 Y20.58 F450
M106 S0
M106 S255
G1 X89.513 Y20.585 F450
M106 S0
M106 S255
G1 X89.553 Y20.604 F450
M106 S0
M106 S255
G1 X89.603 Y20.637 F450
M106 S0
M106 S255
G1 X89.671 Y20.69 F450
M106 S0
M106 S255
G1 X89.765 Y20.768 F450
M106 S0
M106 S255
G1 X89.886 Y20.873 F450
M106 S0
M106 S255
G1 X90.017 Y20.987 F450
M106 S0
M106 S255
G1 X90.138 Y21.093 F450
M106 S0
M106 S255
G1 X90.251 Y21.189 F450
M106 S0
M106 S255
G1 X90.334 Y21.269 F450
M106 S0
M106 S255
G1 X90.426 Y21.373 F450
M106 S0
M106 S255
G1 X90.527 Y21.5 F450
M106 S0
M106 S255
G1 X90.624 Y21.624 F450
M106 S0
M106 S255
G1 X90.708 Y21.726 F450
M106 S0
M106 S255
G1 X90.786 Y21.812 F450
M106 S0
M106 S255
G1 X90.917 Y21.949 F450
M106 S0
M106 S255
G1 X91.016 Y22.048 F450
M106 S0
M106 S255
G1 X91.083 Y22.109 F450
M106 S0
M106 S255
G1 X91.137 Y22.147 F450
M106 S0
M106 S255
G1 X91.19 Y22.168 F450
M106 S0
M106 S255
G1 X91.241 Y22.173 F450
M106 S0
M106 S255
G1 X91.282 Y22.166 F450
M106 S0
M106 S255
G1 X91.313 Y22.149 F450
M106 S0
M106 S255
G1 X91.333 Y22.121 F450
M106 S0
M106 S255
G1 X91.346 Y22.075 F450
M106 S0
M106 S255
G1 X91.353 Y22.007 F450
M106 S0
M106 S255
G1 X91.355 Y21.934 F450
M106 S0
M106 S255
G1 X91.353 Y21.895 F450
M106 S0
M106 S255
G1 X91.348 Y21.862 F450
M106 S0
M106 S255
G1 X91.34 Y21.834 F450
M106 S0
M106 S255
G1 X91.327 Y21.804 F450
M106 S0
M106 S255
G1 X91.308 Y21.768 F450
M106 S0
M106 S255
G1 X91.283 Y21.726 F450
M106 S0
M106 S255
G1 X91.242 Y21.664 F450
M106 S0
M106 S255
G1 X91.184 Y21.578 F450
M106 S0
M106 S255
G1 X91.109 Y21.469 F450
M106 S0
M106 S255
G1 X91.024 Y21.345 F450
M106 S0
M106 S255
G1 X90.928 Y21.207 F450
M106 S0
M106 S255
G1 X90.846 Y21.088 F450
M106 S0
M106 S255
G1 X90.794 Y21.002 F450
M106 S0
M106 S255
G1 X90.747 Y20.911 F450
M106 S0
M106 S255
G1 X90.705 Y20.817 F450
M106 S0
M106 S255
G1 X90.677 Y20.737 F450
M106 S0
M106 S255
G1 X90.663 Y20.673 F450
M106 S0
M106 S255
G1 X90.666 Y20.596 F450
M106 S0
M106 S255
G1 X90.695 Y20.528 F450
M106 S0
M106 S255
G1 X90.753 Y20.496 F450
M106 S0
M106 S255
G1 X90.827 Y20.496 F450
M106 S0
M106 S255
G1 X90.904 Y20.517 F450
M106 S0
M106 S255
G1 X90.989 Y20.557 F450
M106 S0
M106 S255
G1 X91.087 Y20.619 F450
M106 S0
M106 S255
G1 X91.216 Y20.711 F450
M106 S0
M106 S255
G1 X91.377 Y20.834 F450
M106 S0
M106 S255
G1 X91.436 Y20.853 F450
M106 S0
M106 S255
G1 X91.436 Y20.759 F450
M106 S0
M106 S255
G1 X91.436 Y20.684 F450
M106 S0
M106 S255
G1 X91.274 Y20.53 F450
M106 S0
M106 S255
G1 X91.088 Y20.36 F450
M106 S0
M106 S255
G1 X90.944 Y20.231 F450
M106 S0
M106 S255
G1 X90.832 Y20.136 F450
M106 S0
M106 S255
G1 X90.731 Y20.057 F450
M106 S0
M106 S255
G1 X90.641 Y19.995 F450
M106 S0
M106 S255
G1 X90.558 Y19.95 F450
M106 S0
M106 S255
G1 X90.479 Y19.922 F450
M106 S0
M106 S255
G1 X90.402 Y19.911 F450
M106 S0
M106 S255
G1 X90.266 Y19.936 F450
M106 S0
M106 S255
G1 X90.174 Y20.03 F450
M106 S0
M106 S255
G1 X90.14 Y20.192 F450
M106 S0
M106 S255
G1 X90.147 Y20.288 F450
M106 S0
M106 S255
G1 X90.171 Y20.391 F450
M106 S0
M106 S255
G1 X90.212 Y20.512 F450
M106 S0
M106 S255
G1 X90.273 Y20.661 F450
M106 S0
M106 S255
G1 X90.354 Y20.85 F450
M106 S0
M106 S255
G1 X90.458 Y21.078 F450
M106 S0
G0 X87.76 Y20.961 F6000
M106 S255
G1 X87.76 Y20.961 F450
M106 S0
M106 S255
G1 X87.946 Y21.044 F450
M106 S0
M106 S255
G1 X88.111 Y21.141 F450
M106 S0
M106 S255
G1 X88.256 Y21.25 F450
M106 S0
M106 S255
G1 X88.376 Y21.361 F450
M106 S0
M106 S255
G1 X88.469 Y21.468 F450
M106 S0
M106 S255
G1 X88.536 Y21.57 F450
M106 S0
M106 S255
G1 X88.578 Y21.653 F450
M106 S0
M106 S255
G1 X88.596 Y21.716 F450
M106 S0
M106 S255
G1 X88.592 Y21.762 F450
M106 S0
M106 S255
G1 X88.571 Y21.789 F450
M106 S0
M106 S255
G1 X88.534 Y21.798 F450
M106 S0
M106 S255
G1 X88.486 Y21.789 F450
M106 S0
M106 S255
G1 X88.42 Y21.762 F450
M106 S0
M106 S255
G1 X88.336 Y21.716 F450
M106 S0
M106 S255
G1 X88.247 Y21.658 F450
M106 S0
M106 S255
G1 X88.157 Y21.588 F450
M106 S0
M106 S255
G1 X88.068 Y21.507 F450
M106 S0
M106 S255
G1 X87.984 Y21.416 F450
M106 S0
M106 S255
G1 X87.907 Y21.315 F450
M106 S0
M106 S255
G1 X87.84 Y21.204 F450
M106 S0
M106 S255
G1 X87.791 Y21.086 F450
M106 S0
M106 S255
G1 X87.76 Y20.961 F450
M106 S0
G0 X87.73 Y20.766 F6000
M106 S255
G1 X87.73 Y20.766 F450
M106 S0
M106 S255
G1 X87.73 Y20.745 F450
M106 S0
M106 S255
G1 X87.73 Y20.708 F450
M106 S0
M106 S255
G1 X87.73 Y20.679 F450
M106 S0
M106 S255
G1 X87.742 Y20.568 F450
M106 S0
M106 S255
G1 X87.775 Y20.475 F450
M106 S0
M106 S255
G1 X87.829 Y20.401 F450
M106 S0
M106 S255
G1 X87.898 Y20.35 F450
M106 S0
M106 S255
G1 X87.98 Y20.321 F450
M106 S0
M106 S255
G1 X88.075 Y20.316 F450
M106 S0
M106 S255
G1 X88.179 Y20.329 F450
M106 S0
M106 S255
G1 X88.285 Y20.359 F450
M106 S0
M106 S255
G1 X88.393 Y20.405 F450
M106 S0
M106 S255
G1 X88.501 Y20.462 F450
M106 S0
M106 S255
G1 X88.609 Y20.53 F450
M106 S0
M106 S255
G1 X88.719 Y20.609 F450
M106 S0
M106 S255
G1 X88.843 Y20.707 F450
M106 S0
M106 S255
G1 X88.983 Y20.822 F450
M106 S0
M106 S255
G1 X89.044 Y20.854 F450
M106 S0
M106 S255
G1 X89.044 Y20.768 F450
M106 S0
M106 S255
G1 X89.044 Y20.696 F450
M106 S0
M106 S255
G1 X88.883 Y20.505 F450
M106 S0
M106 S255
G1 X88.661 Y20.278 F450
M106 S0
M106 S255
G1 X88.449 Y20.096 F450
M106 S0
M106 S255
G1 X88.243 Y19.962 F450
M106 S0
M106 S255
G1 X88.036 Y19.879 F450
M106 S0
M106 S255
G1 X87.826 Y19.848 F450
M106 S0
M106 S255
G1 X87.65 Y19.867 F450
M106 S0
M106 S255
G1 X87.502 Y19.936 F450
M106 S0
M106 S255
G1 X87.382 Y20.054 F450
M106 S0
M106 S255
G1 X87.292 Y20.216 F450
M106 S0
M106 S255
G1 X87.24 Y20.413 F450
M106 S0
M106 S255
G1 X87.226 Y20.643 F450
M106 S0
M106 S255
G1 X87.247 Y20.852 F450
M106 S0
M106 S255
G1 X87.303 Y21.047 F450
M106 S0
M106 S255
G1 X87.394 Y21.229 F450
M106 S0
M106 S255
G1 X87.526 Y21.411 F450
M106 S0
M106 S255
G1 X87.703 Y21.599 F450
M106 S0
M106 S255
G1 X87.9 Y21.774 F450
M106 S0
M106 S255
G1 X88.057 Y21.891 F450
M106 S0
M106 S255
G1 X88.213 Y21.984 F450
M106 S0
M106 S255
G1 X88.367 Y22.055 F450
M106 S0
M106 S255
G1 X88.512 Y22.102 F450
M106 S0
M106 S255
G1 X88.645 Y22.125 F450
M106 S0
M106 S255
G1 X88.755 Y22.126 F450
M106 S0
M106 S255
G1 X88.838 Y22.111 F450
M106 S0
M106 S255
G1 X88.908 Y22.08 F450
M106 S0
M106 S255
G1 X88.962 Y22.034 F450
M106 S0
M106 S255
G1 X88.997 Y21.973 F450
M106 S0
M106 S255
G1 X89.013 Y21.896 F450
M106 S0
M106 S255
G1 X89.006 Y21.779 F450
M106 S0
M106 S255
G1 X88.966 Y21.649 F450
M106 S0
M106 S255
G1 X88.892 Y21.519 F450
M106 S0
M106 S255
G1 X88.784 Y21.39 F450
M106 S0
M106 S255
G1 X88.641 Y21.262 F450
M106 S0
M106 S255
G1 X88.462 Y21.134 F450
M106 S0
M106 S255
G1 X88.25 Y21.008 F450
M106 S0
M106 S255
G1 X88.006 Y20.885 F450
M106 S0
M106 S255
G1 X87.73 Y20.766 F450
M106 S0
G0 X86.379 Y21.447 F6000
M106 S255
G1 X86.379 Y21.447 F450
M106 S0
M106 S255
G1 X86.491 Y21.564 F450
M106 S0
M106 S255
G1 X86.601 Y21.692 F450
M106 S0
M106 S255
G1 X86.707 Y21.831 F450
M106 S0
M106 S255
G1 X86.81 Y21.978 F450
M106 S0
M106 S255
G1 X86.908 Y22.132 F450
M106 S0
M106 S255
G1 X87.0 Y22.292 F450
M106 S0
M106 S255
G1 X87.08 Y22.441 F450
M106 S0
M106 S255
G1 X87.144 Y22.579 F450
M106 S0
M106 S255
G1 X87.193 Y22.702 F450
M106 S0
M106 S255
G1 X87.222 Y22.802 F450
M106 S0
M106 S255
G1 X87.231 Y22.878 F450
M106 S0
M106 S255
G1 X87.225 Y22.92 F450
M106 S0
M106 S255
G1 X87.206 Y22.942 F450
M106 S0
M106 S255
G1 X87.18 Y22.947 F450
M106 S0
M106 S255
G1 X87.16 Y22.941 F450
M106 S0
M106 S255
G1 X87.132 Y22.925 F450
M106 S0
M106 S255
G1 X87.046 Y22.85 F450
M106 S0
M106 S255
G1 X86.901 Y22.666 F450
M106 S0
M106 S255
G1 X86.744 Y22.405 F450
M106 S0
M106 S255
G1 X86.589 Y22.089 F450
M106 S0
M106 S255
G1 X86.466 Y21.769 F450
M106 S0
M106 S255
G1 X86.379 Y21.447 F450
M106 S0
G0 X87.276 Y20.907 F6000
M106 S255
G1 X87.276 Y20.907 F450
M106 S0
M106 S255
G1 X87.276 Y20.846 F450
M106 S0
M106 S255
G1 X87.276 Y20.735 F450
M106 S0
M106 S255
G1 X87.231 Y20.625 F450
M106 S0
M106 S255
G1 X86.832 Y20.171 F450
M106 S0
M106 S255
G1 X86.488 Y19.915 F450
M106 S0
M106 S255
G1 X86.226 Y19.855 F450
M106 S0
M106 S255
G1 X86.094 Y19.894 F450
M106 S0
M106 S255
G1 X85.984 Y19.989 F450
M106 S0
M106 S255
G1 X85.896 Y20.138 F450
M106 S0
M106 S255
G1 X85.836 Y20.328 F450
M106 S0
M106 S255
G1 X85.805 Y20.551 F450
M106 S0
M106 S255
G1 X85.803 Y20.788 F450
M106 S0
M106 S255
G1 X85.835 Y21.025 F450
M106 S0
M106 S255
G1 X85.901 Y21.29 F450
M106 S0
M106 S255
G1 X86.0 Y21.578 F450
M106 S0
M106 S255
G1 X86.123 Y21.872 F450
M106 S0
M106 S255
G1 X86.27 Y22.17 F450
M106 S0
M106 S255
G1 X86.436 Y22.464 F450
M106 S0
M106 S255
G1 X86.608 Y22.733 F450
M106 S0
M106 S255
G1 X86.784 Y22.976 F450
M106 S0
M106 S255
G1 X86.961 Y23.188 F450
M106 S0
M106 S255
G1 X87.129 Y23.353 F450
M106 S0
M106 S255
G1 X87.288 Y23.473 F450
M106 S0
M106 S255
G1 X87.362 Y23.515 F450
M106 S0
M106 S255
G1 X87.411 Y23.535 F450
M106 S0
M106 S255
G1 X87.452 Y23.542 F450
M106 S0
M106 S255
G1 X87.49 Y23.536 F450
M106 S0
M106 S255
G1 X87.519 Y23.517 F450
M106 S0
M106 S255
G1 X87.538 Y23.484 F450
M106 S0
M106 S255
G1 X87.55 Y23.435 F450
M106 S0
M106 S255
G1 X87.557 Y23.367 F450
M106 S0
M106 S255
G1 X87.558 Y23.25 F450
M106 S0
M106 S255
G1 X87.504 Y22.931 F450
M106 S0
M106 S255
G1 X87.37 Y22.568 F450
M106 S0
M106 S255
G1 X87.156 Y22.16 F450
M106 S0
M106 S255
G1 X86.873 Y21.736 F450
M106 S0
M106 S255
G1 X86.526 Y21.305 F450
M106 S0
M106 S255
G1 X86.267 Y20.991 F450
M106 S0
M106 S255
G1 X86.252 Y20.898 F450
M106 S0
M106 S255
G1 X86.245 Y20.823 F450
M106 S0
M106 S255
G1 X86.246 Y20.729 F450
M106 S0
M106 S255
G1 X86.265 Y20.613 F450
M106 S0
M106 S255
G1 X86.304 Y20.514 F450
M106 S0
M106 S255
G1 X86.362 Y20.434 F450
M106 S0
M106 S255
G1 X86.436 Y20.382 F450
M106 S0
M106 S255
G1 X86.525 Y20.359 F450
M106 S0
M106 S255
G1 X86.592 Y20.361 F450
M106 S0
M106 S255
G1 X86.648 Y20.377 F450
M106 S0
M106 S255
G1 X86.706 Y20.408 F450
M106 S0
M106 S255
G1 X86.766 Y20.45 F450
M106 S0
M106 S255
G1 X86.829 Y20.499 F450
M106 S0
M106 S255
G1 X86.894 Y20.555 F450
M106 S0
M106 S255
G1 X86.978 Y20.632 F450
M106 S0
M106 S255
G1 X87.105 Y20.749 F450
M106 S0
M106 S255
G1 X87.276 Y20.907 F450
M106 S0
G0 X84.951 Y20.069 F6000
M106 S255
G1 X84.951 Y20.069 F450
M106 S0
M106 S255
G1 X84.949 Y20.088 F450
M106 S0
M106 S255
G1 X84.946 Y20.12 F450
M106 S0
M106 S255
G1 X84.934 Y20.131 F450
M106 S0
M106 S255
G1 X84.88 Y20.127 F450
M106 S0
M106 S255
G1 X84.834 Y20.127 F450
M106 S0
M106 S255
G1 X84.796 Y20.129 F450
M106 S0
M106 S255
G1 X84.756 Y20.136 F450
M106 S0
M106 S255
G1 X84.712 Y20.147 F450
M106 S0
M106 S255
G1 X84.666 Y20.162 F450
M106 S0
M106 S255
G1 X84.626 Y20.176 F450
M106 S0
M106 S255
G1 X84.594 Y20.189 F450
M106 S0
M106 S255
G1 X84.566 Y20.202 F450
M106 S0
M106 S255
G1 X84.537 Y20.215 F450
M106 S0
M106 S255
G1 X84.506 Y20.227 F450
M106 S0
M106 S255
G1 X84.38 Y19.888 F450
M106 S0
M106 S255
G1 X84.299 Y19.559 F450
M106 S0
M106 S255
G1 X84.275 Y19.289 F450
M106 S0
M106 S255
G1 X84.284 Y19.168 F450
M106 S0
M106 S255
G1 X84.306 Y19.059 F450
M106 S0
M106 S255
G1 X84.342 Y18.965 F450
M106 S0
M106 S255
G1 X84.385 Y18.899 F450
M106 S0
M106 S255
G1 X84.433 Y18.865 F450
M106 S0
M106 S255
G1 X84.488 Y18.864 F450
M106 S0
M106 S255
G1 X84.553 Y18.897 F450
M106 S0
M106 S255
G1 X84.628 Y18.965 F450
M106 S0
M106 S255
G1 X84.71 Y19.067 F450
M106 S0
M106 S255
G1 X84.785 Y19.203 F450
M106 S0
M106 S255
G1 X84.852 Y19.372 F450
M106 S0
M106 S255
G1 X84.907 Y19.573 F450
M106 S0
M106 S255
G1 X84.94 Y19.806 F450
M106 S0
M106 S255
G1 X84.951 Y20.069 F450
M106 S0
G0 X85.848 Y20.874 F6000
M106 S255
G1 X85.848 Y20.874 F450
M106 S0
M106 S255
G1 X85.848 Y20.818 F450
M106 S0
M106 S255
G1 X85.848 Y20.717 F450
M106 S0
M106 S255
G1 X85.841 Y20.66 F450
M106 S0
M106 S255
G1 X85.73 Y20.55 F450
M106 S0
M106 S255
G1 X85.639 Y20.463 F450
M106 S0
M106 S255
G1 X85.567 Y20.399 F450
M106 S0
M106 S255
G1 X85.494 Y20.344 F450
M106 S0
M106 S255
G1 X85.405 Y20.287 F450
M106 S0
M106 S255
G1 X85.32 Y20.208 F450
M106 S0
M106 S255
G1 X85.315 Y20.035 F450
M106 S0
M106 S255
G1 X85.305 Y19.881 F450
M106 S0
M106 S255
G1 X85.288 Y19.745 F450
M106 S0
M106 S255
G1 X85.258 Y19.611 F450
M106 S0
M106 S255
G1 X85.214 Y19.472 F450
M106 S0
M106 S255
G1 X85.153 Y19.329 F450
M106 S0
M106 S255
G1 X85.071 Y19.178 F450
M106 S0
M106 S255
G1 X84.966 Y19.017 F450
M106 S0
M106 S255
G1 X84.839 Y18.85 F450
M106 S0
M106 S255
G1 X84.709 Y18.703 F450
M106 S0
M106 S255
G1 X84.581 Y18.583 F450
M106 S0
M106 S255
G1 X84.456 Y18.491 F450
M106 S0
M106 S255
G1 X84.347 Y18.428 F450
M106 S0
M106 S255
G1 X84.256 Y18.396 F450
M106 S0
M106 S255
G1 X84.178 Y18.397 F450
M106 S0
M106 S255
G1 X84.103 Y18.44 F450
M106 S0
M106 S255
G1 X84.031 Y18.527 F450
M106 S0
M106 S255
G1 X83.967 Y18.656 F450
M106 S0
M106 S255
G1 X83.923 Y18.809 F450
M106 S0
M106 S255
G1 X83.902 Y18.983 F450
M106 S0
M106 S255
G1 X83.904 Y19.172 F450
M106 S0
M106 S255
G1 X83.927 Y19.365 F450
M106 S0
M106 S255
G1 X83.972 Y19.565 F450
M106 S0
M106 S255
G1 X84.039 Y19.779 F450
M106 S0
M106 S255
G1 X84.13 Y20.032 F450
M106 S0
M106 S255
G1 X84.243 Y20.326 F450
M106 S0
M106 S255
G1 X84.219 Y20.513 F450
M106 S0
M106 S255
G1 X84.16 Y20.642 F450
M106 S0
M106 S255
G1 X84.135 Y20.771 F450
M106 S0
M106 S255
G1 X84.14 Y20.876 F450
M106 S0
M106 S255
G1 X84.162 Y20.959 F450
M106 S0
M106 S255
G1 X84.203 Y21.026 F450
M106 S0
M106 S255
G1 X84.261 Y21.08 F450
M106 S0
M106 S255
G1 X84.335 Y21.131 F450
M106 S0
M106 S255
G1 X84.423 Y21.178 F450
M106 S0
M106 S255
G1 X84.497 Y21.277 F450
M106 S0
M106 S255
G1 X84.565 Y21.374 F450
M106 S0
M106 S255
G1 X84.63 Y21.459 F450
M106 S0
M106 S255
G1 X84.701 Y21.545 F450
M106 S0
M106 S255
G1 X84.788 Y21.649 F450
M106 S0
M106 S255
G1 X84.891 Y21.771 F450
M106 S0
M106 S255
G1 X85.115 Y22.289 F450
M106 S0
M106 S255
G1 X85.365 Y22.799 F450
M106 S0
M106 S255
G1 X85.628 Y23.28 F450
M106 S0
M106 S255
G1 X85.699 Y23.401 F450
M106 S0
M106 S255
G1 X85.754 Y23.492 F450
M106 S0
M106 S255
G1 X85.795 Y23.552 F450
M106 S0
M106 S255
G1 X85.831 Y23.59 F450
M106 S0
M106 S255
G1 X85.868 Y23.611 F450
M106 S0
M106 S255
G1 X85.905 Y23.616 F450
M106 S0
M106 S255
G1 X85.938 Y23.605 F450
M106 S0
M106 S255
G1 X85.968 Y23.576 F450
M106 S0
M106 S255
G1 X85.995 Y23.529 F450
M106 S0
M106 S255
G1 X86.015 Y23.471 F450
M106 S0
M106 S255
G1 X86.026 Y23.402 F450
M106 S0
M106 S255
G1 X86.028 Y23.317 F450
M106 S0
M106 S255
G1 X86.022 Y23.222 F450
M106 S0
M106 S255
G1 X86.009 Y23.132 F450
M106 S0
M106 S255
G1 X85.989 Y23.047 F450
M106 S0
M106 S255
G1 X85.962 Y22.963 F450
M106 S0
M106 S255
G1 X85.929 Y22.879 F450
M106 S0
M106 S255
G1 X85.889 Y22.793 F450
M106 S0
M106 S255
G1 X85.84 Y22.698 F450
M106 S0
M106 S255
G1 X85.78 Y22.591 F450
M106 S0
M106 S255
G1 X85.713 Y22.478 F450
M106 S0
M106 S255
G1 X85.661 Y22.389 F450
M106 S0
M106 S255
G1 X85.627 Y22.331 F450
M106 S0
M106 S255
G1 X85.562 Y22.217 F450
M106 S0
M106 S255
G1 X85.45 Y22.024 F450
M106 S0
M106 S255
G1 X85.33 Y21.818 F450
M106 S0
M106 S255
G1 X85.205 Y21.606 F450
M106 S0
M106 S255
G1 X85.097 Y21.422 F450
M106 S0
M106 S255
G1 X85.007 Y21.269 F450
M106 S0
M106 S255
G1 X84.934 Y21.145 F450
M106 S0
M106 S255
G1 X84.876 Y21.043 F450
M106 S0
M106 S255
G1 X84.832 Y20.962 F450
M106 S0
M106 S255
G1 X84.896 Y20.877 F450
M106 S0
M106 S255
G1 X84.987 Y20.792 F450
M106 S0
M106 S255
G1 X85.063 Y20.716 F450
M106 S0
M106 S255
G1 X85.126 Y20.644 F450
M106 S0
M106 S255
G1 X85.182 Y20.563 F450
M106 S0
M106 S255
G1 X85.233 Y20.473 F450
M106 S0
M106 S255
G1 X85.297 Y20.48 F450
M106 S0
M106 S255
G1 X85.361 Y20.511 F450
M106 S0
M106 S255
G1 X85.421 Y20.545 F450
M106 S0
M106 S255
G1 X85.481 Y20.586 F450
M106 S0
M106 S255
G1 X85.548 Y20.635 F450
M106 S0
M106 S255
G1 X85.621 Y20.694 F450
M106 S0
M106 S255
G1 X85.698 Y20.757 F450
M106 S0
M106 S255
G1 X85.774 Y20.817 F450
M106 S0
M106 S255
G1 X85.848 Y20.874 F450
M106 S0
G0 X82.229 Y21.417 F6000
M106 S255
G1 X82.229 Y21.417 F450
M106 S0
M106 S255
G1 X81.931 Y21.059 F450
M106 S0
M106 S255
G1 X81.755 Y20.783 F450
M106 S0
M106 S255
G1 X81.701 Y20.593 F450
M106 S0
M106 S255
G1 X81.714 Y20.522 F450
M106 S0
M106 S255
G1 X81.751 Y20.481 F450
M106 S0
M106 S255
G1 X81.812 Y20.469 F450
M106 S0
M106 S255
G1 X81.878 Y20.482 F450
M106 S0
M106 S255
G1 X81.957 Y20.515 F450
M106 S0
M106 S255
G1 X82.048 Y20.57 F450
M106 S0
M106 S255
G1 X82.166 Y20.654 F450
M106 S0
M106 S255
G1 X82.321 Y20.771 F450
M106 S0
M106 S255
G1 X82.469 Y20.883 F450
M106 S0
M106 S255
G1 X82.469 Y20.81 F450
M106 S0
M106 S255
G1 X82.469 Y20.711 F450
M106 S0
M106 S255
G1 X82.394 Y20.606 F450
M106 S0
M106 S255
G1 X82.14 Y20.362 F450
M106 S0
M106 S255
G1 X81.931 Y20.172 F450
M106 S0
M106 S255
G1 X81.767 Y20.035 F450
M106 S0
M106 S255
G1 X81.628 Y19.943 F450
M106 S0
M106 S255
G1 X81.508 Y19.895 F450
M106 S0
M106 S255
G1 X81.385 Y19.891 F450
M106 S0
M106 S255
G1 X81.267 Y19.956 F450
M106 S0
M106 S255
G1 X81.206 Y20.096 F450
M106 S0
M106 S255
G1 X81.197 Y20.238 F450
M106 S0
M106 S255
G1 X81.203 Y20.302 F450
M106 S0
M106 S255
G1 X81.217 Y20.366 F450
M106 S0
M106 S255
G1 X81.237 Y20.43 F450
M106 S0
M106 S255
G1 X81.262 Y20.495 F450
M106 S0
M106 S255
G1 X81.293 Y20.561 F450
M106 S0
M106 S255
G1 X81.329 Y20.632 F450
M106 S0
M106 S255
G1 X81.378 Y20.721 F450
M106 S0
M106 S255
G1 X81.44 Y20.829 F450
M106 S0
M106 S255
G1 X81.513 Y20.957 F450
M106 S0
M106 S255
G1 X81.595 Y21.096 F450
M106 S0
M106 S255
G1 X81.684 Y21.247 F450
M106 S0
M106 S255
G1 X81.641 Y21.261 F450
M106 S0
M106 S255
G1 X81.502 Y21.157 F450
M106 S0
M106 S255
G1 X81.344 Y21.014 F450
M106 S0
M106 S255
G1 X81.214 Y20.886 F450
M106 S0
M106 S255
G1 X81.114 Y20.781 F450
M106 S0
M106 S255
G1 X81.026 Y20.679 F450
M106 S0
M106 S255
G1 X80.945 Y20.578 F450
M106 S0
M106 S255
G1 X80.861 Y20.47 F450
M106 S0
M106 S255
G1 X80.773 Y20.354 F450
M106 S0
M106 S255
G1 X80.687 Y20.242 F450
M106 S0
M106 S255
G1 X80.618 Y20.155 F450
M106 S0
M106 S255
G1 X80.565 Y20.096 F450
M106 S0
M106 S255
G1 X80.523 Y20.059 F450
M106 S0
M106 S255
G1 X80.481 Y20.036 F450
M106 S0
M106 S255
G1 X80.439 Y20.028 F450
M106 S0
M106 S255
G1 X80.377 Y20.046 F450
M106 S0
M106 S255
G1 X80.317 Y20.111 F450
M106 S0
M106 S255
G1 X80.26 Y20.221 F450
M106 S0
M106 S255
G1 X80.213 Y20.365 F450
M106 S0
M106 S255
G1 X80.185 Y20.523 F450
M106 S0
M106 S255
G1 X80.176 Y20.697 F450
M106 S0
M106 S255
G1 X80.18 Y20.8 F450
M106 S0
M106 S255
G1 X80.193 Y20.888 F450
M106 S0
M106 S255
G1 X80.215 Y20.958 F450
M106 S0
M106 S255
G1 X80.25 Y21.031 F450
M106 S0
M106 S255
G1 X80.301 Y21.122 F450
M106 S0
M106 S255
G1 X80.377 Y21.241 F450
M106 S0
M106 S255
G1 X80.509 Y21.434 F450
M106 S0
M106 S255
G1 X80.629 Y21.587 F450
M106 S0
M106 S255
G1 X80.735 Y21.701 F450
M106 S0
M106 S255
G1 X80.835 Y21.779 F450
M106 S0
M106 S255
G1 X80.932 Y21.823 F450
M106 S0
M106 S255
G1 X81.021 Y21.834 F450
M106 S0
M106 S255
G1 X81.08 Y21.829 F450
M106 S0
M106 S255
G1 X81.13 Y21.816 F450
M106 S0
M106 S255
G1 X81.172 Y21.795 F450
M106 S0
M106 S255
G1 X81.201 Y21.766 F450
M106 S0
M106 S255
G1 X81.217 Y21.729 F450
M106 S0
M106 S255
G1 X81.22 Y21.693 F450
M106 S0
M106 S255
G1 X81.217 Y21.672 F450
M106 S0
M106 S255
G1 X81.209 Y21.65 F450
M106 S0
M106 S255
G1 X81.198 Y21.628 F450
M106 S0
M106 S255
G1 X81.185 Y21.607 F450
M106 S0
M106 S255
G1 X81.17 Y21.587 F450
M106 S0
M106 S255
G1 X81.154 Y21.567 F450
M106 S0
M106 S255
G1 X81.129 Y21.538 F450
M106 S0
M106 S255
G1 X81.091 Y21.497 F450
M106 S0
M106 S255
G1 X80.927 Y21.312 F450
M106 S0
M106 S255
G1 X80.712 Y21.038 F450
M106 S0
M106 S255
G1 X80.605 Y20.849 F450
M106 S0
M106 S255
G1 X80.595 Y20.761 F450
M106 S0
M106 S255
G1 X80.608 Y20.723 F450
M106 S0
M106 S255
G1 X80.635 Y20.704 F450
M106 S0
M106 S255
G1 X80.667 Y20.707 F450
M106 S0
M106 S255
G1 X80.708 Y20.736 F450
M106 S0
M106 S255
G1 X80.765 Y20.791 F450
M106 S0
M106 S255
G1 X80.837 Y20.871 F450
M106 S0
M106 S255
G1 X80.923 Y20.968 F450
M106 S0
M106 S255
G1 X81.022 Y21.082 F450
M106 S0
M106 S255
G1 X81.136 Y21.209 F450
M106 S0
M106 S255
G1 X81.263 Y21.341 F450
M106 S0
M106 S255
G1 X81.404 Y21.477 F450
M106 S0
M106 S255
G1 X81.56 Y21.614 F450
M106 S0
M106 S255
G1 X81.729 Y21.748 F450
M106 S0
M106 S255
G1 X81.912 Y21.879 F450
M106 S0
M106 S255
G1 X82.034 Y21.958 F450
M106 S0
M106 S255
G1 X82.126 Y22.0 F450
M106 S0
M106 S255
G1 X82.205 Y22.017 F450
M106 S0
M106 S255
G1 X82.244 Y22.006 F450
M106 S0
M106 S255
G1 X82.276 Y21.966 F450
M106 S0
M106 S255
G1 X82.308 Y21.894 F450
M106 S0
M106 S255
G1 X82.335 Y21.805 F450
M106 S0
M106 S255
G1 X82.352 Y21.714 F450
M106 S0
M106 S255
G1 X82.358 Y21.623 F450
M106 S0
M106 S255
G1 X82.344 Y21.568 F450
M106 S0
M106 S255
G1 X82.301 Y21.501 F450
M106 S0
M106 S255
G1 X82.229 Y21.417 F450
M106 S0
G0 X78.922 Y20.961 F6000
M106 S255
G1 X78.922 Y20.961 F450
M106 S0
M106 S255
G1 X79.108 Y21.044 F450
M106 S0
M106 S255
G1 X79.273 Y21.141 F450
M106 S0
M106 S255
G1 X79.418 Y21.25 F450
M106 S0
M106 S255
G1 X79.538 Y21.361 F450
M106 S0
M106 S255
G1 X79.631 Y21.468 F450
M106 S0
M106 S255
G1 X79.698 Y21.57 F450
M106 S0
M106 S255
G1 X79.74 Y21.653 F450
M106 S0
M106 S255
G1 X79.758 Y21.716 F450
M106 S0
M106 S255
G1 X79.754 Y21.762 F450
M106 S0
M106 S255
G1 X79.733 Y21.789 F450
M106 S0
M106 S255
G1 X79.696 Y21.798 F450
M106 S0
M106 S255
G1 X79.648 Y21.789 F450
M106 S0
M106 S255
G1 X79.582 Y21.762 F450
M106 S0
M106 S255
G1 X79.498 Y21.716 F450
M106 S0
M106 S255
G1 X79.409 Y21.658 F450
M106 S0
M106 S255
G1 X79.319 Y21.588 F450
M106 S0
M106 S255
G1 X79.23 Y21.507 F450
M106 S0
M106 S255
G1 X79.146 Y21.416 F450
M106 S0
M106 S255
G1 X79.069 Y21.315 F450
M106 S0
M106 S255
G1 X79.002 Y21.204 F450
M106 S0
M106 S255
G1 X78.952 Y21.086 F450
M106 S0
M106 S255
G1 X78.922 Y20.961 F450
M106 S0
G0 X78.892 Y20.766 F6000
M106 S255
G1 X78.892 Y20.766 F450
M106 S0
M106 S255
G1 X78.892 Y20.745 F450
M106 S0
M106 S255
G1 X78.892 Y20.708 F450
M106 S0
M106 S255
G1 X78.892 Y20.679 F450
M106 S0
M106 S255
G1 X78.904 Y20.568 F450
M106 S0
M106 S255
G1 X78.937 Y20.475 F450
M106 S0
M106 S255
G1 X78.991 Y20.401 F450
M106 S0
M106 S255
G1 X79.06 Y20.35 F450
M106 S0
M106 S255
G1 X79.142 Y20.321 F450
M106 S0
M106 S255
G1 X79.237 Y20.316 F450
M106 S0
M106 S255
G1 X79.341 Y20.329 F450
M106 S0
M106 S255
G1 X79.446 Y20.359 F450
M106 S0
M106 S255
G1 X79.555 Y20.405 F450
M106 S0
M106 S255
G1 X79.663 Y20.462 F450
M106 S0
M106 S255
G1 X79.771 Y20.53 F450
M106 S0
M106 S255
G1 X79.881 Y20.609 F450
M106 S0
M106 S255
G1 X80.005 Y20.707 F450
M106 S0
M106 S255
G1 X80.145 Y20.822 F450
M106 S0
M106 S255
G1 X80.206 Y20.854 F450
M106 S0
M106 S255
G1 X80.206 Y20.768 F450
M106 S0
M106 S255
G1 X80.206 Y20.696 F450
M106 S0
M106 S255
G1 X80.045 Y20.505 F450
M106 S0
M106 S255
G1 X79.823 Y20.278 F450
M106 S0
M106 S255
G1 X79.611 Y20.096 F450
M106 S0
M106 S255
G1 X79.405 Y19.962 F450
M106 S0
M106 S255
G1 X79.197 Y19.879 F450
M106 S0
M106 S255
G1 X78.988 Y19.848 F450
M106 S0
M106 S255
G1 X78.811 Y19.867 F450
M106 S0
M106 S255
G1 X78.664 Y19.936 F450
M106 S0
M106 S255
G1 X78.543 Y20.054 F450
M106 S0
M106 S255
G1 X78.454 Y20.216 F450
M106 S0
M106 S255
G1 X78.402 Y20.413 F450
M106 S0
M106 S255
G1 X78.388 Y20.643 F450
M106 S0
M106 S255
G1 X78.408 Y20.852 F450
M106 S0
M106 S255
G1 X78.464 Y21.047 F450
M106 S0
M106 S255
G1 X78.556 Y21.229 F450
M106 S0
M106 S255
G1 X78.688 Y21.411 F450
M106 S0
M106 S255
G1 X78.865 Y21.599 F450
M106 S0
M106 S255
G1 X79.062 Y21.774 F450
M106 S0
M106 S255
G1 X79.218 Y21.891 F450
M106 S0
M106 S255
G1 X79.374 Y21.984 F450
M106 S0
M106 S255
G1 X79.529 Y22.055 F450
M106 S0
M106 S255
G1 X79.674 Y22.102 F450
M106 S0
M106 S255
G1 X79.807 Y22.125 F450
M106 S0
M106 S255
G1 X79.917 Y22.126 F450
M106 S0
M106 S255
G1 X80.0 Y22.111 F450
M106 S0
M106 S255
G1 X80.07 Y22.08 F450
M106 S0
M106 S255
G1 X80.124 Y22.034 F450
M106 S0
M106 S255
G1 X80.159 Y21.973 F450
M106 S0
M106 S255
G1 X80.175 Y21.896 F450
M106 S0
M106 S255
G1 X80.168 Y21.779 F450
M106 S0
M106 S255
G1 X80.127 Y21.649 F450
M106 S0
M106 S255
G1 X80.054 Y21.519 F450
M106 S0
M106 S255
G1 X79.946 Y21.39 F450
M106 S0
M106 S255
G1 X79.803 Y21.262 F450
M106 S0
M106 S255
G1 X79.624 Y21.134 F450
M106 S0
M106 S255
G1 X79.412 Y21.008 F450
M106 S0
M106 S255
G1 X79.167 Y20.885 F450
M106 S0
M106 S255
G1 X78.892 Y20.766 F450
M106 S0
G0 X75.401 Y20.961 F6000
M106 S255
G1 X75.401 Y20.961 F450
M106 S0
M106 S255
G1 X75.587 Y21.044 F450
M106 S0
M106 S255
G1 X75.753 Y21.141 F450
M106 S0
M106 S255
G1 X75.898 Y21.25 F450
M106 S0
M106 S255
G1 X76.017 Y21.361 F450
M106 S0
M106 S255
G1 X76.11 Y21.468 F450
M106 S0
M106 S255
G1 X76.177 Y21.57 F450
M106 S0
M106 S255
G1 X76.22 Y21.653 F450
M106 S0
M106 S255
G1 X76.238 Y21.716 F450
M106 S0
M106 S255
G1 X76.234 Y21.762 F450
M106 S0
M106 S255
G1 X76.213 Y21.789 F450
M106 S0
M106 S255
G1 X76.176 Y21.798 F450
M106 S0
M106 S255
G1 X76.127 Y21.789 F450
M106 S0
M106 S255
G1 X76.061 Y21.762 F450
M106 S0
M106 S255
G1 X75.978 Y21.716 F450
M106 S0
M106 S255
G1 X75.889 Y21.658 F450
M106 S0
M106 S255
G1 X75.799 Y21.588 F450
M106 S0
M106 S255
G1 X75.709 Y21.507 F450
M106 S0
M106 S255
G1 X75.626 Y21.416 F450
M106 S0
M106 S255
G1 X75.549 Y21.315 F450
M106 S0
M106 S255
G1 X75.481 Y21.204 F450
M106 S0
M106 S255
G1 X75.432 Y21.086 F450
M106 S0
M106 S255
G1 X75.401 Y20.961 F450
M106 S0
G0 X75.371 Y20.766 F6000
M106 S255
G1 X75.371 Y20.766 F450
M106 S0
M106 S255
G1 X75.371 Y20.745 F450
M106 S0
M106 S255
G1 X75.371 Y20.708 F450
M106 S0
M106 S255
G1 X75.371 Y20.679 F450
M106 S0
M106 S255
G1 X75.384 Y20.568 F450
M106 S0
M106 S255
G1 X75.417 Y20.475 F450
M106 S0
M106 S255
G1 X75.471 Y20.401 F450
M106 S0
M106 S255
G1 X75.54 Y20.35 F450
M106 S0
M106 S255
G1 X75.621 Y20.321 F450
M106 S0
M106 S255
G1 X75.717 Y20.316 F450
M106 S0
M106 S255
G1 X75.82 Y20.329 F450
M106 S0
M106 S255
G1 X75.926 Y20.359 F450
M106 S0
M106 S255
G1 X76.034 Y20.405 F450
M106 S0
M106 S255
G1 X76.143 Y20.462 F450
M106 S0
M106 S255
G1 X76.251 Y20.53 F450
M106 S0
M106 S255
G1 X76.36 Y20.609 F450
M106 S0
M106 S255
G1 X76.484 Y20.707 F450
M106 S0
M106 S255
G1 X76.625 Y20.822 F450
M106 S0
M106 S255
G1 X76.686 Y20.854 F450
M106 S0
M106 S255
G1 X76.686 Y20.768 F450
M106 S0
M106 S255
G1 X76.686 Y20.696 F450
M106 S0
M106 S255
G1 X76.524 Y20.505 F450
M106 S0
M106 S255
G1 X76.303 Y20.278 F450
M106 S0
M106 S255
G1 X76.091 Y20.096 F450
M106 S0
M106 S255
G1 X75.885 Y19.962 F450
M106 S0
M106 S255
G1 X75.677 Y19.879 F450
M106 S0
M106 S255
G1 X75.467 Y19.848 F450
M106 S0
M106 S255
G1 X75.291 Y19.867 F450
M106 S0
M106 S255
G1 X75.144 Y19.936 F450
M106 S0
M106 S255
G1 X75.023 Y20.054 F450
M106 S0
M106 S255
G1 X74.934 Y20.216 F450
M106 S0
M106 S255
G1 X74.882 Y20.413 F450
M106 S0
M106 S255
G1 X74.867 Y20.643 F450
M106 S0
M106 S255
G1 X74.888 Y20.852 F450
M106 S0
M106 S255
G1 X74.944 Y21.047 F450
M106 S0
M106 S255
G1 X75.035 Y21.229 F450
M106 S0
M106 S255
