;GCode generated by Numa's program v0.0
G0 X63.562 Y75.551 F6000
M106 S255
G1 X63.562 Y75.551 F800
M106 S0
M106 S255
G1 X63.367 Y75.551 F800
M106 S0
M106 S255
G1 X63.41 Y75.323 F800
M106 S0
M106 S255
G1 X63.517 Y75.156 F800
M106 S0
M106 S255
G1 X63.682 Y75.055 F800
M106 S0
M106 S255
G1 X63.905 Y75.019 F800
M106 S0
M106 S255
G1 X64.126 Y75.053 F800
M106 S0
M106 S255
G1 X64.291 Y75.147 F800
M106 S0
M106 S255
G1 X64.396 Y75.295 F800
M106 S0
M106 S255
G1 X64.434 Y75.49 F800
M106 S0
M106 S255
G1 X64.402 Y75.666 F800
M106 S0
M106 S255
G1 X64.312 Y75.78 F800
M106 S0
M106 S255
G1 X64.166 Y75.855 F800
M106 S0
M106 S255
G1 X63.971 Y75.911 F800
M106 S0
M106 S255
G1 X63.804 Y75.951 F800
M106 S0
M106 S255
G1 X63.695 Y75.999 F800
M106 S0
M106 S255
G1 X63.633 Y76.067 F800
M106 S0
M106 S255
G1 X63.613 Y76.174 F800
M106 S0
M106 S255
G1 X63.633 Y76.271 F800
M106 S0
M106 S255
G1 X63.688 Y76.344 F800
M106 S0
M106 S255
G1 X63.774 Y76.393 F800
M106 S0
M106 S255
G1 X63.892 Y76.41 F800
M106 S0
M106 S255
G1 X64.012 Y76.389 F800
M106 S0
M106 S255
G1 X64.106 Y76.331 F800
M106 S0
M106 S255
G1 X64.169 Y76.235 F800
M106 S0
M106 S255
G1 X64.199 Y76.104 F800
M106 S0
M106 S255
G1 X64.394 Y76.104 F800
M106 S0
M106 S255
G1 X64.394 Y76.108 F800
M106 S0
M106 S255
G1 X64.359 Y76.31 F800
M106 S0
M106 S255
G1 X64.259 Y76.46 F800
M106 S0
M106 S255
G1 X64.1 Y76.554 F800
M106 S0
M106 S255
G1 X63.886 Y76.586 F800
M106 S0
M106 S255
G1 X63.693 Y76.554 F800
M106 S0
M106 S255
G1 X63.542 Y76.464 F800
M106 S0
M106 S255
G1 X63.446 Y76.325 F800
M106 S0
M106 S255
G1 X63.412 Y76.144 F800
M106 S0
M106 S255
G1 X63.44 Y75.984 F800
M106 S0
M106 S255
G1 X63.521 Y75.874 F800
M106 S0
M106 S255
G1 X63.65 Y75.801 F800
M106 S0
M106 S255
G1 X63.826 Y75.746 F800
M106 S0
M106 S255
G1 X63.999 Y75.696 F800
M106 S0
M106 S255
G1 X64.13 Y75.649 F800
M106 S0
M106 S255
G1 X64.209 Y75.581 F800
M106 S0
M106 S255
G1 X64.237 Y75.469 F800
M106 S0
M106 S255
G1 X64.211 Y75.355 F800
M106 S0
M106 S255
G1 X64.145 Y75.27 F800
M106 S0
M106 S255
G1 X64.044 Y75.216 F800
M106 S0
M106 S255
G1 X63.913 Y75.199 F800
M106 S0
M106 S255
G1 X63.768 Y75.222 F800
M106 S0
M106 S255
G1 X63.656 Y75.291 F800
M106 S0
M106 S255
G1 X63.585 Y75.403 F800
M106 S0
G0 X64.913 Y75.581 F6000
M106 S255
G1 X64.913 Y75.581 F800
M106 S0
M106 S255
G1 X65.667 Y75.581 F800
M106 S0
M106 S255
G1 X65.669 Y75.668 F800
M106 S0
M106 S255
G1 X65.635 Y75.915 F800
M106 S0
M106 S255
G1 X65.541 Y76.099 F800
M106 S0
M106 S255
G1 X65.391 Y76.211 F800
M106 S0
M106 S255
G1 X65.191 Y76.252 F800
M106 S0
M106 S255
G1 X64.996 Y76.209 F800
M106 S0
M106 S255
G1 X64.846 Y76.089 F800
M106 S0
M106 S255
G1 X64.75 Y75.894 F800
M106 S0
M106 S255
G1 X64.715 Y75.636 F800
M106 S0
M106 S255
G1 X64.747 Y75.373 F800
M106 S0
M106 S255
G1 X64.844 Y75.18 F800
M106 S0
M106 S255
G1 X64.992 Y75.06 F800
M106 S0
M106 S255
G1 X65.185 Y75.019 F800
M106 S0
M106 S255
G1 X65.352 Y75.047 F800
M106 S0
M106 S255
G1 X65.489 Y75.12 F800
M106 S0
M106 S255
G1 X65.59 Y75.235 F800
M106 S0
M106 S255
G1 X65.648 Y75.39 F800
M106 S0
M106 S255
G1 X65.461 Y75.39 F800
M106 S0
M106 S255
G1 X65.423 Y75.304 F800
M106 S0
M106 S255
G1 X65.367 Y75.24 F800
M106 S0
M106 S255
G1 X65.208 Y75.188 F800
M106 S0
M106 S255
G1 X65.086 Y75.212 F800
M106 S0
M106 S255
G1 X64.994 Y75.287 F800
M106 S0
M106 S255
G1 X64.934 Y75.409 F800
M106 S0
M106 S255
G1 X64.913 Y75.574 F800
M106 S0
G0 X64.913 Y75.739 F6000
M106 S255
G1 X64.913 Y75.739 F800
M106 S0
M106 S255
G1 X64.936 Y75.887 F800
M106 S0
M106 S255
G1 X64.994 Y75.997 F800
M106 S0
M106 S255
G1 X65.082 Y76.063 F800
M106 S0
M106 S255
G1 X65.198 Y76.087 F800
M106 S0
M106 S255
G1 X65.311 Y76.063 F800
M106 S0
M106 S255
G1 X65.399 Y75.997 F800
M106 S0
M106 S255
G1 X65.453 Y75.887 F800
M106 S0
M106 S255
G1 X65.472 Y75.739 F800
M106 S0
G0 X66.772 Y75.829 F6000
M106 S255
G1 X66.772 Y75.829 F800
M106 S0
M106 S255
G1 X66.958 Y75.829 F800
M106 S0
M106 S255
G1 X66.92 Y76.001 F800
M106 S0
M106 S255
G1 X66.827 Y76.136 F800
M106 S0
M106 S255
G1 X66.684 Y76.22 F800
M106 S0
M106 S255
G1 X66.497 Y76.252 F800
M106 S0
M106 S255
G1 X66.291 Y76.209 F800
M106 S0
M106 S255
G1 X66.135 Y76.089 F800
M106 S0
M106 S255
G1 X66.036 Y75.894 F800
M106 S0
M106 S255
G1 X66.002 Y75.632 F800
M106 S0
M106 S255
G1 X66.034 Y75.373 F800
M106 S0
M106 S255
G1 X66.13 Y75.18 F800
M106 S0
M106 S255
G1 X66.283 Y75.06 F800
M106 S0
M106 S255
G1 X66.491 Y75.019 F800
M106 S0
M106 S255
G1 X66.675 Y75.051 F800
M106 S0
M106 S255
G1 X66.819 Y75.141 F800
M106 S0
M106 S255
G1 X66.917 Y75.283 F800
M106 S0
M106 S255
G1 X66.96 Y75.471 F800
M106 S0
M106 S255
G1 X66.78 Y75.471 F800
M106 S0
M106 S255
G1 X66.748 Y75.351 F800
M106 S0
M106 S255
G1 X66.688 Y75.261 F800
M106 S0
M106 S255
G1 X66.602 Y75.205 F800
M106 S0
M106 S255
G1 X66.497 Y75.188 F800
M106 S0
M106 S255
G1 X66.366 Y75.216 F800
M106 S0
M106 S255
G1 X66.272 Y75.302 F800
M106 S0
M106 S255
G1 X66.214 Y75.441 F800
M106 S0
M106 S255
G1 X66.195 Y75.638 F800
M106 S0
M106 S255
G1 X66.214 Y75.831 F800
M106 S0
M106 S255
G1 X66.274 Y75.971 F800
M106 S0
M106 S255
G1 X66.371 Y76.057 F800
M106 S0
M106 S255
G1 X66.497 Y76.087 F800
M106 S0
M106 S255
G1 X66.609 Y76.067 F800
M106 S0
M106 S255
G1 X66.692 Y76.018 F800
M106 S0
M106 S255
G1 X66.748 Y75.936 F800
M106 S0
G0 X67.582 Y76.012 F6000
M106 S255
G1 X67.582 Y76.012 F800
M106 S0
M106 S255
G1 X67.582 Y75.435 F800
M106 S0
M106 S255
G1 X67.595 Y75.248 F800
M106 S0
M106 S255
G1 X67.655 Y75.12 F800
M106 S0
M106 S255
G1 X67.775 Y75.045 F800
M106 S0
M106 S255
G1 X67.979 Y75.019 F800
M106 S0
M106 S255
G1 X68.202 Y75.03 F800
M106 S0
M106 S255
G1 X68.202 Y75.192 F800
M106 S0
M106 S255
G1 X68.039 Y75.18 F800
M106 S0
M106 S255
G1 X67.891 Y75.197 F800
M106 S0
M106 S255
G1 X67.811 Y75.25 F800
M106 S0
M106 S255
G1 X67.777 Y75.34 F800
M106 S0
M106 S255
G1 X67.771 Y75.467 F800
M106 S0
M106 S255
G1 X67.771 Y76.012 F800
M106 S0
M106 S255
G1 X68.202 Y76.012 F800
M106 S0
M106 S255
G1 X68.202 Y76.172 F800
M106 S0
M106 S255
G1 X67.771 Y76.172 F800
M106 S0
M106 S255
G1 X67.771 Y76.509 F800
M106 S0
M106 S255
G1 X67.582 Y76.509 F800
M106 S0
M106 S255
G1 X67.582 Y76.172 F800
M106 S0
M106 S255
G1 X67.256 Y76.172 F800
M106 S0
M106 S255
G1 X67.256 Y76.012 F800
M106 S0
G0 X69.197 Y75.218 F6000
M106 S255
G1 X69.197 Y75.218 F800
M106 S0
M106 S255
G1 X69.197 Y76.172 F800
M106 S0
M106 S255
G1 X68.712 Y76.172 F800
M106 S0
M106 S255
G1 X68.712 Y76.012 F800
M106 S0
M106 S255
G1 X69.008 Y76.012 F800
M106 S0
M106 S255
G1 X69.008 Y75.218 F800
M106 S0
M106 S255
G1 X68.622 Y75.218 F800
M106 S0
M106 S255
G1 X68.622 Y75.06 F800
M106 S0
M106 S255
G1 X69.587 Y75.06 F800
M106 S0
M106 S255
G1 X69.587 Y75.218 F800
M106 S0
G0 X69.203 Y76.599 F6000
M106 S255
G1 X69.203 Y76.599 F800
M106 S0
M106 S255
G1 X69.004 Y76.599 F800
M106 S0
M106 S255
G1 X69.004 Y76.385 F800
M106 S0
M106 S255
G1 X69.203 Y76.385 F800
M106 S0
G0 X69.855 Y75.634 F6000
M106 S255
G1 X69.855 Y75.634 F800
M106 S0
M106 S255
G1 X69.889 Y75.373 F800
M106 S0
M106 S255
G1 X69.988 Y75.18 F800
M106 S0
M106 S255
G1 X70.144 Y75.06 F800
M106 S0
M106 S255
G1 X70.354 Y75.019 F800
M106 S0
M106 S255
G1 X70.562 Y75.06 F800
M106 S0
M106 S255
G1 X70.719 Y75.177 F800
M106 S0
M106 S255
G1 X70.818 Y75.37 F800
M106 S0
M106 S255
G1 X70.854 Y75.634 F800
M106 S0
M106 S255
G1 X70.818 Y75.896 F800
M106 S0
M106 S255
G1 X70.719 Y76.091 F800
M106 S0
M106 S255
G1 X70.562 Y76.209 F800
M106 S0
M106 S255
G1 X70.354 Y76.252 F800
M106 S0
M106 S255
G1 X70.144 Y76.209 F800
M106 S0
M106 S255
G1 X69.988 Y76.089 F800
M106 S0
M106 S255
G1 X69.889 Y75.896 F800
M106 S0
G0 X70.048 Y75.636 F6000
M106 S255
G1 X70.048 Y75.636 F800
M106 S0
M106 S255
G1 X70.067 Y75.829 F800
M106 S0
M106 S255
G1 X70.127 Y75.969 F800
M106 S0
M106 S255
G1 X70.224 Y76.054 F800
M106 S0
M106 S255
G1 X70.354 Y76.084 F800
M106 S0
M106 S255
G1 X70.483 Y76.054 F800
M106 S0
M106 S255
G1 X70.58 Y75.971 F800
M106 S0
M106 S255
G1 X70.64 Y75.829 F800
M106 S0
M106 S255
G1 X70.661 Y75.636 F800
M106 S0
M106 S255
G1 X70.64 Y75.441 F800
M106 S0
M106 S255
G1 X70.58 Y75.3 F800
M106 S0
M106 S255
G1 X70.483 Y75.214 F800
M106 S0
M106 S255
G1 X70.354 Y75.186 F800
M106 S0
M106 S255
G1 X70.224 Y75.214 F800
M106 S0
M106 S255
G1 X70.127 Y75.3 F800
M106 S0
M106 S255
G1 X70.067 Y75.441 F800
M106 S0
G0 X71.201 Y75.06 F6000
M106 S255
G1 X71.201 Y75.06 F800
M106 S0
M106 S255
G1 X71.39 Y75.06 F800
M106 S0
M106 S255
G1 X71.39 Y75.724 F800
M106 S0
M106 S255
G1 X71.409 Y75.876 F800
M106 S0
M106 S255
G1 X71.471 Y75.988 F800
M106 S0
M106 S255
G1 X71.568 Y76.057 F800
M106 S0
M106 S255
G1 X71.697 Y76.082 F800
M106 S0
M106 S255
G1 X71.8 Y76.061 F800
M106 S0
M106 S255
G1 X71.864 Y76.003 F800
M106 S0
M106 S255
G1 X71.896 Y75.906 F800
M106 S0
M106 S255
G1 X71.907 Y75.778 F800
M106 S0
M106 S255
G1 X71.907 Y75.06 F800
M106 S0
M106 S255
G1 X72.095 Y75.06 F800
M106 S0
M106 S255
G1 X72.095 Y75.816 F800
M106 S0
M106 S255
G1 X72.087 Y75.969 F800
M106 S0
M106 S255
G1 X72.048 Y76.095 F800
M106 S0
M106 S255
G1 X71.922 Y76.211 F800
M106 S0
M106 S255
G1 X71.725 Y76.252 F800
M106 S0
M106 S255
G1 X71.615 Y76.237 F800
M106 S0
M106 S255
G1 X71.523 Y76.196 F800
M106 S0
M106 S255
G1 X71.444 Y76.127 F800
M106 S0
M106 S255
G1 X71.381 Y76.035 F800
M106 S0
M106 S255
G1 X71.381 Y76.211 F800
M106 S0
M106 S255
G1 X71.201 Y76.211 F800
M106 S0
G0 X74.495 Y75.864 F6000
M106 S255
G1 X74.495 Y75.864 F800
M106 S0
M106 S255
G1 X74.645 Y75.988 F800
M106 S0
M106 S255
G1 X74.683 Y76.072 F800
M106 S0
M106 S255
G1 X74.696 Y76.174 F800
M106 S0
M106 S255
G1 X74.668 Y76.335 F800
M106 S0
M106 S255
G1 X74.585 Y76.451 F800
M106 S0
M106 S255
G1 X74.45 Y76.522 F800
M106 S0
M106 S255
G1 X74.261 Y76.548 F800
M106 S0
M106 S255
G1 X73.731 Y76.548 F800
M106 S0
M106 S255
G1 X73.731 Y75.06 F800
M106 S0
M106 S255
G1 X74.291 Y75.06 F800
M106 S0
M106 S255
G1 X74.49 Y75.09 F800
M106 S0
M106 S255
G1 X74.638 Y75.177 F800
M106 S0
M106 S255
G1 X74.731 Y75.317 F800
M106 S0
M106 S255
G1 X74.763 Y75.506 F800
M106 S0
M106 S255
G1 X74.743 Y75.632 F800
M106 S0
M106 S255
G1 X74.692 Y75.737 F800
M106 S0
M106 S255
G1 X74.608 Y75.814 F800
M106 S0
G0 X74.22 Y75.93 F6000
M106 S255
G1 X74.22 Y75.93 F800
M106 S0
M106 S255
G1 X73.929 Y75.93 F800
M106 S0
M106 S255
G1 X73.929 Y76.37 F800
M106 S0
M106 S255
G1 X74.237 Y76.37 F800
M106 S0
M106 S255
G1 X74.353 Y76.357 F800
M106 S0
M106 S255
G1 X74.435 Y76.318 F800
M106 S0
M106 S255
G1 X74.484 Y76.252 F800
M106 S0
M106 S255
G1 X74.501 Y76.153 F800
M106 S0
M106 S255
G1 X74.482 Y76.054 F800
M106 S0
M106 S255
G1 X74.43 Y75.986 F800
M106 S0
M106 S255
G1 X74.342 Y75.943 F800
M106 S0
G0 X74.267 Y75.237 F6000
M106 S255
G1 X74.267 Y75.237 F800
M106 S0
M106 S255
G1 X73.929 Y75.237 F800
M106 S0
M106 S255
G1 X73.929 Y75.75 F800
M106 S0
M106 S255
G1 X74.248 Y75.75 F800
M106 S0
M106 S255
G1 X74.383 Y75.735 F800
M106 S0
M106 S255
G1 X74.48 Y75.69 F800
M106 S0
M106 S255
G1 X74.538 Y75.613 F800
M106 S0
M106 S255
G1 X74.557 Y75.501 F800
M106 S0
M106 S255
G1 X74.538 Y75.383 F800
M106 S0
M106 S255
G1 X74.484 Y75.302 F800
M106 S0
M106 S255
G1 X74.394 Y75.253 F800
M106 S0
G0 X75.258 Y75.551 F6000
M106 S255
G1 X75.258 Y75.551 F800
M106 S0
M106 S255
G1 X75.777 Y75.551 F800
M106 S0
M106 S255
G1 X75.777 Y75.72 F800
M106 S0
M106 S255
G1 X75.258 Y75.72 F800
M106 S0
G0 X77.076 Y75.864 F6000
M106 S255
G1 X77.076 Y75.864 F800
M106 S0
M106 S255
G1 X77.226 Y75.988 F800
M106 S0
M106 S255
G1 X77.265 Y76.072 F800
M106 S0
M106 S255
G1 X77.278 Y76.174 F800
M106 S0
M106 S255
G1 X77.25 Y76.335 F800
M106 S0
M106 S255
G1 X77.166 Y76.451 F800
M106 S0
M106 S255
G1 X77.031 Y76.522 F800
M106 S0
M106 S255
G1 X76.843 Y76.548 F800
M106 S0
M106 S255
G1 X76.313 Y76.548 F800
M106 S0
M106 S255
G1 X76.313 Y75.06 F800
M106 S0
M106 S255
G1 X76.873 Y75.06 F800
M106 S0
M106 S255
G1 X77.072 Y75.09 F800
M106 S0
M106 S255
G1 X77.22 Y75.177 F800
M106 S0
M106 S255
G1 X77.312 Y75.317 F800
M106 S0
M106 S255
G1 X77.344 Y75.506 F800
M106 S0
M106 S255
G1 X77.325 Y75.632 F800
M106 S0
M106 S255
G1 X77.274 Y75.737 F800
M106 S0
M106 S255
G1 X77.19 Y75.814 F800
M106 S0
G0 X76.802 Y75.93 F6000
M106 S255
G1 X76.802 Y75.93 F800
M106 S0
M106 S255
G1 X76.51 Y75.93 F800
M106 S0
M106 S255
G1 X76.51 Y76.37 F800
M106 S0
M106 S255
G1 X76.819 Y76.37 F800
M106 S0
M106 S255
G1 X76.935 Y76.357 F800
M106 S0
M106 S255
G1 X77.016 Y76.318 F800
M106 S0
M106 S255
G1 X77.066 Y76.252 F800
M106 S0
M106 S255
G1 X77.083 Y76.153 F800
M106 S0
M106 S255
G1 X77.063 Y76.054 F800
M106 S0
M106 S255
G1 X77.012 Y75.986 F800
M106 S0
M106 S255
G1 X76.924 Y75.943 F800
M106 S0
G0 X76.849 Y75.237 F6000
M106 S255
G1 X76.849 Y75.237 F800
M106 S0
M106 S255
G1 X76.51 Y75.237 F800
M106 S0
M106 S255
G1 X76.51 Y75.75 F800
M106 S0
M106 S255
G1 X76.83 Y75.75 F800
M106 S0
M106 S255
G1 X76.965 Y75.735 F800
M106 S0
M106 S255
G1 X77.061 Y75.69 F800
M106 S0
M106 S255
G1 X77.119 Y75.613 F800
M106 S0
M106 S255
G1 X77.138 Y75.501 F800
M106 S0
M106 S255
G1 X77.119 Y75.383 F800
M106 S0
M106 S255
G1 X77.066 Y75.302 F800
M106 S0
M106 S255
G1 X76.975 Y75.253 F800
M106 S0
G0 X63.384 Y73.216 F6000
M106 S255
G1 X63.384 Y73.216 F800
M106 S0
M106 S255
G1 X63.416 Y72.879 F800
M106 S0
M106 S255
G1 X63.517 Y72.639 F800
M106 S0
M106 S255
G1 X63.678 Y72.493 F800
M106 S0
M106 S255
G1 X63.901 Y72.446 F800
M106 S0
M106 S255
G1 X64.121 Y72.493 F800
M106 S0
M106 S255
G1 X64.282 Y72.639 F800
M106 S0
M106 S255
G1 X64.381 Y72.879 F800
M106 S0
M106 S255
G1 X64.415 Y73.216 F800
M106 S0
M106 S255
G1 X64.381 Y73.55 F800
M106 S0
M106 S255
G1 X64.34 Y73.683 F800
M106 S0
M106 S255
G1 X64.282 Y73.792 F800
M106 S0
M106 S255
G1 X64.121 Y73.938 F800
M106 S0
M106 S255
G1 X63.901 Y73.987 F800
M106 S0
M106 S255
G1 X63.678 Y73.938 F800
M106 S0
M106 S255
G1 X63.517 Y73.79 F800
M106 S0
M106 S255
G1 X63.416 Y73.55 F800
M106 S0
G0 X63.59 Y73.216 F6000
M106 S255
G1 X63.59 Y73.216 F800
M106 S0
M106 S255
G1 X63.607 Y73.475 F800
M106 S0
M106 S255
G1 X63.66 Y73.662 F800
M106 S0
M106 S255
G1 X63.757 Y73.771 F800
M106 S0
M106 S255
G1 X63.901 Y73.81 F800
M106 S0
M106 S255
G1 X64.042 Y73.771 F800
M106 S0
M106 S255
G1 X64.139 Y73.662 F800
M106 S0
M106 S255
G1 X64.192 Y73.475 F800
M106 S0
M106 S255
G1 X64.209 Y73.216 F800
M106 S0
M106 S255
G1 X64.192 Y72.954 F800
M106 S0
M106 S255
G1 X64.139 Y72.767 F800
M106 S0
M106 S255
G1 X64.042 Y72.658 F800
M106 S0
M106 S255
G1 X63.901 Y72.622 F800
M106 S0
M106 S255
G1 X63.757 Y72.658 F800
M106 S0
M106 S255
G1 X63.66 Y72.767 F800
M106 S0
M106 S255
G1 X63.607 Y72.954 F800
M106 S0
G0 X65.043 Y72.489 F6000
M106 S255
G1 X65.043 Y72.489 F800
M106 S0
M106 S255
G1 X65.339 Y72.489 F800
M106 S0
M106 S255
G1 X65.339 Y72.808 F800
M106 S0
M106 S255
G1 X65.043 Y72.808 F800
M106 S0
G0 X65.95 Y72.877 F6000
M106 S255
G1 X65.95 Y72.877 F800
M106 S0
M106 S255
G1 X65.998 Y72.701 F800
M106 S0
M106 S255
G1 X66.103 Y72.564 F800
M106 S0
M106 S255
G1 X66.257 Y72.478 F800
M106 S0
M106 S255
G1 X66.454 Y72.446 F800
M106 S0
M106 S255
G1 X66.671 Y72.484 F800
M106 S0
M106 S255
G1 X66.84 Y72.589 F800
M106 S0
M106 S255
G1 X66.947 Y72.757 F800
M106 S0
M106 S255
G1 X66.988 Y72.971 F800
M106 S0
M106 S255
G1 X66.952 Y73.171 F800
M106 S0
M106 S255
G1 X66.849 Y73.327 F800
M106 S0
M106 S255
G1 X66.688 Y73.428 F800
M106 S0
M106 S255
G1 X66.48 Y73.464 F800
M106 S0
M106 S255
G1 X66.319 Y73.439 F800
M106 S0
M106 S255
G1 X66.195 Y73.368 F800
M106 S0
M106 S255
G1 X66.255 Y73.769 F800
M106 S0
M106 S255
G1 X66.907 Y73.769 F800
M106 S0
M106 S255
G1 X66.907 Y73.945 F800
M106 S0
M106 S255
G1 X66.111 Y73.945 F800
M106 S0
M106 S255
G1 X65.993 Y73.156 F800
M106 S0
M106 S255
G1 X66.165 Y73.156 F800
M106 S0
M106 S255
G1 X66.289 Y73.256 F800
M106 S0
M106 S255
G1 X66.448 Y73.293 F800
M106 S0
M106 S255
G1 X66.585 Y73.269 F800
M106 S0
M106 S255
G1 X66.69 Y73.201 F800
M106 S0
M106 S255
G1 X66.757 Y73.096 F800
M106 S0
M106 S255
G1 X66.78 Y72.96 F800
M106 S0
M106 S255
G1 X66.757 Y72.825 F800
M106 S0
M106 S255
G1 X66.688 Y72.72 F800
M106 S0
M106 S255
G1 X66.583 Y72.654 F800
M106 S0
M106 S255
G1 X66.448 Y72.63 F800
M106 S0
M106 S255
G1 X66.334 Y72.645 F800
M106 S0
M106 S255
G1 X66.246 Y72.695 F800
M106 S0
M106 S255
G1 X66.182 Y72.772 F800
M106 S0
M106 S255
G1 X66.15 Y72.877 F800
M106 S0
G0 X67.338 Y72.489 F6000
M106 S255
G1 X67.338 Y72.489 F800
M106 S0
M106 S255
G1 X68.294 Y72.489 F800
M106 S0
M106 S255
G1 X68.294 Y72.669 F800
M106 S0
M106 S255
G1 X67.535 Y72.669 F800
M106 S0
M106 S255
G1 X67.535 Y73.977 F800
M106 S0
M106 S255
G1 X67.338 Y73.977 F800
M106 S0
G0 X68.892 Y72.489 F6000
M106 S255
G1 X68.892 Y72.489 F800
M106 S0
M106 S255
G1 X69.064 Y73.466 F800
M106 S0
M106 S255
G1 X69.235 Y72.489 F800
M106 S0
M106 S255
G1 X69.415 Y72.489 F800
M106 S0
M106 S255
G1 X69.698 Y73.64 F800
M106 S0
M106 S255
G1 X69.516 Y73.64 F800
M106 S0
M106 S255
G1 X69.325 Y72.662 F800
M106 S0
M106 S255
G1 X69.156 Y73.64 F800
M106 S0
M106 S255
G1 X68.969 Y73.64 F800
M106 S0
M106 S255
G1 X68.8 Y72.662 F800
M106 S0
M106 S255
G1 X68.609 Y73.64 F800
M106 S0
M106 S255
G1 X68.429 Y73.64 F800
M106 S0
M106 S255
G1 X68.712 Y72.489 F800
M106 S0
G0 X70.286 Y73.87 F6000
M106 S255
G1 X70.286 Y73.87 F800
M106 S0
M106 S255
G1 X70.286 Y72.647 F800
M106 S0
M106 S255
G1 X69.898 Y72.647 F800
M106 S0
M106 S255
G1 X69.898 Y72.489 F800
M106 S0
M106 S255
G1 X70.86 Y72.489 F800
M106 S0
M106 S255
G1 X70.86 Y72.647 F800
M106 S0
M106 S255
G1 X70.474 Y72.647 F800
M106 S0
M106 S255
G1 X70.474 Y74.028 F800
M106 S0
M106 S255
G1 X69.99 Y74.028 F800
M106 S0
M106 S255
G1 X69.99 Y73.87 F800
M106 S0
G0 X72.436 Y73.115 F6000
M106 S255
G1 X72.436 Y73.115 F800
M106 S0
M106 S255
G1 X72.436 Y72.969 F800
M106 S0
M106 S255
G1 X73.433 Y72.969 F800
M106 S0
M106 S255
G1 X73.433 Y73.115 F800
M106 S0
G0 X72.436 Y73.531 F6000
M106 S255
G1 X72.436 Y73.531 F800
M106 S0
M106 S255
G1 X72.436 Y73.383 F800
M106 S0
M106 S255
G1 X73.433 Y73.383 F800
M106 S0
M106 S255
G1 X73.433 Y73.531 F800
M106 S0
G0 X75.479 Y72.489 F6000
M106 S255
G1 X75.479 Y72.489 F800
M106 S0
M106 S255
G1 X75.674 Y72.489 F800
M106 S0
M106 S255
G1 X75.674 Y73.987 F800
M106 S0
M106 S255
G1 X75.528 Y73.987 F800
M106 S0
M106 S255
G1 X75.49 Y73.857 F800
M106 S0
M106 S255
G1 X75.412 Y73.769 F800
M106 S0
M106 S255
G1 X75.294 Y73.717 F800
M106 S0
M106 S255
G1 X75.132 Y73.7 F800
M106 S0
M106 S255
G1 X75.132 Y73.548 F800
M106 S0
M106 S255
G1 X75.479 Y73.548 F800
M106 S0
G0 X76.542 Y73.291 F6000
M106 S255
G1 X76.542 Y73.291 F800
M106 S0
M106 S255
G1 X76.433 Y73.231 F800
M106 S0
M106 S255
G1 X76.358 Y73.147 F800
M106 S0
M106 S255
G1 X76.311 Y73.042 F800
M106 S0
M106 S255
G1 X76.296 Y72.915 F800
M106 S0
M106 S255
G1 X76.33 Y72.725 F800
M106 S0
M106 S255
G1 X76.429 Y72.577 F800
M106 S0
M106 S255
G1 X76.59 Y72.482 F800
M106 S0
M106 S255
G1 X76.808 Y72.446 F800
M106 S0
M106 S255
G1 X77.025 Y72.482 F800
M106 S0
M106 S255
G1 X77.186 Y72.577 F800
M106 S0
M106 S255
G1 X77.284 Y72.725 F800
M106 S0
M106 S255
G1 X77.321 Y72.915 F800
M106 S0
M106 S255
G1 X77.304 Y73.042 F800
M106 S0
M106 S255
G1 X77.259 Y73.147 F800
M106 S0
M106 S255
G1 X77.181 Y73.231 F800
M106 S0
M106 S255
G1 X77.074 Y73.291 F800
M106 S0
M106 S255
G1 X77.16 Y73.342 F800
M106 S0
M106 S255
G1 X77.22 Y73.413 F800
M106 S0
M106 S255
G1 X77.256 Y73.499 F800
M106 S0
M106 S255
G1 X77.269 Y73.604 F800
M106 S0
M106 S255
G1 X77.235 Y73.756 F800
M106 S0
M106 S255
G1 X77.145 Y73.878 F800
M106 S0
M106 S255
G1 X76.999 Y73.957 F800
M106 S0
M106 S255
G1 X76.808 Y73.987 F800
M106 S0
M106 S255
G1 X76.615 Y73.957 F800
M106 S0
M106 S255
G1 X76.469 Y73.878 F800
M106 S0
M106 S255
G1 X76.377 Y73.756 F800
M106 S0
M106 S255
G1 X76.345 Y73.604 F800
M106 S0
M106 S255
G1 X76.356 Y73.499 F800
M106 S0
M106 S255
G1 X76.392 Y73.413 F800
M106 S0
G0 X76.502 Y72.92 F6000
M106 S255
G1 X76.502 Y72.92 F800
M106 S0
M106 S255
G1 X76.521 Y73.033 F800
M106 S0
M106 S255
G1 X76.583 Y73.119 F800
M106 S0
M106 S255
G1 X76.68 Y73.175 F800
M106 S0
M106 S255
G1 X76.808 Y73.194 F800
M106 S0
M106 S255
G1 X76.935 Y73.175 F800
M106 S0
M106 S255
G1 X77.031 Y73.119 F800
M106 S0
M106 S255
G1 X77.093 Y73.033 F800
M106 S0
M106 S255
G1 X77.115 Y72.92 F800
M106 S0
M106 S255
G1 X77.093 Y72.797 F800
M106 S0
M106 S255
G1 X77.031 Y72.705 F800
M106 S0
M106 S255
G1 X76.935 Y72.645 F800
M106 S0
M106 S255
G1 X76.808 Y72.626 F800
M106 S0
M106 S255
G1 X76.68 Y72.645 F800
M106 S0
M106 S255
G1 X76.583 Y72.705 F800
M106 S0
M106 S255
G1 X76.521 Y72.797 F800
M106 S0
G0 X76.549 Y73.587 F6000
M106 S255
G1 X76.549 Y73.587 F800
M106 S0
M106 S255
G1 X76.566 Y73.681 F800
M106 S0
M106 S255
G1 X76.617 Y73.754 F800
M106 S0
M106 S255
G1 X76.699 Y73.799 F800
M106 S0
M106 S255
G1 X76.808 Y73.816 F800
M106 S0
M106 S255
G1 X76.915 Y73.799 F800
M106 S0
M106 S255
G1 X76.997 Y73.754 F800
M106 S0
M106 S255
G1 X77.048 Y73.681 F800
M106 S0
M106 S255
G1 X77.068 Y73.587 F800
M106 S0
M106 S255
G1 X77.048 Y73.49 F800
M106 S0
M106 S255
G1 X76.997 Y73.415 F800
M106 S0
M106 S255
G1 X76.915 Y73.366 F800
M106 S0
M106 S255
G1 X76.808 Y73.351 F800
M106 S0
M106 S255
G1 X76.699 Y73.368 F800
M106 S0
M106 S255
G1 X76.617 Y73.415 F800
M106 S0
M106 S255
G1 X76.566 Y73.49 F800
M106 S0
G0 X77.567 Y72.877 F6000
M106 S255
G1 X77.567 Y72.877 F800
M106 S0
M106 S255
G1 X77.614 Y72.701 F800
M106 S0
M106 S255
G1 X77.72 Y72.564 F800
M106 S0
M106 S255
G1 X77.874 Y72.478 F800
M106 S0
M106 S255
G1 X78.071 Y72.446 F800
M106 S0
M106 S255
G1 X78.288 Y72.484 F800
M106 S0
M106 S255
G1 X78.457 Y72.589 F800
M106 S0
M106 S255
G1 X78.564 Y72.757 F800
M106 S0
M106 S255
G1 X78.605 Y72.971 F800
M106 S0
M106 S255
G1 X78.569 Y73.171 F800
M106 S0
M106 S255
G1 X78.466 Y73.327 F800
M106 S0
M106 S255
G1 X78.305 Y73.428 F800
M106 S0
M106 S255
G1 X78.097 Y73.464 F800
M106 S0
M106 S255
G1 X77.936 Y73.439 F800
M106 S0
M106 S255
G1 X77.812 Y73.368 F800
M106 S0
M106 S255
G1 X77.872 Y73.769 F800
M106 S0
M106 S255
G1 X78.524 Y73.769 F800
M106 S0
M106 S255
G1 X78.524 Y73.945 F800
M106 S0
M106 S255
G1 X77.728 Y73.945 F800
M106 S0
M106 S255
G1 X77.61 Y73.156 F800
M106 S0
M106 S255
G1 X77.782 Y73.156 F800
M106 S0
M106 S255
G1 X77.906 Y73.256 F800
M106 S0
M106 S255
G1 X78.065 Y73.293 F800
M106 S0
M106 S255
G1 X78.202 Y73.269 F800
M106 S0
M106 S255
G1 X78.307 Y73.201 F800
M106 S0
M106 S255
G1 X78.373 Y73.096 F800
M106 S0
M106 S255
G1 X78.397 Y72.96 F800
M106 S0
M106 S255
G1 X78.373 Y72.825 F800
M106 S0
M106 S255
G1 X78.305 Y72.72 F800
M106 S0
M106 S255
G1 X78.2 Y72.654 F800
M106 S0
M106 S255
G1 X78.065 Y72.63 F800
M106 S0
M106 S255
G1 X77.951 Y72.645 F800
M106 S0
M106 S255
G1 X77.863 Y72.695 F800
M106 S0
M106 S255
G1 X77.799 Y72.772 F800
M106 S0
M106 S255
G1 X77.767 Y72.877 F800
M106 S0
G0 X78.873 Y73.216 F6000
M106 S255
G1 X78.873 Y73.216 F800
M106 S0
M106 S255
G1 X78.905 Y72.879 F800
M106 S0
M106 S255
G1 X79.006 Y72.639 F800
M106 S0
M106 S255
G1 X79.167 Y72.493 F800
M106 S0
M106 S255
G1 X79.39 Y72.446 F800
M106 S0
M106 S255
G1 X79.611 Y72.493 F800
M106 S0
M106 S255
G1 X79.771 Y72.639 F800
M106 S0
M106 S255
G1 X79.87 Y72.879 F800
M106 S0
M106 S255
G1 X79.904 Y73.216 F800
M106 S0
M106 S255
G1 X79.87 Y73.55 F800
M106 S0
M106 S255
G1 X79.829 Y73.683 F800
M106 S0
M106 S255
G1 X79.771 Y73.792 F800
M106 S0
M106 S255
G1 X79.611 Y73.938 F800
M106 S0
M106 S255
G1 X79.39 Y73.987 F800
M106 S0
M106 S255
G1 X79.167 Y73.938 F800
M106 S0
M106 S255
G1 X79.006 Y73.79 F800
M106 S0
M106 S255
G1 X78.905 Y73.55 F800
M106 S0
G0 X79.079 Y73.216 F6000
M106 S255
G1 X79.079 Y73.216 F800
M106 S0
M106 S255
G1 X79.096 Y73.475 F800
M106 S0
M106 S255
G1 X79.15 Y73.662 F800
M106 S0
M106 S255
G1 X79.246 Y73.771 F800
M106 S0
M106 S255
G1 X79.39 Y73.81 F800
M106 S0
M106 S255
G1 X79.531 Y73.771 F800
M106 S0
M106 S255
G1 X79.628 Y73.662 F800
M106 S0
M106 S255
G1 X79.681 Y73.475 F800
M106 S0
M106 S255
G1 X79.699 Y73.216 F800
M106 S0
M106 S255
G1 X79.681 Y72.954 F800
M106 S0
M106 S255
G1 X79.628 Y72.767 F800
M106 S0
M106 S255
G1 X79.531 Y72.658 F800
M106 S0
M106 S255
G1 X79.39 Y72.622 F800
M106 S0
M106 S255
G1 X79.246 Y72.658 F800
M106 S0
M106 S255
G1 X79.15 Y72.767 F800
M106 S0
M106 S255
G1 X79.096 Y72.954 F800
M106 S0
G0 X80.164 Y73.216 F6000
M106 S255
G1 X80.164 Y73.216 F800
M106 S0
M106 S255
G1 X80.196 Y72.879 F800
M106 S0
M106 S255
G1 X80.297 Y72.639 F800
M106 S0
M106 S255
G1 X80.458 Y72.493 F800
M106 S0
M106 S255
G1 X80.681 Y72.446 F800
M106 S0
M106 S255
G1 X80.901 Y72.493 F800
M106 S0
M106 S255
G1 X81.062 Y72.639 F800
M106 S0
M106 S255
G1 X81.161 Y72.879 F800
M106 S0
M106 S255
G1 X81.195 Y73.216 F800
M106 S0
M106 S255
G1 X81.161 Y73.55 F800
M106 S0
M106 S255
G1 X81.12 Y73.683 F800
M106 S0
M106 S255
G1 X81.062 Y73.792 F800
M106 S0
M106 S255
G1 X80.901 Y73.938 F800
M106 S0
M106 S255
G1 X80.681 Y73.987 F800
M106 S0
M106 S255
G1 X80.458 Y73.938 F800
M106 S0
M106 S255
G1 X80.297 Y73.79 F800
M106 S0
M106 S255
G1 X80.196 Y73.55 F800
M106 S0
G0 X80.37 Y73.216 F6000
M106 S255
G1 X80.37 Y73.216 F800
M106 S0
M106 S255
G1 X80.387 Y73.475 F800
M106 S0
M106 S255
G1 X80.44 Y73.662 F800
M106 S0
M106 S255
G1 X80.537 Y73.771 F800
M106 S0
M106 S255
G1 X80.681 Y73.81 F800
M106 S0
M106 S255
G1 X80.822 Y73.771 F800
M106 S0
M106 S255
G1 X80.919 Y73.662 F800
M106 S0
M106 S255
G1 X80.972 Y73.475 F800
M106 S0
M106 S255
G1 X80.989 Y73.216 F800
M106 S0
M106 S255
G1 X80.972 Y72.954 F800
M106 S0
M106 S255
G1 X80.919 Y72.767 F800
M106 S0
M106 S255
G1 X80.822 Y72.658 F800
M106 S0
M106 S255
G1 X80.681 Y72.622 F800
M106 S0
M106 S255
G1 X80.537 Y72.658 F800
M106 S0
M106 S255
G1 X80.44 Y72.767 F800
M106 S0
M106 S255
G1 X80.387 Y72.954 F800
M106 S0
G0 X81.452 Y72.489 F6000
M106 S255
G1 X81.452 Y72.489 F800
M106 S0
M106 S255
G1 X81.626 Y72.489 F800
M106 S0
M106 S255
G1 X81.626 Y73.258 F800
M106 S0
M106 S255
G1 X81.637 Y73.374 F800
M106 S0
M106 S255
G1 X81.669 Y73.458 F800
M106 S0
M106 S255
G1 X81.718 Y73.507 F800
M106 S0
M106 S255
G1 X81.783 Y73.526 F800
M106 S0
M106 S255
G1 X81.834 Y73.509 F800
M106 S0
M106 S255
G1 X81.868 Y73.466 F800
M106 S0
M106 S255
G1 X81.886 Y73.394 F800
M106 S0
M106 S255
G1 X81.892 Y73.297 F800
M106 S0
M106 S255
G1 X81.892 Y72.489 F800
M106 S0
M106 S255
G1 X82.055 Y72.489 F800
M106 S0
M106 S255
G1 X82.055 Y73.258 F800
M106 S0
M106 S255
G1 X82.066 Y73.372 F800
M106 S0
M106 S255
G1 X82.098 Y73.456 F800
M106 S0
M106 S255
G1 X82.149 Y73.507 F800
M106 S0
M106 S255
G1 X82.214 Y73.526 F800
M106 S0
M106 S255
G1 X82.265 Y73.509 F800
M106 S0
M106 S255
G1 X82.299 Y73.466 F800
M106 S0
M106 S255
G1 X82.321 Y73.297 F800
M106 S0
M106 S255
G1 X82.321 Y72.489 F800
M106 S0
M106 S255
G1 X82.494 Y72.489 F800
M106 S0
M106 S255
G1 X82.494 Y73.284 F800
M106 S0
M106 S255
G1 X82.484 Y73.449 F800
M106 S0
M106 S255
G1 X82.449 Y73.576 F800
M106 S0
M106 S255
G1 X82.381 Y73.653 F800
M106 S0
M106 S255
G1 X82.269 Y73.681 F800
M106 S0
M106 S255
G1 X82.139 Y73.638 F800
M106 S0
M106 S255
G1 X82.038 Y73.514 F800
M106 S0
M106 S255
G1 X81.958 Y73.636 F800
M106 S0
M106 S255
G1 X81.826 Y73.681 F800
M106 S0
M106 S255
G1 X81.703 Y73.638 F800
M106 S0
M106 S255
G1 X81.62 Y73.518 F800
M106 S0
M106 S255
G1 X81.62 Y73.64 F800
M106 S0
M106 S255
G1 X81.452 Y73.64 F800
M106 S0
G0 X82.743 Y72.489 F6000
M106 S255
G1 X82.743 Y72.489 F800
M106 S0
M106 S255
G1 X82.917 Y72.489 F800
M106 S0
M106 S255
G1 X82.917 Y73.258 F800
M106 S0
M106 S255
G1 X82.928 Y73.374 F800
M106 S0
M106 S255
G1 X82.96 Y73.458 F800
M106 S0
M106 S255
G1 X83.009 Y73.507 F800
M106 S0
M106 S255
G1 X83.073 Y73.526 F800
M106 S0
M106 S255
G1 X83.125 Y73.509 F800
M106 S0
M106 S255
G1 X83.159 Y73.466 F800
M106 S0
M106 S255
G1 X83.176 Y73.394 F800
M106 S0
M106 S255
G1 X83.183 Y73.297 F800
M106 S0
M106 S255
G1 X83.183 Y72.489 F800
M106 S0
M106 S255
G1 X83.346 Y72.489 F800
M106 S0
M106 S255
G1 X83.346 Y73.258 F800
M106 S0
M106 S255
G1 X83.356 Y73.372 F800
M106 S0
M106 S255
G1 X83.389 Y73.456 F800
M106 S0
M106 S255
G1 X83.44 Y73.507 F800
M106 S0
M106 S255
G1 X83.504 Y73.526 F800
M106 S0
M106 S255
G1 X83.556 Y73.509 F800
M106 S0
M106 S255
G1 X83.59 Y73.466 F800
M106 S0
M106 S255
G1 X83.612 Y73.297 F800
M106 S0
M106 S255
G1 X83.612 Y72.489 F800
M106 S0
M106 S255
G1 X83.785 Y72.489 F800
M106 S0
M106 S255
G1 X83.785 Y73.284 F800
M106 S0
M106 S255
G1 X83.775 Y73.449 F800
M106 S0
M106 S255
G1 X83.74 Y73.576 F800
M106 S0
M106 S255
G1 X83.672 Y73.653 F800
M106 S0
M106 S255
G1 X83.56 Y73.681 F800
M106 S0
M106 S255
G1 X83.429 Y73.638 F800
M106 S0
M106 S255
G1 X83.329 Y73.514 F800
M106 S0
M106 S255
G1 X83.249 Y73.636 F800
M106 S0
M106 S255
G1 X83.116 Y73.681 F800
M106 S0
M106 S255
G1 X82.994 Y73.638 F800
M106 S0
M106 S255
G1 X82.91 Y73.518 F800
M106 S0
M106 S255
G1 X82.91 Y73.64 F800
M106 S0
M106 S255
G1 X82.743 Y73.64 F800
M106 S0
G0 X73.106 Y46.877 F6000
M106 S255
G1 X73.106 Y46.877 F800
M106 S0
M106 S255
G1 X73.138 Y46.54 F800
M106 S0
M106 S255
G1 X73.239 Y46.3 F800
M106 S0
M106 S255
G1 X73.4 Y46.155 F800
M106 S0
M106 S255
G1 X73.623 Y46.107 F800
M106 S0
M106 S255
G1 X73.844 Y46.155 F800
M106 S0
M106 S255
G1 X74.005 Y46.3 F800
M106 S0
M106 S255
G1 X74.103 Y46.54 F800
M106 S0
M106 S255
G1 X74.138 Y46.877 F800
M106 S0
M106 S255
G1 X74.103 Y47.212 F800
M106 S0
M106 S255
G1 X74.063 Y47.345 F800
M106 S0
M106 S255
G1 X74.005 Y47.454 F800
M106 S0
M106 S255
G1 X73.844 Y47.6 F800
M106 S0
M106 S255
G1 X73.623 Y47.649 F800
M106 S0
M106 S255
G1 X73.4 Y47.6 F800
M106 S0
M106 S255
G1 X73.239 Y47.452 F800
M106 S0
M106 S255
G1 X73.138 Y47.212 F800
M106 S0
G0 X73.312 Y46.877 F6000
M106 S255
G1 X73.312 Y46.877 F800
M106 S0
M106 S255
G1 X73.329 Y47.137 F800
M106 S0
M106 S255
G1 X73.383 Y47.323 F800
M106 S0
M106 S255
G1 X73.479 Y47.432 F800
M106 S0
M106 S255
G1 X73.623 Y47.471 F800
M106 S0
M106 S255
G1 X73.765 Y47.432 F800
M106 S0
M106 S255
G1 X73.861 Y47.323 F800
M106 S0
M106 S255
G1 X73.915 Y47.137 F800
M106 S0
M106 S255
G1 X73.932 Y46.877 F800
M106 S0
M106 S255
G1 X73.915 Y46.616 F800
M106 S0
M106 S255
G1 X73.861 Y46.429 F800
M106 S0
M106 S255
G1 X73.765 Y46.32 F800
M106 S0
M106 S255
G1 X73.623 Y46.283 F800
M106 S0
M106 S255
G1 X73.479 Y46.32 F800
M106 S0
M106 S255
G1 X73.383 Y46.429 F800
M106 S0
M106 S255
G1 X73.329 Y46.616 F800
M106 S0
G0 X74.382 Y46.538 F6000
M106 S255
G1 X74.382 Y46.538 F800
M106 S0
M106 S255
G1 X74.429 Y46.363 F800
M106 S0
M106 S255
G1 X74.534 Y46.225 F800
M106 S0
M106 S255
G1 X74.689 Y46.14 F800
M106 S0
M106 S255
G1 X74.886 Y46.107 F800
M106 S0
M106 S255
G1 X75.102 Y46.146 F800
M106 S0
M106 S255
G1 X75.272 Y46.251 F800
M106 S0
M106 S255
G1 X75.379 Y46.418 F800
M106 S0
M106 S255
G1 X75.42 Y46.633 F800
M106 S0
M106 S255
G1 X75.383 Y46.832 F800
M106 S0
M106 S255
G1 X75.28 Y46.989 F800
M106 S0
M106 S255
G1 X75.12 Y47.089 F800
M106 S0
M106 S255
G1 X74.912 Y47.126 F800
M106 S0
M106 S255
G1 X74.751 Y47.1 F800
M106 S0
M106 S255
G1 X74.626 Y47.029 F800
M106 S0
M106 S255
G1 X74.687 Y47.43 F800
M106 S0
M106 S255
G1 X75.338 Y47.43 F800
M106 S0
M106 S255
G1 X75.338 Y47.606 F800
M106 S0
M106 S255
G1 X74.543 Y47.606 F800
M106 S0
M106 S255
G1 X74.425 Y46.817 F800
M106 S0
M106 S255
G1 X74.596 Y46.817 F800
M106 S0
M106 S255
G1 X74.721 Y46.918 F800
M106 S0
M106 S255
G1 X74.879 Y46.954 F800
M106 S0
M106 S255
G1 X75.017 Y46.931 F800
M106 S0
M106 S255
G1 X75.122 Y46.862 F800
M106 S0
M106 S255
G1 X75.188 Y46.757 F800
M106 S0
M106 S255
G1 X75.212 Y46.622 F800
M106 S0
M106 S255
G1 X75.188 Y46.487 F800
M106 S0
M106 S255
G1 X75.12 Y46.382 F800
M106 S0
M106 S255
G1 X75.015 Y46.315 F800
M106 S0
M106 S255
G1 X74.879 Y46.292 F800
M106 S0
M106 S255
G1 X74.766 Y46.307 F800
M106 S0
M106 S255
G1 X74.678 Y46.356 F800
M106 S0
M106 S255
G1 X74.614 Y46.433 F800
M106 S0
M106 S255
G1 X74.581 Y46.538 F800
M106 S0
G0 X69.99 Y53.117 F6000
M106 S255
G1 X69.99 Y53.117 F800
M106 S0
M106 S255
G1 X69.327 Y53.65 F800
M106 S0
M106 S255
G1 X69.634 Y52.857 F800
M106 S0
G0 X97.68 Y65.159 F6000
M106 S255
G1 X97.68 Y65.159 F800
M106 S0
M106 S255
G1 X97.712 Y64.822 F800
M106 S0
M106 S255
G1 X97.813 Y64.582 F800
M106 S0
M106 S255
G1 X97.974 Y64.436 F800
M106 S0
M106 S255
G1 X98.197 Y64.389 F800
M106 S0
M106 S255
G1 X98.418 Y64.436 F800
M106 S0
M106 S255
G1 X98.578 Y64.582 F800
M106 S0
M106 S255
G1 X98.677 Y64.822 F800
M106 S0
M106 S255
G1 X98.711 Y65.159 F800
M106 S0
M106 S255
G1 X98.677 Y65.493 F800
M106 S0
M106 S255
G1 X98.636 Y65.626 F800
M106 S0
M106 S255
G1 X98.578 Y65.735 F800
M106 S0
M106 S255
G1 X98.418 Y65.881 F800
M106 S0
M106 S255
G1 X98.197 Y65.931 F800
M106 S0
M106 S255
G1 X97.974 Y65.881 F800
M106 S0
M106 S255
G1 X97.813 Y65.733 F800
M106 S0
M106 S255
G1 X97.712 Y65.493 F800
M106 S0
G0 X97.886 Y65.159 F6000
M106 S255
G1 X97.886 Y65.159 F800
M106 S0
M106 S255
G1 X97.903 Y65.418 F800
M106 S0
M106 S255
G1 X97.957 Y65.605 F800
M106 S0
M106 S255
G1 X98.053 Y65.714 F800
M106 S0
M106 S255
G1 X98.197 Y65.753 F800
M106 S0
M106 S255
G1 X98.338 Y65.714 F800
M106 S0
M106 S255
G1 X98.435 Y65.605 F800
M106 S0
M106 S255
G1 X98.488 Y65.418 F800
M106 S0
M106 S255
G1 X98.506 Y65.159 F800
M106 S0
M106 S255
G1 X98.488 Y64.897 F800
M106 S0
M106 S255
G1 X98.435 Y64.71 F800
M106 S0
M106 S255
G1 X98.338 Y64.601 F800
M106 S0
M106 S255
G1 X98.197 Y64.565 F800
M106 S0
M106 S255
G1 X98.053 Y64.601 F800
M106 S0
M106 S255
G1 X97.957 Y64.71 F800
M106 S0
M106 S255
G1 X97.903 Y64.897 F800
M106 S0
G0 X100.002 Y65.519 F6000
M106 S255
G1 X100.002 Y65.519 F800
M106 S0
M106 S255
G1 X99.961 Y65.693 F800
M106 S0
M106 S255
G1 X99.867 Y65.821 F800
M106 S0
M106 S255
G1 X99.721 Y65.903 F800
M106 S0
M106 S255
G1 X99.533 Y65.931 F800
M106 S0
M106 S255
G1 X99.406 Y65.915 F800
M106 S0
M106 S255
G1 X99.297 Y65.875 F800
M106 S0
M106 S255
G1 X99.2 Y65.808 F800
M106 S0
M106 S255
G1 X99.119 Y65.714 F800
M106 S0
M106 S255
G1 X99.054 Y65.596 F800
M106 S0
M106 S255
G1 X99.007 Y65.452 F800
M106 S0
M106 S255
G1 X98.977 Y65.283 F800
M106 S0
M106 S255
G1 X98.969 Y65.092 F800
M106 S0
M106 S255
G1 X99.003 Y64.788 F800
M106 S0
M106 S255
G1 X99.108 Y64.567 F800
M106 S0
M106 S255
G1 X99.277 Y64.434 F800
M106 S0
M106 S255
G1 X99.509 Y64.389 F800
M106 S0
M106 S255
G1 X99.717 Y64.427 F800
M106 S0
M106 S255
G1 X99.876 Y64.528 F800
M106 S0
M106 S255
G1 X99.979 Y64.687 F800
M106 S0
M106 S255
G1 X100.015 Y64.888 F800
M106 S0
M106 S255
G1 X99.979 Y65.092 F800
M106 S0
M106 S255
G1 X99.88 Y65.249 F800
M106 S0
M106 S255
G1 X99.728 Y65.347 F800
M106 S0
M106 S255
G1 X99.539 Y65.382 F800
M106 S0
M106 S255
G1 X99.335 Y65.339 F800
M106 S0
M106 S255
G1 X99.183 Y65.217 F800
M106 S0
M106 S255
G1 X99.215 Y65.452 F800
M106 S0
M106 S255
G1 X99.284 Y65.622 F800
M106 S0
M106 S255
G1 X99.389 Y65.723 F800
M106 S0
M106 S255
G1 X99.535 Y65.757 F800
M106 S0
M106 S255
G1 X99.642 Y65.74 F800
M106 S0
M106 S255
G1 X99.723 Y65.695 F800
M106 S0
M106 S255
G1 X99.777 Y65.62 F800
M106 S0
M106 S255
G1 X99.805 Y65.519 F800
M106 S0
G0 X99.807 Y64.886 F6000
M106 S255
G1 X99.807 Y64.886 F800
M106 S0
M106 S255
G1 X99.783 Y64.751 F800
M106 S0
M106 S255
G1 X99.723 Y64.648 F800
M106 S0
M106 S255
G1 X99.627 Y64.58 F800
M106 S0
M106 S255
G1 X99.507 Y64.558 F800
M106 S0
M106 S255
G1 X99.38 Y64.58 F800
M106 S0
M106 S255
G1 X99.284 Y64.646 F800
M106 S0
M106 S255
G1 X99.222 Y64.749 F800
M106 S0
M106 S255
G1 X99.202 Y64.884 F800
M106 S0
M106 S255
G1 X99.224 Y65.017 F800
M106 S0
M106 S255
G1 X99.284 Y65.118 F800
M106 S0
M106 S255
G1 X99.382 Y65.182 F800
M106 S0
M106 S255
G1 X99.515 Y65.206 F800
M106 S0
M106 S255
G1 X99.631 Y65.182 F800
M106 S0
M106 S255
G1 X99.723 Y65.12 F800
M106 S0
M106 S255
G1 X99.783 Y65.019 F800
M106 S0
G0 X87.867 Y67.814 F6000
M106 S255
G1 X87.867 Y67.814 F800
M106 S0
M106 S255
G1 X87.018 Y67.776 F800
M106 S0
M106 S255
G1 X87.773 Y67.384 F800
M106 S0
G0 X98.53 Y89.817 F6000
M106 S255
G1 X98.53 Y89.817 F800
M106 S0
M106 S255
G1 X98.562 Y89.481 F800
M106 S0
M106 S255
G1 X98.663 Y89.241 F800
M106 S0
M106 S255
G1 X98.824 Y89.095 F800
M106 S0
M106 S255
G1 X99.047 Y89.048 F800
M106 S0
M106 S255
G1 X99.268 Y89.095 F800
M106 S0
M106 S255
G1 X99.429 Y89.241 F800
M106 S0
M106 S255
G1 X99.527 Y89.481 F800
M106 S0
M106 S255
G1 X99.562 Y89.817 F800
M106 S0
M106 S255
G1 X99.527 Y90.152 F800
M106 S0
M106 S255
G1 X99.487 Y90.285 F800
M106 S0
M106 S255
G1 X99.429 Y90.394 F800
M106 S0
M106 S255
G1 X99.268 Y90.54 F800
M106 S0
M106 S255
G1 X99.047 Y90.589 F800
M106 S0
M106 S255
G1 X98.824 Y90.54 F800
M106 S0
M106 S255
G1 X98.663 Y90.392 F800
M106 S0
M106 S255
G1 X98.562 Y90.152 F800
M106 S0
G0 X98.736 Y89.817 F6000
M106 S255
G1 X98.736 Y89.817 F800
M106 S0
M106 S255
G1 X98.753 Y90.077 F800
M106 S0
M106 S255
G1 X98.807 Y90.263 F800
M106 S0
M106 S255
G1 X98.903 Y90.373 F800
M106 S0
M106 S255
G1 X99.047 Y90.411 F800
M106 S0
M106 S255
G1 X99.189 Y90.373 F800
M106 S0
M106 S255
G1 X99.285 Y90.263 F800
M106 S0
M106 S255
G1 X99.339 Y90.077 F800
M106 S0
M106 S255
G1 X99.356 Y89.817 F800
M106 S0
M106 S255
G1 X99.339 Y89.556 F800
M106 S0
M106 S255
G1 X99.285 Y89.369 F800
M106 S0
M106 S255
G1 X99.189 Y89.26 F800
M106 S0
M106 S255
G1 X99.047 Y89.223 F800
M106 S0
M106 S255
G1 X98.903 Y89.26 F800
M106 S0
M106 S255
G1 X98.807 Y89.369 F800
M106 S0
M106 S255
G1 X98.753 Y89.556 F800
M106 S0
G0 X100.04 Y89.091 F6000
M106 S255
G1 X100.04 Y89.091 F800
M106 S0
M106 S255
G1 X100.256 Y89.091 F800
M106 S0
M106 S255
G1 X100.327 Y89.444 F800
M106 S0
M106 S255
G1 X100.451 Y89.774 F800
M106 S0
M106 S255
G1 X100.627 Y90.081 F800
M106 S0
M106 S255
G1 X100.857 Y90.368 F800
M106 S0
M106 S255
G1 X100.857 Y90.546 F800
M106 S0
M106 S255
G1 X99.836 Y90.546 F800
M106 S0
M106 S255
G1 X99.836 Y90.351 F800
M106 S0
M106 S255
G1 X100.651 Y90.351 F800
M106 S0
M106 S255
G1 X100.415 Y90.062 F800
M106 S0
M106 S255
G1 X100.237 Y89.759 F800
M106 S0
M106 S255
G1 X100.113 Y89.438 F800
M106 S0
G0 X92.14 Y80.084 F6000
M106 S255
G1 X92.14 Y80.084 F800
M106 S0
M106 S255
G1 X91.825 Y79.294 F800
M106 S0
M106 S255
G1 X92.493 Y79.821 F800
M106 S0
G0 X83.65 Y91.688 F6000
M106 S255
G1 X83.65 Y91.688 F800
M106 S0
M106 S255
G1 X83.682 Y91.351 F800
M106 S0
M106 S255
G1 X83.783 Y91.111 F800
M106 S0
M106 S255
G1 X83.944 Y90.965 F800
M106 S0
M106 S255
G1 X84.167 Y90.918 F800
M106 S0
M106 S255
G1 X84.388 Y90.965 F800
M106 S0
M106 S255
G1 X84.548 Y91.111 F800
M106 S0
M106 S255
G1 X84.647 Y91.351 F800
M106 S0
M106 S255
G1 X84.681 Y91.688 F800
M106 S0
M106 S255
G1 X84.647 Y92.023 F800
M106 S0
M106 S255
G1 X84.606 Y92.155 F800
M106 S0
M106 S255
G1 X84.548 Y92.265 F800
M106 S0
M106 S255
G1 X84.388 Y92.411 F800
M106 S0
M106 S255
G1 X84.167 Y92.46 F800
M106 S0
M106 S255
G1 X83.944 Y92.411 F800
M106 S0
M106 S255
G1 X83.783 Y92.263 F800
M106 S0
M106 S255
G1 X83.682 Y92.023 F800
M106 S0
G0 X83.856 Y91.688 F6000
M106 S255
G1 X83.856 Y91.688 F800
M106 S0
M106 S255
G1 X83.873 Y91.947 F800
M106 S0
M106 S255
G1 X83.927 Y92.134 F800
M106 S0
M106 S255
G1 X84.023 Y92.243 F800
M106 S0
M106 S255
G1 X84.167 Y92.282 F800
M106 S0
M106 S255
G1 X84.308 Y92.243 F800
M106 S0
M106 S255
G1 X84.405 Y92.134 F800
M106 S0
M106 S255
G1 X84.458 Y91.947 F800
M106 S0
M106 S255
G1 X84.476 Y91.688 F800
M106 S0
M106 S255
G1 X84.458 Y91.426 F800
M106 S0
M106 S255
G1 X84.405 Y91.24 F800
M106 S0
M106 S255
G1 X84.308 Y91.131 F800
M106 S0
M106 S255
G1 X84.167 Y91.094 F800
M106 S0
M106 S255
G1 X84.023 Y91.131 F800
M106 S0
M106 S255
G1 X83.927 Y91.24 F800
M106 S0
M106 S255
G1 X83.873 Y91.426 F800
M106 S0
G0 X85.192 Y91.763 F6000
M106 S255
G1 X85.192 Y91.763 F800
M106 S0
M106 S255
G1 X85.082 Y91.703 F800
M106 S0
M106 S255
G1 X85.007 Y91.619 F800
M106 S0
M106 S255
G1 X84.96 Y91.514 F800
M106 S0
M106 S255
G1 X84.945 Y91.388 F800
M106 S0
M106 S255
G1 X84.979 Y91.197 F800
M106 S0
M106 S255
G1 X85.078 Y91.049 F800
M106 S0
M106 S255
G1 X85.239 Y90.955 F800
M106 S0
M106 S255
G1 X85.458 Y90.918 F800
M106 S0
M106 S255
G1 X85.674 Y90.955 F800
M106 S0
M106 S255
G1 X85.835 Y91.049 F800
M106 S0
M106 S255
G1 X85.934 Y91.197 F800
M106 S0
M106 S255
G1 X85.97 Y91.388 F800
M106 S0
M106 S255
G1 X85.953 Y91.514 F800
M106 S0
M106 S255
G1 X85.908 Y91.619 F800
M106 S0
M106 S255
G1 X85.831 Y91.703 F800
M106 S0
M106 S255
G1 X85.723 Y91.763 F800
M106 S0
M106 S255
G1 X85.809 Y91.815 F800
M106 S0
M106 S255
G1 X85.869 Y91.885 F800
M106 S0
M106 S255
G1 X85.906 Y91.971 F800
M106 S0
M106 S255
G1 X85.919 Y92.076 F800
M106 S0
M106 S255
G1 X85.884 Y92.228 F800
M106 S0
M106 S255
G1 X85.794 Y92.351 F800
M106 S0
M106 S255
G1 X85.648 Y92.43 F800
M106 S0
M106 S255
G1 X85.458 Y92.46 F800
M106 S0
M106 S255
G1 X85.265 Y92.43 F800
M106 S0
M106 S255
G1 X85.119 Y92.351 F800
M106 S0
M106 S255
G1 X85.027 Y92.228 F800
M106 S0
M106 S255
G1 X84.994 Y92.076 F800
M106 S0
M106 S255
G1 X85.005 Y91.971 F800
M106 S0
M106 S255
G1 X85.042 Y91.885 F800
M106 S0
G0 X85.151 Y91.392 F6000
M106 S255
G1 X85.151 Y91.392 F800
M106 S0
M106 S255
G1 X85.17 Y91.506 F800
M106 S0
M106 S255
G1 X85.232 Y91.592 F800
M106 S0
M106 S255
G1 X85.329 Y91.647 F800
M106 S0
M106 S255
G1 X85.458 Y91.667 F800
M106 S0
M106 S255
G1 X85.584 Y91.647 F800
M106 S0
M106 S255
G1 X85.681 Y91.592 F800
M106 S0
M106 S255
G1 X85.743 Y91.506 F800
M106 S0
M106 S255
G1 X85.764 Y91.392 F800
M106 S0
M106 S255
G1 X85.743 Y91.27 F800
M106 S0
M106 S255
G1 X85.681 Y91.178 F800
M106 S0
M106 S255
G1 X85.584 Y91.118 F800
M106 S0
M106 S255
G1 X85.458 Y91.098 F800
M106 S0
M106 S255
G1 X85.329 Y91.118 F800
M106 S0
M106 S255
G1 X85.232 Y91.178 F800
M106 S0
M106 S255
G1 X85.17 Y91.27 F800
M106 S0
G0 X85.198 Y92.059 F6000
M106 S255
G1 X85.198 Y92.059 F800
M106 S0
M106 S255
G1 X85.215 Y92.153 F800
M106 S0
M106 S255
G1 X85.267 Y92.226 F800
M106 S0
M106 S255
G1 X85.348 Y92.271 F800
M106 S0
M106 S255
G1 X85.458 Y92.288 F800
M106 S0
M106 S255
G1 X85.565 Y92.271 F800
M106 S0
M106 S255
G1 X85.646 Y92.226 F800
M106 S0
M106 S255
G1 X85.698 Y92.153 F800
M106 S0
M106 S255
G1 X85.717 Y92.059 F800
M106 S0
M106 S255
G1 X85.698 Y91.962 F800
M106 S0
M106 S255
G1 X85.646 Y91.887 F800
M106 S0
M106 S255
G1 X85.565 Y91.838 F800
M106 S0
M106 S255
G1 X85.458 Y91.823 F800
M106 S0
M106 S255
G1 X85.348 Y91.84 F800
M106 S0
M106 S255
G1 X85.267 Y91.887 F800
M106 S0
M106 S255
G1 X85.215 Y91.962 F800
M106 S0
G0 X79.843 Y81.905 F6000
M106 S255
G1 X79.843 Y81.905 F800
M106 S0
M106 S255
G1 X79.684 Y81.07 F800
M106 S0
M106 S255
G1 X80.239 Y81.714 F800
M106 S0
G0 X41.3 Y68.953 F6000
M106 S255
G1 X41.3 Y68.953 F800
M106 S0
M106 S255
G1 X41.327 Y68.714 F800
M106 S0
M106 S255
G1 X41.407 Y68.538 F800
M106 S0
M106 S255
G1 X41.531 Y68.43 F800
M106 S0
M106 S255
G1 X41.693 Y68.393 F800
M106 S0
M106 S255
G1 X41.854 Y68.43 F800
M106 S0
M106 S255
G1 X41.98 Y68.538 F800
M106 S0
M106 S255
G1 X42.058 Y68.714 F800
M106 S0
M106 S255
G1 X42.087 Y68.953 F800
M106 S0
M106 S255
G1 X42.058 Y69.191 F800
M106 S0
M106 S255
G1 X42.024 Y69.287 F800
M106 S0
M106 S255
G1 X41.98 Y69.367 F800
M106 S0
M106 S255
G1 X41.854 Y69.476 F800
M106 S0
M106 S255
G1 X41.778 Y69.503 F800
M106 S0
M106 S255
G1 X41.693 Y69.514 F800
M106 S0
M106 S255
G1 X41.529 Y69.476 F800
M106 S0
M106 S255
G1 X41.405 Y69.368 F800
M106 S0
M106 S255
G1 X41.327 Y69.192 F800
M106 S0
G0 X41.447 Y68.953 F6000
M106 S255
G1 X41.447 Y68.953 F800
M106 S0
M106 S255
G1 X41.464 Y69.139 F800
M106 S0
M106 S255
G1 X41.514 Y69.275 F800
M106 S0
M106 S255
G1 X41.592 Y69.358 F800
M106 S0
M106 S255
G1 X41.693 Y69.387 F800
M106 S0
M106 S255
G1 X41.793 Y69.358 F800
M106 S0
M106 S255
G1 X41.871 Y69.273 F800
M106 S0
M106 S255
G1 X41.922 Y69.137 F800
M106 S0
M106 S255
G1 X41.94 Y68.953 F800
M106 S0
M106 S255
G1 X41.922 Y68.768 F800
M106 S0
M106 S255
G1 X41.871 Y68.632 F800
M106 S0
M106 S255
G1 X41.793 Y68.549 F800
M106 S0
M106 S255
G1 X41.693 Y68.521 F800
M106 S0
M106 S255
G1 X41.592 Y68.549 F800
M106 S0
M106 S255
G1 X41.514 Y68.632 F800
M106 S0
M106 S255
G1 X41.464 Y68.767 F800
M106 S0
G0 X42.932 Y69.244 F6000
M106 S255
G1 X42.932 Y69.244 F800
M106 S0
M106 S255
G1 X42.798 Y69.244 F800
M106 S0
M106 S255
G1 X42.798 Y68.77 F800
M106 S0
M106 S255
G1 X42.782 Y68.659 F800
M106 S0
M106 S255
G1 X42.738 Y68.58 F800
M106 S0
M106 S255
G1 X42.669 Y68.531 F800
M106 S0
M106 S255
G1 X42.579 Y68.515 F800
M106 S0
M106 S255
G1 X42.507 Y68.528 F800
M106 S0
M106 S255
G1 X42.461 Y68.564 F800
M106 S0
M106 S255
G1 X42.435 Y68.627 F800
M106 S0
M106 S255
G1 X42.428 Y68.716 F800
M106 S0
M106 S255
G1 X42.428 Y69.244 F800
M106 S0
M106 S255
G1 X42.294 Y69.244 F800
M106 S0
M106 S255
G1 X42.294 Y68.704 F800
M106 S0
M106 S255
G1 X42.298 Y68.595 F800
M106 S0
M106 S255
G1 X42.327 Y68.505 F800
M106 S0
M106 S255
G1 X42.416 Y68.422 F800
M106 S0
M106 S255
G1 X42.559 Y68.393 F800
M106 S0
M106 S255
G1 X42.635 Y68.404 F800
M106 S0
M106 S255
G1 X42.701 Y68.431 F800
M106 S0
M106 S255
G1 X42.758 Y68.479 F800
M106 S0
M106 S255
G1 X42.804 Y68.547 F800
M106 S0
M106 S255
G1 X42.804 Y68.422 F800
M106 S0
M106 S255
G1 X42.932 Y68.422 F800
M106 S0
G0 X43.401 Y69.102 F6000
M106 S255
G1 X43.401 Y69.102 F800
M106 S0
M106 S255
G1 X43.401 Y68.69 F800
M106 S0
M106 S255
G1 X43.41 Y68.557 F800
M106 S0
M106 S255
G1 X43.453 Y68.465 F800
M106 S0
M106 S255
G1 X43.539 Y68.411 F800
M106 S0
M106 S255
G1 X43.684 Y68.393 F800
M106 S0
M106 S255
G1 X43.844 Y68.4 F800
M106 S0
M106 S255
G1 X43.844 Y68.517 F800
M106 S0
M106 S255
G1 X43.727 Y68.508 F800
M106 S0
M106 S255
G1 X43.622 Y68.52 F800
M106 S0
M106 S255
G1 X43.565 Y68.558 F800
M106 S0
M106 S255
G1 X43.54 Y68.623 F800
M106 S0
M106 S255
G1 X43.536 Y68.713 F800
M106 S0
M106 S255
G1 X43.536 Y69.102 F800
M106 S0
M106 S255
G1 X43.844 Y69.102 F800
M106 S0
M106 S255
G1 X43.844 Y69.217 F800
M106 S0
M106 S255
G1 X43.536 Y69.217 F800
M106 S0
M106 S255
G1 X43.536 Y69.457 F800
M106 S0
M106 S255
G1 X43.401 Y69.457 F800
M106 S0
M106 S255
G1 X43.401 Y69.217 F800
M106 S0
M106 S255
G1 X43.168 Y69.217 F800
M106 S0
M106 S255
G1 X43.168 Y69.102 F800
M106 S0
G0 X44.26 Y68.794 F6000
M106 S255
G1 X44.26 Y68.794 F800
M106 S0
M106 S255
G1 X44.799 Y68.794 F800
M106 S0
M106 S255
G1 X44.801 Y68.857 F800
M106 S0
M106 S255
G1 X44.776 Y69.033 F800
M106 S0
M106 S255
G1 X44.709 Y69.165 F800
M106 S0
M106 S255
G1 X44.602 Y69.244 F800
M106 S0
M106 S255
G1 X44.459 Y69.273 F800
M106 S0
M106 S255
G1 X44.32 Y69.243 F800
M106 S0
M106 S255
G1 X44.213 Y69.157 F800
M106 S0
M106 S255
G1 X44.144 Y69.018 F800
M106 S0
M106 S255
G1 X44.119 Y68.834 F800
M106 S0
M106 S255
G1 X44.142 Y68.646 F800
M106 S0
M106 S255
G1 X44.211 Y68.508 F800
M106 S0
M106 S255
G1 X44.317 Y68.422 F800
M106 S0
M106 S255
G1 X44.455 Y68.393 F800
M106 S0
M106 S255
G1 X44.574 Y68.413 F800
M106 S0
M106 S255
G1 X44.672 Y68.465 F800
M106 S0
M106 S255
G1 X44.744 Y68.547 F800
M106 S0
M106 S255
G1 X44.785 Y68.658 F800
M106 S0
M106 S255
G1 X44.652 Y68.658 F800
M106 S0
M106 S255
G1 X44.625 Y68.597 F800
M106 S0
M106 S255
G1 X44.585 Y68.551 F800
M106 S0
M106 S255
G1 X44.472 Y68.514 F800
M106 S0
M106 S255
G1 X44.384 Y68.531 F800
M106 S0
M106 S255
G1 X44.318 Y68.584 F800
M106 S0
M106 S255
G1 X44.275 Y68.672 F800
M106 S0
M106 S255
G1 X44.26 Y68.789 F800
M106 S0
G0 X44.26 Y68.907 F6000
M106 S255
G1 X44.26 Y68.907 F800
M106 S0
M106 S255
G1 X44.277 Y69.013 F800
M106 S0
M106 S255
G1 X44.318 Y69.091 F800
M106 S0
M106 S255
G1 X44.381 Y69.139 F800
M106 S0
M106 S255
G1 X44.464 Y69.156 F800
M106 S0
M106 S255
G1 X44.545 Y69.139 F800
M106 S0
M106 S255
G1 X44.608 Y69.091 F800
M106 S0
M106 S255
G1 X44.646 Y69.013 F800
M106 S0
M106 S255
G1 X44.66 Y68.907 F800
M106 S0
G0 X45.115 Y68.422 F6000
M106 S255
G1 X45.115 Y68.422 F800
M106 S0
M106 S255
G1 X45.25 Y68.422 F800
M106 S0
M106 S255
G1 X45.25 Y68.892 F800
M106 S0
M106 S255
G1 X45.263 Y69.005 F800
M106 S0
M106 S255
G1 X45.305 Y69.087 F800
M106 S0
M106 S255
G1 X45.372 Y69.136 F800
M106 S0
M106 S255
G1 X45.462 Y69.152 F800
M106 S0
M106 S255
G1 X45.53 Y69.142 F800
M106 S0
M106 S255
G1 X45.58 Y69.111 F800
M106 S0
M106 S255
G1 X45.611 Y69.059 F800
M106 S0
M106 S255
G1 X45.622 Y68.989 F800
M106 S0
M106 S255
G1 X45.758 Y68.989 F800
M106 S0
M106 S255
G1 X45.74 Y69.113 F800
M106 S0
M106 S255
G1 X45.689 Y69.201 F800
M106 S0
M106 S255
G1 X45.605 Y69.255 F800
M106 S0
M106 S255
G1 X45.49 Y69.273 F800
M106 S0
M106 S255
G1 X45.412 Y69.261 F800
M106 S0
M106 S255
G1 X45.344 Y69.231 F800
M106 S0
M106 S255
G1 X45.285 Y69.178 F800
M106 S0
M106 S255
G1 X45.237 Y69.108 F800
M106 S0
M106 S255
G1 X45.237 Y69.244 F800
M106 S0
M106 S255
G1 X45.115 Y69.244 F800
M106 S0
G0 X47.026 Y68.794 F6000
M106 S255
G1 X47.026 Y68.794 F800
M106 S0
M106 S255
G1 X47.565 Y68.794 F800
M106 S0
M106 S255
G1 X47.567 Y68.857 F800
M106 S0
M106 S255
G1 X47.542 Y69.033 F800
M106 S0
M106 S255
G1 X47.475 Y69.165 F800
M106 S0
M106 S255
G1 X47.368 Y69.244 F800
M106 S0
M106 S255
G1 X47.225 Y69.273 F800
M106 S0
M106 S255
G1 X47.086 Y69.243 F800
M106 S0
M106 S255
G1 X46.979 Y69.157 F800
M106 S0
M106 S255
G1 X46.91 Y69.018 F800
M106 S0
M106 S255
G1 X46.885 Y68.834 F800
M106 S0
M106 S255
G1 X46.908 Y68.646 F800
M106 S0
M106 S255
G1 X46.977 Y68.508 F800
M106 S0
M106 S255
G1 X47.083 Y68.422 F800
M106 S0
M106 S255
G1 X47.221 Y68.393 F800
M106 S0
M106 S255
G1 X47.34 Y68.413 F800
M106 S0
M106 S255
G1 X47.438 Y68.465 F800
M106 S0
M106 S255
G1 X47.51 Y68.547 F800
M106 S0
M106 S255
G1 X47.551 Y68.658 F800
M106 S0
M106 S255
G1 X47.418 Y68.658 F800
M106 S0
M106 S255
G1 X47.391 Y68.597 F800
M106 S0
M106 S255
G1 X47.351 Y68.551 F800
M106 S0
M106 S255
G1 X47.237 Y68.514 F800
M106 S0
M106 S255
G1 X47.15 Y68.531 F800
M106 S0
M106 S255
G1 X47.084 Y68.584 F800
M106 S0
M106 S255
G1 X47.041 Y68.672 F800
M106 S0
M106 S255
G1 X47.026 Y68.789 F800
M106 S0
G0 X47.026 Y68.907 F6000
M106 S255
G1 X47.026 Y68.907 F800
M106 S0
M106 S255
G1 X47.043 Y69.013 F800
M106 S0
M106 S255
G1 X47.084 Y69.091 F800
M106 S0
M106 S255
G1 X47.147 Y69.139 F800
M106 S0
M106 S255
G1 X47.23 Y69.156 F800
M106 S0
M106 S255
G1 X47.311 Y69.139 F800
M106 S0
M106 S255
G1 X47.374 Y69.091 F800
M106 S0
M106 S255
G1 X47.412 Y69.013 F800
M106 S0
M106 S255
G1 X47.426 Y68.907 F800
M106 S0
G0 X47.83 Y68.422 F6000
M106 S255
G1 X47.83 Y68.422 F800
M106 S0
M106 S255
G1 X47.965 Y68.422 F800
M106 S0
M106 S255
G1 X47.965 Y68.897 F800
M106 S0
M106 S255
G1 X47.979 Y69.005 F800
M106 S0
M106 S255
G1 X48.023 Y69.085 F800
M106 S0
M106 S255
G1 X48.092 Y69.134 F800
M106 S0
M106 S255
G1 X48.184 Y69.152 F800
M106 S0
M106 S255
G1 X48.257 Y69.137 F800
M106 S0
M106 S255
G1 X48.303 Y69.096 F800
M106 S0
M106 S255
G1 X48.326 Y69.027 F800
M106 S0
M106 S255
G1 X48.334 Y68.935 F800
M106 S0
M106 S255
G1 X48.334 Y68.422 F800
M106 S0
M106 S255
G1 X48.469 Y68.422 F800
M106 S0
M106 S255
G1 X48.469 Y68.963 F800
M106 S0
M106 S255
G1 X48.463 Y69.071 F800
M106 S0
M106 S255
G1 X48.435 Y69.162 F800
M106 S0
M106 S255
G1 X48.345 Y69.244 F800
M106 S0
M106 S255
G1 X48.204 Y69.273 F800
M106 S0
M106 S255
G1 X48.126 Y69.263 F800
M106 S0
M106 S255
G1 X48.06 Y69.234 F800
M106 S0
M106 S255
G1 X48.003 Y69.185 F800
M106 S0
M106 S255
G1 X47.959 Y69.119 F800
M106 S0
M106 S255
G1 X47.959 Y69.244 F800
M106 S0
M106 S255
G1 X47.83 Y69.244 F800
M106 S0
G0 X49.392 Y68.459 F6000
M106 S255
G1 X49.392 Y68.459 F800
M106 S0
M106 S255
G1 X49.392 Y69.244 F800
M106 S0
M106 S255
G1 X49.264 Y69.244 F800
M106 S0
M106 S255
G1 X49.264 Y69.111 F800
M106 S0
M106 S255
G1 X49.158 Y69.232 F800
M106 S0
M106 S255
G1 X49.094 Y69.263 F800
M106 S0
M106 S255
G1 X49.022 Y69.273 F800
M106 S0
M106 S255
G1 X48.892 Y69.243 F800
M106 S0
M106 S255
G1 X48.79 Y69.157 F800
M106 S0
M106 S255
G1 X48.725 Y69.019 F800
M106 S0
M106 S255
G1 X48.702 Y68.834 F800
M106 S0
M106 S255
G1 X48.725 Y68.647 F800
M106 S0
M106 S255
G1 X48.79 Y68.509 F800
M106 S0
M106 S255
G1 X48.892 Y68.422 F800
M106 S0
M106 S255
G1 X49.022 Y68.393 F800
M106 S0
M106 S255
G1 X49.095 Y68.404 F800
M106 S0
M106 S255
G1 X49.156 Y68.431 F800
M106 S0
M106 S255
G1 X49.264 Y68.547 F800
M106 S0
M106 S255
G1 X49.264 Y68.431 F800
M106 S0
M106 S255
G1 X49.251 Y68.339 F800
M106 S0
M106 S255
G1 X49.218 Y68.273 F800
M106 S0
M106 S255
G1 X49.153 Y68.235 F800
M106 S0
M106 S255
G1 X49.057 Y68.221 F800
M106 S0
M106 S255
G1 X48.973 Y68.23 F800
M106 S0
M106 S255
G1 X48.913 Y68.253 F800
M106 S0
M106 S255
G1 X48.878 Y68.293 F800
M106 S0
M106 S255
G1 X48.867 Y68.347 F800
M106 S0
M106 S255
G1 X48.737 Y68.347 F800
M106 S0
M106 S255
G1 X48.737 Y68.341 F800
M106 S0
M106 S255
G1 X48.757 Y68.243 F800
M106 S0
M106 S255
G1 X48.818 Y68.169 F800
M106 S0
M106 S255
G1 X48.916 Y68.122 F800
M106 S0
M106 S255
G1 X49.049 Y68.105 F800
M106 S0
M106 S255
G1 X49.209 Y68.128 F800
M106 S0
M106 S255
G1 X49.314 Y68.192 F800
M106 S0
M106 S255
G1 X49.374 Y68.304 F800
M106 S0
G0 X48.841 Y68.834 F6000
M106 S255
G1 X48.841 Y68.834 F800
M106 S0
M106 S255
G1 X48.855 Y68.97 F800
M106 S0
M106 S255
G1 X48.896 Y69.071 F800
M106 S0
M106 S255
G1 X48.96 Y69.131 F800
M106 S0
M106 S255
G1 X49.046 Y69.152 F800
M106 S0
M106 S255
G1 X49.137 Y69.131 F800
M106 S0
M106 S255
G1 X49.204 Y69.071 F800
M106 S0
M106 S255
G1 X49.245 Y68.97 F800
M106 S0
M106 S255
G1 X49.261 Y68.834 F800
M106 S0
M106 S255
G1 X49.245 Y68.695 F800
M106 S0
M106 S255
G1 X49.204 Y68.595 F800
M106 S0
M106 S255
G1 X49.137 Y68.534 F800
M106 S0
M106 S255
G1 X49.046 Y68.514 F800
M106 S0
M106 S255
G1 X48.96 Y68.534 F800
M106 S0
M106 S255
G1 X48.896 Y68.595 F800
M106 S0
M106 S255
G1 X48.855 Y68.696 F800
M106 S0
G0 X50.086 Y68.535 F6000
M106 S255
G1 X50.086 Y68.535 F800
M106 S0
M106 S255
G1 X50.086 Y69.217 F800
M106 S0
M106 S255
G1 X49.74 Y69.217 F800
M106 S0
M106 S255
G1 X49.74 Y69.102 F800
M106 S0
M106 S255
G1 X49.951 Y69.102 F800
M106 S0
M106 S255
G1 X49.951 Y68.535 F800
M106 S0
M106 S255
G1 X49.676 Y68.535 F800
M106 S0
M106 S255
G1 X49.676 Y68.422 F800
M106 S0
M106 S255
G1 X50.365 Y68.422 F800
M106 S0
M106 S255
G1 X50.365 Y68.535 F800
M106 S0
G0 X50.091 Y69.522 F6000
M106 S255
G1 X50.091 Y69.522 F800
M106 S0
M106 S255
G1 X49.948 Y69.522 F800
M106 S0
M106 S255
G1 X49.948 Y69.368 F800
M106 S0
M106 S255
G1 X50.091 Y69.368 F800
M106 S0
G0 X50.596 Y68.422 F6000
M106 S255
G1 X50.596 Y68.422 F800
M106 S0
M106 S255
G1 X50.731 Y68.422 F800
M106 S0
M106 S255
G1 X50.731 Y68.897 F800
M106 S0
M106 S255
G1 X50.745 Y69.005 F800
M106 S0
M106 S255
G1 X50.789 Y69.085 F800
M106 S0
M106 S255
G1 X50.858 Y69.134 F800
M106 S0
M106 S255
G1 X50.95 Y69.152 F800
M106 S0
M106 S255
G1 X51.023 Y69.137 F800
M106 S0
M106 S255
G1 X51.069 Y69.096 F800
M106 S0
M106 S255
G1 X51.092 Y69.027 F800
M106 S0
M106 S255
G1 X51.1 Y68.935 F800
M106 S0
M106 S255
G1 X51.1 Y68.422 F800
M106 S0
M106 S255
G1 X51.235 Y68.422 F800
M106 S0
M106 S255
G1 X51.235 Y68.963 F800
M106 S0
M106 S255
G1 X51.229 Y69.071 F800
M106 S0
M106 S255
G1 X51.201 Y69.162 F800
M106 S0
M106 S255
G1 X51.111 Y69.244 F800
M106 S0
M106 S255
G1 X50.97 Y69.273 F800
M106 S0
M106 S255
G1 X50.892 Y69.263 F800
M106 S0
M106 S255
G1 X50.826 Y69.234 F800
M106 S0
M106 S255
G1 X50.769 Y69.185 F800
M106 S0
M106 S255
G1 X50.725 Y69.119 F800
M106 S0
M106 S255
G1 X50.725 Y69.244 F800
M106 S0
M106 S255
G1 X50.596 Y69.244 F800
M106 S0
G0 X51.636 Y68.794 F6000
M106 S255
G1 X51.636 Y68.794 F800
M106 S0
M106 S255
G1 X52.175 Y68.794 F800
M106 S0
M106 S255
G1 X52.177 Y68.857 F800
M106 S0
M106 S255
G1 X52.152 Y69.033 F800
M106 S0
M106 S255
G1 X52.085 Y69.165 F800
M106 S0
M106 S255
G1 X51.978 Y69.244 F800
M106 S0
M106 S255
G1 X51.835 Y69.273 F800
M106 S0
M106 S255
G1 X51.696 Y69.243 F800
M106 S0
M106 S255
G1 X51.589 Y69.157 F800
M106 S0
M106 S255
G1 X51.52 Y69.018 F800
M106 S0
M106 S255
G1 X51.495 Y68.834 F800
M106 S0
M106 S255
G1 X51.518 Y68.646 F800
M106 S0
M106 S255
G1 X51.587 Y68.508 F800
M106 S0
M106 S255
G1 X51.693 Y68.422 F800
M106 S0
M106 S255
G1 X51.831 Y68.393 F800
M106 S0
M106 S255
G1 X51.95 Y68.413 F800
M106 S0
M106 S255
G1 X52.048 Y68.465 F800
M106 S0
M106 S255
G1 X52.12 Y68.547 F800
M106 S0
M106 S255
G1 X52.161 Y68.658 F800
M106 S0
M106 S255
G1 X52.028 Y68.658 F800
M106 S0
M106 S255
G1 X52.0 Y68.597 F800
M106 S0
M106 S255
G1 X51.961 Y68.551 F800
M106 S0
M106 S255
G1 X51.847 Y68.514 F800
M106 S0
M106 S255
G1 X51.76 Y68.531 F800
M106 S0
M106 S255
G1 X51.694 Y68.584 F800
M106 S0
M106 S255
G1 X51.651 Y68.672 F800
M106 S0
M106 S255
G1 X51.636 Y68.789 F800
M106 S0
G0 X51.636 Y68.907 F6000
M106 S255
G1 X51.636 Y68.907 F800
M106 S0
M106 S255
G1 X51.653 Y69.013 F800
M106 S0
M106 S255
G1 X51.694 Y69.091 F800
M106 S0
M106 S255
G1 X51.757 Y69.139 F800
M106 S0
M106 S255
G1 X51.84 Y69.156 F800
M106 S0
M106 S255
G1 X51.921 Y69.139 F800
M106 S0
M106 S255
G1 X51.984 Y69.091 F800
M106 S0
M106 S255
G1 X52.022 Y69.013 F800
M106 S0
M106 S255
G1 X52.036 Y68.907 F800
M106 S0
G0 X54.002 Y68.459 F6000
M106 S255
G1 X54.002 Y68.459 F800
M106 S0
M106 S255
G1 X54.002 Y69.244 F800
M106 S0
M106 S255
G1 X53.874 Y69.244 F800
M106 S0
M106 S255
G1 X53.874 Y69.111 F800
M106 S0
M106 S255
G1 X53.768 Y69.232 F800
M106 S0
M106 S255
G1 X53.704 Y69.263 F800
M106 S0
M106 S255
G1 X53.632 Y69.273 F800
M106 S0
M106 S255
G1 X53.501 Y69.243 F800
M106 S0
M106 S255
G1 X53.4 Y69.157 F800
M106 S0
M106 S255
G1 X53.334 Y69.019 F800
M106 S0
M106 S255
G1 X53.311 Y68.834 F800
M106 S0
M106 S255
G1 X53.334 Y68.647 F800
M106 S0
M106 S255
G1 X53.4 Y68.509 F800
M106 S0
M106 S255
G1 X53.501 Y68.422 F800
M106 S0
M106 S255
G1 X53.632 Y68.393 F800
M106 S0
M106 S255
G1 X53.705 Y68.404 F800
M106 S0
M106 S255
G1 X53.766 Y68.431 F800
M106 S0
M106 S255
G1 X53.874 Y68.547 F800
M106 S0
M106 S255
G1 X53.874 Y68.431 F800
M106 S0
M106 S255
G1 X53.861 Y68.339 F800
M106 S0
M106 S255
G1 X53.828 Y68.273 F800
M106 S0
M106 S255
G1 X53.763 Y68.235 F800
M106 S0
M106 S255
G1 X53.667 Y68.221 F800
M106 S0
M106 S255
G1 X53.583 Y68.23 F800
M106 S0
M106 S255
G1 X53.523 Y68.253 F800
M106 S0
M106 S255
G1 X53.488 Y68.293 F800
M106 S0
M106 S255
G1 X53.477 Y68.347 F800
M106 S0
M106 S255
G1 X53.347 Y68.347 F800
M106 S0
M106 S255
G1 X53.347 Y68.341 F800
M106 S0
M106 S255
G1 X53.367 Y68.243 F800
M106 S0
M106 S255
G1 X53.428 Y68.169 F800
M106 S0
M106 S255
G1 X53.526 Y68.122 F800
M106 S0
M106 S255
G1 X53.659 Y68.105 F800
M106 S0
M106 S255
G1 X53.818 Y68.128 F800
M106 S0
M106 S255
G1 X53.924 Y68.192 F800
M106 S0
M106 S255
G1 X53.984 Y68.304 F800
M106 S0
G0 X53.451 Y68.834 F6000
M106 S255
G1 X53.451 Y68.834 F800
M106 S0
M106 S255
G1 X53.465 Y68.97 F800
M106 S0
M106 S255
G1 X53.506 Y69.071 F800
M106 S0
M106 S255
G1 X53.57 Y69.131 F800
M106 S0
M106 S255
G1 X53.656 Y69.152 F800
M106 S0
M106 S255
G1 X53.746 Y69.131 F800
M106 S0
M106 S255
G1 X53.814 Y69.071 F800
M106 S0
M106 S255
G1 X53.855 Y68.97 F800
M106 S0
M106 S255
G1 X53.87 Y68.834 F800
M106 S0
M106 S255
G1 X53.855 Y68.695 F800
M106 S0
M106 S255
G1 X53.814 Y68.595 F800
M106 S0
M106 S255
G1 X53.746 Y68.534 F800
M106 S0
M106 S255
G1 X53.656 Y68.514 F800
M106 S0
M106 S255
G1 X53.57 Y68.534 F800
M106 S0
M106 S255
G1 X53.506 Y68.595 F800
M106 S0
M106 S255
G1 X53.465 Y68.696 F800
M106 S0
G0 X54.696 Y68.535 F6000
M106 S255
G1 X54.696 Y68.535 F800
M106 S0
M106 S255
G1 X54.696 Y69.217 F800
M106 S0
M106 S255
G1 X54.35 Y69.217 F800
M106 S0
M106 S255
G1 X54.35 Y69.102 F800
M106 S0
M106 S255
G1 X54.561 Y69.102 F800
M106 S0
M106 S255
G1 X54.561 Y68.535 F800
M106 S0
M106 S255
G1 X54.286 Y68.535 F800
M106 S0
M106 S255
G1 X54.286 Y68.422 F800
M106 S0
M106 S255
G1 X54.975 Y68.422 F800
M106 S0
M106 S255
G1 X54.975 Y68.535 F800
M106 S0
G0 X54.701 Y69.522 F6000
M106 S255
G1 X54.701 Y69.522 F800
M106 S0
M106 S255
G1 X54.558 Y69.522 F800
M106 S0
M106 S255
G1 X54.558 Y69.368 F800
M106 S0
M106 S255
G1 X54.701 Y69.368 F800
M106 S0
G0 X55.257 Y68.422 F6000
M106 S255
G1 X55.257 Y68.422 F800
M106 S0
M106 S255
G1 X55.391 Y68.422 F800
M106 S0
M106 S255
G1 X55.391 Y68.892 F800
M106 S0
M106 S255
G1 X55.405 Y69.005 F800
M106 S0
M106 S255
G1 X55.446 Y69.087 F800
M106 S0
M106 S255
G1 X55.514 Y69.136 F800
M106 S0
M106 S255
G1 X55.604 Y69.152 F800
M106 S0
M106 S255
G1 X55.672 Y69.142 F800
M106 S0
M106 S255
G1 X55.722 Y69.111 F800
M106 S0
M106 S255
G1 X55.753 Y69.059 F800
M106 S0
M106 S255
G1 X55.763 Y68.989 F800
M106 S0
M106 S255
G1 X55.9 Y68.989 F800
M106 S0
M106 S255
G1 X55.881 Y69.113 F800
M106 S0
M106 S255
G1 X55.831 Y69.201 F800
M106 S0
M106 S255
G1 X55.747 Y69.255 F800
M106 S0
M106 S255
G1 X55.632 Y69.273 F800
M106 S0
M106 S255
G1 X55.554 Y69.261 F800
M106 S0
M106 S255
G1 X55.486 Y69.231 F800
M106 S0
M106 S255
G1 X55.427 Y69.178 F800
M106 S0
M106 S255
G1 X55.379 Y69.108 F800
M106 S0
M106 S255
G1 X55.379 Y69.244 F800
M106 S0
M106 S255
G1 X55.257 Y69.244 F800
M106 S0
G0 X56.633 Y68.549 F6000
M106 S255
G1 X56.633 Y68.549 F800
M106 S0
M106 S255
G1 X56.633 Y68.422 F800
M106 S0
M106 S255
G1 X56.768 Y68.422 F800
M106 S0
M106 S255
G1 X56.768 Y69.522 F800
M106 S0
M106 S255
G1 X56.635 Y69.522 F800
M106 S0
M106 S255
G1 X56.635 Y69.119 F800
M106 S0
M106 S255
G1 X56.532 Y69.235 F800
M106 S0
M106 S255
G1 X56.469 Y69.263 F800
M106 S0
M106 S255
G1 X56.398 Y69.273 F800
M106 S0
M106 S255
G1 X56.267 Y69.243 F800
M106 S0
M106 S255
G1 X56.166 Y69.157 F800
M106 S0
M106 S255
G1 X56.1 Y69.019 F800
M106 S0
M106 S255
G1 X56.077 Y68.834 F800
M106 S0
M106 S255
G1 X56.1 Y68.649 F800
M106 S0
M106 S255
G1 X56.166 Y68.509 F800
M106 S0
M106 S255
G1 X56.267 Y68.422 F800
M106 S0
M106 S255
G1 X56.398 Y68.393 F800
M106 S0
M106 S255
G1 X56.469 Y68.404 F800
M106 S0
M106 S255
G1 X56.534 Y68.431 F800
M106 S0
G0 X56.42 Y69.152 F6000
M106 S255
G1 X56.42 Y69.152 F800
M106 S0
M106 S255
G1 X56.509 Y69.131 F800
M106 S0
M106 S255
G1 X56.577 Y69.071 F800
M106 S0
M106 S255
G1 X56.617 Y68.972 F800
M106 S0
M106 S255
G1 X56.632 Y68.834 F800
M106 S0
M106 S255
G1 X56.617 Y68.695 F800
M106 S0
M106 S255
G1 X56.577 Y68.595 F800
M106 S0
M106 S255
G1 X56.509 Y68.534 F800
M106 S0
M106 S255
G1 X56.42 Y68.514 F800
M106 S0
M106 S255
G1 X56.336 Y68.534 F800
M106 S0
M106 S255
G1 X56.272 Y68.595 F800
M106 S0
M106 S255
G1 X56.229 Y68.696 F800
M106 S0
M106 S255
G1 X56.215 Y68.834 F800
M106 S0
M106 S255
G1 X56.229 Y68.97 F800
M106 S0
M106 S255
G1 X56.272 Y69.07 F800
M106 S0
M106 S255
G1 X56.336 Y69.131 F800
M106 S0
G0 X57.168 Y68.794 F6000
M106 S255
G1 X57.168 Y68.794 F800
M106 S0
M106 S255
G1 X57.707 Y68.794 F800
M106 S0
M106 S255
G1 X57.708 Y68.857 F800
M106 S0
M106 S255
G1 X57.684 Y69.033 F800
M106 S0
M106 S255
G1 X57.617 Y69.165 F800
M106 S0
M106 S255
G1 X57.509 Y69.244 F800
M106 S0
M106 S255
G1 X57.367 Y69.273 F800
M106 S0
M106 S255
G1 X57.228 Y69.243 F800
M106 S0
M106 S255
G1 X57.12 Y69.157 F800
M106 S0
M106 S255
G1 X57.051 Y69.018 F800
M106 S0
M106 S255
G1 X57.027 Y68.834 F800
M106 S0
M106 S255
G1 X57.05 Y68.646 F800
M106 S0
M106 S255
G1 X57.119 Y68.508 F800
M106 S0
M106 S255
G1 X57.225 Y68.422 F800
M106 S0
M106 S255
G1 X57.362 Y68.393 F800
M106 S0
M106 S255
G1 X57.482 Y68.413 F800
M106 S0
M106 S255
G1 X57.58 Y68.465 F800
M106 S0
M106 S255
G1 X57.652 Y68.547 F800
M106 S0
M106 S255
G1 X57.693 Y68.658 F800
M106 S0
M106 S255
G1 X57.56 Y68.658 F800
M106 S0
M106 S255
G1 X57.532 Y68.597 F800
M106 S0
M106 S255
G1 X57.493 Y68.551 F800
M106 S0
M106 S255
G1 X57.379 Y68.514 F800
M106 S0
M106 S255
G1 X57.292 Y68.531 F800
M106 S0
M106 S255
G1 X57.226 Y68.584 F800
M106 S0
M106 S255
G1 X57.183 Y68.672 F800
M106 S0
M106 S255
G1 X57.168 Y68.789 F800
M106 S0
G0 X57.168 Y68.907 F6000
M106 S255
G1 X57.168 Y68.907 F800
M106 S0
M106 S255
G1 X57.185 Y69.013 F800
M106 S0
M106 S255
G1 X57.226 Y69.091 F800
M106 S0
M106 S255
G1 X57.289 Y69.139 F800
M106 S0
M106 S255
G1 X57.372 Y69.156 F800
M106 S0
M106 S255
G1 X57.453 Y69.139 F800
M106 S0
M106 S255
G1 X57.516 Y69.091 F800
M106 S0
M106 S255
G1 X57.554 Y69.013 F800
M106 S0
M106 S255
G1 X57.568 Y68.907 F800
M106 S0
G0 X58.022 Y68.422 F6000
M106 S255
G1 X58.022 Y68.422 F800
M106 S0
M106 S255
G1 X58.157 Y68.422 F800
M106 S0
M106 S255
G1 X58.157 Y68.892 F800
M106 S0
M106 S255
G1 X58.171 Y69.005 F800
M106 S0
M106 S255
G1 X58.212 Y69.087 F800
M106 S0
M106 S255
G1 X58.28 Y69.136 F800
M106 S0
M106 S255
G1 X58.37 Y69.152 F800
M106 S0
M106 S255
G1 X58.437 Y69.142 F800
M106 S0
M106 S255
G1 X58.488 Y69.111 F800
M106 S0
M106 S255
G1 X58.519 Y69.059 F800
M106 S0
M106 S255
G1 X58.529 Y68.989 F800
M106 S0
M106 S255
G1 X58.666 Y68.989 F800
M106 S0
M106 S255
G1 X58.647 Y69.113 F800
M106 S0
M106 S255
G1 X58.597 Y69.201 F800
M106 S0
M106 S255
G1 X58.513 Y69.255 F800
M106 S0
M106 S255
G1 X58.398 Y69.273 F800
M106 S0
M106 S255
G1 X58.32 Y69.261 F800
M106 S0
M106 S255
G1 X58.252 Y69.231 F800
M106 S0
M106 S255
G1 X58.192 Y69.178 F800
M106 S0
M106 S255
G1 X58.145 Y69.108 F800
M106 S0
M106 S255
G1 X58.145 Y69.244 F800
M106 S0
M106 S255
G1 X58.022 Y69.244 F800
M106 S0
G0 X41.571 Y66.586 F6000
M106 S255
G1 X41.571 Y66.586 F800
M106 S0
M106 S255
G1 X41.693 Y67.284 F800
M106 S0
M106 S255
G1 X41.816 Y66.586 F800
M106 S0
M106 S255
G1 X41.945 Y66.586 F800
M106 S0
M106 S255
G1 X42.147 Y67.408 F800
M106 S0
M106 S255
G1 X42.016 Y67.408 F800
M106 S0
M106 S255
G1 X41.88 Y66.71 F800
M106 S0
M106 S255
G1 X41.759 Y67.408 F800
M106 S0
M106 S255
G1 X41.626 Y67.408 F800
M106 S0
M106 S255
G1 X41.505 Y66.71 F800
M106 S0
M106 S255
G1 X41.369 Y67.408 F800
M106 S0
M106 S255
G1 X41.24 Y67.408 F800
M106 S0
M106 S255
G1 X41.442 Y66.586 F800
M106 S0
G0 X42.416 Y66.958 F6000
M106 S255
G1 X42.416 Y66.958 F800
M106 S0
M106 S255
G1 X42.955 Y66.958 F800
M106 S0
M106 S255
G1 X42.957 Y67.021 F800
M106 S0
M106 S255
G1 X42.932 Y67.197 F800
M106 S0
M106 S255
G1 X42.865 Y67.328 F800
M106 S0
M106 S255
G1 X42.758 Y67.408 F800
M106 S0
M106 S255
G1 X42.615 Y67.437 F800
M106 S0
M106 S255
G1 X42.476 Y67.407 F800
M106 S0
M106 S255
G1 X42.369 Y67.321 F800
M106 S0
M106 S255
G1 X42.3 Y67.181 F800
M106 S0
M106 S255
G1 X42.275 Y66.998 F800
M106 S0
M106 S255
G1 X42.298 Y66.809 F800
M106 S0
M106 S255
G1 X42.367 Y66.671 F800
M106 S0
M106 S255
G1 X42.473 Y66.586 F800
M106 S0
M106 S255
G1 X42.611 Y66.557 F800
M106 S0
M106 S255
G1 X42.73 Y66.576 F800
M106 S0
M106 S255
G1 X42.828 Y66.628 F800
M106 S0
M106 S255
G1 X42.9 Y66.711 F800
M106 S0
M106 S255
G1 X42.942 Y66.821 F800
M106 S0
M106 S255
G1 X42.808 Y66.821 F800
M106 S0
M106 S255
G1 X42.781 Y66.76 F800
M106 S0
M106 S255
G1 X42.741 Y66.714 F800
M106 S0
M106 S255
G1 X42.628 Y66.678 F800
M106 S0
M106 S255
G1 X42.54 Y66.694 F800
M106 S0
M106 S255
G1 X42.474 Y66.748 F800
M106 S0
M106 S255
G1 X42.432 Y66.835 F800
M106 S0
M106 S255
G1 X42.416 Y66.953 F800
M106 S0
G0 X42.416 Y67.071 F6000
M106 S255
G1 X42.416 Y67.071 F800
M106 S0
M106 S255
G1 X42.433 Y67.177 F800
M106 S0
M106 S255
G1 X42.474 Y67.255 F800
M106 S0
M106 S255
G1 X42.537 Y67.302 F800
M106 S0
M106 S255
G1 X42.62 Y67.319 F800
M106 S0
M106 S255
G1 X42.701 Y67.302 F800
M106 S0
M106 S255
G1 X42.764 Y67.255 F800
M106 S0
M106 S255
G1 X42.802 Y67.177 F800
M106 S0
M106 S255
G1 X42.816 Y67.071 F800
M106 S0
G0 X43.347 Y66.713 F6000
M106 S255
G1 X43.347 Y66.713 F800
M106 S0
M106 S255
G1 X43.447 Y66.595 F800
M106 S0
M106 S255
G1 X43.583 Y66.557 F800
M106 S0
M106 S255
G1 X43.712 Y66.586 F800
M106 S0
M106 S255
G1 X43.815 Y66.673 F800
M106 S0
M106 S255
G1 X43.879 Y66.812 F800
M106 S0
M106 S255
G1 X43.903 Y66.998 F800
M106 S0
M106 S255
G1 X43.879 Y67.183 F800
M106 S0
M106 S255
G1 X43.813 Y67.321 F800
M106 S0
M106 S255
G1 X43.712 Y67.407 F800
M106 S0
M106 S255
G1 X43.583 Y67.437 F800
M106 S0
M106 S255
G1 X43.448 Y67.397 F800
M106 S0
M106 S255
G1 X43.393 Y67.348 F800
M106 S0
M106 S255
G1 X43.347 Y67.282 F800
M106 S0
M106 S255
G1 X43.347 Y67.685 F800
M106 S0
M106 S255
G1 X43.213 Y67.685 F800
M106 S0
M106 S255
G1 X43.213 Y66.586 F800
M106 S0
M106 S255
G1 X43.347 Y66.586 F800
M106 S0
G0 X43.765 Y66.998 F6000
M106 S255
G1 X43.765 Y66.998 F800
M106 S0
M106 S255
G1 X43.75 Y66.86 F800
M106 S0
M106 S255
G1 X43.709 Y66.759 F800
M106 S0
M106 S255
G1 X43.643 Y66.697 F800
M106 S0
M106 S255
G1 X43.56 Y66.678 F800
M106 S0
M106 S255
G1 X43.47 Y66.697 F800
M106 S0
M106 S255
G1 X43.404 Y66.759 F800
M106 S0
M106 S255
G1 X43.363 Y66.858 F800
M106 S0
M106 S255
G1 X43.349 Y66.998 F800
M106 S0
M106 S255
G1 X43.363 Y67.135 F800
M106 S0
M106 S255
G1 X43.404 Y67.235 F800
M106 S0
M106 S255
G1 X43.47 Y67.295 F800
M106 S0
M106 S255
G1 X43.56 Y67.316 F800
M106 S0
M106 S255
G1 X43.643 Y67.295 F800
M106 S0
M106 S255
G1 X43.709 Y67.233 F800
M106 S0
M106 S255
G1 X43.75 Y67.134 F800
M106 S0
G0 X44.354 Y66.586 F6000
M106 S255
G1 X44.354 Y66.586 F800
M106 S0
M106 S255
G1 X44.565 Y66.586 F800
M106 S0
M106 S255
G1 X44.565 Y66.814 F800
M106 S0
M106 S255
G1 X44.354 Y66.814 F800
M106 S0
G0 X44.354 Y67.18 F6000
M106 S255
G1 X44.354 Y67.18 F800
M106 S0
M106 S255
G1 X44.565 Y67.18 F800
M106 S0
M106 S255
G1 X44.565 Y67.408 F800
M106 S0
M106 S255
G1 X44.354 Y67.408 F800
M106 S0
G0 X45.917 Y66.919 F6000
M106 S255
G1 X45.917 Y66.919 F800
M106 S0
M106 S255
G1 X45.917 Y66.909 F800
M106 S0
M106 S255
G1 X45.942 Y66.762 F800
M106 S0
M106 S255
G1 X46.014 Y66.651 F800
M106 S0
M106 S255
G1 X46.127 Y66.581 F800
M106 S0
M106 S255
G1 X46.277 Y66.555 F800
M106 S0
M106 S255
G1 X46.436 Y66.581 F800
M106 S0
M106 S255
G1 X46.556 Y66.648 F800
M106 S0
M106 S255
G1 X46.633 Y66.756 F800
M106 S0
M106 S255
G1 X46.66 Y66.893 F800
M106 S0
M106 S255
G1 X46.648 Y66.984 F800
M106 S0
M106 S255
G1 X46.614 Y67.057 F800
M106 S0
M106 S255
G1 X46.559 Y67.114 F800
M106 S0
M106 S255
G1 X46.485 Y67.155 F800
M106 S0
M106 S255
G1 X46.585 Y67.238 F800
M106 S0
M106 S255
G1 X46.62 Y67.37 F800
M106 S0
M106 S255
G1 X46.597 Y67.489 F800
M106 S0
M106 S255
G1 X46.531 Y67.58 F800
M106 S0
M106 S255
G1 X46.424 Y67.636 F800
M106 S0
M106 S255
G1 X46.277 Y67.656 F800
M106 S0
M106 S255
G1 X46.139 Y67.632 F800
M106 S0
M106 S255
G1 X46.034 Y67.564 F800
M106 S0
M106 S255
G1 X45.965 Y67.457 F800
M106 S0
M106 S255
G1 X45.942 Y67.315 F800
M106 S0
M106 S255
G1 X45.942 Y67.304 F800
M106 S0
M106 S255
G1 X46.078 Y67.304 F800
M106 S0
M106 S255
G1 X46.09 Y67.402 F800
M106 S0
M106 S255
G1 X46.13 Y67.472 F800
M106 S0
M106 S255
G1 X46.194 Y67.515 F800
M106 S0
M106 S255
G1 X46.285 Y67.531 F800
M106 S0
M106 S255
G1 X46.364 Y67.518 F800
M106 S0
M106 S255
G1 X46.423 Y67.486 F800
M106 S0
M106 S255
G1 X46.458 Y67.434 F800
M106 S0
M106 S255
G1 X46.472 Y67.364 F800
M106 S0
M106 S255
G1 X46.458 Y67.289 F800
M106 S0
M106 S255
G1 X46.421 Y67.238 F800
M106 S0
M106 S255
G1 X46.357 Y67.207 F800
M106 S0
M106 S255
G1 X46.27 Y67.198 F800
M106 S0
M106 S255
G1 X46.21 Y67.2 F800
M106 S0
M106 S255
G1 X46.21 Y67.079 F800
M106 S0
M106 S255
G1 X46.285 Y67.082 F800
M106 S0
M106 S255
G1 X46.381 Y67.068 F800
M106 S0
M106 S255
G1 X46.453 Y67.031 F800
M106 S0
M106 S255
G1 X46.496 Y66.972 F800
M106 S0
M106 S255
G1 X46.512 Y66.893 F800
M106 S0
M106 S255
G1 X46.495 Y66.805 F800
M106 S0
M106 S255
G1 X46.45 Y66.739 F800
M106 S0
M106 S255
G1 X46.38 Y66.697 F800
M106 S0
M106 S255
G1 X46.286 Y66.684 F800
M106 S0
M106 S255
G1 X46.19 Y66.699 F800
M106 S0
M106 S255
G1 X46.119 Y66.745 F800
M106 S0
M106 S255
G1 X46.075 Y66.818 F800
M106 S0
M106 S255
G1 X46.058 Y66.919 F800
M106 S0
G0 X46.839 Y66.919 F6000
M106 S255
G1 X46.839 Y66.919 F800
M106 S0
M106 S255
G1 X46.839 Y66.909 F800
M106 S0
M106 S255
G1 X46.864 Y66.762 F800
M106 S0
M106 S255
G1 X46.936 Y66.651 F800
M106 S0
M106 S255
G1 X47.049 Y66.581 F800
M106 S0
M106 S255
G1 X47.199 Y66.555 F800
M106 S0
M106 S255
G1 X47.358 Y66.581 F800
M106 S0
M106 S255
G1 X47.478 Y66.648 F800
M106 S0
M106 S255
G1 X47.554 Y66.756 F800
M106 S0
M106 S255
G1 X47.582 Y66.893 F800
M106 S0
M106 S255
G1 X47.57 Y66.984 F800
M106 S0
M106 S255
G1 X47.536 Y67.057 F800
M106 S0
M106 S255
G1 X47.481 Y67.114 F800
M106 S0
M106 S255
G1 X47.407 Y67.155 F800
M106 S0
M106 S255
G1 X47.507 Y67.238 F800
M106 S0
M106 S255
G1 X47.542 Y67.37 F800
M106 S0
M106 S255
G1 X47.519 Y67.489 F800
M106 S0
M106 S255
G1 X47.453 Y67.58 F800
M106 S0
M106 S255
G1 X47.346 Y67.636 F800
M106 S0
M106 S255
G1 X47.199 Y67.656 F800
M106 S0
M106 S255
G1 X47.061 Y67.632 F800
M106 S0
M106 S255
G1 X46.956 Y67.564 F800
M106 S0
M106 S255
G1 X46.887 Y67.457 F800
M106 S0
M106 S255
G1 X46.864 Y67.315 F800
M106 S0
M106 S255
G1 X46.864 Y67.304 F800
M106 S0
M106 S255
G1 X47.0 Y67.304 F800
M106 S0
M106 S255
G1 X47.012 Y67.402 F800
M106 S0
M106 S255
G1 X47.052 Y67.472 F800
M106 S0
M106 S255
G1 X47.116 Y67.515 F800
M106 S0
M106 S255
G1 X47.207 Y67.531 F800
M106 S0
M106 S255
G1 X47.286 Y67.518 F800
M106 S0
M106 S255
G1 X47.345 Y67.486 F800
M106 S0
M106 S255
G1 X47.38 Y67.434 F800
M106 S0
M106 S255
G1 X47.394 Y67.364 F800
M106 S0
M106 S255
G1 X47.38 Y67.289 F800
M106 S0
M106 S255
G1 X47.343 Y67.238 F800
M106 S0
M106 S255
G1 X47.279 Y67.207 F800
M106 S0
M106 S255
G1 X47.192 Y67.198 F800
M106 S0
M106 S255
G1 X47.132 Y67.2 F800
M106 S0
M106 S255
G1 X47.132 Y67.079 F800
M106 S0
M106 S255
G1 X47.207 Y67.082 F800
M106 S0
M106 S255
G1 X47.303 Y67.068 F800
M106 S0
M106 S255
G1 X47.375 Y67.031 F800
M106 S0
M106 S255
G1 X47.418 Y66.972 F800
M106 S0
M106 S255
G1 X47.433 Y66.893 F800
M106 S0
M106 S255
G1 X47.417 Y66.805 F800
M106 S0
M106 S255
G1 X47.372 Y66.739 F800
M106 S0
M106 S255
G1 X47.302 Y66.697 F800
M106 S0
M106 S255
G1 X47.208 Y66.684 F800
M106 S0
M106 S255
G1 X47.112 Y66.699 F800
M106 S0
M106 S255
G1 X47.041 Y66.745 F800
M106 S0
M106 S255
G1 X46.997 Y66.818 F800
M106 S0
M106 S255
G1 X46.98 Y66.919 F800
M106 S0
G0 X47.778 Y67.105 F6000
M106 S255
G1 X47.778 Y67.105 F800
M106 S0
M106 S255
G1 X47.801 Y66.864 F800
M106 S0
M106 S255
G1 X47.873 Y66.693 F800
M106 S0
M106 S255
G1 X47.988 Y66.589 F800
M106 S0
M106 S255
G1 X48.147 Y66.555 F800
M106 S0
M106 S255
G1 X48.305 Y66.589 F800
M106 S0
M106 S255
G1 X48.42 Y66.693 F800
M106 S0
M106 S255
G1 X48.49 Y66.864 F800
M106 S0
M106 S255
G1 X48.515 Y67.105 F800
M106 S0
M106 S255
G1 X48.49 Y67.344 F800
M106 S0
M106 S255
G1 X48.461 Y67.439 F800
M106 S0
M106 S255
G1 X48.42 Y67.517 F800
M106 S0
M106 S255
G1 X48.305 Y67.621 F800
M106 S0
M106 S255
G1 X48.147 Y67.656 F800
M106 S0
M106 S255
G1 X47.988 Y67.621 F800
M106 S0
M106 S255
G1 X47.873 Y67.515 F800
M106 S0
M106 S255
G1 X47.801 Y67.344 F800
M106 S0
G0 X47.925 Y67.105 F6000
M106 S255
G1 X47.925 Y67.105 F800
M106 S0
M106 S255
G1 X47.937 Y67.29 F800
M106 S0
M106 S255
G1 X47.976 Y67.423 F800
M106 S0
M106 S255
G1 X48.045 Y67.501 F800
M106 S0
M106 S255
G1 X48.147 Y67.529 F800
M106 S0
M106 S255
G1 X48.248 Y67.501 F800
M106 S0
M106 S255
G1 X48.317 Y67.423 F800
M106 S0
M106 S255
G1 X48.355 Y67.29 F800
M106 S0
M106 S255
G1 X48.368 Y67.105 F800
M106 S0
M106 S255
G1 X48.355 Y66.918 F800
M106 S0
M106 S255
G1 X48.317 Y66.785 F800
M106 S0
M106 S255
G1 X48.248 Y66.707 F800
M106 S0
M106 S255
G1 X48.147 Y66.681 F800
M106 S0
M106 S255
G1 X48.045 Y66.707 F800
M106 S0
M106 S255
G1 X47.976 Y66.785 F800
M106 S0
M106 S255
G1 X47.937 Y66.918 F800
M106 S0
G0 X48.85 Y66.586 F6000
M106 S255
G1 X48.85 Y66.586 F800
M106 S0
M106 S255
G1 X49.062 Y66.906 F800
M106 S0
M106 S255
G1 X49.279 Y66.586 F800
M106 S0
M106 S255
G1 X49.441 Y66.586 F800
M106 S0
M106 S255
G1 X49.147 Y67.01 F800
M106 S0
M106 S255
G1 X49.424 Y67.408 F800
M106 S0
M106 S255
G1 X49.268 Y67.408 F800
M106 S0
M106 S255
G1 X49.068 Y67.109 F800
M106 S0
M106 S255
G1 X48.867 Y67.408 F800
M106 S0
M106 S255
G1 X48.708 Y67.408 F800
M106 S0
M106 S255
G1 X48.98 Y67.008 F800
M106 S0
M106 S255
G1 X48.692 Y66.586 F800
M106 S0
G0 X49.964 Y66.586 F6000
M106 S255
G1 X49.964 Y66.586 F800
M106 S0
M106 S255
G1 X50.103 Y66.586 F800
M106 S0
M106 S255
G1 X50.103 Y67.656 F800
M106 S0
M106 S255
G1 X49.999 Y67.656 F800
M106 S0
M106 S255
G1 X49.971 Y67.563 F800
M106 S0
M106 S255
G1 X49.916 Y67.5 F800
M106 S0
M106 S255
G1 X49.832 Y67.463 F800
M106 S0
M106 S255
G1 X49.715 Y67.451 F800
M106 S0
M106 S255
G1 X49.715 Y67.342 F800
M106 S0
M106 S255
G1 X49.964 Y67.342 F800
M106 S0
G0 X50.544 Y67.105 F6000
M106 S255
G1 X50.544 Y67.105 F800
M106 S0
M106 S255
G1 X50.567 Y66.864 F800
M106 S0
M106 S255
G1 X50.639 Y66.693 F800
M106 S0
M106 S255
G1 X50.754 Y66.589 F800
M106 S0
M106 S255
G1 X50.913 Y66.555 F800
M106 S0
M106 S255
G1 X51.071 Y66.589 F800
M106 S0
M106 S255
G1 X51.186 Y66.693 F800
M106 S0
M106 S255
G1 X51.256 Y66.864 F800
M106 S0
M106 S255
G1 X51.281 Y67.105 F800
M106 S0
M106 S255
G1 X51.256 Y67.344 F800
M106 S0
M106 S255
G1 X51.227 Y67.439 F800
M106 S0
M106 S255
G1 X51.186 Y67.517 F800
M106 S0
M106 S255
G1 X51.071 Y67.621 F800
M106 S0
M106 S255
G1 X50.913 Y67.656 F800
M106 S0
M106 S255
G1 X50.754 Y67.621 F800
M106 S0
M106 S255
G1 X50.639 Y67.515 F800
M106 S0
M106 S255
G1 X50.567 Y67.344 F800
M106 S0
G0 X50.691 Y67.105 F6000
M106 S255
G1 X50.691 Y67.105 F800
M106 S0
M106 S255
G1 X50.703 Y67.29 F800
M106 S0
M106 S255
G1 X50.742 Y67.423 F800
M106 S0
M106 S255
G1 X50.811 Y67.501 F800
M106 S0
M106 S255
G1 X50.913 Y67.529 F800
M106 S0
M106 S255
G1 X51.014 Y67.501 F800
M106 S0
M106 S255
G1 X51.083 Y67.423 F800
M106 S0
M106 S255
G1 X51.121 Y67.29 F800
M106 S0
M106 S255
G1 X51.134 Y67.105 F800
M106 S0
M106 S255
G1 X51.121 Y66.918 F800
M106 S0
M106 S255
G1 X51.083 Y66.785 F800
M106 S0
M106 S255
G1 X51.014 Y66.707 F800
M106 S0
M106 S255
G1 X50.913 Y66.681 F800
M106 S0
M106 S255
G1 X50.811 Y66.707 F800
M106 S0
M106 S255
G1 X50.742 Y66.785 F800
M106 S0
M106 S255
G1 X50.703 Y66.918 F800
M106 S0
G0 X41.563 Y65.429 F6000
M106 S255
G1 X41.563 Y65.429 F800
M106 S0
M106 S255
G1 X41.563 Y64.749 F800
M106 S0
M106 S255
G1 X41.698 Y64.749 F800
M106 S0
M106 S255
G1 X41.698 Y65.429 F800
M106 S0
M106 S255
G1 X42.004 Y65.429 F800
M106 S0
M106 S255
G1 X42.004 Y65.544 F800
M106 S0
M106 S255
G1 X41.698 Y65.544 F800
M106 S0
M106 S255
G1 X41.698 Y65.595 F800
M106 S0
M106 S255
G1 X41.709 Y65.656 F800
M106 S0
M106 S255
G1 X41.744 Y65.697 F800
M106 S0
M106 S255
G1 X41.804 Y65.722 F800
M106 S0
M106 S255
G1 X41.889 Y65.731 F800
M106 S0
M106 S255
G1 X42.004 Y65.725 F800
M106 S0
M106 S255
G1 X42.004 Y65.841 F800
M106 S0
M106 S255
G1 X41.859 Y65.849 F800
M106 S0
M106 S255
G1 X41.727 Y65.835 F800
M106 S0
M106 S255
G1 X41.635 Y65.794 F800
M106 S0
M106 S255
G1 X41.58 Y65.722 F800
M106 S0
M106 S255
G1 X41.563 Y65.619 F800
M106 S0
M106 S255
G1 X41.563 Y65.544 F800
M106 S0
M106 S255
G1 X41.317 Y65.544 F800
M106 S0
M106 S255
G1 X41.317 Y65.429 F800
M106 S0
G0 X42.566 Y65.736 F6000
M106 S255
G1 X42.566 Y65.736 F800
M106 S0
M106 S255
G1 X42.566 Y64.863 F800
M106 S0
M106 S255
G1 X42.289 Y64.863 F800
M106 S0
M106 S255
G1 X42.289 Y64.749 F800
M106 S0
M106 S255
G1 X42.977 Y64.749 F800
M106 S0
M106 S255
G1 X42.977 Y64.863 F800
M106 S0
M106 S255
G1 X42.701 Y64.863 F800
M106 S0
M106 S255
G1 X42.701 Y65.849 F800
M106 S0
M106 S255
G1 X42.355 Y65.849 F800
M106 S0
M106 S255
G1 X42.355 Y65.736 F800
M106 S0
G0 X43.709 Y64.857 F6000
M106 S255
G1 X43.709 Y64.857 F800
M106 S0
M106 S255
G1 X43.709 Y64.852 F800
M106 S0
M106 S255
G1 X43.716 Y64.8 F800
M106 S0
M106 S255
G1 X43.739 Y64.763 F800
M106 S0
M106 S255
G1 X43.836 Y64.734 F800
M106 S0
M106 S255
G1 X43.911 Y64.746 F800
M106 S0
M106 S255
G1 X43.911 Y64.85 F800
M106 S0
M106 S255
G1 X43.879 Y64.846 F800
M106 S0
M106 S255
G1 X43.836 Y64.866 F800
M106 S0
M106 S255
G1 X43.828 Y64.927 F800
M106 S0
M106 S255
G1 X43.828 Y65.353 F800
M106 S0
M106 S255
G1 X43.81 Y65.461 F800
M106 S0
M106 S255
G1 X43.756 Y65.538 F800
M106 S0
M106 S255
G1 X43.663 Y65.584 F800
M106 S0
M106 S255
G1 X43.531 Y65.601 F800
M106 S0
M106 S255
G1 X43.403 Y65.582 F800
M106 S0
M106 S255
G1 X43.308 Y65.53 F800
M106 S0
M106 S255
G1 X43.248 Y65.449 F800
M106 S0
M106 S255
G1 X43.228 Y65.342 F800
M106 S0
M106 S255
G1 X43.228 Y65.333 F800
M106 S0
M106 S255
G1 X43.349 Y65.333 F800
M106 S0
M106 S255
G1 X43.36 Y65.397 F800
M106 S0
M106 S255
G1 X43.393 Y65.443 F800
M106 S0
M106 S255
G1 X43.448 Y65.471 F800
M106 S0
M106 S255
G1 X43.527 Y65.481 F800
M106 S0
M106 S255
G1 X43.602 Y65.474 F800
M106 S0
M106 S255
G1 X43.655 Y65.451 F800
M106 S0
M106 S255
G1 X43.687 Y65.411 F800
M106 S0
M106 S255
G1 X43.698 Y65.356 F800
M106 S0
M106 S255
G1 X43.692 Y65.291 F800
M106 S0
M106 S255
G1 X43.667 Y65.259 F800
M106 S0
M106 S255
G1 X43.606 Y65.244 F800
M106 S0
M106 S255
G1 X43.491 Y65.232 F800
M106 S0
M106 S255
G1 X43.36 Y65.204 F800
M106 S0
M106 S255
G1 X43.266 Y65.155 F800
M106 S0
M106 S255
G1 X43.211 Y65.079 F800
M106 S0
M106 S255
G1 X43.194 Y64.965 F800
M106 S0
M106 S255
G1 X43.21 Y64.864 F800
M106 S0
M106 S255
G1 X43.257 Y64.789 F800
M106 S0
M106 S255
G1 X43.334 Y64.742 F800
M106 S0
M106 S255
G1 X43.439 Y64.725 F800
M106 S0
M106 S255
G1 X43.582 Y64.757 F800
M106 S0
G0 X43.694 Y65.037 F6000
M106 S255
G1 X43.694 Y65.037 F800
M106 S0
M106 S255
G1 X43.675 Y64.958 F800
M106 S0
M106 S255
G1 X43.626 Y64.896 F800
M106 S0
M106 S255
G1 X43.553 Y64.857 F800
M106 S0
M106 S255
G1 X43.462 Y64.843 F800
M106 S0
M106 S255
G1 X43.404 Y64.85 F800
M106 S0
M106 S255
G1 X43.363 Y64.875 F800
M106 S0
M106 S255
G1 X43.337 Y64.918 F800
M106 S0
M106 S255
G1 X43.329 Y64.978 F800
M106 S0
M106 S255
G1 X43.335 Y65.031 F800
M106 S0
M106 S255
G1 X43.36 Y65.069 F800
M106 S0
M106 S255
G1 X43.458 Y65.112 F800
M106 S0
M106 S255
G1 X43.582 Y65.131 F800
M106 S0
M106 S255
G1 X43.694 Y65.167 F800
M106 S0
G0 X44.142 Y64.749 F6000
M106 S255
G1 X44.142 Y64.749 F800
M106 S0
M106 S255
G1 X44.277 Y64.749 F800
M106 S0
M106 S255
G1 X44.277 Y65.224 F800
M106 S0
M106 S255
G1 X44.291 Y65.333 F800
M106 S0
M106 S255
G1 X44.335 Y65.412 F800
M106 S0
M106 S255
G1 X44.404 Y65.461 F800
M106 S0
M106 S255
G1 X44.496 Y65.48 F800
M106 S0
M106 S255
G1 X44.57 Y65.465 F800
M106 S0
M106 S255
G1 X44.615 Y65.423 F800
M106 S0
M106 S255
G1 X44.638 Y65.354 F800
M106 S0
M106 S255
G1 X44.646 Y65.262 F800
M106 S0
M106 S255
G1 X44.646 Y64.749 F800
M106 S0
M106 S255
G1 X44.781 Y64.749 F800
M106 S0
M106 S255
G1 X44.781 Y65.29 F800
M106 S0
M106 S255
G1 X44.775 Y65.399 F800
M106 S0
M106 S255
G1 X44.747 Y65.489 F800
M106 S0
M106 S255
G1 X44.657 Y65.572 F800
M106 S0
M106 S255
G1 X44.516 Y65.601 F800
M106 S0
M106 S255
G1 X44.438 Y65.59 F800
M106 S0
M106 S255
G1 X44.372 Y65.561 F800
M106 S0
M106 S255
G1 X44.315 Y65.512 F800
M106 S0
M106 S255
G1 X44.271 Y65.446 F800
M106 S0
M106 S255
G1 X44.271 Y65.572 F800
M106 S0
M106 S255
G1 X44.142 Y65.572 F800
M106 S0
G0 X45.704 Y64.786 F6000
M106 S255
G1 X45.704 Y64.786 F800
M106 S0
M106 S255
G1 X45.704 Y65.572 F800
M106 S0
M106 S255
G1 X45.576 Y65.572 F800
M106 S0
M106 S255
G1 X45.576 Y65.438 F800
M106 S0
M106 S255
G1 X45.47 Y65.559 F800
M106 S0
M106 S255
G1 X45.406 Y65.59 F800
M106 S0
M106 S255
G1 X45.334 Y65.601 F800
M106 S0
M106 S255
G1 X45.204 Y65.57 F800
M106 S0
M106 S255
G1 X45.103 Y65.484 F800
M106 S0
M106 S255
G1 X45.037 Y65.347 F800
M106 S0
M106 S255
G1 X45.014 Y65.161 F800
M106 S0
M106 S255
G1 X45.037 Y64.974 F800
M106 S0
M106 S255
G1 X45.103 Y64.837 F800
M106 S0
M106 S255
G1 X45.204 Y64.749 F800
M106 S0
M106 S255
G1 X45.334 Y64.72 F800
M106 S0
M106 S255
G1 X45.407 Y64.731 F800
M106 S0
M106 S255
G1 X45.469 Y64.758 F800
M106 S0
M106 S255
G1 X45.576 Y64.875 F800
M106 S0
M106 S255
G1 X45.576 Y64.758 F800
M106 S0
M106 S255
G1 X45.564 Y64.667 F800
M106 S0
M106 S255
G1 X45.53 Y64.601 F800
M106 S0
M106 S255
G1 X45.465 Y64.562 F800
M106 S0
M106 S255
G1 X45.369 Y64.549 F800
M106 S0
M106 S255
G1 X45.285 Y64.558 F800
M106 S0
M106 S255
G1 X45.225 Y64.581 F800
M106 S0
M106 S255
G1 X45.19 Y64.621 F800
M106 S0
M106 S255
G1 X45.179 Y64.674 F800
M106 S0
M106 S255
G1 X45.049 Y64.674 F800
M106 S0
M106 S255
G1 X45.049 Y64.668 F800
M106 S0
M106 S255
G1 X45.069 Y64.57 F800
M106 S0
M106 S255
G1 X45.13 Y64.497 F800
M106 S0
M106 S255
G1 X45.228 Y64.449 F800
M106 S0
M106 S255
G1 X45.361 Y64.432 F800
M106 S0
M106 S255
G1 X45.521 Y64.455 F800
M106 S0
M106 S255
G1 X45.626 Y64.52 F800
M106 S0
M106 S255
G1 X45.686 Y64.631 F800
M106 S0
G0 X45.153 Y65.161 F6000
M106 S255
G1 X45.153 Y65.161 F800
M106 S0
M106 S255
G1 X45.167 Y65.298 F800
M106 S0
M106 S255
G1 X45.208 Y65.399 F800
M106 S0
M106 S255
G1 X45.273 Y65.458 F800
M106 S0
M106 S255
G1 X45.358 Y65.48 F800
M106 S0
M106 S255
G1 X45.449 Y65.458 F800
M106 S0
M106 S255
G1 X45.516 Y65.399 F800
M106 S0
M106 S255
G1 X45.557 Y65.298 F800
M106 S0
M106 S255
G1 X45.573 Y65.161 F800
M106 S0
M106 S255
G1 X45.557 Y65.022 F800
M106 S0
M106 S255
G1 X45.516 Y64.922 F800
M106 S0
M106 S255
G1 X45.449 Y64.861 F800
M106 S0
M106 S255
G1 X45.358 Y64.841 F800
M106 S0
M106 S255
G1 X45.273 Y64.861 F800
M106 S0
M106 S255
G1 X45.208 Y64.922 F800
M106 S0
M106 S255
G1 X45.167 Y65.023 F800
M106 S0
G0 X46.104 Y65.121 F6000
M106 S255
G1 X46.104 Y65.121 F800
M106 S0
M106 S255
G1 X46.643 Y65.121 F800
M106 S0
M106 S255
G1 X46.645 Y65.184 F800
M106 S0
M106 S255
G1 X46.62 Y65.36 F800
M106 S0
M106 S255
G1 X46.553 Y65.492 F800
M106 S0
M106 S255
G1 X46.446 Y65.572 F800
M106 S0
M106 S255
G1 X46.303 Y65.601 F800
M106 S0
M106 S255
G1 X46.164 Y65.57 F800
M106 S0
M106 S255
G1 X46.057 Y65.484 F800
M106 S0
M106 S255
G1 X45.988 Y65.345 F800
M106 S0
M106 S255
G1 X45.963 Y65.161 F800
M106 S0
M106 S255
G1 X45.986 Y64.973 F800
M106 S0
M106 S255
G1 X46.055 Y64.835 F800
M106 S0
M106 S255
G1 X46.161 Y64.749 F800
M106 S0
M106 S255
G1 X46.299 Y64.72 F800
M106 S0
M106 S255
G1 X46.418 Y64.74 F800
M106 S0
M106 S255
G1 X46.516 Y64.792 F800
M106 S0
M106 S255
G1 X46.588 Y64.875 F800
M106 S0
M106 S255
G1 X46.629 Y64.985 F800
M106 S0
M106 S255
G1 X46.496 Y64.985 F800
M106 S0
M106 S255
G1 X46.469 Y64.924 F800
M106 S0
M106 S255
G1 X46.429 Y64.878 F800
M106 S0
M106 S255
G1 X46.315 Y64.841 F800
M106 S0
M106 S255
G1 X46.228 Y64.858 F800
M106 S0
M106 S255
G1 X46.162 Y64.912 F800
M106 S0
M106 S255
G1 X46.119 Y64.999 F800
M106 S0
M106 S255
G1 X46.104 Y65.117 F800
M106 S0
G0 X46.104 Y65.235 F6000
M106 S255
G1 X46.104 Y65.235 F800
M106 S0
M106 S255
G1 X46.121 Y65.34 F800
M106 S0
M106 S255
G1 X46.162 Y65.419 F800
M106 S0
M106 S255
G1 X46.225 Y65.466 F800
M106 S0
M106 S255
G1 X46.308 Y65.483 F800
M106 S0
M106 S255
G1 X46.389 Y65.466 F800
M106 S0
M106 S255
G1 X46.452 Y65.419 F800
M106 S0
M106 S255
G1 X46.49 Y65.34 F800
M106 S0
M106 S255
G1 X46.504 Y65.235 F800
M106 S0
G0 X47.12 Y64.749 F6000
M106 S255
G1 X47.12 Y64.749 F800
M106 S0
M106 S255
G1 X47.331 Y64.749 F800
M106 S0
M106 S255
G1 X47.331 Y64.978 F800
M106 S0
M106 S255
G1 X47.12 Y64.978 F800
M106 S0
G0 X47.12 Y65.344 F6000
M106 S255
G1 X47.12 Y65.344 F800
M106 S0
M106 S255
G1 X47.331 Y65.344 F800
M106 S0
M106 S255
G1 X47.331 Y65.572 F800
M106 S0
M106 S255
G1 X47.12 Y65.572 F800
M106 S0
G0 X49.042 Y64.749 F6000
M106 S255
G1 X49.042 Y64.749 F800
M106 S0
M106 S255
G1 X49.181 Y64.749 F800
M106 S0
M106 S255
G1 X49.181 Y65.82 F800
M106 S0
M106 S255
G1 X49.077 Y65.82 F800
M106 S0
M106 S255
G1 X49.049 Y65.726 F800
M106 S0
M106 S255
G1 X48.994 Y65.664 F800
M106 S0
M106 S255
G1 X48.91 Y65.627 F800
M106 S0
M106 S255
G1 X48.793 Y65.615 F800
M106 S0
M106 S255
G1 X48.793 Y65.506 F800
M106 S0
M106 S255
G1 X49.042 Y65.506 F800
M106 S0
G0 X50.359 Y65.526 F6000
M106 S255
G1 X50.359 Y65.526 F800
M106 S0
M106 S255
G1 X50.33 Y65.65 F800
M106 S0
M106 S255
G1 X50.262 Y65.742 F800
M106 S0
M106 S255
G1 X50.158 Y65.8 F800
M106 S0
M106 S255
G1 X50.023 Y65.82 F800
M106 S0
M106 S255
G1 X49.933 Y65.809 F800
M106 S0
M106 S255
G1 X49.855 Y65.78 F800
M106 S0
M106 S255
G1 X49.786 Y65.733 F800
M106 S0
M106 S255
G1 X49.728 Y65.665 F800
M106 S0
M106 S255
G1 X49.682 Y65.581 F800
M106 S0
M106 S255
G1 X49.648 Y65.478 F800
M106 S0
M106 S255
G1 X49.627 Y65.357 F800
M106 S0
M106 S255
G1 X49.621 Y65.221 F800
M106 S0
M106 S255
G1 X49.645 Y65.004 F800
M106 S0
M106 S255
G1 X49.72 Y64.846 F800
M106 S0
M106 S255
G1 X49.841 Y64.751 F800
M106 S0
M106 S255
G1 X50.006 Y64.719 F800
M106 S0
M106 S255
G1 X50.155 Y64.746 F800
M106 S0
M106 S255
G1 X50.268 Y64.818 F800
M106 S0
M106 S255
G1 X50.342 Y64.932 F800
M106 S0
M106 S255
G1 X50.368 Y65.076 F800
M106 S0
M106 S255
G1 X50.342 Y65.221 F800
M106 S0
M106 S255
G1 X50.271 Y65.333 F800
M106 S0
M106 S255
G1 X50.163 Y65.403 F800
M106 S0
M106 S255
G1 X50.028 Y65.428 F800
M106 S0
M106 S255
G1 X49.882 Y65.397 F800
M106 S0
M106 S255
G1 X49.774 Y65.31 F800
M106 S0
M106 S255
G1 X49.797 Y65.478 F800
M106 S0
M106 S255
G1 X49.846 Y65.599 F800
M106 S0
M106 S255
G1 X49.921 Y65.671 F800
M106 S0
M106 S255
G1 X50.025 Y65.696 F800
M106 S0
M106 S255
G1 X50.101 Y65.684 F800
M106 S0
M106 S255
G1 X50.16 Y65.651 F800
M106 S0
M106 S255
G1 X50.198 Y65.598 F800
M106 S0
M106 S255
G1 X50.218 Y65.526 F800
M106 S0
G0 X50.219 Y65.074 F6000
M106 S255
G1 X50.219 Y65.074 F800
M106 S0
M106 S255
G1 X50.202 Y64.978 F800
M106 S0
M106 S255
G1 X50.16 Y64.904 F800
M106 S0
M106 S255
G1 X50.091 Y64.855 F800
M106 S0
M106 S255
G1 X50.005 Y64.84 F800
M106 S0
M106 S255
G1 X49.915 Y64.855 F800
M106 S0
M106 S255
G1 X49.846 Y64.902 F800
M106 S0
M106 S255
G1 X49.801 Y64.976 F800
M106 S0
M106 S255
G1 X49.787 Y65.072 F800
M106 S0
M106 S255
G1 X49.803 Y65.167 F800
M106 S0
M106 S255
G1 X49.846 Y65.239 F800
M106 S0
M106 S255
G1 X49.916 Y65.285 F800
M106 S0
M106 S255
G1 X50.011 Y65.302 F800
M106 S0
M106 S255
G1 X50.094 Y65.285 F800
M106 S0
M106 S255
G1 X50.16 Y65.241 F800
M106 S0
M106 S255
G1 X50.202 Y65.169 F800
M106 S0
G0 X50.544 Y65.268 F6000
M106 S255
G1 X50.544 Y65.268 F800
M106 S0
M106 S255
G1 X50.567 Y65.028 F800
M106 S0
M106 S255
G1 X50.639 Y64.857 F800
M106 S0
M106 S255
G1 X50.754 Y64.752 F800
M106 S0
M106 S255
G1 X50.913 Y64.719 F800
M106 S0
M106 S255
G1 X51.071 Y64.752 F800
M106 S0
M106 S255
G1 X51.186 Y64.857 F800
M106 S0
M106 S255
G1 X51.256 Y65.028 F800
M106 S0
M106 S255
G1 X51.281 Y65.268 F800
M106 S0
M106 S255
G1 X51.256 Y65.507 F800
M106 S0
M106 S255
G1 X51.227 Y65.602 F800
M106 S0
M106 S255
G1 X51.186 Y65.68 F800
M106 S0
M106 S255
G1 X51.071 Y65.785 F800
M106 S0
M106 S255
G1 X50.913 Y65.82 F800
M106 S0
M106 S255
G1 X50.754 Y65.785 F800
M106 S0
M106 S255
G1 X50.639 Y65.679 F800
M106 S0
M106 S255
G1 X50.567 Y65.507 F800
M106 S0
G0 X50.691 Y65.268 F6000
M106 S255
G1 X50.691 Y65.268 F800
M106 S0
M106 S255
G1 X50.703 Y65.454 F800
M106 S0
M106 S255
G1 X50.742 Y65.587 F800
M106 S0
M106 S255
G1 X50.811 Y65.665 F800
M106 S0
M106 S255
G1 X50.913 Y65.693 F800
M106 S0
M106 S255
G1 X51.014 Y65.665 F800
M106 S0
M106 S255
G1 X51.083 Y65.587 F800
M106 S0
M106 S255
G1 X51.121 Y65.454 F800
M106 S0
M106 S255
G1 X51.134 Y65.268 F800
M106 S0
M106 S255
G1 X51.121 Y65.082 F800
M106 S0
M106 S255
G1 X51.083 Y64.948 F800
M106 S0
M106 S255
G1 X51.014 Y64.87 F800
M106 S0
M106 S255
G1 X50.913 Y64.844 F800
M106 S0
M106 S255
G1 X50.811 Y64.87 F800
M106 S0
M106 S255
G1 X50.742 Y64.948 F800
M106 S0
M106 S255
G1 X50.703 Y65.082 F800
M106 S0
G0 X51.616 Y64.749 F6000
M106 S255
G1 X51.616 Y64.749 F800
M106 S0
M106 S255
G1 X51.827 Y65.069 F800
M106 S0
M106 S255
G1 X52.045 Y64.749 F800
M106 S0
M106 S255
G1 X52.207 Y64.749 F800
M106 S0
M106 S255
G1 X51.913 Y65.174 F800
M106 S0
M106 S255
G1 X52.19 Y65.572 F800
M106 S0
M106 S255
G1 X52.034 Y65.572 F800
M106 S0
M106 S255
G1 X51.834 Y65.273 F800
M106 S0
M106 S255
G1 X51.633 Y65.572 F800
M106 S0
M106 S255
G1 X51.474 Y65.572 F800
M106 S0
M106 S255
G1 X51.746 Y65.172 F800
M106 S0
M106 S255
G1 X51.458 Y64.749 F800
M106 S0
G0 X52.73 Y64.749 F6000
M106 S255
G1 X52.73 Y64.749 F800
M106 S0
M106 S255
G1 X52.869 Y64.749 F800
M106 S0
M106 S255
G1 X52.869 Y65.82 F800
M106 S0
M106 S255
G1 X52.765 Y65.82 F800
M106 S0
M106 S255
G1 X52.737 Y65.726 F800
M106 S0
M106 S255
G1 X52.682 Y65.664 F800
M106 S0
M106 S255
G1 X52.598 Y65.627 F800
M106 S0
M106 S255
G1 X52.481 Y65.615 F800
M106 S0
M106 S255
G1 X52.481 Y65.506 F800
M106 S0
M106 S255
G1 X52.73 Y65.506 F800
M106 S0
G0 X53.299 Y65.027 F6000
M106 S255
G1 X53.299 Y65.027 F800
M106 S0
M106 S255
G1 X53.333 Y64.901 F800
M106 S0
M106 S255
G1 X53.408 Y64.803 F800
M106 S0
M106 S255
G1 X53.518 Y64.742 F800
M106 S0
M106 S255
G1 X53.659 Y64.719 F800
M106 S0
M106 S255
G1 X53.814 Y64.746 F800
M106 S0
M106 S255
G1 X53.935 Y64.821 F800
M106 S0
M106 S255
G1 X54.011 Y64.941 F800
M106 S0
M106 S255
G1 X54.04 Y65.094 F800
M106 S0
M106 S255
G1 X54.014 Y65.236 F800
M106 S0
M106 S255
G1 X53.941 Y65.348 F800
M106 S0
M106 S255
G1 X53.826 Y65.42 F800
M106 S0
M106 S255
G1 X53.678 Y65.446 F800
M106 S0
M106 S255
G1 X53.563 Y65.428 F800
M106 S0
M106 S255
G1 X53.474 Y65.377 F800
M106 S0
M106 S255
G1 X53.517 Y65.664 F800
M106 S0
M106 S255
G1 X53.982 Y65.664 F800
M106 S0
M106 S255
G1 X53.982 Y65.789 F800
M106 S0
M106 S255
G1 X53.414 Y65.789 F800
M106 S0
M106 S255
G1 X53.33 Y65.226 F800
M106 S0
M106 S255
G1 X53.452 Y65.226 F800
M106 S0
M106 S255
G1 X53.541 Y65.298 F800
M106 S0
M106 S255
G1 X53.655 Y65.324 F800
M106 S0
M106 S255
G1 X53.753 Y65.307 F800
M106 S0
M106 S255
G1 X53.828 Y65.258 F800
M106 S0
M106 S255
G1 X53.875 Y65.183 F800
M106 S0
M106 S255
G1 X53.892 Y65.086 F800
M106 S0
M106 S255
G1 X53.875 Y64.99 F800
M106 S0
M106 S255
G1 X53.826 Y64.915 F800
M106 S0
M106 S255
G1 X53.751 Y64.867 F800
M106 S0
M106 S255
G1 X53.655 Y64.85 F800
M106 S0
M106 S255
G1 X53.573 Y64.861 F800
M106 S0
M106 S255
G1 X53.511 Y64.896 F800
M106 S0
M106 S255
G1 X53.465 Y64.951 F800
M106 S0
M106 S255
G1 X53.442 Y65.027 F800
M106 S0
G0 X38.745 Y57.576 F6000
M106 S255
G1 X38.745 Y57.576 F800
M106 S0
M106 S255
G1 X41.207 Y64.388 F800
M106 S0
M106 S255
G1 X58.75 Y64.388 F800
M106 S0
G0 X38.817 Y58.423 F6000
M106 S255
G1 X38.817 Y58.423 F800
M106 S0
M106 S255
G1 X38.745 Y57.576 F800
M106 S0
M106 S255
G1 X39.231 Y58.274 F800
M106 S0
G0 X51.486 Y61.918 F6000
M106 S255
G1 X51.486 Y61.918 F800
M106 S0
M106 S255
G1 X51.29 Y61.918 F800
M106 S0
M106 S255
G1 X51.29 Y61.79 F800
M106 S0
M106 S255
G1 X51.823 Y61.79 F800
M106 S0
M106 S255
G1 X51.823 Y61.918 F800
M106 S0
M106 S255
G1 X51.627 Y61.918 F800
M106 S0
M106 S255
G1 X51.627 Y62.724 F800
M106 S0
M106 S255
G1 X51.823 Y62.724 F800
M106 S0
M106 S255
G1 X51.823 Y62.852 F800
M106 S0
M106 S255
G1 X51.29 Y62.852 F800
M106 S0
M106 S255
G1 X51.29 Y62.724 F800
M106 S0
M106 S255
G1 X51.486 Y62.724 F800
M106 S0
G0 X52.162 Y61.79 F6000
M106 S255
G1 X52.162 Y61.79 F800
M106 S0
M106 S255
G1 X52.297 Y61.79 F800
M106 S0
M106 S255
G1 X52.297 Y62.264 F800
M106 S0
M106 S255
G1 X52.31 Y62.373 F800
M106 S0
M106 S255
G1 X52.355 Y62.453 F800
M106 S0
M106 S255
G1 X52.424 Y62.502 F800
M106 S0
M106 S255
G1 X52.516 Y62.52 F800
M106 S0
M106 S255
G1 X52.589 Y62.505 F800
M106 S0
M106 S255
G1 X52.635 Y62.463 F800
M106 S0
M106 S255
G1 X52.658 Y62.395 F800
M106 S0
M106 S255
G1 X52.666 Y62.303 F800
M106 S0
M106 S255
G1 X52.666 Y61.79 F800
M106 S0
M106 S255
G1 X52.8 Y61.79 F800
M106 S0
M106 S255
G1 X52.8 Y62.33 F800
M106 S0
M106 S255
G1 X52.794 Y62.439 F800
M106 S0
M106 S255
G1 X52.767 Y62.529 F800
M106 S0
M106 S255
G1 X52.676 Y62.612 F800
M106 S0
M106 S255
G1 X52.535 Y62.641 F800
M106 S0
M106 S255
G1 X52.457 Y62.63 F800
M106 S0
M106 S255
G1 X52.392 Y62.601 F800
M106 S0
M106 S255
G1 X52.335 Y62.552 F800
M106 S0
M106 S255
G1 X52.29 Y62.486 F800
M106 S0
M106 S255
G1 X52.29 Y62.612 F800
M106 S0
M106 S255
G1 X52.162 Y62.612 F800
M106 S0
G0 X53.084 Y61.79 F6000
M106 S255
G1 X53.084 Y61.79 F800
M106 S0
M106 S255
G1 X53.219 Y61.79 F800
M106 S0
M106 S255
G1 X53.219 Y62.264 F800
M106 S0
M106 S255
G1 X53.232 Y62.373 F800
M106 S0
M106 S255
G1 X53.277 Y62.453 F800
M106 S0
M106 S255
G1 X53.346 Y62.502 F800
M106 S0
M106 S255
G1 X53.438 Y62.52 F800
M106 S0
M106 S255
G1 X53.511 Y62.505 F800
M106 S0
M106 S255
G1 X53.557 Y62.463 F800
M106 S0
M106 S255
G1 X53.58 Y62.395 F800
M106 S0
M106 S255
G1 X53.588 Y62.303 F800
M106 S0
M106 S255
G1 X53.588 Y61.79 F800
M106 S0
M106 S255
G1 X53.722 Y61.79 F800
M106 S0
M106 S255
G1 X53.722 Y62.33 F800
M106 S0
M106 S255
G1 X53.716 Y62.439 F800
M106 S0
M106 S255
G1 X53.689 Y62.529 F800
M106 S0
M106 S255
G1 X53.598 Y62.612 F800
M106 S0
M106 S255
G1 X53.457 Y62.641 F800
M106 S0
M106 S255
G1 X53.379 Y62.63 F800
M106 S0
M106 S255
G1 X53.314 Y62.601 F800
M106 S0
M106 S255
G1 X53.257 Y62.552 F800
M106 S0
M106 S255
G1 X53.212 Y62.486 F800
M106 S0
M106 S255
G1 X53.212 Y62.612 F800
M106 S0
M106 S255
G1 X53.084 Y62.612 F800
M106 S0
G0 X54.124 Y62.162 F6000
M106 S255
G1 X54.124 Y62.162 F800
M106 S0
M106 S255
G1 X54.663 Y62.162 F800
M106 S0
M106 S255
G1 X54.664 Y62.225 F800
M106 S0
M106 S255
G1 X54.64 Y62.401 F800
M106 S0
M106 S255
G1 X54.572 Y62.532 F800
M106 S0
M106 S255
G1 X54.465 Y62.612 F800
M106 S0
M106 S255
G1 X54.323 Y62.641 F800
M106 S0
M106 S255
G1 X54.183 Y62.61 F800
M106 S0
M106 S255
G1 X54.076 Y62.525 F800
M106 S0
M106 S255
G1 X54.007 Y62.385 F800
M106 S0
M106 S255
G1 X53.983 Y62.202 F800
M106 S0
M106 S255
G1 X54.006 Y62.013 F800
M106 S0
M106 S255
G1 X54.075 Y61.875 F800
M106 S0
M106 S255
G1 X54.18 Y61.79 F800
M106 S0
M106 S255
G1 X54.318 Y61.76 F800
M106 S0
M106 S255
G1 X54.438 Y61.78 F800
M106 S0
M106 S255
G1 X54.536 Y61.832 F800
M106 S0
M106 S255
G1 X54.608 Y61.915 F800
M106 S0
M106 S255
G1 X54.649 Y62.025 F800
M106 S0
M106 S255
G1 X54.516 Y62.025 F800
M106 S0
M106 S255
G1 X54.488 Y61.964 F800
M106 S0
M106 S255
G1 X54.448 Y61.918 F800
M106 S0
M106 S255
G1 X54.335 Y61.881 F800
M106 S0
M106 S255
G1 X54.248 Y61.898 F800
M106 S0
M106 S255
G1 X54.182 Y61.952 F800
M106 S0
M106 S255
G1 X54.139 Y62.039 F800
M106 S0
M106 S255
G1 X54.124 Y62.157 F800
M106 S0
G0 X54.124 Y62.275 F6000
M106 S255
G1 X54.124 Y62.275 F800
M106 S0
M106 S255
G1 X54.141 Y62.381 F800
M106 S0
M106 S255
G1 X54.182 Y62.459 F800
M106 S0
M106 S255
G1 X54.245 Y62.506 F800
M106 S0
M106 S255
G1 X54.327 Y62.523 F800
M106 S0
M106 S255
G1 X54.409 Y62.506 F800
M106 S0
M106 S255
G1 X54.471 Y62.459 F800
M106 S0
M106 S255
G1 X54.51 Y62.381 F800
M106 S0
M106 S255
G1 X54.523 Y62.275 F800
M106 S0
G0 X54.978 Y61.79 F6000
M106 S255
G1 X54.978 Y61.79 F800
M106 S0
M106 S255
G1 X55.113 Y61.79 F800
M106 S0
M106 S255
G1 X55.113 Y62.26 F800
M106 S0
M106 S255
G1 X55.127 Y62.373 F800
M106 S0
M106 S255
G1 X55.168 Y62.454 F800
M106 S0
M106 S255
G1 X55.236 Y62.503 F800
M106 S0
M106 S255
G1 X55.326 Y62.52 F800
M106 S0
M106 S255
G1 X55.393 Y62.509 F800
M106 S0
M106 S255
G1 X55.444 Y62.479 F800
M106 S0
M106 S255
G1 X55.474 Y62.427 F800
M106 S0
M106 S255
G1 X55.485 Y62.356 F800
M106 S0
M106 S255
G1 X55.622 Y62.356 F800
M106 S0
M106 S255
G1 X55.603 Y62.48 F800
M106 S0
M106 S255
G1 X55.553 Y62.569 F800
M106 S0
M106 S255
G1 X55.468 Y62.623 F800
M106 S0
M106 S255
G1 X55.353 Y62.641 F800
M106 S0
M106 S255
G1 X55.275 Y62.629 F800
M106 S0
M106 S255
G1 X55.208 Y62.598 F800
M106 S0
M106 S255
G1 X55.148 Y62.546 F800
M106 S0
M106 S255
G1 X55.101 Y62.476 F800
M106 S0
M106 S255
G1 X55.101 Y62.612 F800
M106 S0
M106 S255
G1 X54.978 Y62.612 F800
M106 S0
G0 X56.89 Y62.162 F6000
M106 S255
G1 X56.89 Y62.162 F800
M106 S0
M106 S255
G1 X57.429 Y62.162 F800
M106 S0
M106 S255
G1 X57.43 Y62.225 F800
M106 S0
M106 S255
G1 X57.406 Y62.401 F800
M106 S0
M106 S255
G1 X57.338 Y62.532 F800
M106 S0
M106 S255
G1 X57.231 Y62.612 F800
M106 S0
M106 S255
G1 X57.089 Y62.641 F800
M106 S0
M106 S255
G1 X56.949 Y62.61 F800
M106 S0
M106 S255
G1 X56.842 Y62.525 F800
M106 S0
M106 S255
G1 X56.773 Y62.385 F800
M106 S0
M106 S255
G1 X56.749 Y62.202 F800
M106 S0
M106 S255
G1 X56.772 Y62.013 F800
M106 S0
M106 S255
G1 X56.841 Y61.875 F800
M106 S0
M106 S255
G1 X56.946 Y61.79 F800
M106 S0
M106 S255
G1 X57.084 Y61.76 F800
M106 S0
M106 S255
G1 X57.204 Y61.78 F800
M106 S0
M106 S255
G1 X57.302 Y61.832 F800
M106 S0
M106 S255
G1 X57.374 Y61.915 F800
M106 S0
M106 S255
G1 X57.415 Y62.025 F800
M106 S0
M106 S255
G1 X57.282 Y62.025 F800
M106 S0
M106 S255
G1 X57.254 Y61.964 F800
M106 S0
M106 S255
G1 X57.214 Y61.918 F800
M106 S0
M106 S255
G1 X57.101 Y61.881 F800
M106 S0
M106 S255
G1 X57.014 Y61.898 F800
M106 S0
M106 S255
G1 X56.948 Y61.952 F800
M106 S0
M106 S255
G1 X56.905 Y62.039 F800
M106 S0
M106 S255
G1 X56.89 Y62.157 F800
M106 S0
G0 X56.89 Y62.275 F6000
M106 S255
G1 X56.89 Y62.275 F800
M106 S0
M106 S255
G1 X56.906 Y62.381 F800
M106 S0
M106 S255
G1 X56.948 Y62.459 F800
M106 S0
M106 S255
G1 X57.011 Y62.506 F800
M106 S0
M106 S255
G1 X57.093 Y62.523 F800
M106 S0
M106 S255
G1 X57.174 Y62.506 F800
M106 S0
M106 S255
G1 X57.237 Y62.459 F800
M106 S0
M106 S255
G1 X57.276 Y62.381 F800
M106 S0
M106 S255
G1 X57.289 Y62.275 F800
M106 S0
G0 X57.694 Y61.79 F6000
M106 S255
G1 X57.694 Y61.79 F800
M106 S0
M106 S255
G1 X57.828 Y61.79 F800
M106 S0
M106 S255
G1 X57.828 Y62.264 F800
M106 S0
M106 S255
G1 X57.842 Y62.373 F800
M106 S0
M106 S255
G1 X57.887 Y62.453 F800
M106 S0
M106 S255
G1 X57.956 Y62.502 F800
M106 S0
M106 S255
G1 X58.047 Y62.52 F800
M106 S0
M106 S255
G1 X58.121 Y62.505 F800
M106 S0
M106 S255
G1 X58.167 Y62.463 F800
M106 S0
M106 S255
G1 X58.19 Y62.395 F800
M106 S0
M106 S255
G1 X58.198 Y62.303 F800
M106 S0
M106 S255
G1 X58.198 Y61.79 F800
M106 S0
M106 S255
G1 X58.332 Y61.79 F800
M106 S0
M106 S255
G1 X58.332 Y62.33 F800
M106 S0
M106 S255
G1 X58.326 Y62.439 F800
M106 S0
M106 S255
G1 X58.299 Y62.529 F800
M106 S0
M106 S255
G1 X58.208 Y62.612 F800
M106 S0
M106 S255
G1 X58.067 Y62.641 F800
M106 S0
M106 S255
G1 X57.989 Y62.63 F800
M106 S0
M106 S255
G1 X57.923 Y62.601 F800
M106 S0
M106 S255
G1 X57.867 Y62.552 F800
M106 S0
M106 S255
G1 X57.822 Y62.486 F800
M106 S0
M106 S255
G1 X57.822 Y62.612 F800
M106 S0
M106 S255
G1 X57.694 Y62.612 F800
M106 S0
G0 X59.256 Y61.826 F6000
M106 S255
G1 X59.256 Y61.826 F800
M106 S0
M106 S255
G1 X59.256 Y62.612 F800
M106 S0
M106 S255
G1 X59.127 Y62.612 F800
M106 S0
M106 S255
G1 X59.127 Y62.479 F800
M106 S0
M106 S255
G1 X59.022 Y62.6 F800
M106 S0
M106 S255
G1 X58.957 Y62.63 F800
M106 S0
M106 S255
G1 X58.885 Y62.641 F800
M106 S0
M106 S255
G1 X58.755 Y62.61 F800
M106 S0
M106 S255
G1 X58.654 Y62.525 F800
M106 S0
M106 S255
G1 X58.588 Y62.387 F800
M106 S0
M106 S255
G1 X58.565 Y62.202 F800
M106 S0
M106 S255
G1 X58.588 Y62.015 F800
M106 S0
M106 S255
G1 X58.654 Y61.877 F800
M106 S0
M106 S255
G1 X58.755 Y61.79 F800
M106 S0
M106 S255
G1 X58.885 Y61.76 F800
M106 S0
M106 S255
G1 X58.959 Y61.771 F800
M106 S0
M106 S255
G1 X59.02 Y61.799 F800
M106 S0
M106 S255
G1 X59.127 Y61.915 F800
M106 S0
M106 S255
G1 X59.127 Y61.799 F800
M106 S0
M106 S255
G1 X59.115 Y61.707 F800
M106 S0
M106 S255
G1 X59.081 Y61.641 F800
M106 S0
M106 S255
G1 X59.017 Y61.603 F800
M106 S0
M106 S255
G1 X58.92 Y61.589 F800
M106 S0
M106 S255
G1 X58.836 Y61.598 F800
M106 S0
M106 S255
