;GCode generated by Numa's program v0.0
G0 X54.454 Y99.003 F6000
M106 S255
G1 X54.454 Y99.003 F180
M106 S0
M106 S255
G1 X6.734 Y82.078 F180
M106 S0
M106 S255
G1 X9.623 Y81.644 F180
M106 S0
M106 S255
G1 X54.567 Y97.926 F180
M106 S0
G0 X6.734 Y82.078 F6000
M106 S255
G1 X6.734 Y82.078 F180
M106 S0
M106 S255
G1 X6.824 Y88.769 F180
M106 S0
M106 S255
G1 X45.769 Y101.479 F180
M106 S0
M106 S255
G1 X44.456 Y103.458 F180
M106 S0
M106 S255
G1 X6.441 Y112.752 F180
M106 S0
M106 S255
G1 X8.364 Y110.967 F180
M106 S0
M106 S255
G1 X44.01 Y102.54 F180
M106 S0
M106 S255
G1 X44.911 Y101.198 F180
M106 S0
G0 X8.595 Y118.77 F6000
M106 S255
G1 X8.595 Y118.77 F180
M106 S0
M106 S255
G1 X16.72 Y114.649 F180
M106 S0
M106 S255
G1 X43.568 Y108.285 F180
M106 S0
G0 X43.568 Y108.285 F6000
M106 S255
G1 X43.568 Y108.285 F180
M106 S0
M106 S255
G1 X43.996 Y108.237 F180
M106 S0
M106 S255
G1 X44.425 Y108.19 F180
M106 S0
M106 S255
G1 X44.857 Y108.145 F180
M106 S0
M106 S255
G1 X45.291 Y108.103 F180
M106 S0
M106 S255
G1 X45.73 Y108.064 F180
M106 S0
M106 S255
G1 X46.174 Y108.03 F180
M106 S0
M106 S255
G1 X46.601 Y108.003 F180
M106 S0
M106 S255
G1 X47.08 Y107.98 F180
M106 S0
M106 S255
G1 X47.54 Y107.97 F180
M106 S0
M106 S255
G1 X47.998 Y107.975 F180
M106 S0
M106 S255
G1 X48.452 Y108.001 F180
M106 S0
M106 S255
G1 X48.897 Y108.053 F180
M106 S0
M106 S255
G1 X49.329 Y108.134 F180
M106 S0
M106 S255
G1 X49.744 Y108.249 F180
M106 S0
M106 S255
G1 X50.139 Y108.403 F180
M106 S0
M106 S255
G1 X50.413 Y108.544 F180
M106 S0
M106 S255
G1 X50.853 Y108.843 F180
M106 S0
M106 S255
G1 X51.174 Y109.125 F180
M106 S0
M106 S255
G1 X51.476 Y109.438 F180
M106 S0
M106 S255
G1 X51.763 Y109.778 F180
M106 S0
M106 S255
G1 X52.039 Y110.136 F180
M106 S0
M106 S255
G1 X52.307 Y110.508 F180
M106 S0
M106 S255
G1 X52.571 Y110.886 F180
M106 S0
G0 X56.79 Y105.996 F6000
M106 S255
G1 X56.79 Y105.996 F180
M106 S0
M106 S255
G1 X59.336 Y106.057 F180
M106 S0
M106 S255
G1 X60.262 Y106.197 F180
M106 S0
M106 S255
G1 X61.949 Y106.626 F180
M106 S0
M106 S255
G1 X63.615 Y107.19 F180
M106 S0
M106 S255
G1 X64.505 Y107.513 F180
M106 S0
M106 S255
G1 X66.934 Y108.371 F180
M106 S0
M106 S255
G1 X68.595 Y108.935 F180
M106 S0
M106 S255
G1 X70.256 Y109.487 F180
M106 S0
M106 S255
G1 X71.916 Y110.028 F180
M106 S0
M106 S255
G1 X73.575 Y110.564 F180
M106 S0
M106 S255
G1 X75.233 Y111.096 F180
M106 S0
M106 S255
G1 X76.889 Y111.63 F180
M106 S0
M106 S255
G1 X78.543 Y112.168 F180
M106 S0
M106 S255
G1 X80.193 Y112.713 F180
M106 S0
M106 S255
G1 X81.84 Y113.27 F180
M106 S0
M106 S255
G1 X83.282 Y113.772 F180
M106 S0
M106 S255
G1 X85.121 Y114.432 F180
M106 S0
M106 S255
G1 X86.755 Y115.039 F180
M106 S0
M106 S255
G1 X88.384 Y115.663 F180
M106 S0
M106 S255
G1 X90.008 Y116.304 F180
M106 S0
M106 S255
G1 X91.626 Y116.96 F180
M106 S0
M106 S255
G1 X93.239 Y117.632 F180
M106 S0
M106 S255
G1 X94.846 Y118.319 F180
M106 S0
M106 S255
G1 X96.447 Y119.02 F180
M106 S0
M106 S255
G1 X98.042 Y119.735 F180
M106 S0
M106 S255
G1 X99.631 Y120.463 F180
M106 S0
M106 S255
G1 X100.733 Y120.978 F180
M106 S0
M106 S255
G1 X102.789 Y121.957 F180
M106 S0
M106 S255
G1 X104.359 Y122.721 F180
M106 S0
M106 S255
G1 X105.924 Y123.493 F180
M106 S0
M106 S255
G1 X107.485 Y124.273 F180
M106 S0
M106 S255
G1 X109.043 Y125.059 F180
M106 S0
M106 S255
G1 X110.598 Y125.849 F180
M106 S0
M106 S255
G1 X112.152 Y126.643 F180
M106 S0
M106 S255
G1 X113.705 Y127.438 F180
M106 S0
G0 X113.705 Y127.438 F6000
M106 S255
G1 X113.705 Y127.438 F180
M106 S0
M106 S255
G1 X121.694 Y123.18 F180
M106 S0
M106 S255
G1 X57.153 Y100.181 F180
M106 S0
M106 S255
G1 X57.315 Y98.185 F180
M106 S0
M106 S255
G1 X119.548 Y121.237 F180
M106 S0
M106 S255
G1 X121.694 Y123.18 F180
M106 S0
G0 X46.151 Y62.122 F6000
M106 S255
G1 X46.151 Y62.122 F180
M106 S0
M106 S255
G1 X47.441 Y61.034 F180
M106 S0
M106 S255
G1 X56.824 Y64.071 F180
M106 S0
M106 S255
G1 X56.546 Y64.527 F180
M106 S0
M106 S255
G1 X46.404 Y66.931 F180
M106 S0
M106 S255
G1 X46.808 Y66.374 F180
M106 S0
M106 S255
G1 X56.141 Y64.248 F180
M106 S0
M106 S255
G1 X56.363 Y63.922 F180
M106 S0
G0 X46.151 Y62.122 F6000
M106 S255
G1 X46.151 Y62.122 F180
M106 S0
M106 S255
G1 X46.346 Y58.727 F180
M106 S0
M106 S255
G1 X59.119 Y63.409 F180
M106 S0
G0 X46.346 Y58.727 F6000
M106 S255
G1 X46.346 Y58.727 F180
M106 S0
M106 S255
G1 X47.08 Y58.322 F180
M106 S0
M106 S255
G1 X58.981 Y62.848 F180
M106 S0
G0 X46.404 Y66.931 F6000
M106 S255
G1 X46.404 Y66.931 F180
M106 S0
M106 S255
G1 X46.412 Y68.768 F180
M106 S0
M106 S255
G1 X47.353 Y68.107 F180
M106 S0
M106 S255
G1 X56.316 Y65.931 F180
M106 S0
G0 X56.316 Y65.931 F6000
M106 S255
G1 X56.316 Y65.931 F180
M106 S0
M106 S255
G1 X56.452 Y65.923 F180
M106 S0
M106 S255
G1 X56.588 Y65.916 F180
M106 S0
M106 S255
G1 X56.725 Y65.911 F180
M106 S0
M106 S255
G1 X56.863 Y65.906 F180
M106 S0
M106 S255
G1 X57.001 Y65.905 F180
M106 S0
M106 S255
G1 X57.142 Y65.906 F180
M106 S0
M106 S255
G1 X57.284 Y65.911 F180
M106 S0
M106 S255
G1 X57.366 Y65.915 F180
M106 S0
M106 S255
G1 X57.573 Y65.933 F180
M106 S0
M106 S255
G1 X57.717 Y65.954 F180
M106 S0
M106 S255
G1 X57.859 Y65.982 F180
M106 S0
M106 S255
G1 X57.995 Y66.02 F180
M106 S0
M106 S255
G1 X58.125 Y66.068 F180
M106 S0
M106 S255
G1 X58.245 Y66.129 F180
M106 S0
M106 S255
G1 X58.353 Y66.202 F180
M106 S0
M106 S255
G1 X58.451 Y66.292 F180
M106 S0
M106 S255
G1 X58.536 Y66.393 F180
M106 S0
M106 S255
G1 X58.611 Y66.506 F180
M106 S0
M106 S255
G1 X58.677 Y66.628 F180
M106 S0
M106 S255
G1 X58.737 Y66.758 F180
M106 S0
M106 S255
G1 X58.792 Y66.893 F180
M106 S0
M106 S255
G1 X58.844 Y67.032 F180
M106 S0
M106 S255
G1 X58.894 Y67.173 F180
M106 S0
G0 X60.083 Y63.832 F6000
M106 S255
G1 X60.083 Y63.832 F180
M106 S0
M106 S255
G1 X78.659 Y70.767 F180
M106 S0
M106 S255
G1 X78.441 Y70.105 F180
M106 S0
M106 S255
G1 X60.128 Y63.324 F180
M106 S0
G0 X60.165 Y65.737 F6000
M106 S255
G1 X60.165 Y65.737 F180
M106 S0
M106 S255
G1 X60.767 Y65.748 F180
M106 S0
M106 S255
G1 X61.333 Y65.789 F180
M106 S0
M106 S255
G1 X61.949 Y65.893 F180
M106 S0
M106 S255
G1 X62.526 Y66.043 F180
M106 S0
M106 S255
G1 X63.096 Y66.232 F180
M106 S0
M106 S255
G1 X63.661 Y66.446 F180
M106 S0
M106 S255
G1 X64.225 Y66.674 F180
M106 S0
M106 S255
G1 X64.734 Y66.88 F180
M106 S0
M106 S255
G1 X65.352 Y67.12 F180
M106 S0
M106 S255
G1 X65.918 Y67.33 F180
M106 S0
M106 S255
G1 X66.484 Y67.535 F180
M106 S0
M106 S255
G1 X67.051 Y67.735 F180
M106 S0
M106 S255
G1 X67.616 Y67.933 F180
M106 S0
M106 S255
G1 X68.181 Y68.132 F180
M106 S0
M106 S255
G1 X68.744 Y68.333 F180
M106 S0
M106 S255
G1 X69.304 Y68.538 F180
M106 S0
M106 S255
G1 X69.862 Y68.751 F180
M106 S0
M106 S255
G1 X70.444 Y68.984 F180
M106 S0
M106 S255
G1 X70.966 Y69.204 F180
M106 S0
M106 S255
G1 X71.512 Y69.446 F180
M106 S0
M106 S255
G1 X72.054 Y69.698 F180
M106 S0
M106 S255
G1 X72.594 Y69.958 F180
M106 S0
M106 S255
G1 X73.131 Y70.225 F180
M106 S0
M106 S255
G1 X73.665 Y70.498 F180
M106 S0
M106 S255
G1 X74.198 Y70.776 F180
M106 S0
M106 S255
G1 X74.729 Y71.059 F180
M106 S0
M106 S255
G1 X75.259 Y71.344 F180
M106 S0
M106 S255
G1 X75.788 Y71.632 F180
M106 S0
M106 S255
G1 X76.317 Y71.92 F180
M106 S0
G0 X76.317 Y71.92 F6000
M106 S255
G1 X76.317 Y71.92 F180
M106 S0
M106 S255
G1 X78.659 Y70.767 F180
M106 S0
G0 X0.102 Y116.038 F6000
M106 S255
G1 X0.102 Y116.038 F180
M106 S0
M106 S255
G1 X1.381 Y116.445 F180
M106 S0
M106 S255
G1 X2.66 Y116.852 F180
M106 S0
M106 S255
G1 X3.939 Y117.26 F180
M106 S0
M106 S255
G1 X5.218 Y117.67 F180
M106 S0
M106 S255
G1 X6.496 Y118.083 F180
M106 S0
M106 S255
G1 X7.773 Y118.499 F180
M106 S0
M106 S255
G1 X9.049 Y118.919 F180
M106 S0
M106 S255
G1 X10.325 Y119.344 F180
M106 S0
M106 S255
G1 X11.882 Y119.869 F180
M106 S0
M106 S255
G1 X12.872 Y120.208 F180
M106 S0
M106 S255
G1 X14.144 Y120.647 F180
M106 S0
M106 S255
G1 X15.416 Y121.089 F180
M106 S0
M106 S255
G1 X16.688 Y121.53 F180
M106 S0
M106 S255
G1 X17.96 Y121.97 F180
M106 S0
M106 S255
G1 X19.234 Y122.406 F180
M106 S0
M106 S255
G1 X20.508 Y122.835 F180
M106 S0
M106 S255
G1 X21.785 Y123.256 F180
M106 S0
M106 S255
G1 X23.063 Y123.668 F180
M106 S0
M106 S255
G1 X24.345 Y124.066 F180
M106 S0
M106 S255
G1 X25.63 Y124.451 F180
M106 S0
M106 S255
G1 X26.919 Y124.818 F180
M106 S0
M106 S255
G1 X28.211 Y125.168 F180
M106 S0
M106 S255
G1 X28.944 Y125.356 F180
M106 S0
M106 S255
G1 X30.812 Y125.8 F180
M106 S0
M106 S255
G1 X32.122 Y126.075 F180
M106 S0
M106 S255
G1 X33.441 Y126.315 F180
M106 S0
M106 S255
G1 X34.77 Y126.515 F180
M106 S0
M106 S255
G1 X36.111 Y126.67 F180
M106 S0
M106 S255
G1 X37.864 Y126.794 F180
M106 S0
M106 S255
G1 X38.834 Y126.821 F180
M106 S0
M106 S255
G1 X40.204 Y126.787 F180
M106 S0
M106 S255
G1 X41.554 Y126.641 F180
M106 S0
M106 S255
G1 X42.865 Y126.35 F180
M106 S0
M106 S255
G1 X43.973 Y125.949 F180
M106 S0
M106 S255
G1 X45.287 Y125.224 F180
M106 S0
M106 S255
G1 X46.364 Y124.395 F180
M106 S0
M106 S255
G1 X47.334 Y123.43 F180
M106 S0
M106 S255
G1 X48.158 Y122.395 F180
M106 S0
M106 S255
G1 X48.899 Y121.22 F180
M106 S0
M106 S255
G1 X49.508 Y120.022 F180
M106 S0
M106 S255
G1 X50.037 Y118.784 F180
M106 S0
M106 S255
G1 X50.682 Y117.043 F180
M106 S0
M106 S255
G1 X50.959 Y116.248 F180
M106 S0
M106 S255
G1 X51.386 Y114.972 F180
M106 S0
M106 S255
G1 X51.791 Y113.691 F180
M106 S0
M106 S255
G1 X52.169 Y112.403 F180
M106 S0
M106 S255
G1 X52.571 Y110.886 F180
M106 S0
M106 S255
G1 X52.827 Y109.804 F180
M106 S0
M106 S255
G1 X53.106 Y108.492 F180
M106 S0
M106 S255
G1 X53.355 Y107.172 F180
M106 S0
M106 S255
G1 X53.578 Y105.847 F180
M106 S0
M106 S255
G1 X53.779 Y104.517 F180
M106 S0
M106 S255
G1 X53.961 Y103.184 F180
M106 S0
M106 S255
G1 X54.129 Y101.848 F180
M106 S0
M106 S255
G1 X54.286 Y100.511 F180
M106 S0
M106 S255
G1 X54.454 Y99.003 F180
M106 S0
M106 S255
G1 X54.581 Y97.837 F180
M106 S0
M106 S255
G1 X54.724 Y96.502 F180
M106 S0
M106 S255
G1 X54.866 Y95.167 F180
M106 S0
G0 X54.866 Y95.167 F6000
M106 S255
G1 X54.866 Y95.167 F180
M106 S0
M106 S255
G1 X54.91 Y95.025 F180
M106 S0
M106 S255
G1 X54.959 Y94.892 F180
M106 S0
M106 S255
G1 X54.985 Y94.83 F180
M106 S0
M106 S255
G1 X55.015 Y94.774 F180
M106 S0
M106 S255
G1 X55.047 Y94.724 F180
M106 S0
M106 S255
G1 X55.083 Y94.68 F180
M106 S0
M106 S255
G1 X55.123 Y94.645 F180
M106 S0
M106 S255
G1 X55.167 Y94.619 F180
M106 S0
M106 S255
G1 X55.23 Y94.6 F180
M106 S0
M106 S255
G1 X55.271 Y94.597 F180
M106 S0
M106 S255
G1 X55.33 Y94.601 F180
M106 S0
M106 S255
G1 X55.393 Y94.612 F180
M106 S0
M106 S255
G1 X55.521 Y94.645 F180
M106 S0
M106 S255
G1 X55.647 Y94.676 F180
M106 S0
M106 S255
G1 X55.705 Y94.685 F180
M106 S0
M106 S255
G1 X55.757 Y94.687 F180
M106 S0
M106 S255
G1 X55.794 Y94.681 F180
M106 S0
M106 S255
G1 X55.843 Y94.657 F180
M106 S0
M106 S255
G1 X55.876 Y94.626 F180
M106 S0
M106 S255
G1 X55.903 Y94.585 F180
M106 S0
M106 S255
G1 X55.924 Y94.535 F180
M106 S0
M106 S255
G1 X55.941 Y94.478 F180
M106 S0
M106 S255
G1 X55.954 Y94.414 F180
M106 S0
M106 S255
G1 X55.964 Y94.345 F180
M106 S0
M106 S255
G1 X55.976 Y94.195 F180
M106 S0
M106 S255
G1 X55.982 Y94.036 F180
M106 S0
G0 X55.982 Y94.036 F6000
M106 S255
G1 X55.982 Y94.036 F180
M106 S0
M106 S255
G1 X56.113 Y93.38 F180
M106 S0
M106 S255
G1 X56.242 Y92.725 F180
M106 S0
M106 S255
G1 X56.37 Y92.069 F180
M106 S0
M106 S255
G1 X56.495 Y91.413 F180
M106 S0
M106 S255
G1 X56.615 Y90.756 F180
M106 S0
M106 S255
G1 X56.779 Y89.815 F180
M106 S0
M106 S255
G1 X56.841 Y89.439 F180
M106 S0
M106 S255
G1 X56.944 Y88.779 F180
M106 S0
M106 S255
G1 X57.043 Y88.119 F180
M106 S0
M106 S255
G1 X57.138 Y87.457 F180
M106 S0
M106 S255
G1 X57.229 Y86.796 F180
M106 S0
M106 S255
G1 X57.319 Y86.134 F180
M106 S0
M106 S255
G1 X57.407 Y85.471 F180
M106 S0
M106 S255
G1 X57.515 Y84.664 F180
M106 S0
M106 S255
G1 X57.584 Y84.147 F180
M106 S0
M106 S255
G1 X57.673 Y83.485 F180
M106 S0
M106 S255
G1 X57.762 Y82.822 F180
M106 S0
M106 S255
G1 X57.85 Y82.16 F180
M106 S0
M106 S255
G1 X57.937 Y81.498 F180
M106 S0
M106 S255
G1 X58.021 Y80.835 F180
M106 S0
M106 S255
G1 X58.136 Y79.892 F180
M106 S0
M106 S255
G1 X58.181 Y79.509 F180
M106 S0
M106 S255
G1 X58.255 Y78.845 F180
M106 S0
M106 S255
G1 X58.325 Y78.18 F180
M106 S0
M106 S255
G1 X58.39 Y77.516 F180
M106 S0
M106 S255
G1 X58.43 Y77.089 F180
M106 S0
M106 S255
G1 X58.507 Y76.185 F180
M106 S0
M106 S255
G1 X58.559 Y75.519 F180
M106 S0
M106 S255
G1 X58.606 Y74.852 F180
M106 S0
M106 S255
G1 X58.65 Y74.186 F180
M106 S0
M106 S255
G1 X58.69 Y73.519 F180
M106 S0
M106 S255
G1 X58.726 Y72.852 F180
M106 S0
M106 S255
G1 X58.762 Y72.135 F180
M106 S0
M106 S255
G1 X58.79 Y71.517 F180
M106 S0
M106 S255
G1 X58.818 Y70.849 F180
M106 S0
M106 S255
G1 X58.844 Y70.182 F180
M106 S0
M106 S255
G1 X58.869 Y69.514 F180
M106 S0
M106 S255
G1 X58.891 Y68.847 F180
M106 S0
M106 S255
G1 X58.913 Y68.179 F180
M106 S0
M106 S255
G1 X58.934 Y67.511 F180
M106 S0
M106 S255
G1 X58.955 Y66.844 F180
M106 S0
G0 X58.955 Y66.844 F6000
M106 S255
G1 X58.955 Y66.844 F180
M106 S0
M106 S255
G1 X58.985 Y66.3 F180
M106 S0
M106 S255
G1 X59.017 Y65.756 F180
M106 S0
M106 S255
G1 X59.052 Y65.213 F180
M106 S0
M106 S255
G1 X59.089 Y64.718 F180
M106 S0
M106 S255
G1 X59.141 Y64.128 F180
M106 S0
M106 S255
G1 X59.193 Y63.586 F180
M106 S0
M106 S255
G1 X59.249 Y63.044 F180
M106 S0
M106 S255
G1 X59.304 Y62.503 F180
M106 S0
M106 S255
G1 X59.359 Y61.956 F180
M106 S0
M106 S255
G1 X59.409 Y61.419 F180
M106 S0
M106 S255
G1 X59.456 Y60.876 F180
M106 S0
M106 S255
G1 X59.5 Y60.334 F180
M106 S0
M106 S255
G1 X59.541 Y59.791 F180
M106 S0
M106 S255
G1 X59.578 Y59.248 F180
M106 S0
M106 S255
G1 X59.614 Y58.705 F180
M106 S0
M106 S255
G1 X59.647 Y58.161 F180
M106 S0
M106 S255
G1 X59.678 Y57.617 F180
M106 S0
M106 S255
G1 X59.707 Y57.074 F180
M106 S0
M106 S255
G1 X59.735 Y56.53 F180
M106 S0
M106 S255
G1 X59.762 Y55.986 F180
M106 S0
M106 S255
G1 X59.788 Y55.442 F180
M106 S0
M106 S255
G1 X59.814 Y54.898 F180
M106 S0
M106 S255
G1 X59.839 Y54.354 F180
M106 S0
G0 X0.0 Y125.369 F6000
M106 S255
G1 X0.0 Y125.369 F180
M106 S0
M106 S255
G1 X1.495 Y125.643 F180
M106 S0
M106 S255
G1 X2.991 Y125.917 F180
M106 S0
M106 S255
G1 X4.487 Y126.191 F180
M106 S0
M106 S255
G1 X5.983 Y126.464 F180
M106 S0
M106 S255
G1 X7.481 Y126.736 F180
M106 S0
M106 S255
G1 X8.98 Y127.008 F180
M106 S0
M106 S255
G1 X10.48 Y127.279 F180
M106 S0
M106 S255
G1 X11.982 Y127.548 F180
M106 S0
M106 S255
G1 X13.485 Y127.816 F180
M106 S0
M106 S255
G1 X14.991 Y128.083 F180
M106 S0
M106 S255
G1 X16.499 Y128.348 F180
M106 S0
M106 S255
G1 X18.009 Y128.611 F180
M106 S0
M106 S255
G1 X19.523 Y128.872 F180
M106 S0
M106 S255
G1 X21.039 Y129.131 F180
M106 S0
M106 S255
G1 X22.558 Y129.388 F180
M106 S0
M106 S255
G1 X24.727 Y129.749 F180
M106 S0
M106 S255
G1 X25.608 Y129.894 F180
M106 S0
M106 S255
G1 X27.138 Y130.136 F180
M106 S0
M106 S255
G1 X28.67 Y130.358 F180
M106 S0
M106 S255
G1 X30.203 Y130.551 F180
M106 S0
M106 S255
G1 X31.737 Y130.702 F180
M106 S0
M106 S255
G1 X33.27 Y130.802 F180
M106 S0
M106 S255
G1 X34.801 Y130.839 F180
M106 S0
M106 S255
G1 X36.33 Y130.802 F180
M106 S0
M106 S255
G1 X37.854 Y130.683 F180
M106 S0
M106 S255
G1 X39.375 Y130.468 F180
M106 S0
M106 S255
G1 X40.58 Y130.223 F180
M106 S0
M106 S255
G1 X42.388 Y129.712 F180
M106 S0
M106 S255
G1 X43.839 Y129.149 F180
M106 S0
M106 S255
G1 X45.21 Y128.448 F180
M106 S0
M106 S255
G1 X46.732 Y127.381 F180
M106 S0
M106 S255
G1 X47.578 Y126.588 F180
M106 S0
M106 S255
G1 X48.548 Y125.435 F180
M106 S0
M106 S255
G1 X49.392 Y124.164 F180
M106 S0
M106 S255
G1 X50.128 Y122.799 F180
M106 S0
M106 S255
G1 X50.773 Y121.364 F180
M106 S0
M106 S255
G1 X51.344 Y119.886 F180
M106 S0
M106 S255
G1 X52.085 Y117.683 F180
M106 S0
M106 S255
G1 X52.332 Y116.897 F180
M106 S0
M106 S255
G1 X52.774 Y115.419 F180
M106 S0
M106 S255
G1 X53.184 Y113.948 F180
M106 S0
M106 S255
G1 X53.561 Y112.477 F180
M106 S0
M106 S255
G1 X54.012 Y110.517 F180
M106 S0
M106 S255
G1 X54.219 Y109.509 F180
M106 S0
M106 S255
G1 X54.497 Y108.005 F180
M106 S0
M106 S255
G1 X54.83 Y105.825 F180
M106 S0
M106 S255
G1 X54.937 Y104.974 F180
M106 S0
M106 S255
G1 X55.102 Y103.454 F180
M106 S0
M106 S255
G1 X55.248 Y101.932 F180
M106 S0
M106 S255
G1 X55.388 Y100.41 F180
M106 S0
M106 S255
G1 X55.502 Y99.223 F180
M106 S0
M106 S255
G1 X55.702 Y97.368 F180
M106 S0
M106 S255
G1 X55.876 Y95.849 F180
M106 S0
G0 X55.876 Y95.849 F6000
M106 S255
G1 X55.876 Y95.849 F180
M106 S0
M106 S255
G1 X55.883 Y95.757 F180
M106 S0
M106 S255
G1 X55.892 Y95.667 F180
M106 S0
M106 S255
G1 X55.899 Y95.625 F180
M106 S0
M106 S255
G1 X55.906 Y95.585 F180
M106 S0
M106 S255
G1 X55.915 Y95.548 F180
M106 S0
M106 S255
G1 X55.926 Y95.513 F180
M106 S0
M106 S255
G1 X55.939 Y95.482 F180
M106 S0
M106 S255
G1 X55.955 Y95.455 F180
M106 S0
M106 S255
G1 X55.973 Y95.431 F180
M106 S0
M106 S255
G1 X55.995 Y95.413 F180
M106 S0
M106 S255
G1 X56.019 Y95.399 F180
M106 S0
M106 S255
G1 X56.054 Y95.391 F180
M106 S0
M106 S255
G1 X56.079 Y95.389 F180
M106 S0
M106 S255
G1 X56.114 Y95.392 F180
M106 S0
M106 S255
G1 X56.151 Y95.399 F180
M106 S0
M106 S255
G1 X56.189 Y95.408 F180
M106 S0
M106 S255
G1 X56.267 Y95.428 F180
M106 S0
M106 S255
G1 X56.304 Y95.436 F180
M106 S0
M106 S255
G1 X56.34 Y95.441 F180
M106 S0
M106 S255
G1 X56.372 Y95.442 F180
M106 S0
M106 S255
G1 X56.4 Y95.437 F180
M106 S0
M106 S255
G1 X56.412 Y95.433 F180
M106 S0
M106 S255
G1 X56.421 Y95.427 F180
M106 S0
M106 S255
G1 X56.433 Y95.417 F180
M106 S0
M106 S255
G1 X56.441 Y95.407 F180
M106 S0
M106 S255
G1 X56.454 Y95.381 F180
M106 S0
M106 S255
G1 X56.464 Y95.349 F180
M106 S0
M106 S255
G1 X56.47 Y95.313 F180
M106 S0
M106 S255
G1 X56.473 Y95.273 F180
M106 S0
M106 S255
G1 X56.476 Y95.188 F180
M106 S0
G0 X56.476 Y95.188 F6000
M106 S255
G1 X56.476 Y95.188 F180
M106 S0
M106 S255
G1 X56.59 Y94.498 F180
M106 S0
M106 S255
G1 X56.704 Y93.806 F180
M106 S0
M106 S255
G1 X56.817 Y93.115 F180
M106 S0
M106 S255
G1 X56.929 Y92.424 F180
M106 S0
M106 S255
G1 X57.04 Y91.733 F180
M106 S0
M106 S255
G1 X57.149 Y91.041 F180
M106 S0
M106 S255
G1 X57.256 Y90.349 F180
M106 S0
M106 S255
G1 X57.339 Y89.808 F180
M106 S0
M106 S255
G1 X57.465 Y88.964 F180
M106 S0
M106 S255
G1 X57.565 Y88.271 F180
M106 S0
M106 S255
G1 X57.663 Y87.577 F180
M106 S0
M106 S255
G1 X57.758 Y86.883 F180
M106 S0
M106 S255
G1 X57.851 Y86.189 F180
M106 S0
M106 S255
G1 X57.941 Y85.495 F180
M106 S0
M106 S255
G1 X58.029 Y84.8 F180
M106 S0
M106 S255
G1 X58.128 Y83.986 F180
M106 S0
M106 S255
G1 X58.196 Y83.409 F180
M106 S0
M106 S255
G1 X58.276 Y82.714 F180
M106 S0
M106 S255
G1 X58.354 Y82.018 F180
M106 S0
M106 S255
G1 X58.43 Y81.322 F180
M106 S0
M106 S255
G1 X58.505 Y80.625 F180
M106 S0
M106 S255
G1 X58.553 Y80.177 F180
M106 S0
M106 S255
G1 X58.65 Y79.232 F180
M106 S0
M106 S255
G1 X58.718 Y78.488 F180
M106 S0
M106 S255
G1 X58.767 Y77.837 F180
M106 S0
M106 S255
G1 X58.81 Y77.138 F180
M106 S0
M106 S255
G1 X58.845 Y76.438 F180
M106 S0
M106 S255
G1 X58.876 Y75.738 F180
M106 S0
M106 S255
G1 X58.905 Y75.039 F180
M106 S0
M106 S255
G1 X58.92 Y74.668 F180
M106 S0
M106 S255
G1 X58.965 Y73.639 F180
M106 S0
M106 S255
G1 X58.997 Y72.94 F180
M106 S0
M106 S255
G1 X59.031 Y72.24 F180
M106 S0
M106 S255
G1 X59.065 Y71.541 F180
M106 S0
M106 S255
G1 X59.1 Y70.841 F180
M106 S0
M106 S255
G1 X59.134 Y70.142 F180
M106 S0
M106 S255
G1 X59.168 Y69.443 F180
M106 S0
M106 S255
G1 X59.201 Y68.743 F180
M106 S0
M106 S255
G1 X59.232 Y68.056 F180
M106 S0
M106 S255
G1 X59.263 Y67.343 F180
M106 S0
M106 S255
G1 X59.295 Y66.643 F180
M106 S0
M106 S255
G1 X59.33 Y65.944 F180
M106 S0
M106 S255
G1 X59.372 Y65.245 F180
M106 S0
M106 S255
G1 X59.422 Y64.546 F180
M106 S0
M106 S255
G1 X59.472 Y63.972 F180
M106 S0
M106 S255
G1 X59.557 Y63.153 F180
M106 S0
M106 S255
G1 X59.635 Y62.457 F180
M106 S0
M106 S255
G1 X59.674 Y62.098 F180
M106 S0
M106 S255
G1 X59.777 Y61.063 F180
M106 S0
M106 S255
G1 X59.838 Y60.366 F180
M106 S0
M106 S255
G1 X59.894 Y59.668 F180
M106 S0
M106 S255
G1 X59.944 Y58.97 F180
M106 S0
M106 S255
G1 X59.99 Y58.271 F180
M106 S0
M106 S255
G1 X60.032 Y57.572 F180
M106 S0
M106 S255
G1 X60.07 Y56.872 F180
M106 S0
M106 S255
G1 X60.107 Y56.173 F180
M106 S0
M106 S255
G1 X60.141 Y55.473 F180
M106 S0
M106 S255
G1 X60.174 Y54.773 F180
M106 S0
M106 S255
G1 X60.206 Y54.073 F180
M106 S0
G0 X0.198 Y151.961 F6000
M106 S255
G1 X0.198 Y151.961 F180
M106 S0
M106 S255
G1 X1.891 Y151.493 F180
M106 S0
M106 S255
G1 X3.583 Y151.026 F180
M106 S0
M106 S255
G1 X5.275 Y150.56 F180
M106 S0
M106 S255
G1 X6.968 Y150.097 F180
M106 S0
M106 S255
G1 X8.661 Y149.636 F180
M106 S0
M106 S255
G1 X10.354 Y149.179 F180
M106 S0
M106 S255
G1 X12.047 Y148.725 F180
M106 S0
M106 S255
G1 X13.741 Y148.277 F180
M106 S0
M106 S255
G1 X15.436 Y147.834 F180
M106 S0
M106 S255
G1 X17.13 Y147.397 F180
M106 S0
M106 S255
G1 X18.826 Y146.968 F180
M106 S0
M106 S255
G1 X21.341 Y146.345 F180
M106 S0
M106 S255
G1 X22.218 Y146.132 F180
M106 S0
M106 S255
G1 X23.915 Y145.724 F180
M106 S0
M106 S255
G1 X25.612 Y145.317 F180
M106 S0
M106 S255
G1 X27.307 Y144.907 F180
M106 S0
M106 S255
G1 X29.0 Y144.487 F180
M106 S0
M106 S255
G1 X30.689 Y144.053 F180
M106 S0
M106 S255
G1 X32.375 Y143.6 F180
M106 S0
M106 S255
G1 X34.057 Y143.123 F180
M106 S0
M106 S255
G1 X35.733 Y142.616 F180
M106 S0
M106 S255
G1 X37.402 Y142.076 F180
M106 S0
M106 S255
G1 X39.065 Y141.496 F180
M106 S0
M106 S255
G1 X40.72 Y140.872 F180
M106 S0
M106 S255
G1 X42.365 Y140.199 F180
M106 S0
M106 S255
G1 X44.435 Y139.268 F180
M106 S0
M106 S255
G1 X45.624 Y138.683 F180
M106 S0
M106 S255
G1 X47.196 Y137.811 F180
M106 S0
M106 S255
G1 X48.663 Y136.825 F180
M106 S0
M106 S255
G1 X50.509 Y135.114 F180
M106 S0
M106 S255
G1 X51.067 Y134.394 F180
M106 S0
M106 S255
G1 X51.943 Y132.923 F180
M106 S0
M106 S255
G1 X52.633 Y131.319 F180
M106 S0
M106 S255
G1 X53.17 Y129.616 F180
M106 S0
M106 S255
G1 X53.589 Y127.85 F180
M106 S0
M106 S255
G1 X53.923 Y126.056 F180
M106 S0
M106 S255
G1 X54.144 Y124.68 F180
M106 S0
M106 S255
G1 X54.466 Y122.515 F180
M106 S0
M106 S255
G1 X54.712 Y120.782 F180
M106 S0
M106 S255
G1 X54.952 Y119.061 F180
M106 S0
M106 S255
G1 X55.182 Y117.431 F180
M106 S0
M106 S255
G1 X55.446 Y115.616 F180
M106 S0
M106 S255
G1 X55.699 Y113.883 F180
M106 S0
M106 S255
G1 X55.946 Y112.146 F180
M106 S0
M106 S255
G1 X56.178 Y110.404 F180
M106 S0
M106 S255
G1 X56.375 Y108.774 F180
M106 S0
M106 S255
G1 X56.57 Y106.915 F180
M106 S0
M106 S255
G1 X56.727 Y105.169 F180
M106 S0
M106 S255
G1 X56.865 Y103.423 F180
M106 S0
M106 S255
G1 X56.991 Y101.676 F180
M106 S0
M106 S255
G1 X57.131 Y99.607 F180
M106 S0
M106 S255
G1 X57.226 Y98.179 F180
M106 S0
M106 S255
G1 X57.343 Y96.427 F180
M106 S0
G0 X57.617 Y96.562 F6000
M106 S255
G1 X57.617 Y96.562 F180
M106 S0
M106 S255
G1 X57.697 Y95.719 F180
M106 S0
M106 S255
G1 X57.772 Y94.928 F180
M106 S0
M106 S255
G1 X57.848 Y94.137 F180
M106 S0
M106 S255
G1 X57.925 Y93.346 F180
M106 S0
M106 S255
G1 X58.004 Y92.555 F180
M106 S0
M106 S255
G1 X58.085 Y91.764 F180
M106 S0
M106 S255
G1 X58.167 Y90.974 F180
M106 S0
M106 S255
G1 X58.253 Y90.184 F180
M106 S0
M106 S255
G1 X58.384 Y89.021 F180
M106 S0
M106 S255
G1 X58.433 Y88.604 F180
M106 S0
M106 S255
G1 X58.527 Y87.815 F180
M106 S0
M106 S255
G1 X58.621 Y87.025 F180
M106 S0
M106 S255
G1 X58.714 Y86.236 F180
M106 S0
M106 S255
G1 X58.803 Y85.446 F180
M106 S0
M106 S255
G1 X58.886 Y84.656 F180
M106 S0
M106 S255
G1 X58.975 Y83.695 F180
M106 S0
M106 S255
G1 X59.026 Y83.073 F180
M106 S0
M106 S255
G1 X59.084 Y82.28 F180
M106 S0
M106 S255
G1 X59.162 Y81.141 F180
M106 S0
M106 S255
G1 X59.193 Y80.694 F180
M106 S0
M106 S255
G1 X59.248 Y79.901 F180
M106 S0
M106 S255
G1 X59.303 Y79.108 F180
M106 S0
M106 S255
G1 X59.355 Y78.315 F180
M106 S0
M106 S255
G1 X59.403 Y77.521 F180
M106 S0
M106 S255
G1 X59.445 Y76.728 F180
M106 S0
M106 S255
G1 X59.473 Y76.095 F180
M106 S0
M106 S255
G1 X59.507 Y75.139 F180
M106 S0
M106 S255
G1 X59.528 Y74.345 F180
M106 S0
M106 S255
G1 X59.546 Y73.55 F180
M106 S0
M106 S255
G1 X59.562 Y72.755 F180
M106 S0
M106 S255
G1 X59.58 Y71.961 F180
M106 S0
M106 S255
G1 X59.601 Y71.166 F180
M106 S0
M106 S255
G1 X59.634 Y70.222 F180
M106 S0
M106 S255
G1 X59.662 Y69.578 F180
M106 S0
M106 S255
G1 X59.705 Y68.784 F180
M106 S0
M106 S255
G1 X59.754 Y67.991 F180
M106 S0
M106 S255
G1 X59.809 Y67.198 F180
M106 S0
M106 S255
G1 X59.869 Y66.405 F180
M106 S0
M106 S255
G1 X59.932 Y65.613 F180
M106 S0
M106 S255
G1 X59.998 Y64.821 F180
M106 S0
M106 S255
G1 X60.069 Y63.992 F180
M106 S0
M106 S255
G1 X60.135 Y63.237 F180
M106 S0
M106 S255
G1 X60.225 Y62.248 F180
M106 S0
M106 S255
G1 X60.282 Y61.654 F180
M106 S0
M106 S255
G1 X60.36 Y60.863 F180
M106 S0
M106 S255
G1 X60.439 Y60.072 F180
M106 S0
M106 S255
G1 X60.515 Y59.281 F180
M106 S0
M106 S255
G1 X60.585 Y58.489 F180
M106 S0
M106 S255
G1 X60.661 Y57.514 F180
M106 S0
M106 S255
G1 X60.7 Y56.904 F180
M106 S0
M106 S255
G1 X60.744 Y56.11 F180
M106 S0
M106 S255
G1 X60.782 Y55.316 F180
M106 S0
M106 S255
G1 X60.818 Y54.522 F180
M106 S0
M106 S255
G1 X60.855 Y53.728 F180
M106 S0
M106 S255
G1 X60.91 Y52.717 F180
M106 S0
M106 S255
G1 X60.947 Y52.141 F180
M106 S0
M106 S255
G1 X61.005 Y51.349 F180
M106 S0
M106 S255
G1 X61.07 Y50.557 F180
M106 S0
M106 S255
G1 X61.142 Y49.765 F180
M106 S0
M106 S255
G1 X61.219 Y48.974 F180
M106 S0
M106 S255
G1 X61.301 Y48.184 F180
M106 S0
M106 S255
G1 X61.387 Y47.393 F180
M106 S0
M106 S255
G1 X61.475 Y46.603 F180
M106 S0
M106 S255
G1 X61.566 Y45.813 F180
M106 S0
M106 S255
G1 X61.613 Y45.403 F180
M106 S0
G0 X0.354 Y137.243 F6000
M106 S255
G1 X0.354 Y137.243 F180
M106 S0
M106 S255
G1 X1.815 Y137.279 F180
M106 S0
M106 S255
G1 X3.275 Y137.315 F180
M106 S0
M106 S255
G1 X4.736 Y137.35 F180
M106 S0
M106 S255
G1 X6.196 Y137.385 F180
M106 S0
M106 S255
G1 X7.657 Y137.419 F180
M106 S0
M106 S255
G1 X9.117 Y137.451 F180
M106 S0
M106 S255
G1 X10.577 Y137.483 F180
M106 S0
M106 S255
G1 X12.036 Y137.512 F180
M106 S0
M106 S255
G1 X13.495 Y137.54 F180
M106 S0
M106 S255
G1 X14.954 Y137.566 F180
M106 S0
M106 S255
G1 X16.412 Y137.59 F180
M106 S0
M106 S255
G1 X17.87 Y137.612 F180
M106 S0
M106 S255
G1 X19.327 Y137.631 F180
M106 S0
M106 S255
G1 X20.784 Y137.647 F180
M106 S0
M106 S255
G1 X22.24 Y137.66 F180
M106 S0
M106 S255
G1 X23.695 Y137.669 F180
M106 S0
M106 S255
G1 X25.15 Y137.675 F180
M106 S0
M106 S255
G1 X26.603 Y137.678 F180
M106 S0
M106 S255
G1 X28.056 Y137.676 F180
M106 S0
M106 S255
G1 X29.508 Y137.67 F180
M106 S0
M106 S255
G1 X30.96 Y137.66 F180
M106 S0
M106 S255
G1 X33.113 Y137.637 F180
M106 S0
M106 S255
G1 X33.859 Y137.626 F180
M106 S0
M106 S255
G1 X35.308 Y137.597 F180
M106 S0
M106 S255
G1 X36.756 Y137.552 F180
M106 S0
M106 S255
G1 X38.205 Y137.481 F180
M106 S0
M106 S255
G1 X39.655 Y137.379 F180
M106 S0
M106 S255
G1 X41.106 Y137.236 F180
M106 S0
M106 S255
G1 X42.559 Y137.045 F180
M106 S0
M106 S255
G1 X44.015 Y136.798 F180
M106 S0
M106 S255
G1 X45.037 Y136.588 F180
M106 S0
M106 S255
G1 X46.917 Y136.089 F180
M106 S0
M106 S255
G1 X48.292 Y135.554 F180
M106 S0
M106 S255
G1 X49.999 Y134.471 F180
M106 S0
M106 S255
G1 X50.617 Y133.867 F180
M106 S0
M106 S255
G1 X51.496 Y132.692 F180
M106 S0
M106 S255
G1 X52.208 Y131.336 F180
M106 S0
M106 S255
G1 X52.703 Y130.013 F180
M106 S0
M106 S255
G1 X53.081 Y128.606 F180
M106 S0
M106 S255
G1 X53.363 Y127.173 F180
M106 S0
M106 S255
G1 X53.697 Y125.015 F180
M106 S0
M106 S255
G1 X53.808 Y124.281 F180
M106 S0
M106 S255
G1 X54.031 Y122.839 F180
M106 S0
M106 S255
G1 X54.261 Y121.4 F180
M106 S0
M106 S255
G1 X54.494 Y119.963 F180
M106 S0
M106 S255
G1 X54.727 Y118.527 F180
M106 S0
M106 S255
G1 X54.903 Y117.443 F180
M106 S0
M106 S255
G1 X55.187 Y115.652 F180
M106 S0
M106 S255
G1 X55.409 Y114.212 F180
M106 S0
M106 S255
G1 X55.623 Y112.77 F180
M106 S0
M106 S255
G1 X55.827 Y111.327 F180
M106 S0
M106 S255
G1 X55.985 Y110.148 F180
M106 S0
M106 S255
G1 X56.198 Y108.436 F180
M106 S0
M106 S255
G1 X56.362 Y106.988 F180
M106 S0
M106 S255
G1 X56.468 Y105.978 F180
M106 S0
M106 S255
G1 X56.645 Y104.088 F180
M106 S0
M106 S255
G1 X56.768 Y102.636 F180
M106 S0
M106 S255
G1 X56.882 Y101.184 F180
M106 S0
M106 S255
G1 X56.993 Y99.731 F180
M106 S0
G0 X11.27 Y187.487 F6000
M106 S255
G1 X11.27 Y187.487 F180
M106 S0
M106 S255
G1 X12.361 Y186.139 F180
M106 S0
M106 S255
G1 X13.452 Y184.79 F180
M106 S0
M106 S255
G1 X14.543 Y183.442 F180
M106 S0
M106 S255
G1 X15.633 Y182.092 F180
M106 S0
M106 S255
G1 X16.723 Y180.742 F180
M106 S0
M106 S255
G1 X17.811 Y179.39 F180
M106 S0
M106 S255
G1 X18.899 Y178.038 F180
M106 S0
M106 S255
G1 X19.986 Y176.683 F180
M106 S0
M106 S255
G1 X21.291 Y175.052 F180
M106 S0
M106 S255
G1 X22.156 Y173.968 F180
M106 S0
M106 S255
G1 X23.237 Y172.607 F180
M106 S0
M106 S255
G1 X24.315 Y171.243 F180
M106 S0
M106 S255
G1 X25.388 Y169.874 F180
M106 S0
M106 S255
G1 X26.454 Y168.501 F180
M106 S0
M106 S255
G1 X27.513 Y167.122 F180
M106 S0
M106 S255
G1 X28.562 Y165.736 F180
M106 S0
M106 S255
G1 X29.601 Y164.343 F180
M106 S0
M106 S255
G1 X30.628 Y162.943 F180
M106 S0
M106 S255
G1 X31.643 Y161.534 F180
M106 S0
M106 S255
G1 X32.643 Y160.116 F180
M106 S0
M106 S255
G1 X33.627 Y158.687 F180
M106 S0
M106 S255
G1 X34.595 Y157.248 F180
M106 S0
M106 S255
G1 X35.544 Y155.798 F180
M106 S0
M106 S255
G1 X36.474 Y154.335 F180
M106 S0
M106 S255
G1 X37.057 Y153.393 F180
M106 S0
M106 S255
G1 X38.271 Y151.371 F180
M106 S0
M106 S255
G1 X39.145 Y149.873 F180
M106 S0
M106 S255
G1 X40.008 Y148.368 F180
M106 S0
M106 S255
G1 X40.865 Y146.859 F180
M106 S0
M106 S255
G1 X41.721 Y145.349 F180
M106 S0
M106 S255
G1 X42.581 Y143.839 F180
M106 S0
M106 S255
G1 X43.47 Y142.295 F180
M106 S0
M106 S255
G1 X44.313 Y140.826 F180
M106 S0
M106 S255
G1 X44.913 Y139.662 F180
M106 S0
M106 S255
G1 X45.247 Y138.869 F180
M106 S0
G0 X41.323 Y187.539 F6000
M106 S255
G1 X41.323 Y187.539 F180
M106 S0
M106 S255
G1 X41.733 Y185.928 F180
M106 S0
M106 S255
G1 X42.142 Y184.316 F180
M106 S0
M106 S255
G1 X42.551 Y182.705 F180
M106 S0
M106 S255
G1 X42.959 Y181.093 F180
M106 S0
M106 S255
G1 X43.365 Y179.481 F180
M106 S0
M106 S255
G1 X43.769 Y177.868 F180
M106 S0
M106 S255
G1 X44.171 Y176.255 F180
M106 S0
M106 S255
G1 X44.571 Y174.641 F180
M106 S0
M106 S255
G1 X44.968 Y173.026 F180
M106 S0
M106 S255
G1 X45.361 Y171.41 F180
M106 S0
M106 S255
G1 X45.751 Y169.794 F180
M106 S0
M106 S255
G1 X46.136 Y168.176 F180
M106 S0
M106 S255
G1 X46.517 Y166.558 F180
M106 S0
M106 S255
G1 X46.891 Y164.937 F180
M106 S0
M106 S255
G1 X47.258 Y163.316 F180
M106 S0
M106 S255
G1 X47.617 Y161.692 F180
M106 S0
M106 S255
G1 X47.965 Y160.067 F180
M106 S0
M106 S255
G1 X48.303 Y158.439 F180
M106 S0
M106 S255
G1 X48.631 Y156.809 F180
M106 S0
M106 S255
G1 X48.949 Y155.178 F180
M106 S0
M106 S255
G1 X49.258 Y153.544 F180
M106 S0
M106 S255
G1 X49.56 Y151.909 F180
M106 S0
M106 S255
G1 X49.855 Y150.273 F180
M106 S0
M106 S255
G1 X50.144 Y148.636 F180
M106 S0
M106 S255
G1 X50.429 Y146.997 F180
M106 S0
M106 S255
G1 X50.711 Y145.358 F180
M106 S0
M106 S255
G1 X50.99 Y143.718 F180
M106 S0
M106 S255
G1 X51.268 Y142.078 F180
M106 S0
M106 S255
G1 X51.545 Y140.438 F180
M106 S0
M106 S255
G1 X51.815 Y138.797 F180
M106 S0
M106 S255
G1 X52.074 Y137.154 F180
M106 S0
M106 S255
G1 X52.314 Y135.509 F180
M106 S0
M106 S255
G1 X52.529 Y133.861 F180
M106 S0
M106 S255
G1 X52.714 Y132.208 F180
M106 S0
M106 S255
G1 X52.875 Y130.554 F180
M106 S0
G0 X42.502 Y187.483 F6000
M106 S255
G1 X42.502 Y187.483 F180
M106 S0
M106 S255
G1 X43.762 Y179.641 F180
M106 S0
M106 S255
G1 X51.105 Y181.834 F180
M106 S0
M106 S255
G1 X45.406 Y187.537 F180
M106 S0
G0 X51.105 Y181.834 F6000
M106 S255
G1 X51.105 Y181.834 F180
M106 S0
M106 S255
G1 X51.218 Y187.675 F180
M106 S0
G0 X46.707 Y171.789 F6000
M106 S255
G1 X46.707 Y171.789 F180
M106 S0
M106 S255
G1 X46.747 Y166.065 F180
M106 S0
M106 S255
G1 X52.118 Y161.89 F180
M106 S0
M106 S255
G1 X52.212 Y167.614 F180
M106 S0
M106 S255
G1 X46.707 Y171.789 F180
M106 S0
G0 X46.747 Y166.065 F6000
M106 S255
G1 X46.747 Y166.065 F180
M106 S0
M106 S255
G1 X47.855 Y160.81 F180
M106 S0
M106 S255
G1 X52.118 Y161.89 F180
M106 S0
G0 X49.306 Y158.267 F6000
M106 S255
G1 X49.306 Y158.267 F180
M106 S0
M106 S255
G1 X49.277 Y154.17 F180
M106 S0
M106 S255
G1 X53.0 Y151.937 F180
M106 S0
M106 S255
G1 X52.945 Y155.882 F180
M106 S0
M106 S255
G1 X49.306 Y158.267 F180
M106 S0
G0 X49.277 Y154.17 F6000
M106 S255
G1 X49.277 Y154.17 F180
M106 S0
M106 S255
G1 X49.77 Y151.129 F180
M106 S0
M106 S255
G1 X53.0 Y151.937 F180
M106 S0
G0 X50.49 Y149.988 F6000
M106 S255
G1 X50.49 Y149.988 F180
M106 S0
M106 S255
G1 X50.49 Y147.001 F180
M106 S0
M106 S255
G1 X53.31 Y145.363 F180
M106 S0
M106 S255
G1 X53.296 Y148.35 F180
M106 S0
M106 S255
G1 X50.49 Y149.988 F180
M106 S0
G0 X50.49 Y147.001 F6000
M106 S255
G1 X50.49 Y147.001 F180
M106 S0
M106 S255
G1 X50.944 Y144.867 F180
M106 S0
M106 S255
G1 X53.31 Y145.363 F180
M106 S0
G0 X51.53 Y143.987 F6000
M106 S255
G1 X51.53 Y143.987 F180
M106 S0
M106 S255
G1 X51.503 Y141.346 F180
M106 S0
M106 S255
G1 X53.6 Y140.4 F180
M106 S0
M106 S255
G1 X53.642 Y142.861 F180
M106 S0
M106 S255
G1 X51.53 Y143.987 F180
M106 S0
G0 X51.503 Y141.346 F6000
M106 S255
G1 X51.503 Y141.346 F180
M106 S0
M106 S255
G1 X51.836 Y140.108 F180
M106 S0
M106 S255
G1 X53.6 Y140.4 F180
M106 S0
G0 X52.236 Y139.024 F6000
M106 S255
G1 X52.236 Y139.024 F180
M106 S0
M106 S255
G1 X52.204 Y137.013 F180
M106 S0
M106 S255
G1 X53.885 Y136.146 F180
M106 S0
M106 S255
G1 X53.946 Y138.345 F180
M106 S0
M106 S255
G1 X52.236 Y139.024 F180
M106 S0
G0 X52.204 Y137.013 F6000
M106 S255
G1 X52.204 Y137.013 F180
M106 S0
M106 S255
G1 X52.414 Y135.98 F180
M106 S0
M106 S255
G1 X53.885 Y136.146 F180
M106 S0
G0 X52.799 Y135.018 F6000
M106 S255
G1 X52.799 Y135.018 F180
M106 S0
M106 S255
G1 X52.746 Y133.308 F180
M106 S0
M106 S255
G1 X54.182 Y132.858 F180
M106 S0
M106 S255
G1 X54.182 Y134.542 F180
M106 S0
M106 S255
G1 X52.799 Y135.018 F180
M106 S0
G0 X52.746 Y133.308 F6000
M106 S255
G1 X52.746 Y133.308 F180
M106 S0
M106 S255
G1 X52.949 Y132.612 F180
M106 S0
M106 S255
G1 X54.182 Y132.858 F180
M106 S0
G0 X53.233 Y131.384 F6000
M106 S255
G1 X53.233 Y131.384 F180
M106 S0
M106 S255
G1 X53.219 Y129.981 F180
M106 S0
M106 S255
G1 X54.352 Y129.669 F180
M106 S0
M106 S255
G1 X54.366 Y131.158 F180
M106 S0
M106 S255
G1 X53.233 Y131.384 F180
M106 S0
G0 X53.219 Y129.981 F6000
M106 S255
G1 X53.219 Y129.981 F180
M106 S0
M106 S255
G1 X53.403 Y129.499 F180
M106 S0
M106 S255
G1 X54.352 Y129.669 F180
M106 S0
G0 X53.556 Y128.106 F6000
M106 S255
G1 X53.556 Y128.106 F180
M106 S0
M106 S255
G1 X54.652 Y127.921 F180
M106 S0
M106 S255
G1 X54.623 Y126.611 F180
M106 S0
M106 S255
G1 X53.805 Y126.689 F180
M106 S0
G0 X53.871 Y126.337 F6000
M106 S255
G1 X53.871 Y126.337 F180
M106 S0
M106 S255
G1 X54.627 Y126.524 F180
M106 S0
G0 X54.072 Y125.128 F6000
M106 S255
G1 X54.072 Y125.128 F180
M106 S0
M106 S255
G1 X55.118 Y125.031 F180
M106 S0
M106 S255
G1 X55.1 Y123.757 F180
M106 S0
M106 S255
G1 X54.289 Y123.703 F180
M106 S0
G0 X54.509 Y122.215 F6000
M106 S255
G1 X54.509 Y122.215 F180
M106 S0
M106 S255
G1 X55.282 Y122.202 F180
M106 S0
M106 S255
G1 X55.268 Y121.069 F180
M106 S0
M106 S255
G1 X54.679 Y121.009 F180
M106 S0
G0 X54.921 Y119.278 F6000
M106 S255
G1 X54.921 Y119.278 F180
M106 S0
M106 S255
G1 X55.616 Y119.225 F180
M106 S0
M106 S255
G1 X55.645 Y118.383 F180
M106 S0
M106 S255
G1 X55.054 Y118.333 F180
M106 S0
G0 X55.306 Y116.574 F6000
M106 S255
G1 X55.306 Y116.574 F180
M106 S0
M106 S255
G1 X55.833 Y116.536 F180
M106 S0
M106 S255
G1 X55.818 Y115.733 F180
M106 S0
M106 S255
G1 X55.428 Y115.733 F180
M106 S0
G0 X55.709 Y113.813 F6000
M106 S255
G1 X55.709 Y113.813 F180
M106 S0
M106 S255
G1 X56.285 Y113.763 F180
M106 S0
M106 S255
G1 X56.329 Y113.019 F180
M106 S0
M106 S255
G1 X55.829 Y112.965 F180
M106 S0
G0 X55.113 Y124.657 F6000
M106 S255
G1 X55.113 Y124.657 F180
M106 S0
M106 S255
G1 X55.155 Y124.679 F180
M106 S0
M106 S255
G1 X55.197 Y124.701 F180
M106 S0
M106 S255
G1 X55.24 Y124.721 F180
M106 S0
M106 S255
G1 X55.284 Y124.741 F180
M106 S0
M106 S255
G1 X55.328 Y124.759 F180
M106 S0
M106 S255
G1 X55.373 Y124.775 F180
M106 S0
M106 S255
G1 X55.419 Y124.788 F180
M106 S0
M106 S255
G1 X55.465 Y124.799 F180
M106 S0
M106 S255
G1 X55.513 Y124.808 F180
M106 S0
M106 S255
G1 X55.562 Y124.813 F180
M106 S0
M106 S255
G1 X55.612 Y124.814 F180
M106 S0
M106 S255
G1 X55.661 Y124.812 F180
M106 S0
M106 S255
G1 X55.709 Y124.804 F180
M106 S0
M106 S255
G1 X55.755 Y124.792 F180
M106 S0
M106 S255
G1 X55.798 Y124.774 F180
M106 S0
M106 S255
G1 X55.839 Y124.751 F180
M106 S0
M106 S255
G1 X55.876 Y124.721 F180
M106 S0
M106 S255
G1 X55.909 Y124.687 F180
M106 S0
M106 S255
G1 X55.939 Y124.649 F180
M106 S0
M106 S255
G1 X55.965 Y124.607 F180
M106 S0
M106 S255
G1 X55.988 Y124.562 F180
M106 S0
M106 S255
G1 X56.007 Y124.516 F180
M106 S0
M106 S255
G1 X56.023 Y124.468 F180
M106 S0
M106 S255
G1 X56.035 Y124.42 F180
M106 S0
M106 S255
G1 X56.044 Y124.372 F180
M106 S0
M106 S255
G1 X56.049 Y124.324 F180
M106 S0
M106 S255
G1 X56.052 Y124.277 F180
M106 S0
M106 S255
G1 X56.051 Y124.229 F180
M106 S0
M106 S255
G1 X56.048 Y124.182 F180
M106 S0
M106 S255
G1 X56.042 Y124.135 F180
M106 S0
M106 S255
G1 X56.033 Y124.087 F180
M106 S0
M106 S255
G1 X56.022 Y124.04 F180
M106 S0
M106 S255
G1 X56.01 Y123.993 F180
M106 S0
M106 S255
G1 X55.995 Y123.946 F180
M106 S0
M106 S255
G1 X55.979 Y123.899 F180
M106 S0
M106 S255
G1 X55.961 Y123.853 F180
M106 S0
M106 S255
G1 X55.941 Y123.807 F180
M106 S0
M106 S255
G1 X55.918 Y123.765 F180
M106 S0
M106 S255
G1 X55.892 Y123.726 F180
M106 S0
M106 S255
G1 X55.862 Y123.691 F180
M106 S0
M106 S255
G1 X55.828 Y123.663 F180
M106 S0
M106 S255
G1 X55.79 Y123.639 F180
M106 S0
M106 S255
G1 X55.749 Y123.62 F180
M106 S0
M106 S255
G1 X55.707 Y123.605 F180
M106 S0
M106 S255
G1 X55.663 Y123.593 F180
M106 S0
M106 S255
G1 X55.619 Y123.583 F180
M106 S0
M106 S255
G1 X55.576 Y123.575 F180
M106 S0
M106 S255
G1 X55.533 Y123.568 F180
M106 S0
M106 S255
G1 X55.489 Y123.565 F180
M106 S0
M106 S255
G1 X55.442 Y123.567 F180
M106 S0
M106 S255
G1 X55.393 Y123.574 F180
M106 S0
M106 S255
G1 X55.342 Y123.586 F180
M106 S0
M106 S255
G1 X55.29 Y123.603 F180
M106 S0
M106 S255
G1 X55.238 Y123.623 F180
M106 S0
M106 S255
G1 X55.187 Y123.646 F180
M106 S0
M106 S255
G1 X55.14 Y123.671 F180
M106 S0
M106 S255
G1 X55.096 Y123.697 F180
M106 S0
M106 S255
G1 X55.055 Y123.724 F180
M106 S0
M106 S255
G1 X55.017 Y123.752 F180
M106 S0
G0 X54.642 Y127.468 F6000
M106 S255
G1 X54.642 Y127.468 F180
M106 S0
M106 S255
G1 X54.678 Y127.501 F180
M106 S0
M106 S255
G1 X54.715 Y127.533 F180
M106 S0
M106 S255
G1 X54.751 Y127.565 F180
M106 S0
M106 S255
G1 X54.789 Y127.595 F180
M106 S0
M106 S255
G1 X54.827 Y127.623 F180
M106 S0
M106 S255
G1 X54.866 Y127.649 F180
M106 S0
M106 S255
G1 X54.906 Y127.672 F180
M106 S0
M106 S255
G1 X54.948 Y127.69 F180
M106 S0
M106 S255
G1 X54.992 Y127.705 F180
M106 S0
M106 S255
G1 X55.037 Y127.714 F180
M106 S0
M106 S255
G1 X55.084 Y127.719 F180
M106 S0
M106 S255
G1 X55.132 Y127.72 F180
M106 S0
M106 S255
G1 X55.18 Y127.716 F180
M106 S0
M106 S255
G1 X55.228 Y127.708 F180
M106 S0
M106 S255
G1 X55.275 Y127.697 F180
M106 S0
M106 S255
G1 X55.322 Y127.681 F180
M106 S0
M106 S255
G1 X55.367 Y127.662 F180
M106 S0
M106 S255
G1 X55.41 Y127.639 F180
M106 S0
M106 S255
G1 X55.451 Y127.613 F180
M106 S0
M106 S255
G1 X55.489 Y127.584 F180
M106 S0
M106 S255
G1 X55.524 Y127.553 F180
M106 S0
M106 S255
G1 X55.557 Y127.518 F180
M106 S0
M106 S255
G1 X55.587 Y127.482 F180
M106 S0
M106 S255
G1 X55.614 Y127.443 F180
M106 S0
M106 S255
G1 X55.639 Y127.403 F180
M106 S0
M106 S255
G1 X55.662 Y127.36 F180
M106 S0
M106 S255
G1 X55.682 Y127.317 F180
M106 S0
M106 S255
G1 X55.7 Y127.272 F180
M106 S0
M106 S255
G1 X55.715 Y127.227 F180
M106 S0
M106 S255
G1 X55.727 Y127.181 F180
M106 S0
M106 S255
G1 X55.738 Y127.134 F180
M106 S0
M106 S255
G1 X55.745 Y127.087 F180
M106 S0
M106 S255
G1 X55.75 Y127.039 F180
M106 S0
M106 S255
G1 X55.752 Y126.991 F180
M106 S0
M106 S255
G1 X55.752 Y126.944 F180
M106 S0
M106 S255
G1 X55.749 Y126.896 F180
M106 S0
M106 S255
G1 X55.743 Y126.849 F180
M106 S0
M106 S255
G1 X55.734 Y126.802 F180
M106 S0
M106 S255
G1 X55.722 Y126.755 F180
M106 S0
M106 S255
G1 X55.707 Y126.709 F180
M106 S0
M106 S255
G1 X55.689 Y126.665 F180
M106 S0
M106 S255
G1 X55.669 Y126.621 F180
M106 S0
M106 S255
G1 X55.645 Y126.578 F180
M106 S0
M106 S255
G1 X55.619 Y126.537 F180
M106 S0
M106 S255
G1 X55.59 Y126.498 F180
M106 S0
M106 S255
G1 X55.559 Y126.461 F180
M106 S0
M106 S255
G1 X55.525 Y126.426 F180
M106 S0
M106 S255
G1 X55.489 Y126.394 F180
M106 S0
M106 S255
G1 X55.451 Y126.364 F180
M106 S0
M106 S255
G1 X55.411 Y126.338 F180
M106 S0
M106 S255
G1 X55.369 Y126.314 F180
M106 S0
M106 S255
G1 X55.325 Y126.295 F180
M106 S0
M106 S255
G1 X55.279 Y126.279 F180
M106 S0
M106 S255
G1 X55.232 Y126.267 F180
M106 S0
M106 S255
G1 X55.184 Y126.259 F180
M106 S0
M106 S255
G1 X55.135 Y126.255 F180
M106 S0
M106 S255
G1 X55.086 Y126.255 F180
M106 S0
M106 S255
G1 X55.037 Y126.259 F180
M106 S0
M106 S255
G1 X54.989 Y126.266 F180
M106 S0
M106 S255
G1 X54.942 Y126.278 F180
M106 S0
M106 S255
G1 X54.896 Y126.294 F180
M106 S0
M106 S255
G1 X54.853 Y126.313 F180
M106 S0
M106 S255
G1 X54.812 Y126.336 F180
M106 S0
M106 S255
G1 X54.774 Y126.363 F180
M106 S0
M106 S255
G1 X54.738 Y126.393 F180
M106 S0
M106 S255
G1 X54.705 Y126.427 F180
M106 S0
M106 S255
G1 X54.674 Y126.462 F180
M106 S0
M106 S255
G1 X54.645 Y126.5 F180
M106 S0
M106 S255
G1 X54.617 Y126.538 F180
M106 S0
M106 S255
G1 X54.59 Y126.577 F180
M106 S0
M106 S255
G1 X54.564 Y126.616 F180
M106 S0
G0 X54.363 Y130.842 F6000
M106 S255
G1 X54.363 Y130.842 F180
M106 S0
M106 S255
G1 X54.432 Y130.861 F180
M106 S0
M106 S255
G1 X54.501 Y130.877 F180
M106 S0
M106 S255
G1 X54.572 Y130.89 F180
M106 S0
M106 S255
G1 X54.643 Y130.898 F180
M106 S0
M106 S255
G1 X54.716 Y130.902 F180
M106 S0
M106 S255
G1 X54.789 Y130.9 F180
M106 S0
M106 S255
G1 X54.864 Y130.891 F180
M106 S0
M106 S255
G1 X54.936 Y130.876 F180
M106 S0
M106 S255
G1 X55.005 Y130.853 F180
M106 S0
M106 S255
G1 X55.069 Y130.823 F180
M106 S0
M106 S255
G1 X55.127 Y130.784 F180
M106 S0
M106 S255
G1 X55.176 Y130.736 F180
M106 S0
M106 S255
G1 X55.218 Y130.68 F180
M106 S0
M106 S255
G1 X55.253 Y130.618 F180
M106 S0
M106 S255
G1 X55.281 Y130.551 F180
M106 S0
M106 S255
G1 X55.304 Y130.479 F180
M106 S0
M106 S255
G1 X55.322 Y130.405 F180
M106 S0
M106 S255
G1 X55.335 Y130.329 F180
M106 S0
M106 S255
G1 X55.345 Y130.252 F180
M106 S0
M106 S255
G1 X55.351 Y130.175 F180
M106 S0
M106 S255
G1 X55.353 Y130.099 F180
M106 S0
M106 S255
G1 X55.351 Y130.024 F180
M106 S0
M106 S255
G1 X55.343 Y129.951 F180
M106 S0
M106 S255
G1 X55.331 Y129.879 F180
M106 S0
M106 S255
G1 X55.312 Y129.81 F180
M106 S0
M106 S255
G1 X55.288 Y129.744 F180
M106 S0
M106 S255
G1 X55.257 Y129.681 F180
M106 S0
M106 S255
G1 X55.219 Y129.622 F180
M106 S0
M106 S255
G1 X55.174 Y129.567 F180
M106 S0
M106 S255
G1 X55.123 Y129.517 F180
M106 S0
M106 S255
G1 X55.066 Y129.472 F180
M106 S0
M106 S255
G1 X55.004 Y129.433 F180
M106 S0
M106 S255
G1 X54.938 Y129.399 F180
M106 S0
M106 S255
G1 X54.869 Y129.372 F180
M106 S0
M106 S255
G1 X54.798 Y129.351 F180
M106 S0
M106 S255
G1 X54.726 Y129.337 F180
M106 S0
M106 S255
G1 X54.653 Y129.33 F180
M106 S0
M106 S255
G1 X54.581 Y129.331 F180
M106 S0
M106 S255
G1 X54.509 Y129.339 F180
M106 S0
M106 S255
G1 X54.439 Y129.354 F180
M106 S0
M106 S255
G1 X54.372 Y129.376 F180
M106 S0
M106 S255
G1 X54.308 Y129.404 F180
M106 S0
M106 S255
G1 X54.246 Y129.439 F180
M106 S0
M106 S255
G1 X54.186 Y129.477 F180
M106 S0
M106 S255
G1 X54.127 Y129.52 F180
M106 S0
M106 S255
G1 X54.069 Y129.564 F180
M106 S0
M106 S255
G1 X54.012 Y129.609 F180
M106 S0
G0 X54.182 Y134.133 F6000
M106 S255
G1 X54.182 Y134.133 F180
M106 S0
M106 S255
G1 X54.25 Y134.171 F180
M106 S0
M106 S255
G1 X54.319 Y134.206 F180
M106 S0
M106 S255
G1 X54.388 Y134.234 F180
M106 S0
M106 S255
G1 X54.457 Y134.254 F180
M106 S0
M106 S255
G1 X54.526 Y134.265 F180
M106 S0
M106 S255
G1 X54.596 Y134.265 F180
M106 S0
M106 S255
G1 X54.667 Y134.252 F180
M106 S0
M106 S255
G1 X54.737 Y134.228 F180
M106 S0
M106 S255
G1 X54.804 Y134.193 F180
M106 S0
M106 S255
G1 X54.868 Y134.149 F180
M106 S0
M106 S255
G1 X54.927 Y134.097 F180
M106 S0
M106 S255
G1 X54.978 Y134.04 F180
M106 S0
M106 S255
G1 X55.02 Y133.978 F180
M106 S0
M106 S255
G1 X55.053 Y133.913 F180
M106 S0
M106 S255
G1 X55.076 Y133.846 F180
M106 S0
M106 S255
G1 X55.091 Y133.776 F180
M106 S0
M106 S255
G1 X55.099 Y133.704 F180
M106 S0
M106 S255
G1 X55.101 Y133.63 F180
M106 S0
M106 S255
G1 X55.099 Y133.555 F180
M106 S0
M106 S255
G1 X55.092 Y133.478 F180
M106 S0
M106 S255
G1 X55.084 Y133.4 F180
M106 S0
M106 S255
G1 X55.073 Y133.321 F180
M106 S0
M106 S255
G1 X55.063 Y133.241 F180
M106 S0
M106 S255
G1 X55.051 Y133.162 F180
M106 S0
M106 S255
G1 X55.038 Y133.083 F180
M106 S0
M106 S255
G1 X55.022 Y133.006 F180
M106 S0
M106 S255
G1 X55.003 Y132.931 F180
M106 S0
M106 S255
G1 X54.979 Y132.86 F180
M106 S0
M106 S255
G1 X54.95 Y132.793 F180
M106 S0
M106 S255
G1 X54.916 Y132.731 F180
M106 S0
M106 S255
G1 X54.874 Y132.675 F180
M106 S0
M106 S255
G1 X54.825 Y132.626 F180
M106 S0
M106 S255
G1 X54.767 Y132.584 F180
M106 S0
M106 S255
G1 X54.701 Y132.55 F180
M106 S0
M106 S255
G1 X54.63 Y132.524 F180
M106 S0
M106 S255
G1 X54.555 Y132.507 F180
M106 S0
M106 S255
G1 X54.479 Y132.499 F180
M106 S0
M106 S255
G1 X54.402 Y132.5 F180
M106 S0
M106 S255
G1 X54.327 Y132.511 F180
M106 S0
M106 S255
G1 X54.256 Y132.532 F180
M106 S0
M106 S255
G1 X54.188 Y132.56 F180
M106 S0
M106 S255
G1 X54.123 Y132.594 F180
M106 S0
M106 S255
G1 X54.059 Y132.63 F180
M106 S0
M106 S255
G1 X53.996 Y132.668 F180
M106 S0
M106 S255
G1 X53.933 Y132.706 F180
M106 S0
M106 S255
G1 X53.871 Y132.745 F180
M106 S0
M106 S255
G1 X53.809 Y132.784 F180
M106 S0
G0 X53.936 Y137.986 F6000
M106 S255
G1 X53.936 Y137.986 F180
M106 S0
M106 S255
G1 X54.023 Y138.024 F180
M106 S0
M106 S255
G1 X54.111 Y138.055 F180
M106 S0
M106 S255
G1 X54.199 Y138.075 F180
M106 S0
M106 S255
G1 X54.287 Y138.083 F180
M106 S0
M106 S255
G1 X54.375 Y138.076 F180
M106 S0
M106 S255
G1 X54.464 Y138.052 F180
M106 S0
M106 S255
G1 X54.55 Y138.014 F180
M106 S0
M106 S255
G1 X54.631 Y137.964 F180
M106 S0
M106 S255
G1 X54.706 Y137.903 F180
M106 S0
M106 S255
G1 X54.771 Y137.834 F180
M106 S0
M106 S255
G1 X54.825 Y137.758 F180
M106 S0
M106 S255
G1 X54.868 Y137.678 F180
M106 S0
M106 S255
G1 X54.899 Y137.593 F180
M106 S0
M106 S255
G1 X54.921 Y137.504 F180
M106 S0
M106 S255
G1 X54.935 Y137.413 F180
M106 S0
M106 S255
G1 X54.941 Y137.319 F180
M106 S0
M106 S255
G1 X54.941 Y137.223 F180
M106 S0
M106 S255
G1 X54.937 Y137.127 F180
M106 S0
M106 S255
G1 X54.929 Y137.03 F180
M106 S0
M106 S255
G1 X54.918 Y136.934 F180
M106 S0
M106 S255
G1 X54.905 Y136.839 F180
M106 S0
M106 S255
G1 X54.888 Y136.745 F180
M106 S0
M106 S255
G1 X54.867 Y136.654 F180
M106 S0
M106 S255
G1 X54.84 Y136.565 F180
M106 S0
M106 S255
G1 X54.808 Y136.479 F180
M106 S0
M106 S255
G1 X54.769 Y136.396 F180
M106 S0
M106 S255
G1 X54.722 Y136.318 F180
M106 S0
M106 S255
G1 X54.668 Y136.245 F180
M106 S0
M106 S255
G1 X54.604 Y136.177 F180
M106 S0
M106 S255
G1 X54.531 Y136.115 F180
M106 S0
M106 S255
G1 X54.452 Y136.06 F180
M106 S0
M106 S255
G1 X54.367 Y136.014 F180
M106 S0
M106 S255
G1 X54.278 Y135.978 F180
M106 S0
M106 S255
G1 X54.187 Y135.953 F180
M106 S0
M106 S255
G1 X54.095 Y135.94 F180
M106 S0
M106 S255
G1 X54.005 Y135.941 F180
M106 S0
M106 S255
G1 X53.917 Y135.956 F180
M106 S0
M106 S255
G1 X53.831 Y135.984 F180
M106 S0
M106 S255
G1 X53.747 Y136.02 F180
M106 S0
M106 S255
G1 X53.664 Y136.064 F180
M106 S0
M106 S255
G1 X53.582 Y136.112 F180
M106 S0
G0 X53.631 Y142.258 F6000
M106 S255
G1 X53.631 Y142.258 F180
M106 S0
M106 S255
G1 X53.712 Y142.296 F180
M106 S0
M106 S255
G1 X53.795 Y142.33 F180
M106 S0
M106 S255
G1 X53.879 Y142.358 F180
M106 S0
M106 S255
G1 X53.966 Y142.378 F180
M106 S0
M106 S255
G1 X54.056 Y142.39 F180
M106 S0
M106 S255
G1 X54.149 Y142.392 F180
M106 S0
M106 S255
G1 X54.241 Y142.384 F180
M106 S0
M106 S255
G1 X54.33 Y142.366 F180
M106 S0
M106 S255
G1 X54.416 Y142.337 F180
M106 S0
M106 S255
G1 X54.496 Y142.298 F180
M106 S0
M106 S255
G1 X54.567 Y142.248 F180
M106 S0
M106 S255
G1 X54.63 Y142.187 F180
M106 S0
M106 S255
G1 X54.686 Y142.118 F180
M106 S0
M106 S255
G1 X54.734 Y142.042 F180
M106 S0
M106 S255
G1 X54.777 Y141.96 F180
M106 S0
M106 S255
G1 X54.814 Y141.875 F180
M106 S0
M106 S255
G1 X54.845 Y141.786 F180
M106 S0
M106 S255
G1 X54.873 Y141.696 F180
M106 S0
M106 S255
G1 X54.898 Y141.607 F180
M106 S0
M106 S255
G1 X54.918 Y141.518 F180
M106 S0
M106 S255
G1 X54.936 Y141.429 F180
M106 S0
M106 S255
G1 X54.949 Y141.341 F180
M106 S0
M106 S255
G1 X54.959 Y141.253 F180
M106 S0
M106 S255
G1 X54.966 Y141.164 F180
M106 S0
M106 S255
G1 X54.968 Y141.076 F180
M106 S0
M106 S255
G1 X54.967 Y140.987 F180
M106 S0
M106 S255
G1 X54.961 Y140.898 F180
M106 S0
M106 S255
G1 X54.952 Y140.808 F180
M106 S0
M106 S255
G1 X54.938 Y140.717 F180
M106 S0
M106 S255
G1 X54.92 Y140.627 F180
M106 S0
M106 S255
G1 X54.897 Y140.537 F180
M106 S0
M106 S255
G1 X54.87 Y140.448 F180
M106 S0
M106 S255
G1 X54.838 Y140.362 F180
M106 S0
M106 S255
G1 X54.801 Y140.278 F180
M106 S0
M106 S255
G1 X54.758 Y140.198 F180
M106 S0
M106 S255
G1 X54.71 Y140.122 F180
M106 S0
M106 S255
G1 X54.657 Y140.051 F180
M106 S0
M106 S255
G1 X54.597 Y139.986 F180
M106 S0
M106 S255
G1 X54.532 Y139.926 F180
M106 S0
M106 S255
G1 X54.46 Y139.874 F180
M106 S0
M106 S255
G1 X54.383 Y139.828 F180
M106 S0
M106 S255
G1 X54.302 Y139.789 F180
M106 S0
M106 S255
G1 X54.217 Y139.757 F180
M106 S0
M106 S255
G1 X54.129 Y139.732 F180
M106 S0
M106 S255
G1 X54.038 Y139.715 F180
M106 S0
M106 S255
G1 X53.946 Y139.704 F180
M106 S0
M106 S255
G1 X53.852 Y139.7 F180
M106 S0
M106 S255
G1 X53.76 Y139.705 F180
M106 S0
M106 S255
G1 X53.669 Y139.718 F180
M106 S0
M106 S255
G1 X53.581 Y139.74 F180
M106 S0
M106 S255
G1 X53.498 Y139.772 F180
M106 S0
M106 S255
G1 X53.42 Y139.815 F180
M106 S0
M106 S255
G1 X53.349 Y139.868 F180
M106 S0
M106 S255
G1 X53.286 Y139.931 F180
M106 S0
M106 S255
G1 X53.229 Y140.0 F180
M106 S0
M106 S255
G1 X53.177 Y140.075 F180
M106 S0
M106 S255
G1 X53.131 Y140.151 F180
M106 S0
M106 S255
G1 X53.088 Y140.23 F180
M106 S0
M106 S255
G1 X53.047 Y140.309 F180
M106 S0
G0 X53.299 Y147.836 F6000
M106 S255
G1 X53.299 Y147.836 F180
M106 S0
M106 S255
G1 X53.413 Y147.846 F180
M106 S0
M106 S255
G1 X53.527 Y147.85 F180
M106 S0
M106 S255
G1 X53.641 Y147.847 F180
M106 S0
M106 S255
G1 X53.754 Y147.834 F180
M106 S0
M106 S255
G1 X53.866 Y147.811 F180
M106 S0
M106 S255
G1 X53.976 Y147.776 F180
M106 S0
M106 S255
G1 X54.084 Y147.731 F180
M106 S0
M106 S255
G1 X54.187 Y147.675 F180
M106 S0
M106 S255
G1 X54.284 Y147.611 F180
M106 S0
M106 S255
G1 X54.374 Y147.538 F180
M106 S0
M106 S255
G1 X54.456 Y147.458 F180
M106 S0
M106 S255
G1 X54.528 Y147.37 F180
M106 S0
M106 S255
G1 X54.59 Y147.276 F180
M106 S0
M106 S255
G1 X54.643 Y147.177 F180
M106 S0
M106 S255
G1 X54.688 Y147.072 F180
M106 S0
M106 S255
G1 X54.725 Y146.964 F180
M106 S0
M106 S255
G1 X54.755 Y146.851 F180
M106 S0
M106 S255
G1 X54.778 Y146.736 F180
M106 S0
M106 S255
G1 X54.795 Y146.618 F180
M106 S0
M106 S255
G1 X54.806 Y146.499 F180
M106 S0
M106 S255
G1 X54.812 Y146.379 F180
M106 S0
M106 S255
G1 X54.815 Y146.258 F180
M106 S0
M106 S255
G1 X54.813 Y146.138 F180
M106 S0
M106 S255
G1 X54.808 Y146.019 F180
M106 S0
M106 S255
G1 X54.799 Y145.901 F180
M106 S0
M106 S255
G1 X54.785 Y145.785 F180
M106 S0
M106 S255
G1 X54.766 Y145.671 F180
M106 S0
M106 S255
G1 X54.74 Y145.559 F180
M106 S0
M106 S255
G1 X54.708 Y145.45 F180
M106 S0
M106 S255
G1 X54.668 Y145.345 F180
M106 S0
M106 S255
G1 X54.619 Y145.242 F180
M106 S0
M106 S255
G1 X54.561 Y145.143 F180
M106 S0
M106 S255
G1 X54.494 Y145.049 F180
M106 S0
M106 S255
G1 X54.418 Y144.96 F180
M106 S0
M106 S255
G1 X54.333 Y144.877 F180
M106 S0
M106 S255
G1 X54.242 Y144.802 F180
M106 S0
M106 S255
G1 X54.144 Y144.736 F180
M106 S0
M106 S255
G1 X54.041 Y144.68 F180
M106 S0
M106 S255
G1 X53.934 Y144.634 F180
M106 S0
M106 S255
G1 X53.824 Y144.602 F180
M106 S0
M106 S255
G1 X53.711 Y144.582 F180
M106 S0
M106 S255
G1 X53.596 Y144.576 F180
M106 S0
M106 S255
G1 X53.481 Y144.582 F180
M106 S0
M106 S255
G1 X53.367 Y144.6 F180
M106 S0
M106 S255
G1 X53.255 Y144.629 F180
M106 S0
M106 S255
G1 X53.146 Y144.669 F180
M106 S0
M106 S255
G1 X53.041 Y144.719 F180
M106 S0
M106 S255
G1 X52.942 Y144.779 F180
M106 S0
M106 S255
G1 X52.851 Y144.849 F180
M106 S0
M106 S255
G1 X52.77 Y144.928 F180
M106 S0
M106 S255
G1 X52.698 Y145.016 F180
M106 S0
M106 S255
G1 X52.635 Y145.11 F180
M106 S0
M106 S255
G1 X52.576 Y145.209 F180
M106 S0
G0 X52.956 Y155.099 F6000
M106 S255
G1 X52.956 Y155.099 F180
M106 S0
M106 S255
G1 X53.099 Y155.134 F180
M106 S0
M106 S255
G1 X53.242 Y155.158 F180
M106 S0
M106 S255
G1 X53.382 Y155.168 F180
M106 S0
M106 S255
G1 X53.522 Y155.16 F180
M106 S0
M106 S255
G1 X53.659 Y155.13 F180
M106 S0
M106 S255
G1 X53.792 Y155.08 F180
M106 S0
M106 S255
G1 X53.921 Y155.013 F180
M106 S0
M106 S255
G1 X54.045 Y154.931 F180
M106 S0
M106 S255
G1 X54.161 Y154.837 F180
M106 S0
M106 S255
G1 X54.269 Y154.733 F180
M106 S0
M106 S255
G1 X54.368 Y154.623 F180
M106 S0
M106 S255
G1 X54.457 Y154.508 F180
M106 S0
M106 S255
G1 X54.537 Y154.387 F180
M106 S0
M106 S255
G1 X54.608 Y154.262 F180
M106 S0
M106 S255
G1 X54.671 Y154.133 F180
M106 S0
M106 S255
G1 X54.726 Y154.0 F180
M106 S0
M106 S255
G1 X54.773 Y153.864 F180
M106 S0
M106 S255
G1 X54.813 Y153.725 F180
M106 S0
M106 S255
G1 X54.846 Y153.584 F180
M106 S0
M106 S255
G1 X54.872 Y153.441 F180
M106 S0
M106 S255
G1 X54.891 Y153.297 F180
M106 S0
M106 S255
G1 X54.902 Y153.152 F180
M106 S0
M106 S255
G1 X54.907 Y153.006 F180
M106 S0
M106 S255
G1 X54.905 Y152.86 F180
M106 S0
M106 S255
G1 X54.897 Y152.714 F180
M106 S0
M106 S255
G1 X54.882 Y152.569 F180
M106 S0
M106 S255
G1 X54.86 Y152.425 F180
M106 S0
M106 S255
G1 X54.832 Y152.282 F180
M106 S0
M106 S255
G1 X54.797 Y152.142 F180
M106 S0
M106 S255
G1 X54.756 Y152.003 F180
M106 S0
M106 S255
G1 X54.709 Y151.867 F180
M106 S0
M106 S255
G1 X54.656 Y151.734 F180
M106 S0
M106 S255
G1 X54.596 Y151.603 F180
M106 S0
M106 S255
G1 X54.529 Y151.475 F180
M106 S0
M106 S255
G1 X54.457 Y151.35 F180
M106 S0
M106 S255
G1 X54.378 Y151.229 F180
M106 S0
M106 S255
G1 X54.292 Y151.11 F180
M106 S0
M106 S255
G1 X54.2 Y150.995 F180
M106 S0
M106 S255
G1 X54.101 Y150.884 F180
M106 S0
M106 S255
G1 X53.997 Y150.779 F180
M106 S0
M106 S255
G1 X53.886 Y150.682 F180
M106 S0
M106 S255
G1 X53.77 Y150.594 F180
M106 S0
M106 S255
G1 X53.648 Y150.517 F180
M106 S0
M106 S255
G1 X53.521 Y150.452 F180
M106 S0
M106 S255
G1 X53.388 Y150.403 F180
M106 S0
M106 S255
G1 X53.252 Y150.368 F180
M106 S0
M106 S255
G1 X53.111 Y150.348 F180
M106 S0
M106 S255
G1 X52.968 Y150.34 F180
M106 S0
M106 S255
G1 X52.822 Y150.342 F180
M106 S0
M106 S255
G1 X52.675 Y150.351 F180
M106 S0
M106 S255
G1 X52.529 Y150.366 F180
M106 S0
M106 S255
G1 X52.382 Y150.385 F180
M106 S0
M106 S255
G1 X52.238 Y150.407 F180
M106 S0
M106 S255
G1 X52.095 Y150.435 F180
M106 S0
M106 S255
G1 X51.956 Y150.471 F180
M106 S0
M106 S255
G1 X51.82 Y150.516 F180
M106 S0
M106 S255
G1 X51.69 Y150.573 F180
M106 S0
M106 S255
G1 X51.564 Y150.643 F180
M106 S0
M106 S255
G1 X51.446 Y150.726 F180
M106 S0
M106 S255
G1 X51.336 Y150.821 F180
M106 S0
M106 S255
G1 X51.237 Y150.927 F180
M106 S0
M106 S255
G1 X51.152 Y151.043 F180
M106 S0
M106 S255
G1 X51.078 Y151.166 F180
M106 S0
M106 S255
G1 X51.013 Y151.294 F180
M106 S0
M106 S255
G1 X50.954 Y151.425 F180
M106 S0
G0 X52.182 Y165.799 F6000
M106 S255
G1 X52.182 Y165.799 F180
M106 S0
M106 S255
G1 X52.35 Y165.858 F180
M106 S0
M106 S255
G1 X52.517 Y165.913 F180
M106 S0
M106 S255
G1 X52.684 Y165.961 F180
M106 S0
M106 S255
G1 X52.85 Y165.997 F180
M106 S0
M106 S255
G1 X53.015 Y166.017 F180
M106 S0
M106 S255
G1 X53.178 Y166.016 F180
M106 S0
M106 S255
G1 X53.339 Y165.991 F180
M106 S0
M106 S255
G1 X53.498 Y165.941 F180
M106 S0
M106 S255
G1 X53.651 Y165.868 F180
M106 S0
M106 S255
G1 X53.798 Y165.778 F180
M106 S0
M106 S255
G1 X53.935 Y165.674 F180
M106 S0
M106 S255
G1 X54.061 Y165.56 F180
M106 S0
M106 S255
G1 X54.177 Y165.435 F180
M106 S0
M106 S255
G1 X54.283 Y165.303 F180
M106 S0
M106 S255
G1 X54.379 Y165.162 F180
M106 S0
M106 S255
G1 X54.464 Y165.016 F180
M106 S0
M106 S255
G1 X54.54 Y164.864 F180
M106 S0
M106 S255
G1 X54.607 Y164.709 F180
M106 S0
M106 S255
G1 X54.664 Y164.55 F180
M106 S0
M106 S255
G1 X54.711 Y164.388 F180
M106 S0
M106 S255
G1 X54.75 Y164.223 F180
M106 S0
M106 S255
G1 X54.781 Y164.057 F180
M106 S0
M106 S255
G1 X54.803 Y163.888 F180
M106 S0
M106 S255
G1 X54.817 Y163.719 F180
M106 S0
M106 S255
G1 X54.823 Y163.548 F180
M106 S0
M106 S255
G1 X54.821 Y163.377 F180
M106 S0
M106 S255
G1 X54.812 Y163.206 F180
M106 S0
M106 S255
G1 X54.796 Y163.035 F180
M106 S0
M106 S255
G1 X54.773 Y162.864 F180
M106 S0
M106 S255
G1 X54.744 Y162.694 F180
M106 S0
M106 S255
G1 X54.708 Y162.525 F180
M106 S0
M106 S255
G1 X54.666 Y162.359 F180
M106 S0
M106 S255
G1 X54.618 Y162.194 F180
M106 S0
M106 S255
G1 X54.564 Y162.031 F180
M106 S0
M106 S255
G1 X54.504 Y161.87 F180
M106 S0
M106 S255
G1 X54.438 Y161.712 F180
M106 S0
M106 S255
G1 X54.366 Y161.557 F180
M106 S0
M106 S255
G1 X54.289 Y161.405 F180
M106 S0
M106 S255
G1 X54.205 Y161.256 F180
M106 S0
M106 S255
G1 X54.116 Y161.11 F180
M106 S0
M106 S255
G1 X54.022 Y160.969 F180
M106 S0
M106 S255
G1 X53.921 Y160.831 F180
M106 S0
M106 S255
G1 X53.816 Y160.698 F180
M106 S0
M106 S255
G1 X53.704 Y160.569 F180
M106 S0
M106 S255
G1 X53.588 Y160.445 F180
M106 S0
M106 S255
G1 X53.466 Y160.325 F180
M106 S0
M106 S255
G1 X53.338 Y160.211 F180
M106 S0
M106 S255
G1 X53.205 Y160.102 F180
M106 S0
M106 S255
G1 X53.068 Y160.0 F180
M106 S0
M106 S255
G1 X52.925 Y159.904 F180
M106 S0
M106 S255
G1 X52.779 Y159.816 F180
M106 S0
M106 S255
G1 X52.628 Y159.737 F180
M106 S0
M106 S255
G1 X52.474 Y159.667 F180
M106 S0
M106 S255
G1 X52.317 Y159.607 F180
M106 S0
M106 S255
G1 X52.156 Y159.559 F180
M106 S0
M106 S255
G1 X51.994 Y159.522 F180
M106 S0
M106 S255
G1 X51.829 Y159.497 F180
M106 S0
M106 S255
G1 X51.662 Y159.485 F180
M106 S0
M106 S255
G1 X51.494 Y159.484 F180
M106 S0
M106 S255
G1 X51.326 Y159.494 F180
M106 S0
M106 S255
G1 X51.157 Y159.514 F180
M106 S0
M106 S255
G1 X50.988 Y159.544 F180
M106 S0
M106 S255
G1 X50.819 Y159.584 F180
M106 S0
M106 S255
G1 X50.652 Y159.632 F180
M106 S0
M106 S255
G1 X50.487 Y159.689 F180
M106 S0
M106 S255
G1 X50.327 Y159.755 F180
M106 S0
M106 S255
G1 X50.173 Y159.831 F180
M106 S0
M106 S255
G1 X50.027 Y159.918 F180
M106 S0
M106 S255
G1 X49.891 Y160.016 F180
M106 S0
M106 S255
G1 X49.768 Y160.125 F180
M106 S0
M106 S255
G1 X49.658 Y160.247 F180
M106 S0
M106 S255
G1 X49.562 Y160.38 F180
M106 S0
M106 S255
G1 X49.479 Y160.522 F180
M106 S0
M106 S255
G1 X49.405 Y160.673 F180
M106 S0
M106 S255
G1 X49.338 Y160.83 F180
M106 S0
M106 S255
G1 X49.277 Y160.991 F180
M106 S0
M106 S255
G1 X49.22 Y161.156 F180
M106 S0
G0 X53.513 Y187.429 F6000
M106 S255
G1 X53.513 Y187.429 F180
M106 S0
M106 S255
G1 X53.789 Y187.103 F180
M106 S0
M106 S255
G1 X54.06 Y186.774 F180
M106 S0
M106 S255
G1 X54.319 Y186.441 F180
M106 S0
M106 S255
G1 X54.561 Y186.101 F180
M106 S0
M106 S255
G1 X54.781 Y185.75 F180
M106 S0
M106 S255
G1 X54.973 Y185.388 F180
M106 S0
M106 S255
G1 X55.086 Y185.128 F180
M106 S0
M106 S255
G1 X55.253 Y184.619 F180
M106 S0
M106 S255
G1 X55.339 Y184.214 F180
M106 S0
M106 S255
G1 X55.39 Y183.799 F180
M106 S0
M106 S255
G1 X55.409 Y183.377 F180
M106 S0
M106 S255
G1 X55.397 Y182.95 F180
M106 S0
M106 S255
G1 X55.356 Y182.52 F180
M106 S0
M106 S255
G1 X55.286 Y182.092 F180
M106 S0
M106 S255
G1 X55.189 Y181.667 F180
M106 S0
M106 S255
G1 X55.067 Y181.248 F180
M106 S0
M106 S255
G1 X54.844 Y180.648 F180
M106 S0
M106 S255
G1 X54.753 Y180.438 F180
M106 S0
M106 S255
G1 X54.563 Y180.052 F180
M106 S0
M106 S255
G1 X54.352 Y179.68 F180
M106 S0
M106 S255
G1 X54.121 Y179.324 F180
M106 S0
M106 S255
G1 X53.871 Y178.985 F180
M106 S0
M106 S255
G1 X53.601 Y178.664 F180
M106 S0
M106 S255
G1 X53.312 Y178.362 F180
M106 S0
M106 S255
G1 X53.004 Y178.08 F180
M106 S0
M106 S255
G1 X52.679 Y177.82 F180
M106 S0
M106 S255
G1 X52.485 Y177.682 F180
M106 S0
M106 S255
G1 X51.978 Y177.37 F180
M106 S0
M106 S255
G1 X51.604 Y177.184 F180
M106 S0
M106 S255
G1 X51.216 Y177.026 F180
M106 S0
M106 S255
G1 X50.815 Y176.899 F180
M106 S0
M106 S255
G1 X50.549 Y176.834 F180
M106 S0
M106 S255
G1 X49.983 Y176.747 F180
M106 S0
M106 S255
G1 X49.559 Y176.73 F180
M106 S0
M106 S255
G1 X49.139 Y176.759 F180
M106 S0
M106 S255
G1 X48.726 Y176.838 F180
M106 S0
M106 S255
G1 X48.371 Y176.955 F180
M106 S0
M106 S255
G1 X47.949 Y177.166 F180
M106 S0
M106 S255
G1 X47.597 Y177.41 F180
M106 S0
M106 S255
G1 X47.281 Y177.699 F180
M106 S0
M106 S255
G1 X47.007 Y178.025 F180
M106 S0
M106 S255
G1 X46.738 Y178.469 F180
M106 S0
M106 S255
G1 X46.614 Y178.759 F180
M106 S0
M106 S255
G1 X46.496 Y179.156 F180
M106 S0
M106 S255
G1 X46.414 Y179.565 F180
M106 S0
M106 S255
G1 X46.358 Y179.983 F180
M106 S0
M106 S255
G1 X46.314 Y180.406 F180
M106 S0
G0 X51.169 Y185.156 F6000
M106 S255
G1 X51.169 Y185.156 F180
M106 S0
M106 S255
G1 X55.39 Y183.804 F180
M106 S0
G0 X51.113 Y182.242 F6000
M106 S255
G1 X51.113 Y182.242 F180
M106 S0
M106 S255
G1 X54.094 Y179.287 F180
M106 S0
G0 X48.81 Y181.149 F6000
M106 S255
G1 X48.81 Y181.149 F180
M106 S0
M106 S255
G1 X50.784 Y176.891 F180
M106 S0
G0 X47.201 Y180.668 F6000
M106 S255
G1 X47.201 Y180.668 F180
M106 S0
M106 S255
G1 X47.425 Y177.567 F180
M106 S0
G0 X51.205 Y187.014 F6000
M106 S255
G1 X51.205 Y187.014 F180
M106 S0
M106 S255
G1 X53.845 Y187.035 F180
M106 S0
G0 X52.156 Y164.169 F6000
M106 S255
G1 X52.156 Y164.169 F180
M106 S0
M106 S255
G1 X54.812 Y163.773 F180
M106 S0
G0 X52.132 Y162.712 F6000
M106 S255
G1 X52.132 Y162.712 F180
M106 S0
M106 S255
G1 X54.142 Y161.152 F180
M106 S0
G0 X51.006 Y161.608 F6000
M106 S255
G1 X51.006 Y161.608 F180
M106 S0
M106 S255
G1 X52.051 Y159.535 F180
M106 S0
G0 X50.003 Y161.354 F6000
M106 S255
G1 X50.003 Y161.354 F180
M106 S0
M106 S255
G1 X50.019 Y159.924 F180
M106 S0
G0 X52.978 Y153.516 F6000
M106 S255
G1 X52.978 Y153.516 F180
M106 S0
M106 S255
G1 X54.849 Y153.571 F180
M106 S0
G0 X52.994 Y152.411 F6000
M106 S255
G1 X52.994 Y152.411 F180
M106 S0
M106 S255
G1 X54.497 Y151.419 F180
M106 S0
G0 X52.228 Y151.744 F6000
M106 S255
G1 X52.228 Y151.744 F180
M106 S0
M106 S255
G1 X53.047 Y150.345 F180
M106 S0
G0 X53.305 Y146.55 F6000
M106 S255
G1 X53.305 Y146.55 F180
M106 S0
M106 S255
G1 X54.804 Y146.515 F180
M106 S0
G0 X53.302 Y147.207 F6000
M106 S255
G1 X53.302 Y147.207 F180
M106 S0
M106 S255
G1 X54.33 Y147.574 F180
M106 S0
G0 X53.308 Y145.783 F6000
M106 S255
G1 X53.308 Y145.783 F180
M106 S0
M106 S255
G1 X54.291 Y144.843 F180
M106 S0
G0 X53.618 Y141.463 F6000
M106 S255
G1 X53.618 Y141.463 F180
M106 S0
M106 S255
G1 X54.924 Y141.491 F180
M106 S0
G0 X53.606 Y140.775 F6000
M106 S255
G1 X53.606 Y140.775 F180
M106 S0
M106 S255
G1 X54.709 Y140.121 F180
M106 S0
G0 X53.913 Y137.167 F6000
M106 S255
G1 X53.913 Y137.167 F180
M106 S0
M106 S255
G1 X54.939 Y137.178 F180
M106 S0
G0 X53.896 Y136.567 F6000
M106 S255
G1 X53.896 Y136.567 F180
M106 S0
M106 S255
G1 X54.427 Y136.047 F180
M106 S0
G0 X54.182 Y133.535 F6000
M106 S255
G1 X54.182 Y133.535 F180
M106 S0
M106 S255
G1 X55.101 Y133.62 F180
M106 S0
G0 X54.182 Y132.895 F6000
M106 S255
G1 X54.182 Y132.895 F180
M106 S0
M106 S255
G1 X54.6 Y132.517 F180
M106 S0
G0 X54.357 Y130.227 F6000
M106 S255
G1 X54.357 Y130.227 F180
M106 S0
M106 S255
G1 X55.336 Y130.324 F180
M106 S0
G0 X56.427 Y174.82 F6000
M106 S255
G1 X56.427 Y174.82 F180
M106 S0
M106 S255
G1 X52.81 Y174.934 F180
M106 S0
M106 S255
G1 X50.617 Y176.85 F180
M106 S0
G0 X55.375 Y182.72 F6000
M106 S255
G1 X55.375 Y182.72 F180
M106 S0
M106 S255
G1 X57.168 Y180.463 F180
M106 S0
M106 S255
G1 X57.851 Y177.186 F180
M106 S0
G0 X54.812 Y163.773 F6000
M106 S255
G1 X54.812 Y163.773 F180
M106 S0
M106 S255
G1 X55.971 Y162.422 F180
M106 S0
M106 S255
G1 X56.484 Y160.74 F180
M106 S0
G0 X55.544 Y159.059 F6000
M106 S255
G1 X55.544 Y159.059 F180
M106 S0
M106 S255
G1 X53.493 Y158.945 F180
M106 S0
M106 S255
G1 X52.054 Y159.756 F180
M106 S0
G0 X54.858 Y153.521 F6000
M106 S255
G1 X54.858 Y153.521 F180
M106 S0
M106 S255
G1 X55.88 Y152.427 F180
M106 S0
G0 X55.185 Y150.25 F6000
M106 S255
G1 X55.185 Y150.25 F180
M106 S0
M106 S255
G1 X53.762 Y150.09 F180
M106 S0
M106 S255
G1 X53.372 Y150.398 F180
M106 S0
G0 X54.881 Y141.667 F6000
M106 S255
G1 X54.881 Y141.667 F180
M106 S0
M106 S255
G1 X54.952 Y141.66 F180
M106 S0
M106 S255
G1 X55.082 Y141.64 F180
M106 S0
M106 S255
G1 X55.207 Y141.61 F180
M106 S0
M106 S255
G1 X55.324 Y141.569 F180
M106 S0
M106 S255
G1 X55.469 Y141.489 F180
M106 S0
M106 S255
G1 X55.529 Y141.44 F180
M106 S0
M106 S255
G1 X55.613 Y141.349 F180
M106 S0
M106 S255
G1 X55.685 Y141.244 F180
M106 S0
M106 S255
G1 X55.744 Y141.127 F180
M106 S0
M106 S255
G1 X55.79 Y141.0 F180
M106 S0
M106 S255
G1 X55.822 Y140.867 F180
M106 S0
M106 S255
G1 X55.84 Y140.73 F180
M106 S0
M106 S255
G1 X55.844 Y140.612 F180
M106 S0
M106 S255
G1 X55.833 Y140.453 F180
M106 S0
M106 S255
G1 X55.808 Y140.318 F180
M106 S0
M106 S255
G1 X55.77 Y140.187 F180
M106 S0
M106 S255
G1 X55.718 Y140.062 F180
M106 S0
M106 S255
G1 X55.655 Y139.945 F180
M106 S0
M106 S255
G1 X55.58 Y139.837 F180
M106 S0
M106 S255
G1 X55.493 Y139.739 F180
M106 S0
M106 S255
G1 X55.396 Y139.654 F180
M106 S0
M106 S255
G1 X55.272 Y139.573 F180
M106 S0
M106 S255
G1 X55.173 Y139.527 F180
M106 S0
M106 S255
G1 X55.049 Y139.487 F180
M106 S0
M106 S255
G1 X54.921 Y139.462 F180
M106 S0
M106 S255
G1 X54.79 Y139.451 F180
M106 S0
M106 S255
G1 X54.658 Y139.455 F180
M106 S0
M106 S255
G1 X54.528 Y139.473 F180
M106 S0
M106 S255
G1 X54.413 Y139.502 F180
M106 S0
M106 S255
G1 X54.283 Y139.549 F180
M106 S0
M106 S255
G1 X54.168 Y139.604 F180
M106 S0
M106 S255
G1 X54.057 Y139.667 F180
M106 S0
M106 S255
G1 X53.99 Y139.709 F180
M106 S0
G0 X54.766 Y146.796 F6000
M106 S255
G1 X54.766 Y146.796 F180
M106 S0
M106 S255
G1 X54.771 Y146.794 F180
M106 S0
M106 S255
G1 X54.873 Y146.75 F180
M106 S0
M106 S255
G1 X54.972 Y146.704 F180
M106 S0
M106 S255
G1 X55.069 Y146.655 F180
M106 S0
M106 S255
G1 X55.163 Y146.603 F180
M106 S0
M106 S255
G1 X55.252 Y146.546 F180
M106 S0
M106 S255
G1 X55.337 Y146.482 F180
M106 S0
M106 S255
G1 X55.4 Y146.427 F180
M106 S0
M106 S255
G1 X55.487 Y146.336 F180
M106 S0
M106 S255
G1 X55.552 Y146.252 F180
M106 S0
M106 S255
G1 X55.611 Y146.162 F180
M106 S0
M106 S255
G1 X55.663 Y146.067 F180
M106 S0
M106 S255
G1 X55.708 Y145.967 F180
M106 S0
M106 S255
G1 X55.747 Y145.863 F180
M106 S0
M106 S255
G1 X55.778 Y145.755 F180
M106 S0
M106 S255
G1 X55.81 Y145.606 F180
M106 S0
M106 S255
G1 X55.821 Y145.533 F180
M106 S0
M106 S255
G1 X55.833 Y145.419 F180
M106 S0
M106 S255
G1 X55.836 Y145.305 F180
M106 S0
M106 S255
G1 X55.832 Y145.191 F180
M106 S0
M106 S255
G1 X55.82 Y145.08 F180
M106 S0
M106 S255
G1 X55.798 Y144.971 F180
M106 S0
M106 S255
G1 X55.768 Y144.866 F180
M106 S0
M106 S255
G1 X55.729 Y144.765 F180
M106 S0
M106 S255
G1 X55.679 Y144.67 F180
M106 S0
M106 S255
G1 X55.596 Y144.553 F180
M106 S0
M106 S255
G1 X55.55 Y144.502 F180
M106 S0
M106 S255
G1 X55.47 Y144.43 F180
M106 S0
M106 S255
G1 X55.382 Y144.365 F180
M106 S0
M106 S255
G1 X55.288 Y144.309 F180
M106 S0
M106 S255
G1 X55.189 Y144.262 F180
M106 S0
M106 S255
G1 X55.061 Y144.214 F180
M106 S0
M106 S255
G1 X54.984 Y144.192 F180
M106 S0
M106 S255
G1 X54.879 Y144.169 F180
M106 S0
M106 S255
G1 X54.773 Y144.154 F180
M106 S0
M106 S255
G1 X54.666 Y144.147 F180
M106 S0
M106 S255
G1 X54.557 Y144.146 F180
M106 S0
M106 S255
G1 X54.448 Y144.152 F180
M106 S0
M106 S255
G1 X54.366 Y144.161 F180
M106 S0
M106 S255
G1 X54.227 Y144.183 F180
M106 S0
M106 S255
G1 X54.12 Y144.21 F180
M106 S0
M106 S255
G1 X54.019 Y144.249 F180
M106 S0
M106 S255
G1 X53.902 Y144.321 F180
M106 S0
M106 S255
G1 X53.85 Y144.37 F180
M106 S0
M106 S255
G1 X53.784 Y144.453 F180
M106 S0
M106 S255
G1 X53.725 Y144.545 F180
M106 S0
M106 S255
G1 X53.705 Y144.582 F180
M106 S0
G0 X55.88 Y152.427 F6000
M106 S255
G1 X55.88 Y152.427 F180
M106 S0
M106 S255
G1 X55.911 Y152.321 F180
M106 S0
M106 S255
G1 X55.94 Y152.215 F180
M106 S0
M106 S255
G1 X55.968 Y152.108 F180
M106 S0
M106 S255
G1 X55.993 Y152.001 F180
M106 S0
M106 S255
G1 X56.013 Y151.894 F180
M106 S0
M106 S255
G1 X56.029 Y151.786 F180
M106 S0
M106 S255
G1 X56.039 Y151.678 F180
M106 S0
M106 S255
G1 X56.04 Y151.535 F180
M106 S0
M106 S255
G1 X56.036 Y151.458 F180
M106 S0
M106 S255
G1 X56.022 Y151.347 F180
M106 S0
M106 S255
G1 X56.001 Y151.237 F180
M106 S0
M106 S255
G1 X55.971 Y151.129 F180
M106 S0
M106 S255
G1 X55.933 Y151.023 F180
M106 S0
M106 S255
G1 X55.888 Y150.921 F180
M106 S0
M106 S255
G1 X55.834 Y150.824 F180
M106 S0
M106 S255
G1 X55.774 Y150.732 F180
M106 S0
M106 S255
G1 X55.702 Y150.642 F180
M106 S0
M106 S255
G1 X55.63 Y150.569 F180
M106 S0
M106 S255
G1 X55.548 Y150.497 F180
M106 S0
M106 S255
G1 X55.462 Y150.431 F180
M106 S0
M106 S255
G1 X55.371 Y150.368 F180
M106 S0
M106 S255
G1 X55.279 Y150.308 F180
M106 S0
M106 S255
G1 X55.185 Y150.25 F180
M106 S0
G0 X56.484 Y160.74 F6000
M106 S255
G1 X56.484 Y160.74 F180
M106 S0
M106 S255
G1 X56.476 Y160.652 F180
M106 S0
M106 S255
G1 X56.468 Y160.564 F180
M106 S0
M106 S255
G1 X56.459 Y160.477 F180
M106 S0
M106 S255
G1 X56.448 Y160.39 F180
M106 S0
M106 S255
G1 X56.435 Y160.303 F180
M106 S0
M106 S255
G1 X56.419 Y160.217 F180
M106 S0
M106 S255
G1 X56.399 Y160.131 F180
M106 S0
M106 S255
G1 X56.37 Y160.028 F180
M106 S0
M106 S255
G1 X56.348 Y159.962 F180
M106 S0
M106 S255
G1 X56.315 Y159.88 F180
M106 S0
M106 S255
G1 X56.279 Y159.799 F180
M106 S0
M106 S255
G1 X56.237 Y159.72 F180
M106 S0
M106 S255
G1 X56.192 Y159.644 F180
M106 S0
M106 S255
G1 X56.142 Y159.57 F180
M106 S0
M106 S255
G1 X56.088 Y159.499 F180
M106 S0
M106 S255
G1 X56.03 Y159.433 F180
M106 S0
M106 S255
G1 X55.971 Y159.372 F180
M106 S0
M106 S255
G1 X55.904 Y159.311 F180
M106 S0
M106 S255
G1 X55.836 Y159.256 F180
M106 S0
M106 S255
G1 X55.765 Y159.204 F180
M106 S0
M106 S255
G1 X55.692 Y159.155 F180
M106 S0
M106 S255
G1 X55.619 Y159.106 F180
M106 S0
M106 S255
G1 X55.544 Y159.059 F180
M106 S0
G0 X55.971 Y162.422 F6000
M106 S255
G1 X55.971 Y162.422 F180
M106 S0
M106 S255
G1 X56.002 Y162.246 F180
M106 S0
M106 S255
G1 X56.032 Y162.07 F180
M106 S0
M106 S255
G1 X56.058 Y161.894 F180
M106 S0
M106 S255
G1 X56.079 Y161.718 F180
M106 S0
M106 S255
G1 X56.094 Y161.543 F180
M106 S0
M106 S255
G1 X56.101 Y161.369 F180
M106 S0
M106 S255
G1 X56.099 Y161.194 F180
M106 S0
M106 S255
G1 X56.085 Y161.025 F180
M106 S0
M106 S255
G1 X56.058 Y160.848 F180
M106 S0
M106 S255
G1 X56.02 Y160.677 F180
M106 S0
M106 S255
G1 X55.969 Y160.508 F180
M106 S0
M106 S255
G1 X55.906 Y160.342 F180
M106 S0
M106 S255
G1 X55.832 Y160.18 F180
M106 S0
M106 S255
G1 X55.747 Y160.022 F180
M106 S0
M106 S255
G1 X55.601 Y159.8 F180
M106 S0
M106 S255
G1 X55.544 Y159.724 F180
M106 S0
M106 S255
G1 X55.427 Y159.585 F180
M106 S0
M106 S255
G1 X55.301 Y159.455 F180
M106 S0
M106 S255
G1 X55.166 Y159.337 F180
M106 S0
M106 S255
G1 X55.023 Y159.232 F180
M106 S0
M106 S255
G1 X54.873 Y159.142 F180
M106 S0
M106 S255
G1 X54.69 Y159.059 F180
M106 S0
M106 S255
G1 X54.552 Y159.014 F180
M106 S0
M106 S255
G1 X54.384 Y158.977 F180
M106 S0
M106 S255
G1 X54.211 Y158.953 F180
M106 S0
M106 S255
G1 X54.035 Y158.941 F180
M106 S0
M106 S255
G1 X53.856 Y158.938 F180
M106 S0
M106 S255
G1 X53.675 Y158.94 F180
M106 S0
M106 S255
G1 X53.493 Y158.945 F180
M106 S0
G0 X57.168 Y180.463 F6000
M106 S255
G1 X57.168 Y180.463 F180
M106 S0
M106 S255
G1 X57.176 Y180.226 F180
M106 S0
M106 S255
G1 X57.184 Y179.99 F180
M106 S0
M106 S255
G1 X57.19 Y179.753 F180
M106 S0
M106 S255
G1 X57.193 Y179.517 F180
M106 S0
M106 S255
G1 X57.191 Y179.281 F180
M106 S0
M106 S255
G1 X57.185 Y179.045 F180
M106 S0
M106 S255
G1 X57.172 Y178.81 F180
M106 S0
M106 S255
G1 X57.153 Y178.575 F180
M106 S0
M106 S255
G1 X57.111 Y178.24 F180
M106 S0
M106 S255
G1 X57.089 Y178.107 F180
M106 S0
M106 S255
G1 X57.042 Y177.875 F180
M106 S0
M106 S255
G1 X56.985 Y177.644 F180
M106 S0
M106 S255
G1 X56.917 Y177.417 F180
M106 S0
M106 S255
G1 X56.837 Y177.193 F180
M106 S0
M106 S255
G1 X56.745 Y176.975 F180
M106 S0
M106 S255
G1 X56.64 Y176.762 F180
M106 S0
M106 S255
G1 X56.541 Y176.587 F180
M106 S0
M106 S255
G1 X56.39 Y176.357 F180
M106 S0
M106 S255
G1 X56.244 Y176.168 F180
M106 S0
M106 S255
G1 X56.086 Y175.989 F180
M106 S0
M106 S255
G1 X55.917 Y175.821 F180
M106 S0
M106 S255
G1 X55.736 Y175.667 F180
M106 S0
M106 S255
G1 X55.544 Y175.526 F180
M106 S0
M106 S255
G1 X55.373 Y175.418 F180
M106 S0
M106 S255
G1 X55.133 Y175.292 F180
M106 S0
M106 S255
G1 X54.914 Y175.199 F180
M106 S0
M106 S255
G1 X54.69 Y175.121 F180
M106 S0
M106 S255
G1 X54.46 Y175.057 F180
M106 S0
M106 S255
G1 X54.227 Y175.006 F180
M106 S0
M106 S255
G1 X53.991 Y174.969 F180
M106 S0
M106 S255
G1 X53.754 Y174.944 F180
M106 S0
M106 S255
G1 X53.607 Y174.934 F180
M106 S0
M106 S255
G1 X53.281 Y174.926 F180
M106 S0
M106 S255
G1 X53.045 Y174.928 F180
M106 S0
M106 S255
G1 X52.81 Y174.934 F180
M106 S0
G0 X57.851 Y177.186 F6000
M106 S255
G1 X57.851 Y177.186 F180
M106 S0
M106 S255
G1 X57.822 Y177.016 F180
M106 S0
M106 S255
G1 X57.791 Y176.847 F180
M106 S0
M106 S255
G1 X57.756 Y176.679 F180
M106 S0
M106 S255
G1 X57.717 Y176.515 F180
M106 S0
M106 S255
G1 X57.671 Y176.354 F180
M106 S0
M106 S255
G1 X57.617 Y176.198 F180
M106 S0
M106 S255
G1 X57.553 Y176.048 F180
M106 S0
M106 S255
G1 X57.509 Y175.96 F180
M106 S0
M106 S255
G1 X57.391 Y175.766 F180
M106 S0
M106 S255
G1 X57.294 Y175.635 F180
M106 S0
M106 S255
G1 X57.187 Y175.509 F180
M106 S0
M106 S255
G1 X57.073 Y175.387 F180
M106 S0
M106 S255
G1 X56.951 Y175.269 F180
M106 S0
M106 S255
G1 X56.825 Y175.154 F180
M106 S0
M106 S255
G1 X56.695 Y175.042 F180
M106 S0
M106 S255
G1 X56.561 Y174.93 F180
M106 S0
M106 S255
G1 X56.427 Y174.82 F180
M106 S0
G0 X55.62 Y119.101 F6000
M106 S255
G1 X55.62 Y119.101 F180
M106 S0
M106 S255
G1 X55.709 Y119.109 F180
M106 S0
M106 S255
G1 X55.803 Y119.116 F180
M106 S0
M106 S255
G1 X55.897 Y119.122 F180
M106 S0
M106 S255
G1 X55.991 Y119.126 F180
M106 S0
M106 S255
G1 X56.083 Y119.128 F180
M106 S0
M106 S255
G1 X56.177 Y119.126 F180
M106 S0
M106 S255
G1 X56.27 Y119.122 F180
M106 S0
M106 S255
G1 X56.364 Y119.115 F180
M106 S0
M106 S255
G1 X56.459 Y119.105 F180
M106 S0
M106 S255
G1 X56.554 Y119.092 F180
M106 S0
M106 S255
G1 X56.656 Y119.076 F180
M106 S0
M106 S255
G1 X56.754 Y119.053 F180
M106 S0
M106 S255
G1 X56.848 Y119.022 F180
M106 S0
M106 S255
G1 X56.934 Y118.979 F180
M106 S0
M106 S255
G1 X57.006 Y118.921 F180
M106 S0
M106 S255
G1 X57.049 Y118.868 F180
M106 S0
M106 S255
G1 X57.1 Y118.753 F180
M106 S0
M106 S255
G1 X57.118 Y118.651 F180
M106 S0
M106 S255
G1 X57.117 Y118.548 F180
M106 S0
M106 S255
G1 X57.095 Y118.453 F180
M106 S0
M106 S255
G1 X57.061 Y118.385 F180
M106 S0
M106 S255
G1 X56.99 Y118.315 F180
M106 S0
M106 S255
G1 X56.912 Y118.276 F180
M106 S0
M106 S255
G1 X56.82 Y118.254 F180
M106 S0
M106 S255
G1 X56.718 Y118.245 F180
M106 S0
M106 S255
G1 X56.611 Y118.247 F180
M106 S0
M106 S255
G1 X56.501 Y118.255 F180
M106 S0
M106 S255
G1 X56.401 Y118.267 F180
M106 S0
M106 S255
G1 X56.287 Y118.284 F180
M106 S0
M106 S255
G1 X56.185 Y118.3 F180
M106 S0
M106 S255
G1 X56.087 Y118.318 F180
M106 S0
M106 S255
G1 X55.991 Y118.337 F180
M106 S0
M106 S255
G1 X55.899 Y118.357 F180
M106 S0
M106 S255
G1 X55.808 Y118.378 F180
M106 S0
M106 S255
G1 X55.72 Y118.4 F180
M106 S0
M106 S255
G1 X55.644 Y118.419 F180
M106 S0
G0 X55.279 Y121.93 F6000
M106 S255
G1 X55.279 Y121.93 F180
M106 S0
M106 S255
G1 X55.292 Y121.931 F180
M106 S0
M106 S255
G1 X55.386 Y121.936 F180
M106 S0
M106 S255
G1 X55.48 Y121.941 F180
M106 S0
M106 S255
G1 X55.574 Y121.944 F180
M106 S0
M106 S255
G1 X55.669 Y121.947 F180
M106 S0
M106 S255
G1 X55.765 Y121.949 F180
M106 S0
M106 S255
G1 X55.861 Y121.95 F180
M106 S0
M106 S255
G1 X55.987 Y121.949 F180
M106 S0
M106 S255
G1 X56.055 Y121.947 F180
M106 S0
M106 S255
G1 X56.153 Y121.942 F180
M106 S0
M106 S255
G1 X56.25 Y121.932 F180
M106 S0
M106 S255
G1 X56.344 Y121.914 F180
M106 S0
M106 S255
G1 X56.435 Y121.888 F180
M106 S0
M106 S255
G1 X56.553 Y121.831 F180
M106 S0
M106 S255
G1 X56.6 Y121.799 F180
M106 S0
M106 S255
G1 X56.672 Y121.735 F180
M106 S0
M106 S255
G1 X56.731 Y121.658 F180
M106 S0
M106 S255
G1 X56.788 Y121.53 F180
M106 S0
M106 S255
G1 X56.8 Y121.472 F180
M106 S0
M106 S255
G1 X56.806 Y121.369 F180
M106 S0
M106 S255
G1 X56.791 Y121.268 F180
M106 S0
M106 S255
G1 X56.756 Y121.177 F180
M106 S0
M106 S255
G1 X56.7 Y121.103 F180
M106 S0
M106 S255
G1 X56.626 Y121.055 F180
M106 S0
M106 S255
G1 X56.536 Y121.027 F180
M106 S0
M106 S255
G1 X56.436 Y121.013 F180
M106 S0
M106 S255
G1 X56.34 Y121.008 F180
M106 S0
M106 S255
G1 X56.232 Y121.007 F180
M106 S0
M106 S255
G1 X56.133 Y121.01 F180
M106 S0
M106 S255
G1 X56.035 Y121.015 F180
M106 S0
M106 S255
G1 X55.938 Y121.024 F180
M106 S0
M106 S255
G1 X55.843 Y121.034 F180
M106 S0
M106 S255
G1 X55.749 Y121.047 F180
M106 S0
M106 S255
G1 X55.656 Y121.062 F180
M106 S0
M106 S255
G1 X55.564 Y121.079 F180
M106 S0
M106 S255
G1 X55.473 Y121.097 F180
M106 S0
M106 S255
G1 X55.382 Y121.116 F180
M106 S0
M106 S255
G1 X55.292 Y121.136 F180
M106 S0
M106 S255
G1 X55.268 Y121.141 F180
M106 S0
G0 X55.93 Y124.659 F6000
M106 S255
G1 X55.93 Y124.659 F180
M106 S0
M106 S255
G1 X55.971 Y124.665 F180
M106 S0
M106 S255
G1 X56.043 Y124.67 F180
M106 S0
M106 S255
G1 X56.113 Y124.667 F180
M106 S0
M106 S255
G1 X56.207 Y124.65 F180
M106 S0
M106 S255
G1 X56.251 Y124.635 F180
M106 S0
M106 S255
G1 X56.316 Y124.604 F180
M106 S0
M106 S255
G1 X56.378 Y124.563 F180
M106 S0
M106 S255
G1 X56.434 Y124.515 F180
M106 S0
M106 S255
G1 X56.484 Y124.459 F180
M106 S0
M106 S255
G1 X56.527 Y124.396 F180
M106 S0
M106 S255
G1 X56.548 Y124.356 F180
M106 S0
M106 S255
G1 X56.583 Y124.256 F180
M106 S0
M106 S255
G1 X56.595 Y124.182 F180
M106 S0
M106 S255
G1 X56.597 Y124.107 F180
M106 S0
M106 S255
G1 X56.588 Y124.033 F180
M106 S0
M106 S255
G1 X56.567 Y123.963 F180
M106 S0
M106 S255
G1 X56.548 Y123.922 F180
M106 S0
M106 S255
G1 X56.491 Y123.839 F180
M106 S0
M106 S255
G1 X56.438 Y123.788 F180
M106 S0
M106 S255
G1 X56.378 Y123.744 F180
M106 S0
M106 S255
G1 X56.314 Y123.707 F180
M106 S0
M106 S255
G1 X56.266 Y123.687 F180
M106 S0
M106 S255
G1 X56.178 Y123.661 F180
M106 S0
M106 S255
G1 X56.109 Y123.649 F180
M106 S0
M106 S255
G1 X56.038 Y123.645 F180
M106 S0
M106 S255
G1 X55.966 Y123.646 F180
M106 S0
M106 S255
G1 X55.894 Y123.653 F180
M106 S0
M106 S255
G1 X55.828 Y123.663 F180
M106 S0
G0 X55.606 Y127.455 F6000
M106 S255
G1 X55.606 Y127.455 F180
M106 S0
M106 S255
G1 X55.692 Y127.433 F180
M106 S0
M106 S255
G1 X55.779 Y127.407 F180
M106 S0
M106 S255
G1 X55.863 Y127.375 F180
M106 S0
M106 S255
G1 X55.944 Y127.336 F180
M106 S0
M106 S255
G1 X56.019 Y127.29 F180
M106 S0
M106 S255
G1 X56.1 Y127.225 F180
M106 S0
M106 S255
G1 X56.153 Y127.169 F180
M106 S0
M106 S255
G1 X56.209 Y127.095 F180
M106 S0
M106 S255
G1 X56.255 Y127.013 F180
M106 S0
M106 S255
G1 X56.289 Y126.926 F180
M106 S0
M106 S255
G1 X56.31 Y126.835 F180
M106 S0
M106 S255
G1 X56.315 Y126.743 F180
M106 S0
M106 S255
G1 X56.311 Y126.696 F180
M106 S0
M106 S255
G1 X56.275 Y126.562 F180
M106 S0
M106 S255
G1 X56.232 Y126.48 F180
M106 S0
M106 S255
G1 X56.177 Y126.408 F180
M106 S0
M106 S255
G1 X56.135 Y126.367 F180
M106 S0
M106 S255
G1 X56.042 Y126.307 F180
M106 S0
M106 S255
G1 X55.966 Y126.279 F180
M106 S0
M106 S255
G1 X55.883 Y126.264 F180
M106 S0
M106 S255
G1 X55.796 Y126.26 F180
M106 S0
M106 S255
G1 X55.704 Y126.265 F180
M106 S0
M106 S255
G1 X55.609 Y126.278 F180
M106 S0
M106 S255
G1 X55.511 Y126.298 F180
M106 S0
M106 S255
G1 X55.411 Y126.322 F180
M106 S0
M106 S255
G1 X55.392 Y126.327 F180
M106 S0
G0 X55.213 Y130.686 F6000
M106 S255
G1 X55.213 Y130.686 F180
M106 S0
M106 S255
G1 X55.27 Y130.666 F180
M106 S0
M106 S255
G1 X55.349 Y130.635 F180
M106 S0
M106 S255
G1 X55.426 Y130.603 F180
M106 S0
M106 S255
G1 X55.503 Y130.568 F180
M106 S0
M106 S255
G1 X55.577 Y130.53 F180
M106 S0
M106 S255
G1 X55.649 Y130.489 F180
M106 S0
M106 S255
G1 X55.718 Y130.443 F180
M106 S0
M106 S255
G1 X55.779 Y130.398 F180
M106 S0
M106 S255
G1 X55.848 Y130.338 F180
M106 S0
M106 S255
G1 X55.906 Y130.278 F180
M106 S0
M106 S255
G1 X55.958 Y130.211 F180
M106 S0
M106 S255
G1 X56.001 Y130.138 F180
M106 S0
M106 S255
G1 X56.025 Y130.082 F180
M106 S0
M106 S255
G1 X56.055 Y129.97 F180
M106 S0
M106 S255
G1 X56.065 Y129.879 F180
M106 S0
M106 S255
G1 X56.062 Y129.788 F180
M106 S0
M106 S255
G1 X56.047 Y129.701 F180
M106 S0
M106 S255
G1 X56.02 Y129.62 F180
M106 S0
M106 S255
G1 X55.955 Y129.519 F180
M106 S0
M106 S255
G1 X55.926 Y129.491 F180
M106 S0
M106 S255
G1 X55.86 Y129.447 F180
M106 S0
M106 S255
G1 X55.784 Y129.416 F180
M106 S0
M106 S255
G1 X55.701 Y129.396 F180
M106 S0
M106 S255
G1 X55.612 Y129.386 F180
M106 S0
M106 S255
G1 X55.521 Y129.384 F180
M106 S0
M106 S255
G1 X55.429 Y129.39 F180
M106 S0
M106 S255
G1 X55.334 Y129.401 F180
M106 S0
M106 S255
G1 X55.251 Y129.416 F180
M106 S0
M106 S255
G1 X55.167 Y129.435 F180
M106 S0
M106 S255
G1 X55.086 Y129.456 F180
M106 S0
M106 S255
G1 X55.055 Y129.465 F180
M106 S0
G0 X55.083 Y133.816 F6000
M106 S255
G1 X55.083 Y133.816 F180
M106 S0
M106 S255
G1 X55.136 Y133.778 F180
M106 S0
M106 S255
G1 X55.21 Y133.724 F180
M106 S0
M106 S255
G1 X55.284 Y133.671 F180
M106 S0
M106 S255
G1 X55.358 Y133.617 F180
M106 S0
M106 S255
G1 X55.432 Y133.562 F180
M106 S0
M106 S255
G1 X55.521 Y133.494 F180
M106 S0
M106 S255
G1 X55.58 Y133.449 F180
M106 S0
M106 S255
G1 X55.652 Y133.39 F180
M106 S0
M106 S255
G1 X55.719 Y133.326 F180
M106 S0
M106 S255
G1 X55.778 Y133.257 F180
M106 S0
M106 S255
G1 X55.837 Y133.154 F180
M106 S0
M106 S255
G1 X55.86 Y133.092 F180
M106 S0
M106 S255
G1 X55.88 Y132.997 F180
M106 S0
M106 S255
G1 X55.886 Y132.898 F180
M106 S0
M106 S255
G1 X55.878 Y132.799 F180
M106 S0
M106 S255
G1 X55.856 Y132.702 F180
M106 S0
M106 S255
G1 X55.821 Y132.612 F180
M106 S0
M106 S255
G1 X55.772 Y132.532 F180
M106 S0
M106 S255
G1 X55.72 Y132.474 F180
M106 S0
M106 S255
G1 X55.638 Y132.416 F180
M106 S0
M106 S255
G1 X55.554 Y132.381 F180
M106 S0
M106 S255
G1 X55.463 Y132.36 F180
M106 S0
M106 S255
G1 X55.367 Y132.351 F180
M106 S0
M106 S255
G1 X55.269 Y132.355 F180
M106 S0
M106 S255
G1 X55.17 Y132.368 F180
M106 S0
M106 S255
G1 X55.029 Y132.404 F180
M106 S0
M106 S255
G1 X54.982 Y132.42 F180
M106 S0
M106 S255
G1 X54.896 Y132.456 F180
M106 S0
M106 S255
G1 X54.814 Y132.497 F180
M106 S0
M106 S255
G1 X54.735 Y132.542 F180
M106 S0
M106 S255
G1 X54.713 Y132.556 F180
M106 S0
G0 X54.891 Y137.615 F6000
M106 S255
G1 X54.891 Y137.615 F180
M106 S0
M106 S255
G1 X54.926 Y137.59 F180
M106 S0
M106 S255
G1 X55.001 Y137.535 F180
M106 S0
M106 S255
G1 X55.075 Y137.479 F180
M106 S0
M106 S255
G1 X55.149 Y137.423 F180
M106 S0
M106 S255
G1 X55.223 Y137.365 F180
M106 S0
M106 S255
G1 X55.296 Y137.306 F180
M106 S0
M106 S255
G1 X55.38 Y137.236 F180
M106 S0
M106 S255
G1 X55.44 Y137.184 F180
M106 S0
M106 S255
G1 X55.509 Y137.12 F180
M106 S0
M106 S255
G1 X55.575 Y137.052 F180
M106 S0
M106 S255
G1 X55.635 Y136.98 F180
M106 S0
M106 S255
G1 X55.688 Y136.904 F180
M106 S0
M106 S255
G1 X55.733 Y136.821 F180
M106 S0
M106 S255
G1 X55.755 Y136.767 F180
M106 S0
M106 S255
G1 X55.79 Y136.637 F180
M106 S0
M106 S255
G1 X55.802 Y136.538 F180
M106 S0
M106 S255
G1 X55.802 Y136.437 F180
M106 S0
M106 S255
G1 X55.792 Y136.337 F180
M106 S0
M106 S255
G1 X55.77 Y136.24 F180
M106 S0
M106 S255
G1 X55.736 Y136.148 F180
M106 S0
M106 S255
G1 X55.691 Y136.064 F180
M106 S0
M106 S255
G1 X55.615 Y135.969 F180
M106 S0
M106 S255
G1 X55.568 Y135.929 F180
M106 S0
M106 S255
G1 X55.491 Y135.879 F180
M106 S0
M106 S255
G1 X55.406 Y135.839 F180
M106 S0
M106 S255
G1 X55.316 Y135.808 F180
M106 S0
M106 S255
G1 X55.216 Y135.781 F180
M106 S0
M106 S255
G1 X55.126 Y135.762 F180
M106 S0
M106 S255
G1 X55.03 Y135.748 F180
M106 S0
M106 S255
G1 X54.935 Y135.74 F180
M106 S0
M106 S255
G1 X54.84 Y135.74 F180
M106 S0
M106 S255
G1 X54.748 Y135.749 F180
M106 S0
M106 S255
G1 X54.619 Y135.781 F180
M106 S0
M106 S255
G1 X54.575 Y135.799 F180
M106 S0
M106 S255
G1 X54.494 Y135.841 F180
M106 S0
M106 S255
G1 X54.417 Y135.892 F180
M106 S0
M106 S255
G1 X54.342 Y135.949 F180
M106 S0
M106 S255
G1 X54.298 Y135.986 F180
M106 S0
G0 X56.438 Y108.213 F6000
M106 S255
G1 X56.438 Y108.213 F180
M106 S0
M106 S255
G1 X90.903 Y113.719 F180
M106 S0
G0 X95.017 Y115.22 F6000
M106 S255
G1 X95.017 Y115.22 F180
M106 S0
M106 S255
G1 X56.138 Y110.704 F180
M106 S0
G0 X56.304 Y113.438 F6000
M106 S255
G1 X56.304 Y113.438 F180
M106 S0
M106 S255
G1 X97.36 Y115.965 F180
M106 S0
G0 X55.825 Y116.081 F6000
M106 S255
G1 X55.825 Y116.081 F180
M106 S0
M106 S255
G1 X98.935 Y116.5 F180
M106 S0
G0 X100.284 Y117.021 F6000
M106 S255
G1 X100.284 Y117.021 F180
M106 S0
M106 S255
G1 X57.11 Y118.697 F180
M106 S0
G0 X56.804 Y121.402 F6000
M106 S255
G1 X56.804 Y121.402 F180
M106 S0
M106 S255
G1 X101.504 Y117.429 F180
M106 S0
G0 X102.525 Y117.777 F6000
M106 S255
G1 X102.525 Y117.777 F180
M106 S0
M106 S255
G1 X56.556 Y123.94 F180
M106 S0
G0 X56.543 Y124.364 F6000
M106 S255
G1 X56.543 Y124.364 F180
M106 S0
M106 S255
G1 X102.525 Y117.777 F180
M106 S0
G0 X56.218 Y126.462 F6000
M106 S255
G1 X56.218 Y126.462 F180
M106 S0
M106 S255
G1 X103.421 Y118.102 F180
M106 S0
M106 S255
G1 X56.274 Y126.963 F180
M106 S0
G0 X55.928 Y129.494 F6000
M106 S255
G1 X55.928 Y129.494 F180
M106 S0
M106 S255
G1 X58.452 Y128.935 F180
M106 S0
M106 S255
G1 X61.313 Y128.301 F180
M106 S0
M106 S255
G1 X64.174 Y127.666 F180
M106 S0
M106 S255
G1 X67.035 Y127.028 F180
M106 S0
M106 S255
G1 X69.895 Y126.389 F180
M106 S0
M106 S255
G1 X72.754 Y125.745 F180
M106 S0
M106 S255
G1 X75.613 Y125.098 F180
M106 S0
M106 S255
G1 X78.47 Y124.447 F180
M106 S0
M106 S255
G1 X80.748 Y123.923 F180
M106 S0
M106 S255
G1 X84.181 Y123.128 F180
M106 S0
M106 S255
G1 X87.035 Y122.46 F180
M106 S0
M106 S255
G1 X89.888 Y121.789 F180
M106 S0
M106 S255
G1 X92.739 Y121.114 F180
M106 S0
M106 S255
G1 X95.591 Y120.436 F180
M106 S0
M106 S255
G1 X98.442 Y119.756 F180
M106 S0
M106 S255
G1 X101.292 Y119.075 F180
M106 S0
M106 S255
G1 X104.143 Y118.393 F180
M106 S0
G0 X56.021 Y130.091 F6000
M106 S255
G1 X56.021 Y130.091 F180
M106 S0
M106 S255
G1 X58.603 Y129.478 F180
M106 S0
M106 S255
G1 X61.475 Y128.797 F180
M106 S0
M106 S255
G1 X64.348 Y128.116 F180
M106 S0
M106 S255
G1 X67.22 Y127.435 F180
M106 S0
M106 S255
G1 X70.092 Y126.755 F180
M106 S0
M106 S255
G1 X72.965 Y126.075 F180
M106 S0
M106 S255
G1 X75.783 Y125.409 F180
M106 S0
M106 S255
G1 X78.711 Y124.717 F180
M106 S0
M106 S255
G1 X81.584 Y124.04 F180
M106 S0
M106 S255
G1 X84.457 Y123.362 F180
M106 S0
M106 S255
G1 X87.33 Y122.685 F180
M106 S0
M106 S255
G1 X90.203 Y122.009 F180
M106 S0
M106 S255
G1 X93.077 Y121.333 F180
M106 S0
M106 S255
G1 X95.95 Y120.657 F180
M106 S0
M106 S255
G1 X98.824 Y119.982 F180
M106 S0
M106 S255
G1 X101.697 Y119.307 F180
M106 S0
M106 S255
G1 X104.571 Y118.631 F180
M106 S0
G0 X55.813 Y132.599 F6000
M106 S255
G1 X55.813 Y132.599 F180
M106 S0
M106 S255
G1 X58.402 Y131.881 F180
M106 S0
M106 S255
G1 X61.322 Y131.071 F180
M106 S0
M106 S255
G1 X64.242 Y130.261 F180
M106 S0
M106 S255
G1 X67.162 Y129.45 F180
M106 S0
M106 S255
G1 X70.081 Y128.637 F180
M106 S0
M106 S255
G1 X73.001 Y127.824 F180
M106 S0
M106 S255
G1 X75.919 Y127.008 F180
M106 S0
M106 S255
G1 X77.986 Y126.43 F180
M106 S0
M106 S255
G1 X81.755 Y125.372 F180
M106 S0
M106 S255
G1 X84.672 Y124.551 F180
M106 S0
M106 S255
G1 X87.589 Y123.728 F180
M106 S0
M106 S255
G1 X90.505 Y122.904 F180
M106 S0
M106 S255
G1 X93.421 Y122.079 F180
M106 S0
M106 S255
G1 X96.336 Y121.253 F180
M106 S0
M106 S255
G1 X99.252 Y120.426 F180
M106 S0
M106 S255
G1 X102.167 Y119.598 F180
M106 S0
M106 S255
G1 X105.082 Y118.771 F180
M106 S0
G0 X55.804 Y133.212 F6000
M106 S255
G1 X55.804 Y133.212 F180
M106 S0
M106 S255
G1 X58.457 Y132.442 F180
M106 S0
M106 S255
G1 X61.391 Y131.59 F180
M106 S0
M106 S255
G1 X64.326 Y130.739 F180
M106 S0
M106 S255
G1 X67.261 Y129.89 F180
M106 S0
M106 S255
G1 X70.197 Y129.042 F180
M106 S0
M106 S255
G1 X73.133 Y128.196 F180
M106 S0
M106 S255
G1 X76.07 Y127.352 F180
M106 S0
M106 S255
G1 X78.033 Y126.79 F180
M106 S0
M106 S255
G1 X81.947 Y125.674 F180
M106 S0
M106 S255
G1 X84.886 Y124.839 F180
M106 S0
M106 S255
G1 X87.826 Y124.006 F180
M106 S0
M106 S255
G1 X90.767 Y123.175 F180
M106 S0
M106 S255
G1 X93.708 Y122.346 F180
M106 S0
M106 S255
G1 X96.649 Y121.518 F180
M106 S0
M106 S255
G1 X99.591 Y120.691 F180
M106 S0
M106 S255
G1 X102.533 Y119.865 F180
M106 S0
M106 S255
G1 X105.475 Y119.039 F180
M106 S0
G0 X55.546 Y135.914 F6000
M106 S255
G1 X55.546 Y135.914 F180
M106 S0
M106 S255
G1 X58.308 Y135.013 F180
M106 S0
M106 S255
G1 X61.317 Y134.031 F180
M106 S0
M106 S255
G1 X64.326 Y133.049 F180
M106 S0
M106 S255
G1 X67.335 Y132.066 F180
M106 S0
M106 S255
G1 X70.344 Y131.082 F180
M106 S0
M106 S255
G1 X73.352 Y130.098 F180
M106 S0
M106 S255
G1 X75.56 Y129.374 F180
M106 S0
M106 S255
G1 X79.368 Y128.125 F180
M106 S0
M106 S255
G1 X82.376 Y127.137 F180
M106 S0
M106 S255
G1 X85.383 Y126.148 F180
M106 S0
M106 S255
G1 X88.389 Y125.158 F180
M106 S0
M106 S255
G1 X91.396 Y124.168 F180
M106 S0
M106 S255
G1 X94.402 Y123.176 F180
M106 S0
M106 S255
G1 X97.408 Y122.185 F180
M106 S0
M106 S255
G1 X100.414 Y121.193 F180
M106 S0
M106 S255
G1 X103.42 Y120.2 F180
M106 S0
M106 S255
G1 X106.426 Y119.208 F180
M106 S0
G0 X55.76 Y136.75 F6000
M106 S255
G1 X55.76 Y136.75 F180
M106 S0
M106 S255
G1 X58.351 Y135.839 F180
M106 S0
M106 S255
G1 X61.35 Y134.785 F180
M106 S0
M106 S255
G1 X64.35 Y133.733 F180
M106 S0
M106 S255
G1 X67.35 Y132.683 F180
M106 S0
M106 S255
G1 X70.351 Y131.636 F180
M106 S0
M106 S255
G1 X73.354 Y130.593 F180
M106 S0
M106 S255
G1 X76.06 Y129.657 F180
M106 S0
M106 S255
G1 X79.364 Y128.52 F180
M106 S0
M106 S255
G1 X82.371 Y127.491 F180
M106 S0
M106 S255
G1 X85.38 Y126.466 F180
M106 S0
M106 S255
G1 X88.39 Y125.445 F180
M106 S0
M106 S255
G1 X91.401 Y124.427 F180
M106 S0
M106 S255
G1 X94.413 Y123.411 F180
M106 S0
M106 S255
G1 X97.426 Y122.398 F180
M106 S0
M106 S255
G1 X100.439 Y121.386 F180
M106 S0
M106 S255
G1 X103.453 Y120.375 F180
M106 S0
M106 S255
G1 X106.466 Y119.365 F180
M106 S0
G0 X55.492 Y139.738 F6000
M106 S255
G1 X55.492 Y139.738 F180
M106 S0
M106 S255
G1 X58.754 Y138.504 F180
M106 S0
M106 S255
G1 X61.362 Y137.512 F180
M106 S0
M106 S255
G1 X64.424 Y136.341 F180
M106 S0
M106 S255
G1 X67.483 Y135.164 F180
M106 S0
M106 S255
G1 X70.54 Y133.982 F180
M106 S0
M106 S255
G1 X73.595 Y132.794 F180
M106 S0
M106 S255
G1 X76.648 Y131.602 F180
M106 S0
M106 S255
G1 X79.7 Y130.405 F180
M106 S0
M106 S255
G1 X82.75 Y129.204 F180
M106 S0
M106 S255
G1 X85.799 Y128.0 F180
M106 S0
M106 S255
G1 X88.846 Y126.793 F180
M106 S0
M106 S255
G1 X91.893 Y125.584 F180
M106 S0
M106 S255
G1 X94.939 Y124.372 F180
M106 S0
M106 S255
G1 X97.984 Y123.159 F180
M106 S0
M106 S255
G1 X101.029 Y121.944 F180
M106 S0
M106 S255
G1 X104.073 Y120.728 F180
M106 S0
M106 S255
G1 X107.117 Y119.512 F180
M106 S0
G0 X55.812 Y140.908 F6000
M106 S255
G1 X55.812 Y140.908 F180
M106 S0
M106 S255
G1 X57.765 Y140.018 F180
M106 S0
M106 S255
G1 X59.98 Y139.015 F180
M106 S0
M106 S255
G1 X62.109 Y138.061 F180
M106 S0
M106 S255
G1 X64.424 Y137.042 F180
M106 S0
M106 S255
G1 X66.655 Y136.076 F180
M106 S0
M106 S255
G1 X68.891 Y135.122 F180
M106 S0
M106 S255
G1 X71.132 Y134.18 F180
M106 S0
M106 S255
G1 X73.377 Y133.248 F180
M106 S0
M106 S255
G1 X75.627 Y132.325 F180
M106 S0
M106 S255
G1 X77.879 Y131.409 F180
M106 S0
M106 S255
G1 X80.135 Y130.5 F180
M106 S0
M106 S255
G1 X82.392 Y129.597 F180
M106 S0
M106 S255
G1 X84.652 Y128.697 F180
M106 S0
M106 S255
G1 X86.912 Y127.8 F180
M106 S0
M106 S255
G1 X89.173 Y126.905 F180
M106 S0
M106 S255
G1 X91.435 Y126.011 F180
M106 S0
M106 S255
G1 X93.696 Y125.116 F180
M106 S0
M106 S255
G1 X96.743 Y123.906 F180
M106 S0
M106 S255
G1 X98.215 Y123.319 F180
M106 S0
M106 S255
G1 X100.473 Y122.416 F180
M106 S0
M106 S255
G1 X102.729 Y121.511 F180
M106 S0
M106 S255
G1 X104.985 Y120.604 F180
M106 S0
M106 S255
G1 X107.241 Y119.697 F180
M106 S0
G0 X55.463 Y144.424 F6000
M106 S255
G1 X55.463 Y144.424 F180
M106 S0
M106 S255
G1 X57.019 Y143.695 F180
M106 S0
M106 S255
G1 X58.835 Y142.842 F180
M106 S0
M106 S255
G1 X60.65 Y141.985 F180
M106 S0
M106 S255
G1 X63.042 Y140.848 F180
M106 S0
M106 S255
G1 X64.273 Y140.257 F180
M106 S0
M106 S255
G1 X66.081 Y139.385 F180
M106 S0
M106 S255
G1 X67.887 Y138.51 F180
M106 S0
M106 S255
G1 X69.693 Y137.635 F180
M106 S0
M106 S255
G1 X71.429 Y136.795 F180
M106 S0
M106 S255
G1 X73.308 Y135.889 F180
M106 S0
M106 S255
G1 X75.118 Y135.021 F180
M106 S0
M106 S255
G1 X76.929 Y134.157 F180
M106 S0
M106 S255
G1 X78.742 Y133.296 F180
M106 S0
M106 S255
G1 X80.557 Y132.438 F180
M106 S0
M106 S255
G1 X82.372 Y131.583 F180
M106 S0
M106 S255
G1 X84.19 Y130.731 F180
M106 S0
M106 S255
G1 X86.009 Y129.882 F180
M106 S0
M106 S255
G1 X87.829 Y129.037 F180
M106 S0
M106 S255
G1 X89.651 Y128.194 F180
M106 S0
M106 S255
G1 X91.474 Y127.354 F180
M106 S0
M106 S255
G1 X93.298 Y126.517 F180
M106 S0
M106 S255
G1 X95.123 Y125.683 F180
M106 S0
M106 S255
G1 X96.95 Y124.851 F180
M106 S0
M106 S255
G1 X98.778 Y124.022 F180
M106 S0
M106 S255
G1 X100.607 Y123.196 F180
M106 S0
M106 S255
G1 X102.437 Y122.372 F180
M106 S0
M106 S255
G1 X104.269 Y121.551 F180
M106 S0
M106 S255
G1 X105.291 Y121.093 F180
M106 S0
M106 S255
G1 X107.934 Y119.914 F180
M106 S0
G0 X55.816 Y145.57 F6000
M106 S255
G1 X55.816 Y145.57 F180
M106 S0
M106 S255
G1 X57.721 Y144.614 F180
M106 S0
M106 S255
G1 X59.998 Y143.471 F180
M106 S0
M106 S255
G1 X62.275 Y142.329 F180
M106 S0
M106 S255
G1 X64.553 Y141.187 F180
M106 S0
M106 S255
G1 X66.831 Y140.047 F180
M106 S0
M106 S255
G1 X69.109 Y138.908 F180
M106 S0
M106 S255
G1 X71.389 Y137.771 F180
M106 S0
M106 S255
G1 X74.244 Y136.35 F180
M106 S0
M106 S255
G1 X75.951 Y135.503 F180
M106 S0
M106 S255
G1 X78.234 Y134.372 F180
M106 S0
M106 S255
G1 X80.518 Y133.245 F180
M106 S0
M106 S255
G1 X82.805 Y132.121 F180
M106 S0
M106 S255
G1 X85.093 Y131.001 F180
M106 S0
M106 S255
G1 X87.383 Y129.886 F180
M106 S0
M106 S255
G1 X89.373 Y128.922 F180
M106 S0
M106 S255
G1 X91.971 Y127.671 F180
M106 S0
M106 S255
G1 X94.269 Y126.571 F180
M106 S0
M106 S255
G1 X96.568 Y125.474 F180
M106 S0
M106 S255
G1 X98.869 Y124.381 F180
M106 S0
M106 S255
G1 X101.171 Y123.291 F180
M106 S0
M106 S255
G1 X103.475 Y122.203 F180
M106 S0
M106 S255
G1 X105.779 Y121.116 F180
M106 S0
M106 S255
G1 X108.083 Y120.029 F180
M106 S0
G0 X55.487 Y150.451 F6000
M106 S255
G1 X55.487 Y150.451 F180
M106 S0
M106 S255
G1 X57.023 Y149.507 F180
M106 S0
M106 S255
G1 X58.837 Y148.404 F180
M106 S0
M106 S255
G1 X61.205 Y147.002 F180
M106 S0
M106 S255
G1 X62.501 Y146.259 F180
M106 S0
M106 S255
G1 X64.354 Y145.224 F180
M106 S0
M106 S255
G1 X66.216 Y144.203 F180
M106 S0
M106 S255
G1 X68.082 Y143.189 F180
M106 S0
M106 S255
G1 X70.725 Y141.746 F180
M106 S0
M106 S255
G1 X71.806 Y141.147 F180
M106 S0
M106 S255
G1 X73.658 Y140.109 F180
M106 S0
M106 S255
G1 X75.504 Y139.06 F180
M106 S0
M106 S255
G1 X77.345 Y138.003 F180
M106 S0
M106 S255
G1 X79.183 Y136.939 F180
M106 S0
M106 S255
G1 X81.018 Y135.87 F180
M106 S0
M106 S255
G1 X82.851 Y134.798 F180
M106 S0
M106 S255
G1 X84.684 Y133.726 F180
M106 S0
M106 S255
G1 X86.517 Y132.656 F180
M106 S0
M106 S255
G1 X88.416 Y131.553 F180
M106 S0
M106 S255
G1 X90.192 Y130.527 F180
M106 S0
M106 S255
G1 X92.033 Y129.47 F180
M106 S0
M106 S255
G1 X93.877 Y128.418 F180
M106 S0
M106 S255
G1 X95.723 Y127.369 F180
M106 S0
M106 S255
G1 X97.572 Y126.324 F180
M106 S0
M106 S255
G1 X99.422 Y125.282 F180
M106 S0
M106 S255
G1 X101.273 Y124.243 F180
M106 S0
M106 S255
G1 X103.126 Y123.206 F180
M106 S0
M106 S255
G1 X104.98 Y122.17 F180
M106 S0
M106 S255
G1 X106.834 Y121.135 F180
M106 S0
M106 S255
G1 X108.688 Y120.101 F180
M106 S0
G0 X55.96 Y152.138 F6000
M106 S255
G1 X55.96 Y152.138 F180
M106 S0
M106 S255
G1 X56.902 Y151.541 F180
M106 S0
M106 S255
G1 X58.019 Y150.832 F180
M106 S0
M106 S255
G1 X59.136 Y150.124 F180
M106 S0
M106 S255
G1 X60.252 Y149.414 F180
M106 S0
M106 S255
G1 X61.368 Y148.704 F180
M106 S0
M106 S255
G1 X62.483 Y147.993 F180
M106 S0
M106 S255
G1 X63.789 Y147.159 F180
M106 S0
M106 S255
G1 X64.712 Y146.567 F180
M106 S0
M106 S255
G1 X65.826 Y145.855 F180
M106 S0
M106 S255
G1 X66.942 Y145.145 F180
M106 S0
M106 S255
G1 X68.062 Y144.44 F180
M106 S0
M106 S255
G1 X69.358 Y143.636 F180
M106 S0
M106 S255
G1 X70.315 Y143.054 F180
M106 S0
M106 S255
G1 X71.449 Y142.375 F180
M106 S0
M106 S255
G1 X72.588 Y141.701 F180
M106 S0
M106 S255
G1 X73.729 Y141.032 F180
M106 S0
M106 S255
G1 X74.871 Y140.365 F180
M106 S0
M106 S255
G1 X76.014 Y139.698 F180
M106 S0
M106 S255
G1 X77.155 Y139.03 F180
M106 S0
M106 S255
G1 X78.39 Y138.301 F180
M106 S0
M106 S255
G1 X79.43 Y137.679 F180
M106 S0
M106 S255
G1 X80.563 Y136.997 F180
M106 S0
M106 S255
G1 X81.694 Y136.311 F180
M106 S0
M106 S255
G1 X82.824 Y135.623 F180
M106 S0
M106 S255
G1 X83.954 Y134.936 F180
M106 S0
M106 S255
G1 X85.489 Y134.006 F180
M106 S0
M106 S255
G1 X86.218 Y133.567 F180
M106 S0
M106 S255
G1 X87.352 Y132.887 F180
M106 S0
M106 S255
G1 X88.488 Y132.21 F180
M106 S0
M106 S255
G1 X89.625 Y131.533 F180
M106 S0
M106 S255
G1 X90.762 Y130.857 F180
M106 S0
M106 S255
G1 X91.898 Y130.181 F180
M106 S0
M106 S255
G1 X92.833 Y129.622 F180
M106 S0
M106 S255
G1 X94.169 Y128.822 F180
M106 S0
M106 S255
G1 X95.303 Y128.141 F180
M106 S0
M106 S255
G1 X96.438 Y127.461 F180
M106 S0
M106 S255
G1 X97.574 Y126.783 F180
M106 S0
M106 S255
G1 X98.712 Y126.107 F180
M106 S0
M106 S255
G1 X99.852 Y125.436 F180
M106 S0
M106 S255
G1 X100.995 Y124.771 F180
M106 S0
M106 S255
G1 X102.142 Y124.112 F180
M106 S0
M106 S255
G1 X103.294 Y123.462 F180
M106 S0
M106 S255
G1 X104.45 Y122.821 F180
M106 S0
M106 S255
G1 X105.373 Y122.321 F180
M106 S0
M106 S255
G1 X106.782 Y121.573 F180
M106 S0
M106 S255
G1 X107.955 Y120.961 F180
M106 S0
M106 S255
G1 X109.13 Y120.353 F180
M106 S0
G0 X55.394 Y159.05 F6000
M106 S255
G1 X55.394 Y159.05 F180
M106 S0
M106 S255
G1 X57.135 Y157.816 F180
M106 S0
M106 S255
G1 X59.015 Y156.485 F180
M106 S0
M106 S255
G1 X60.897 Y155.158 F180
M106 S0
M106 S255
G1 X62.506 Y154.029 F180
M106 S0
M106 S255
G1 X64.672 Y152.517 F180
M106 S0
M106 S255
G1 X66.563 Y151.202 F180
M106 S0
M106 S255
G1 X68.454 Y149.887 F180
M106 S0
M106 S255
G1 X70.342 Y148.567 F180
M106 S0
M106 S255
G1 X71.687 Y147.622 F180
M106 S0
M106 S255
G1 X74.103 Y145.907 F180
M106 S0
M106 S255
G1 X75.975 Y144.565 F180
M106 S0
M106 S255
G1 X77.843 Y143.218 F180
M106 S0
M106 S255
G1 X79.708 Y141.866 F180
M106 S0
M106 S255
G1 X81.571 Y140.51 F180
M106 S0
M106 S255
G1 X83.432 Y139.153 F180
M106 S0
M106 S255
G1 X85.292 Y137.795 F180
M106 S0
M106 S255
G1 X87.153 Y136.437 F180
M106 S0
M106 S255
G1 X89.015 Y135.081 F180
M106 S0
M106 S255
G1 X90.88 Y133.728 F180
M106 S0
M106 S255
G1 X92.083 Y132.859 F180
M106 S0
M106 S255
G1 X94.618 Y131.037 F180
M106 S0
M106 S255
G1 X96.493 Y129.698 F180
M106 S0
M106 S255
G1 X98.37 Y128.363 F180
M106 S0
M106 S255
G1 X100.25 Y127.031 F180
M106 S0
M106 S255
G1 X102.131 Y125.703 F180
M106 S0
M106 S255
G1 X104.014 Y124.376 F180
M106 S0
M106 S255
G1 X105.899 Y123.051 F180
M106 S0
M106 S255
G1 X107.784 Y121.728 F180
M106 S0
M106 S255
G1 X109.669 Y120.404 F180
M106 S0
G0 X56.399 Y161.021 F6000
M106 S255
G1 X56.399 Y161.021 F180
M106 S0
M106 S255
G1 X57.785 Y159.863 F180
M106 S0
M106 S255
G1 X59.269 Y158.639 F180
M106 S0
M106 S255
G1 X61.137 Y157.141 F180
M106 S0
M106 S255
G1 X62.285 Y156.252 F180
M106 S0
M106 S255
G1 X63.821 Y155.094 F180
M106 S0
M106 S255
G1 X65.368 Y153.951 F180
M106 S0
M106 S255
G1 X66.921 Y152.815 F180
M106 S0
M106 S255
G1 X68.67 Y151.534 F180
M106 S0
M106 S255
G1 X70.02 Y150.533 F180
M106 S0
M106 S255
G1 X71.56 Y149.38 F180
M106 S0
M106 S255
G1 X73.094 Y148.219 F180
M106 S0
M106 S255
G1 X74.623 Y147.052 F180
M106 S0
M106 S255
G1 X76.149 Y145.88 F180
M106 S0
M106 S255
G1 X77.671 Y144.704 F180
M106 S0
M106 S255
G1 X79.192 Y143.526 F180
M106 S0
M106 S255
G1 X80.712 Y142.346 F180
M106 S0
M106 S255
G1 X82.231 Y141.167 F180
M106 S0
M106 S255
G1 X83.752 Y139.989 F180
M106 S0
M106 S255
G1 X85.275 Y138.813 F180
M106 S0
M106 S255
G1 X86.652 Y137.754 F180
M106 S0
M106 S255
G1 X88.329 Y136.473 F180
M106 S0
M106 S255
G1 X89.862 Y135.311 F180
M106 S0
M106 S255
G1 X91.398 Y134.152 F180
M106 S0
M106 S255
G1 X92.937 Y132.998 F180
M106 S0
M106 S255
G1 X94.479 Y131.849 F180
M106 S0
M106 S255
G1 X96.025 Y130.703 F180
M106 S0
M106 S255
G1 X97.573 Y129.562 F180
M106 S0
M106 S255
G1 X99.125 Y128.424 F180
M106 S0
M106 S255
G1 X100.678 Y127.29 F180
M106 S0
M106 S255
G1 X101.518 Y126.679 F180
M106 S0
M106 S255
G1 X103.793 Y125.031 F180
M106 S0
M106 S255
G1 X105.353 Y123.906 F180
M106 S0
M106 S255
G1 X106.915 Y122.782 F180
M106 S0
M106 S255
G1 X108.478 Y121.66 F180
M106 S0
M106 S255
G1 X110.041 Y120.539 F180
M106 S0
G0 X55.587 Y174.846 F6000
M106 S255
G1 X55.587 Y174.846 F180
M106 S0
M106 S255
G1 X57.29 Y173.192 F180
M106 S0
M106 S255
G1 X59.205 Y171.331 F180
M106 S0
M106 S255
G1 X61.121 Y169.47 F180
M106 S0
M106 S255
G1 X63.037 Y167.609 F180
M106 S0
M106 S255
G1 X64.952 Y165.748 F180
M106 S0
M106 S255
G1 X66.867 Y163.886 F180
M106 S0
M106 S255
G1 X67.878 Y162.903 F180
M106 S0
M106 S255
G1 X70.696 Y160.161 F180
M106 S0
M106 S255
G1 X72.607 Y158.295 F180
M106 S0
M106 S255
G1 X74.515 Y156.425 F180
M106 S0
M106 S255
G1 X76.417 Y154.551 F180
M106 S0
M106 S255
G1 X78.389 Y152.593 F180
M106 S0
M106 S255
G1 X80.2 Y150.779 F180
M106 S0
M106 S255
G1 X82.082 Y148.883 F180
M106 S0
M106 S255
G1 X83.958 Y146.983 F180
M106 S0
M106 S255
G1 X85.832 Y145.079 F180
M106 S0
M106 S255
