;GCode generated by Numa's program v0.0
G0 X7.401 Y45.423 F6000
M106 S255
G1 X7.401 Y45.423 F250
M106 S0
M106 S255
G1 X7.401 Y45.981 F250
M106 S0
M106 S255
G1 X12.54 Y45.981 F250
M106 S0
M106 S255
G1 X12.54 Y45.423 F250
M106 S0
M106 S255
G1 X11.341 Y45.423 F250
M106 S0
M106 S255
G1 X10.353 Y45.431 F250
M106 S0
M106 S255
G1 X10.353 Y40.148 F250
M106 S0
M106 S255
G1 X9.592 Y40.148 F250
M106 S0
M106 S255
G1 X9.592 Y45.431 F250
M106 S0
M106 S255
G1 X8.595 Y45.423 F250
M106 S0
M106 S255
G1 X7.401 Y45.423 F250
M106 S0
G0 X12.143 Y21.481 F6000
M106 S255
G1 X12.143 Y21.481 F250
M106 S0
M106 S255
G1 X10.518 Y21.481 F250
M106 S0
M106 S255
G1 X10.518 Y15.453 F250
M106 S0
M106 S255
G1 X10.382 Y15.453 F250
M106 S0
M106 S255
G1 X10.382 Y21.481 F250
M106 S0
M106 S255
G1 X8.757 Y21.481 F250
M106 S0
M106 S255
G1 X8.757 Y21.617 F250
M106 S0
M106 S255
G1 X12.143 Y21.617 F250
M106 S0
M106 S255
G1 X12.143 Y21.481 F250
M106 S0
G0 X31.582 Y19.451 F6000
M106 S255
G1 X31.582 Y19.451 F250
M106 S0
M106 S255
G1 X30.296 Y19.451 F250
M106 S0
M106 S255
G1 X30.296 Y15.453 F250
M106 S0
M106 S255
G1 X30.159 Y15.453 F250
M106 S0
M106 S255
G1 X30.159 Y19.451 F250
M106 S0
M106 S255
G1 X29.552 Y19.451 F250
M106 S0
M106 S255
G1 X29.552 Y19.583 F250
M106 S0
M106 S255
G1 X30.159 Y19.583 F250
M106 S0
M106 S255
G1 X30.159 Y21.551 F250
M106 S0
M106 S255
G1 X30.296 Y21.551 F250
M106 S0
M106 S255
G1 X30.296 Y19.583 F250
M106 S0
M106 S255
G1 X31.582 Y19.583 F250
M106 S0
M106 S255
G1 X31.582 Y19.451 F250
M106 S0
G0 X46.353 Y40.148 F6000
M106 S255
G1 X46.353 Y40.148 F250
M106 S0
M106 S255
G1 X46.353 Y45.617 F250
M106 S0
M106 S255
G1 X44.182 Y45.617 F250
M106 S0
M106 S255
G1 X44.182 Y46.266 F250
M106 S0
M106 S255
G1 X49.391 Y46.266 F250
M106 S0
M106 S255
G1 X49.391 Y45.617 F250
M106 S0
M106 S255
G1 X47.221 Y45.617 F250
M106 S0
M106 S255
G1 X47.221 Y40.148 F250
M106 S0
M106 S255
G1 X46.353 Y40.148 F250
M106 S0
G0 X61.913 Y31.949 F6000
M106 S255
G1 X61.913 Y31.949 F250
M106 S0
M106 S255
G1 X61.908 Y31.874 F250
M106 S0
M106 S255
G1 X61.892 Y31.812 F250
M106 S0
M106 S255
G1 X61.865 Y31.762 F250
M106 S0
M106 S255
G1 X61.831 Y31.721 F250
M106 S0
M106 S255
G1 X61.792 Y31.688 F250
M106 S0
M106 S255
G1 X61.748 Y31.662 F250
M106 S0
M106 S255
G1 X61.701 Y31.643 F250
M106 S0
M106 S255
G1 X61.651 Y31.63 F250
M106 S0
M106 S255
G1 X61.6 Y31.622 F250
M106 S0
M106 S255
G1 X61.549 Y31.617 F250
M106 S0
M106 S255
G1 X61.502 Y31.613 F250
M106 S0
M106 S255
G1 X61.44 Y31.608 F250
M106 S0
M106 S255
G1 X61.205 Y31.591 F250
M106 S0
M106 S255
G1 X60.967 Y31.572 F250
M106 S0
M106 S255
G1 X60.725 Y31.551 F250
M106 S0
M106 S255
G1 X60.491 Y31.53 F250
M106 S0
M106 S255
G1 X60.271 Y31.51 F250
M106 S0
M106 S255
G1 X60.066 Y31.489 F250
M106 S0
M106 S255
G1 X59.881 Y31.468 F250
M106 S0
M106 S255
G1 X59.72 Y31.448 F250
M106 S0
M106 S255
G1 X59.583 Y31.429 F250
M106 S0
M106 S255
G1 X59.483 Y31.411 F250
M106 S0
M106 S255
G1 X59.424 Y31.396 F250
M106 S0
M106 S255
G1 X59.404 Y31.371 F250
M106 S0
M106 S255
G1 X59.382 Y31.281 F250
M106 S0
M106 S255
G1 X59.356 Y31.179 F250
M106 S0
M106 S255
G1 X59.327 Y31.063 F250
M106 S0
M106 S255
G1 X59.296 Y30.939 F250
M106 S0
M106 S255
G1 X59.264 Y30.809 F250
M106 S0
M106 S255
G1 X59.231 Y30.673 F250
M106 S0
M106 S255
G1 X59.197 Y30.534 F250
M106 S0
M106 S255
G1 X59.164 Y30.392 F250
M106 S0
M106 S255
G1 X59.131 Y30.247 F250
M106 S0
M106 S255
G1 X59.099 Y30.104 F250
M106 S0
M106 S255
G1 X59.07 Y29.967 F250
M106 S0
M106 S255
G1 X59.043 Y29.834 F250
M106 S0
M106 S255
G1 X59.019 Y29.708 F250
M106 S0
M106 S255
G1 X58.999 Y29.592 F250
M106 S0
M106 S255
G1 X58.981 Y29.483 F250
M106 S0
M106 S255
G1 X58.969 Y29.388 F250
M106 S0
M106 S255
G1 X58.963 Y29.307 F250
M106 S0
M106 S255
G1 X58.962 Y29.242 F250
M106 S0
M106 S255
G1 X58.964 Y29.176 F250
M106 S0
M106 S255
G1 X58.969 Y29.102 F250
M106 S0
M106 S255
G1 X58.977 Y29.021 F250
M106 S0
M106 S255
G1 X58.993 Y28.94 F250
M106 S0
M106 S255
G1 X59.016 Y28.861 F250
M106 S0
M106 S255
G1 X59.047 Y28.784 F250
M106 S0
M106 S255
G1 X59.087 Y28.715 F250
M106 S0
M106 S255
G1 X59.138 Y28.653 F250
M106 S0
M106 S255
G1 X59.198 Y28.601 F250
M106 S0
M106 S255
G1 X59.273 Y28.564 F250
M106 S0
M106 S255
G1 X59.363 Y28.545 F250
M106 S0
M106 S255
G1 X59.446 Y28.543 F250
M106 S0
M106 S255
G1 X59.513 Y28.554 F250
M106 S0
M106 S255
G1 X59.588 Y28.578 F250
M106 S0
M106 S255
G1 X59.672 Y28.613 F250
M106 S0
M106 S255
G1 X59.762 Y28.658 F250
M106 S0
M106 S255
G1 X59.857 Y28.712 F250
M106 S0
M106 S255
G1 X59.956 Y28.776 F250
M106 S0
M106 S255
G1 X60.059 Y28.848 F250
M106 S0
M106 S255
G1 X60.165 Y28.929 F250
M106 S0
M106 S255
G1 X60.272 Y29.017 F250
M106 S0
M106 S255
G1 X60.38 Y29.112 F250
M106 S0
M106 S255
G1 X60.486 Y29.212 F250
M106 S0
M106 S255
G1 X60.565 Y29.289 F250
M106 S0
M106 S255
G1 X60.621 Y29.34 F250
M106 S0
M106 S255
G1 X60.68 Y29.39 F250
M106 S0
M106 S255
G1 X60.743 Y29.436 F250
M106 S0
M106 S255
G1 X60.809 Y29.468 F250
M106 S0
M106 S255
G1 X60.878 Y29.483 F250
M106 S0
M106 S255
G1 X60.962 Y29.479 F250
M106 S0
M106 S255
G1 X61.028 Y29.444 F250
M106 S0
M106 S255
G1 X61.059 Y29.377 F250
M106 S0
M106 S255
G1 X61.061 Y29.31 F250
M106 S0
M106 S255
G1 X61.054 Y29.262 F250
M106 S0
M106 S255
G1 X61.041 Y29.215 F250
M106 S0
M106 S255
G1 X61.023 Y29.169 F250
M106 S0
M106 S255
G1 X61.001 Y29.123 F250
M106 S0
M106 S255
G1 X60.975 Y29.077 F250
M106 S0
M106 S255
G1 X60.945 Y29.031 F250
M106 S0
M106 S255
G1 X60.913 Y28.986 F250
M106 S0
M106 S255
G1 X60.878 Y28.94 F250
M106 S0
M106 S255
G1 X60.84 Y28.894 F250
M106 S0
M106 S255
G1 X60.801 Y28.846 F250
M106 S0
M106 S255
G1 X60.76 Y28.797 F250
M106 S0
M106 S255
G1 X60.726 Y28.755 F250
M106 S0
M106 S255
G1 X60.688 Y28.711 F250
M106 S0
M106 S255
G1 X60.641 Y28.659 F250
M106 S0
M106 S255
G1 X60.585 Y28.602 F250
M106 S0
M106 S255
G1 X60.522 Y28.541 F250
M106 S0
M106 S255
G1 X60.451 Y28.477 F250
M106 S0
M106 S255
G1 X60.373 Y28.41 F250
M106 S0
M106 S255
G1 X60.29 Y28.343 F250
M106 S0
M106 S255
G1 X60.201 Y28.275 F250
M106 S0
M106 S255
G1 X60.107 Y28.208 F250
M106 S0
M106 S255
G1 X60.009 Y28.146 F250
M106 S0
M106 S255
G1 X59.908 Y28.089 F250
M106 S0
M106 S255
G1 X59.803 Y28.036 F250
M106 S0
M106 S255
G1 X59.695 Y27.991 F250
M106 S0
M106 S255
G1 X59.584 Y27.951 F250
M106 S0
M106 S255
G1 X59.472 Y27.92 F250
M106 S0
M106 S255
G1 X59.359 Y27.901 F250
M106 S0
M106 S255
G1 X59.245 Y27.893 F250
M106 S0
M106 S255
G1 X59.096 Y27.899 F250
M106 S0
M106 S255
G1 X58.956 Y27.92 F250
M106 S0
M106 S255
G1 X58.835 Y27.957 F250
M106 S0
M106 S255
G1 X58.73 Y28.008 F250
M106 S0
M106 S255
G1 X58.638 Y28.069 F250
M106 S0
M106 S255
G1 X58.561 Y28.14 F250
M106 S0
M106 S255
G1 X58.495 Y28.221 F250
M106 S0
M106 S255
G1 X58.441 Y28.308 F250
M106 S0
M106 S255
G1 X58.397 Y28.403 F250
M106 S0
M106 S255
G1 X58.362 Y28.501 F250
M106 S0
M106 S255
G1 X58.334 Y28.601 F250
M106 S0
M106 S255
G1 X58.314 Y28.7 F250
M106 S0
M106 S255
G1 X58.299 Y28.8 F250
M106 S0
M106 S255
G1 X58.29 Y28.898 F250
M106 S0
M106 S255
G1 X58.286 Y28.994 F250
M106 S0
M106 S255
G1 X58.285 Y29.086 F250
M106 S0
M106 S255
G1 X58.284 Y29.169 F250
M106 S0
M106 S255
G1 X58.284 Y29.243 F250
M106 S0
M106 S255
G1 X58.286 Y29.334 F250
M106 S0
M106 S255
G1 X58.295 Y29.436 F250
M106 S0
M106 S255
G1 X58.31 Y29.549 F250
M106 S0
M106 S255
G1 X58.33 Y29.669 F250
M106 S0
M106 S255
G1 X58.351 Y29.795 F250
M106 S0
M106 S255
G1 X58.375 Y29.926 F250
M106 S0
M106 S255
G1 X58.401 Y30.06 F250
M106 S0
M106 S255
G1 X58.43 Y30.196 F250
M106 S0
M106 S255
G1 X58.461 Y30.333 F250
M106 S0
M106 S255
G1 X58.491 Y30.468 F250
M106 S0
M106 S255
G1 X58.52 Y30.599 F250
M106 S0
M106 S255
G1 X58.546 Y30.726 F250
M106 S0
M106 S255
G1 X58.569 Y30.847 F250
M106 S0
M106 S255
G1 X58.591 Y30.961 F250
M106 S0
M106 S255
G1 X58.61 Y31.068 F250
M106 S0
M106 S255
G1 X58.624 Y31.163 F250
M106 S0
M106 S255
G1 X58.633 Y31.244 F250
M106 S0
M106 S255
G1 X58.635 Y31.308 F250
M106 S0
M106 S255
G1 X58.628 Y31.337 F250
M106 S0
M106 S255
G1 X58.609 Y31.356 F250
M106 S0
M106 S255
G1 X58.578 Y31.364 F250
M106 S0
M106 S255
G1 X58.538 Y31.366 F250
M106 S0
M106 S255
G1 X58.491 Y31.363 F250
M106 S0
M106 S255
G1 X58.435 Y31.356 F250
M106 S0
M106 S255
G1 X58.373 Y31.348 F250
M106 S0
M106 S255
G1 X58.306 Y31.339 F250
M106 S0
M106 S255
G1 X58.234 Y31.331 F250
M106 S0
M106 S255
G1 X58.16 Y31.328 F250
M106 S0
M106 S255
G1 X58.084 Y31.332 F250
M106 S0
M106 S255
G1 X58.012 Y31.343 F250
M106 S0
M106 S255
G1 X57.964 Y31.353 F250
M106 S0
M106 S255
G1 X57.917 Y31.366 F250
M106 S0
M106 S255
G1 X57.872 Y31.382 F250
M106 S0
M106 S255
G1 X57.83 Y31.402 F250
M106 S0
M106 S255
G1 X57.791 Y31.426 F250
M106 S0
M106 S255
G1 X57.756 Y31.454 F250
M106 S0
M106 S255
G1 X57.725 Y31.488 F250
M106 S0
M106 S255
G1 X57.698 Y31.527 F250
M106 S0
M106 S255
G1 X57.676 Y31.571 F250
M106 S0
M106 S255
G1 X57.661 Y31.623 F250
M106 S0
M106 S255
G1 X57.653 Y31.683 F250
M106 S0
M106 S255
G1 X57.652 Y31.755 F250
M106 S0
M106 S255
G1 X57.664 Y31.827 F250
M106 S0
M106 S255
G1 X57.692 Y31.881 F250
M106 S0
M106 S255
G1 X57.735 Y31.918 F250
M106 S0
M106 S255
G1 X57.786 Y31.942 F250
M106 S0
M106 S255
G1 X57.843 Y31.955 F250
M106 S0
M106 S255
G1 X57.921 Y31.957 F250
M106 S0
M106 S255
G1 X58.304 Y31.957 F250
M106 S0
M106 S255
G1 X58.745 Y31.957 F250
M106 S0
M106 S255
G1 X58.861 Y31.961 F250
M106 S0
M106 S255
G1 X58.88 Y31.981 F250
M106 S0
M106 S255
G1 X58.903 Y32.015 F250
M106 S0
M106 S255
G1 X58.929 Y32.062 F250
M106 S0
M106 S255
G1 X58.957 Y32.119 F250
M106 S0
M106 S255
G1 X58.987 Y32.186 F250
M106 S0
M106 S255
G1 X59.019 Y32.261 F250
M106 S0
M106 S255
G1 X59.052 Y32.343 F250
M106 S0
M106 S255
G1 X59.087 Y32.432 F250
M106 S0
M106 S255
G1 X59.123 Y32.528 F250
M106 S0
M106 S255
G1 X59.159 Y32.626 F250
M106 S0
M106 S255
G1 X59.196 Y32.727 F250
M106 S0
M106 S255
G1 X59.234 Y32.831 F250
M106 S0
M106 S255
G1 X59.27 Y32.936 F250
M106 S0
M106 S255
G1 X59.306 Y33.041 F250
M106 S0
M106 S255
G1 X59.34 Y33.146 F250
M106 S0
M106 S255
G1 X59.374 Y33.247 F250
M106 S0
M106 S255
G1 X59.406 Y33.343 F250
M106 S0
M106 S255
G1 X59.446 Y33.462 F250
M106 S0
M106 S255
G1 X59.499 Y33.582 F250
M106 S0
M106 S255
G1 X59.557 Y33.674 F250
M106 S0
M106 S255
G1 X59.622 Y33.737 F250
M106 S0
M106 S255
G1 X59.698 Y33.779 F250
M106 S0
M106 S255
G1 X59.785 Y33.799 F250
M106 S0
M106 S255
G1 X59.861 Y33.799 F250
M106 S0
M106 S255
G1 X59.917 Y33.791 F250
M106 S0
M106 S255
G1 X59.967 Y33.774 F250
M106 S0
M106 S255
G1 X60.009 Y33.751 F250
M106 S0
M106 S255
G1 X60.046 Y33.723 F250
M106 S0
M106 S255
G1 X60.076 Y33.692 F250
M106 S0
M106 S255
G1 X60.101 Y33.657 F250
M106 S0
M106 S255
G1 X60.12 Y33.621 F250
M106 S0
M106 S255
G1 X60.136 Y33.583 F250
M106 S0
M106 S255
G1 X60.146 Y33.545 F250
M106 S0
M106 S255
G1 X60.153 Y33.508 F250
M106 S0
M106 S255
G1 X60.156 Y33.473 F250
M106 S0
M106 S255
G1 X60.155 Y33.451 F250
M106 S0
M106 S255
G1 X60.148 Y33.423 F250
M106 S0
M106 S255
G1 X60.135 Y33.381 F250
M106 S0
M106 S255
G1 X60.116 Y33.325 F250
M106 S0
M106 S255
G1 X60.094 Y33.26 F250
M106 S0
M106 S255
G1 X60.069 Y33.187 F250
M106 S0
M106 S255
G1 X60.041 Y33.105 F250
M106 S0
M106 S255
G1 X60.01 Y33.016 F250
M106 S0
M106 S255
G1 X59.976 Y32.921 F250
M106 S0
M106 S255
G1 X59.939 Y32.821 F250
M106 S0
M106 S255
G1 X59.903 Y32.721 F250
M106 S0
M106 S255
G1 X59.866 Y32.621 F250
M106 S0
M106 S255
G1 X59.828 Y32.522 F250
M106 S0
M106 S255
G1 X59.793 Y32.424 F250
M106 S0
M106 S255
G1 X59.758 Y32.329 F250
M106 S0
M106 S255
G1 X59.726 Y32.237 F250
M106 S0
M106 S255
G1 X59.696 Y32.153 F250
M106 S0
M106 S255
G1 X59.669 Y32.078 F250
M106 S0
M106 S255
G1 X59.865 Y32.078 F250
M106 S0
M106 S255
G1 X60.088 Y32.095 F250
M106 S0
M106 S255
G1 X60.285 Y32.111 F250
M106 S0
M106 S255
G1 X60.459 Y32.127 F250
M106 S0
M106 S255
G1 X60.615 Y32.142 F250
M106 S0
M106 S255
G1 X60.754 Y32.156 F250
M106 S0
M106 S255
G1 X60.877 Y32.168 F250
M106 S0
M106 S255
G1 X60.988 Y32.178 F250
M106 S0
M106 S255
G1 X61.086 Y32.187 F250
M106 S0
M106 S255
G1 X61.175 Y32.195 F250
M106 S0
M106 S255
G1 X61.261 Y32.199 F250
M106 S0
M106 S255
G1 X61.343 Y32.201 F250
M106 S0
M106 S255
G1 X61.455 Y32.199 F250
M106 S0
M106 S255
G1 X61.554 Y32.194 F250
M106 S0
M106 S255
G1 X61.637 Y32.185 F250
M106 S0
M106 S255
G1 X61.706 Y32.173 F250
M106 S0
M106 S255
G1 X61.764 Y32.157 F250
M106 S0
M106 S255
G1 X61.81 Y32.138 F250
M106 S0
M106 S255
G1 X61.846 Y32.115 F250
M106 S0
M106 S255
G1 X61.874 Y32.089 F250
M106 S0
M106 S255
G1 X61.892 Y32.059 F250
M106 S0
M106 S255
G1 X61.904 Y32.025 F250
M106 S0
M106 S255
G1 X61.911 Y31.989 F250
M106 S0
M106 S255
G1 X61.913 Y31.949 F250
M106 S0
G0 X58.978 Y31.142 F6000
M106 S255
G1 X58.978 Y31.142 F250
M106 S0
M106 S255
G1 X58.974 Y31.096 F250
M106 S0
M106 S255
G1 X58.961 Y31.047 F250
M106 S0
M106 S255
G1 X58.94 Y30.994 F250
M106 S0
M106 S255
G1 X58.912 Y30.939 F250
M106 S0
M106 S255
G1 X58.878 Y30.882 F250
M106 S0
M106 S255
G1 X58.839 Y30.824 F250
M106 S0
M106 S255
G1 X58.795 Y30.765 F250
M106 S0
M106 S255
G1 X58.747 Y30.706 F250
M106 S0
M106 S255
G1 X58.695 Y30.646 F250
M106 S0
M106 S255
G1 X58.642 Y30.586 F250
M106 S0
M106 S255
G1 X58.589 Y30.527 F250
M106 S0
M106 S255
G1 X58.538 Y30.47 F250
M106 S0
M106 S255
G1 X58.495 Y30.422 F250
M106 S0
M106 S255
G1 X58.45 Y30.374 F250
M106 S0
M106 S255
G1 X58.403 Y30.325 F250
M106 S0
M106 S255
G1 X58.353 Y30.274 F250
M106 S0
M106 S255
G1 X58.298 Y30.219 F250
M106 S0
M106 S255
G1 X58.239 Y30.16 F250
M106 S0
M106 S255
G1 X58.174 Y30.095 F250
M106 S0
M106 S255
G1 X58.102 Y30.023 F250
M106 S0
M106 S255
G1 X58.022 Y29.945 F250
M106 S0
M106 S255
G1 X57.934 Y29.859 F250
M106 S0
M106 S255
G1 X57.837 Y29.764 F250
M106 S0
M106 S255
G1 X57.733 Y29.663 F250
M106 S0
M106 S255
G1 X57.63 Y29.566 F250
M106 S0
M106 S255
G1 X57.52 Y29.465 F250
M106 S0
M106 S255
G1 X57.403 Y29.361 F250
M106 S0
M106 S255
G1 X57.283 Y29.258 F250
M106 S0
M106 S255
G1 X57.163 Y29.155 F250
M106 S0
M106 S255
G1 X57.042 Y29.055 F250
M106 S0
M106 S255
G1 X56.923 Y28.957 F250
M106 S0
M106 S255
G1 X56.806 Y28.862 F250
M106 S0
M106 S255
G1 X56.692 Y28.77 F250
M106 S0
M106 S255
G1 X56.587 Y28.685 F250
M106 S0
M106 S255
G1 X56.492 Y28.607 F250
M106 S0
M106 S255
G1 X56.355 Y28.494 F250
M106 S0
M106 S255
G1 X56.161 Y28.335 F250
M106 S0
M106 S255
G1 X55.972 Y28.183 F250
M106 S0
M106 S255
G1 X55.79 Y28.037 F250
M106 S0
M106 S255
G1 X55.611 Y27.9 F250
M106 S0
M106 S255
G1 X55.433 Y27.773 F250
M106 S0
M106 S255
G1 X55.174 Y27.604 F250
M106 S0
M106 S255
G1 X54.875 Y27.451 F250
M106 S0
M106 S255
G1 X54.625 Y27.376 F250
M106 S0
M106 S255
G1 X54.49 Y27.37 F250
M106 S0
M106 S255
G1 X54.412 Y27.383 F250
M106 S0
M106 S255
G1 X54.327 Y27.408 F250
M106 S0
M106 S255
G1 X54.239 Y27.445 F250
M106 S0
M106 S255
G1 X54.18 Y27.491 F250
M106 S0
M106 S255
G1 X54.152 Y27.547 F250
M106 S0
M106 S255
G1 X54.159 Y27.68 F250
M106 S0
M106 S255
G1 X54.211 Y27.831 F250
M106 S0
M106 S255
G1 X54.309 Y27.956 F250
M106 S0
M106 S255
G1 X54.453 Y28.059 F250
M106 S0
M106 S255
G1 X54.646 Y28.163 F250
M106 S0
M106 S255
G1 X54.89 Y28.273 F250
M106 S0
M106 S255
G1 X55.157 Y28.385 F250
M106 S0
M106 S255
G1 X55.379 Y28.494 F250
M106 S0
M106 S255
G1 X55.555 Y28.601 F250
M106 S0
M106 S255
G1 X55.683 Y28.715 F250
M106 S0
M106 S255
G1 X55.764 Y28.853 F250
M106 S0
M106 S255
G1 X55.798 Y29.019 F250
M106 S0
M106 S255
G1 X55.779 Y29.15 F250
M106 S0
M106 S255
G1 X55.696 Y29.324 F250
M106 S0
M106 S255
G1 X55.548 Y29.562 F250
M106 S0
M106 S255
G1 X55.439 Y29.726 F250
M106 S0
M106 S255
G1 X55.353 Y29.858 F250
M106 S0
M106 S255
G1 X55.275 Y29.982 F250
M106 S0
M106 S255
G1 X55.203 Y30.097 F250
M106 S0
M106 S255
G1 X55.139 Y30.205 F250
M106 S0
M106 S255
G1 X55.081 Y30.305 F250
M106 S0
M106 S255
G1 X54.995 Y30.492 F250
M106 S0
M106 S255
G1 X54.939 Y30.696 F250
M106 S0
M106 S255
G1 X54.919 Y30.907 F250
M106 S0
M106 S255
G1 X54.928 Y31.099 F250
M106 S0
M106 S255
G1 X54.962 Y31.296 F250
M106 S0
M106 S255
G1 X55.019 Y31.499 F250
M106 S0
M106 S255
G1 X55.06 Y31.619 F250
M106 S0
M106 S255
G1 X55.114 Y31.737 F250
M106 S0
M106 S255
G1 X55.181 Y31.856 F250
M106 S0
M106 S255
G1 X55.257 Y31.97 F250
M106 S0
M106 S255
G1 X55.337 Y32.076 F250
M106 S0
M106 S255
G1 X55.422 Y32.173 F250
M106 S0
M106 S255
G1 X55.509 Y32.26 F250
M106 S0
M106 S255
G1 X55.597 Y32.334 F250
M106 S0
M106 S255
G1 X55.686 Y32.395 F250
M106 S0
M106 S255
G1 X55.771 Y32.439 F250
M106 S0
M106 S255
G1 X55.848 Y32.464 F250
M106 S0
M106 S255
G1 X55.937 Y32.469 F250
M106 S0
M106 S255
G1 X56.132 Y32.409 F250
M106 S0
M106 S255
G1 X56.244 Y32.251 F250
M106 S0
M106 S255
G1 X56.274 Y32.023 F250
M106 S0
M106 S255
G1 X56.256 Y31.913 F250
M106 S0
M106 S255
G1 X56.211 Y31.804 F250
M106 S0
M106 S255
G1 X56.147 Y31.708 F250
M106 S0
M106 S255
G1 X56.104 Y31.657 F250
M106 S0
M106 S255
G1 X56.056 Y31.604 F250
M106 S0
M106 S255
G1 X56.001 Y31.55 F250
M106 S0
M106 S255
G1 X55.942 Y31.494 F250
M106 S0
M106 S255
G1 X55.876 Y31.435 F250
M106 S0
M106 S255
G1 X55.806 Y31.375 F250
M106 S0
M106 S255
G1 X55.742 Y31.32 F250
M106 S0
M106 S255
G1 X55.684 Y31.27 F250
M106 S0
M106 S255
G1 X55.634 Y31.225 F250
M106 S0
M106 S255
G1 X55.59 Y31.184 F250
M106 S0
M106 S255
G1 X55.552 Y31.147 F250
M106 S0
M106 S255
G1 X55.532 Y31.077 F250
M106 S0
M106 S255
G1 X55.557 Y30.917 F250
M106 S0
M106 S255
G1 X55.612 Y30.741 F250
M106 S0
M106 S255
G1 X55.68 Y30.586 F250
M106 S0
M106 S255
G1 X55.732 Y30.486 F250
M106 S0
M106 S255
G1 X55.788 Y30.381 F250
M106 S0
M106 S255
G1 X55.849 Y30.27 F250
M106 S0
M106 S255
G1 X55.917 Y30.153 F250
M106 S0
M106 S255
G1 X55.991 Y30.031 F250
M106 S0
M106 S255
G1 X56.07 Y29.904 F250
M106 S0
M106 S255
G1 X56.143 Y29.784 F250
M106 S0
M106 S255
G1 X56.207 Y29.673 F250
M106 S0
M106 S255
G1 X56.263 Y29.572 F250
M106 S0
M106 S255
G1 X56.31 Y29.488 F250
M106 S0
M106 S255
G1 X56.347 Y29.423 F250
M106 S0
M106 S255
G1 X56.364 Y29.393 F250
M106 S0
M106 S255
G1 X56.375 Y29.385 F250
M106 S0
M106 S255
G1 X56.395 Y29.382 F250
M106 S0
M106 S255
G1 X56.431 Y29.384 F250
M106 S0
M106 S255
G1 X56.491 Y29.405 F250
M106 S0
M106 S255
G1 X56.57 Y29.444 F250
M106 S0
M106 S255
G1 X56.666 Y29.502 F250
M106 S0
M106 S255
G1 X56.776 Y29.574 F250
M106 S0
M106 S255
G1 X56.898 Y29.659 F250
M106 S0
M106 S255
G1 X57.031 Y29.756 F250
M106 S0
M106 S255
G1 X57.173 Y29.864 F250
M106 S0
M106 S255
G1 X57.322 Y29.982 F250
M106 S0
M106 S255
G1 X57.478 Y30.11 F250
M106 S0
M106 S255
G1 X57.635 Y30.243 F250
M106 S0
M106 S255
G1 X57.791 Y30.381 F250
M106 S0
M106 S255
G1 X57.946 Y30.522 F250
M106 S0
M106 S255
G1 X58.085 Y30.653 F250
M106 S0
M106 S255
G1 X58.206 Y30.771 F250
M106 S0
M106 S255
G1 X58.311 Y30.879 F250
M106 S0
M106 S255
G1 X58.413 Y30.982 F250
M106 S0
M106 S255
G1 X58.51 Y31.08 F250
M106 S0
M106 S255
G1 X58.6 Y31.17 F250
M106 S0
M106 S255
G1 X58.674 Y31.247 F250
M106 S0
M106 S255
G1 X58.732 Y31.308 F250
M106 S0
M106 S255
G1 X58.773 Y31.354 F250
M106 S0
M106 S255
G1 X58.801 Y31.383 F250
M106 S0
M106 S255
G1 X58.816 Y31.394 F250
M106 S0
M106 S255
G1 X58.836 Y31.393 F250
M106 S0
M106 S255
G1 X58.857 Y31.385 F250
M106 S0
M106 S255
G1 X58.877 Y31.372 F250
M106 S0
M106 S255
G1 X58.896 Y31.354 F250
M106 S0
M106 S255
G1 X58.913 Y31.332 F250
M106 S0
M106 S255
G1 X58.929 Y31.308 F250
M106 S0
M106 S255
G1 X58.944 Y31.281 F250
M106 S0
M106 S255
G1 X58.956 Y31.253 F250
M106 S0
M106 S255
G1 X58.965 Y31.224 F250
M106 S0
M106 S255
G1 X58.972 Y31.196 F250
M106 S0
M106 S255
G1 X58.977 Y31.168 F250
M106 S0
M106 S255
G1 X58.978 Y31.142 F250
M106 S0
G0 X52.149 Y31.829 F6000
M106 S255
G1 X52.149 Y31.829 F250
M106 S0
M106 S255
G1 X52.144 Y31.872 F250
M106 S0
M106 S255
G1 X52.138 Y31.914 F250
M106 S0
M106 S255
G1 X52.129 Y31.956 F250
M106 S0
M106 S255
G1 X52.116 Y31.995 F250
M106 S0
M106 S255
G1 X52.101 Y32.031 F250
M106 S0
M106 S255
G1 X52.081 Y32.064 F250
M106 S0
M106 S255
G1 X52.06 Y32.092 F250
M106 S0
M106 S255
G1 X52.036 Y32.116 F250
M106 S0
M106 S255
G1 X52.01 Y32.135 F250
M106 S0
M106 S255
G1 X51.982 Y32.148 F250
M106 S0
M106 S255
G1 X51.95 Y32.154 F250
M106 S0
M106 S255
G1 X51.857 Y32.144 F250
M106 S0
M106 S255
G1 X51.705 Y32.077 F250
M106 S0
M106 S255
G1 X51.553 Y31.951 F250
M106 S0
M106 S255
G1 X51.401 Y31.77 F250
M106 S0
M106 S255
G1 X51.256 Y31.549 F250
M106 S0
M106 S255
G1 X51.116 Y31.288 F250
M106 S0
M106 S255
G1 X51.059 Y31.168 F250
M106 S0
M106 S255
G1 X51.03 Y31.098 F250
M106 S0
M106 S255
G1 X51.004 Y31.022 F250
M106 S0
M106 S255
G1 X50.98 Y30.943 F250
M106 S0
M106 S255
G1 X50.957 Y30.862 F250
M106 S0
M106 S255
G1 X50.935 Y30.781 F250
M106 S0
M106 S255
G1 X50.915 Y30.699 F250
M106 S0
M106 S255
G1 X50.896 Y30.618 F250
M106 S0
M106 S255
G1 X50.879 Y30.537 F250
M106 S0
M106 S255
G1 X50.865 Y30.46 F250
M106 S0
M106 S255
G1 X50.851 Y30.39 F250
M106 S0
M106 S255
G1 X50.879 Y30.368 F250
M106 S0
M106 S255
G1 X51.023 Y30.476 F250
M106 S0
M106 S255
G1 X51.158 Y30.578 F250
M106 S0
M106 S255
G1 X51.286 Y30.674 F250
M106 S0
M106 S255
G1 X51.407 Y30.77 F250
M106 S0
M106 S255
G1 X51.523 Y30.869 F250
M106 S0
M106 S255
G1 X51.613 Y30.951 F250
M106 S0
M106 S255
G1 X51.683 Y31.018 F250
M106 S0
M106 S255
G1 X51.754 Y31.088 F250
M106 S0
M106 S255
G1 X51.825 Y31.162 F250
M106 S0
M106 S255
G1 X51.892 Y31.238 F250
M106 S0
M106 S255
G1 X51.954 Y31.317 F250
M106 S0
M106 S255
G1 X52.011 Y31.398 F250
M106 S0
M106 S255
G1 X52.059 Y31.481 F250
M106 S0
M106 S255
G1 X52.099 Y31.566 F250
M106 S0
M106 S255
G1 X52.128 Y31.652 F250
M106 S0
M106 S255
G1 X52.145 Y31.74 F250
M106 S0
M106 S255
G1 X52.149 Y31.829 F250
M106 S0
G0 X55.307 Y31.006 F6000
M106 S255
G1 X55.307 Y31.006 F250
M106 S0
M106 S255
G1 X55.297 Y30.953 F250
M106 S0
M106 S255
G1 X55.265 Y30.878 F250
M106 S0
M106 S255
G1 X55.208 Y30.776 F250
M106 S0
M106 S255
G1 X55.056 Y30.565 F250
M106 S0
M106 S255
G1 X54.892 Y30.355 F250
M106 S0
M106 S255
G1 X54.715 Y30.145 F250
M106 S0
M106 S255
G1 X54.53 Y29.939 F250
M106 S0
M106 S255
G1 X54.337 Y29.74 F250
M106 S0
M106 S255
G1 X54.136 Y29.548 F250
M106 S0
M106 S255
G1 X53.929 Y29.364 F250
M106 S0
M106 S255
G1 X53.716 Y29.189 F250
M106 S0
M106 S255
G1 X53.497 Y29.023 F250
M106 S0
M106 S255
G1 X53.276 Y28.869 F250
M106 S0
M106 S255
G1 X53.054 Y28.731 F250
M106 S0
M106 S255
G1 X52.83 Y28.609 F250
M106 S0
M106 S255
G1 X52.605 Y28.503 F250
M106 S0
M106 S255
G1 X52.382 Y28.417 F250
M106 S0
M106 S255
G1 X52.159 Y28.349 F250
M106 S0
M106 S255
G1 X51.94 Y28.303 F250
M106 S0
M106 S255
G1 X51.727 Y28.28 F250
M106 S0
M106 S255
G1 X51.434 Y28.284 F250
M106 S0
M106 S255
G1 X51.044 Y28.36 F250
M106 S0
M106 S255
G1 X50.722 Y28.526 F250
M106 S0
M106 S255
G1 X50.47 Y28.78 F250
M106 S0
M106 S255
G1 X50.299 Y29.124 F250
M106 S0
M106 S255
G1 X50.213 Y29.559 F250
M106 S0
M106 S255
G1 X50.207 Y30.031 F250
M106 S0
M106 S255
G1 X50.252 Y30.463 F250
M106 S0
M106 S255
G1 X50.343 Y30.887 F250
M106 S0
M106 S255
G1 X50.483 Y31.302 F250
M106 S0
M106 S255
G1 X50.685 Y31.706 F250
M106 S0
M106 S255
G1 X50.954 Y32.1 F250
M106 S0
M106 S255
G1 X51.123 Y32.301 F250
M106 S0
M106 S255
G1 X51.19 Y32.367 F250
M106 S0
M106 S255
G1 X51.263 Y32.43 F250
M106 S0
M106 S255
G1 X51.34 Y32.491 F250
M106 S0
M106 S255
G1 X51.42 Y32.547 F250
M106 S0
M106 S255
G1 X51.504 Y32.599 F250
M106 S0
M106 S255
G1 X51.589 Y32.645 F250
M106 S0
M106 S255
G1 X51.677 Y32.685 F250
M106 S0
M106 S255
G1 X51.767 Y32.718 F250
M106 S0
M106 S255
G1 X51.858 Y32.744 F250
M106 S0
M106 S255
G1 X51.95 Y32.763 F250
M106 S0
M106 S255
G1 X52.042 Y32.774 F250
M106 S0
M106 S255
G1 X52.081 Y32.775 F250
M106 S0
M106 S255
G1 X52.111 Y32.772 F250
M106 S0
M106 S255
G1 X52.147 Y32.768 F250
M106 S0
M106 S255
G1 X52.186 Y32.761 F250
M106 S0
M106 S255
G1 X52.228 Y32.752 F250
M106 S0
M106 S255
G1 X52.272 Y32.74 F250
M106 S0
M106 S255
G1 X52.316 Y32.725 F250
M106 S0
M106 S255
G1 X52.36 Y32.707 F250
M106 S0
M106 S255
G1 X52.403 Y32.688 F250
M106 S0
M106 S255
G1 X52.442 Y32.665 F250
M106 S0
M106 S255
G1 X52.476 Y32.639 F250
M106 S0
M106 S255
G1 X52.504 Y32.61 F250
M106 S0
M106 S255
G1 X52.577 Y32.519 F250
M106 S0
M106 S255
G1 X52.639 Y32.427 F250
M106 S0
M106 S255
G1 X52.69 Y32.332 F250
M106 S0
M106 S255
G1 X52.729 Y32.233 F250
M106 S0
M106 S255
G1 X52.754 Y32.127 F250
M106 S0
M106 S255
G1 X52.765 Y32.014 F250
M106 S0
M106 S255
G1 X52.762 Y31.885 F250
M106 S0
M106 S255
G1 X52.746 Y31.759 F250
M106 S0
M106 S255
G1 X52.715 Y31.633 F250
M106 S0
M106 S255
G1 X52.67 Y31.507 F250
M106 S0
M106 S255
G1 X52.608 Y31.379 F250
M106 S0
M106 S255
G1 X52.53 Y31.249 F250
M106 S0
M106 S255
G1 X52.434 Y31.117 F250
M106 S0
M106 S255
G1 X52.322 Y30.981 F250
M106 S0
M106 S255
G1 X52.191 Y30.843 F250
M106 S0
M106 S255
G1 X52.042 Y30.699 F250
M106 S0
M106 S255
G1 X51.874 Y30.547 F250
M106 S0
M106 S255
G1 X51.709 Y30.407 F250
M106 S0
M106 S255
G1 X51.581 Y30.301 F250
M106 S0
M106 S255
G1 X51.444 Y30.187 F250
M106 S0
M106 S255
G1 X51.297 Y30.066 F250
M106 S0
M106 S255
G1 X51.132 Y29.94 F250
M106 S0
M106 S255
G1 X50.947 Y29.81 F250
M106 S0
M106 S255
G1 X50.835 Y29.622 F250
M106 S0
M106 S255
G1 X50.886 Y29.391 F250
M106 S0
M106 S255
G1 X50.993 Y29.204 F250
M106 S0
M106 S255
G1 X51.154 Y29.061 F250
M106 S0
M106 S255
G1 X51.358 Y28.966 F250
M106 S0
M106 S255
G1 X51.604 Y28.92 F250
M106 S0
M106 S255
G1 X51.819 Y28.916 F250
M106 S0
M106 S255
G1 X51.98 Y28.931 F250
M106 S0
M106 S255
G1 X52.142 Y28.96 F250
M106 S0
M106 S255
G1 X52.304 Y29.002 F250
M106 S0
M106 S255
G1 X52.465 Y29.054 F250
M106 S0
M106 S255
G1 X52.624 Y29.115 F250
M106 S0
M106 S255
G1 X52.78 Y29.184 F250
M106 S0
M106 S255
G1 X52.934 Y29.26 F250
M106 S0
M106 S255
G1 X53.084 Y29.343 F250
M106 S0
M106 S255
G1 X53.23 Y29.432 F250
M106 S0
M106 S255
G1 X53.37 Y29.522 F250
M106 S0
M106 S255
G1 X53.503 Y29.613 F250
M106 S0
M106 S255
G1 X53.709 Y29.766 F250
M106 S0
M106 S255
G1 X53.929 Y29.939 F250
M106 S0
M106 S255
G1 X54.133 Y30.112 F250
M106 S0
M106 S255
G1 X54.327 Y30.286 F250
M106 S0
M106 S255
G1 X54.519 Y30.467 F250
M106 S0
M106 S255
G1 X54.711 Y30.654 F250
M106 S0
M106 S255
G1 X54.785 Y30.728 F250
M106 S0
M106 S255
G1 X54.893 Y30.836 F250
M106 S0
M106 S255
G1 X54.963 Y30.906 F250
M106 S0
M106 S255
G1 X55.077 Y30.998 F250
M106 S0
M106 S255
G1 X55.178 Y31.062 F250
M106 S0
M106 S255
G1 X55.254 Y31.085 F250
M106 S0
M106 S255
G1 X55.284 Y31.076 F250
M106 S0
M106 S255
G1 X55.301 Y31.05 F250
M106 S0
M106 S255
G1 X55.307 Y31.006 F250
M106 S0
G0 X50.664 Y33.681 F6000
M106 S255
G1 X50.664 Y33.681 F250
M106 S0
M106 S255
G1 X50.661 Y33.604 F250
M106 S0
M106 S255
G1 X50.652 Y33.541 F250
M106 S0
M106 S255
G1 X50.637 Y33.492 F250
M106 S0
M106 S255
G1 X50.617 Y33.453 F250
M106 S0
M106 S255
G1 X50.593 Y33.424 F250
M106 S0
M106 S255
G1 X50.566 Y33.403 F250
M106 S0
M106 S255
G1 X50.535 Y33.389 F250
M106 S0
M106 S255
G1 X50.502 Y33.38 F250
M106 S0
M106 S255
G1 X50.465 Y33.377 F250
M106 S0
M106 S255
G1 X50.428 Y33.376 F250
M106 S0
M106 S255
G1 X50.391 Y33.375 F250
M106 S0
M106 S255
G1 X50.349 Y33.375 F250
M106 S0
M106 S255
G1 X50.258 Y33.375 F250
M106 S0
M106 S255
G1 X50.173 Y33.376 F250
M106 S0
M106 S255
G1 X50.095 Y33.377 F250
M106 S0
M106 S255
G1 X50.018 Y33.379 F250
M106 S0
M106 S255
G1 X49.942 Y33.381 F250
M106 S0
M106 S255
G1 X49.865 Y33.384 F250
M106 S0
M106 S255
G1 X49.787 Y33.386 F250
M106 S0
M106 S255
G1 X49.706 Y33.388 F250
M106 S0
M106 S255
G1 X49.622 Y33.39 F250
M106 S0
M106 S255
G1 X49.531 Y33.391 F250
M106 S0
M106 S255
G1 X49.432 Y33.391 F250
M106 S0
M106 S255
G1 X49.322 Y33.391 F250
M106 S0
M106 S255
G1 X49.195 Y33.386 F250
M106 S0
M106 S255
G1 X49.053 Y33.374 F250
M106 S0
M106 S255
G1 X48.896 Y33.356 F250
M106 S0
M106 S255
G1 X48.736 Y33.332 F250
M106 S0
M106 S255
G1 X48.577 Y33.306 F250
M106 S0
M106 S255
G1 X48.42 Y33.276 F250
M106 S0
M106 S255
G1 X48.27 Y33.245 F250
M106 S0
M106 S255
G1 X48.13 Y33.212 F250
M106 S0
M106 S255
G1 X48.001 Y33.177 F250
M106 S0
M106 S255
G1 X47.894 Y33.144 F250
M106 S0
M106 S255
G1 X47.814 Y33.114 F250
M106 S0
M106 S255
G1 X47.768 Y33.089 F250
M106 S0
M106 S255
G1 X47.747 Y33.072 F250
M106 S0
M106 S255
G1 X47.726 Y33.051 F250
M106 S0
M106 S255
G1 X47.706 Y33.025 F250
M106 S0
M106 S255
G1 X47.689 Y32.997 F250
M106 S0
M106 S255
G1 X47.672 Y32.967 F250
M106 S0
M106 S255
G1 X47.658 Y32.936 F250
M106 S0
M106 S255
G1 X47.646 Y32.903 F250
M106 S0
M106 S255
G1 X47.634 Y32.871 F250
M106 S0
M106 S255
G1 X47.624 Y32.838 F250
M106 S0
M106 S255
G1 X47.618 Y32.807 F250
M106 S0
M106 S255
G1 X47.614 Y32.779 F250
M106 S0
M106 S255
G1 X47.602 Y32.645 F250
M106 S0
M106 S255
G1 X47.572 Y32.352 F250
M106 S0
M106 S255
G1 X47.54 Y32.061 F250
M106 S0
M106 S255
G1 X47.506 Y31.772 F250
M106 S0
M106 S255
G1 X47.473 Y31.484 F250
M106 S0
M106 S255
G1 X47.442 Y31.198 F250
M106 S0
M106 S255
G1 X47.412 Y30.913 F250
M106 S0
M106 S255
G1 X47.386 Y30.63 F250
M106 S0
M106 S255
G1 X47.362 Y30.349 F250
M106 S0
M106 S255
G1 X47.342 Y30.069 F250
M106 S0
M106 S255
G1 X47.328 Y29.791 F250
M106 S0
M106 S255
G1 X47.321 Y29.515 F250
M106 S0
M106 S255
G1 X47.32 Y29.352 F250
M106 S0
M106 S255
G1 X47.325 Y29.289 F250
M106 S0
M106 S255
G1 X47.333 Y29.211 F250
M106 S0
M106 S255
G1 X47.345 Y29.119 F250
M106 S0
M106 S255
G1 X47.359 Y29.025 F250
M106 S0
M106 S255
G1 X47.373 Y28.93 F250
M106 S0
M106 S255
G1 X47.388 Y28.836 F250
M106 S0
M106 S255
G1 X47.402 Y28.747 F250
M106 S0
M106 S255
G1 X47.416 Y28.666 F250
M106 S0
M106 S255
G1 X47.428 Y28.593 F250
M106 S0
M106 S255
G1 X47.436 Y28.542 F250
M106 S0
M106 S255
G1 X47.439 Y28.511 F250
M106 S0
M106 S255
G1 X47.439 Y28.471 F250
M106 S0
M106 S255
G1 X47.433 Y28.415 F250
M106 S0
M106 S255
G1 X47.421 Y28.359 F250
M106 S0
M106 S255
G1 X47.404 Y28.303 F250
M106 S0
M106 S255
G1 X47.382 Y28.25 F250
M106 S0
M106 S255
G1 X47.357 Y28.201 F250
M106 S0
M106 S255
G1 X47.327 Y28.156 F250
M106 S0
M106 S255
G1 X47.292 Y28.116 F250
M106 S0
M106 S255
G1 X47.253 Y28.083 F250
M106 S0
M106 S255
G1 X47.21 Y28.055 F250
M106 S0
M106 S255
G1 X47.164 Y28.038 F250
M106 S0
M106 S255
G1 X47.116 Y28.03 F250
M106 S0
M106 S255
G1 X47.077 Y28.031 F250
M106 S0
M106 S255
G1 X47.041 Y28.039 F250
M106 S0
M106 S255
G1 X47.004 Y28.053 F250
M106 S0
M106 S255
G1 X46.965 Y28.074 F250
M106 S0
M106 S255
G1 X46.927 Y28.099 F250
M106 S0
M106 S255
G1 X46.889 Y28.129 F250
M106 S0
M106 S255
G1 X46.852 Y28.163 F250
M106 S0
M106 S255
G1 X46.818 Y28.202 F250
M106 S0
M106 S255
G1 X46.785 Y28.245 F250
M106 S0
M106 S255
G1 X46.756 Y28.291 F250
M106 S0
M106 S255
G1 X46.731 Y28.34 F250
M106 S0
M106 S255
G1 X46.711 Y28.391 F250
M106 S0
M106 S255
G1 X46.691 Y28.459 F250
M106 S0
M106 S255
G1 X46.673 Y28.538 F250
M106 S0
M106 S255
G1 X46.657 Y28.624 F250
M106 S0
M106 S255
G1 X46.643 Y28.715 F250
M106 S0
M106 S255
G1 X46.632 Y28.808 F250
M106 S0
M106 S255
G1 X46.623 Y28.904 F250
M106 S0
M106 S255
G1 X46.615 Y29.001 F250
M106 S0
M106 S255
G1 X46.609 Y29.097 F250
M106 S0
M106 S255
G1 X46.605 Y29.194 F250
M106 S0
M106 S255
G1 X46.603 Y29.287 F250
M106 S0
M106 S255
G1 X46.601 Y29.376 F250
M106 S0
M106 S255
G1 X46.601 Y29.458 F250
M106 S0
M106 S255
G1 X46.601 Y29.534 F250
M106 S0
M106 S255
G1 X46.601 Y29.602 F250
M106 S0
M106 S255
G1 X46.603 Y29.662 F250
M106 S0
M106 S255
G1 X46.604 Y29.712 F250
M106 S0
M106 S255
G1 X46.604 Y29.749 F250
M106 S0
M106 S255
G1 X46.605 Y29.773 F250
M106 S0
M106 S255
G1 X46.607 Y29.868 F250
M106 S0
M106 S255
G1 X46.615 Y29.999 F250
M106 S0
M106 S255
G1 X46.629 Y30.162 F250
M106 S0
M106 S255
G1 X46.647 Y30.35 F250
M106 S0
M106 S255
G1 X46.668 Y30.552 F250
M106 S0
M106 S255
G1 X46.692 Y30.768 F250
M106 S0
M106 S255
G1 X46.717 Y30.994 F250
M106 S0
M106 S255
G1 X46.744 Y31.225 F250
M106 S0
M106 S255
G1 X46.773 Y31.461 F250
M106 S0
M106 S255
G1 X46.801 Y31.691 F250
M106 S0
M106 S255
G1 X46.828 Y31.908 F250
M106 S0
M106 S255
G1 X46.854 Y32.111 F250
M106 S0
M106 S255
G1 X46.877 Y32.296 F250
M106 S0
M106 S255
G1 X46.898 Y32.457 F250
M106 S0
M106 S255
G1 X46.916 Y32.595 F250
M106 S0
M106 S255
G1 X46.929 Y32.698 F250
M106 S0
M106 S255
G1 X46.937 Y32.76 F250
M106 S0
M106 S255
G1 X46.94 Y32.784 F250
M106 S0
M106 S255
G1 X46.936 Y32.823 F250
M106 S0
M106 S255
G1 X46.925 Y32.854 F250
M106 S0
M106 S255
G1 X46.908 Y32.877 F250
M106 S0
M106 S255
G1 X46.888 Y32.894 F250
M106 S0
M106 S255
G1 X46.865 Y32.905 F250
M106 S0
M106 S255
G1 X46.841 Y32.913 F250
M106 S0
M106 S255
G1 X46.817 Y32.916 F250
M106 S0
M106 S255
G1 X46.794 Y32.917 F250
M106 S0
M106 S255
G1 X46.773 Y32.916 F250
M106 S0
M106 S255
G1 X46.756 Y32.913 F250
M106 S0
M106 S255
G1 X46.745 Y32.912 F250
M106 S0
M106 S255
G1 X46.72 Y32.912 F250
M106 S0
M106 S255
G1 X46.6 Y32.907 F250
M106 S0
M106 S255
G1 X46.459 Y32.896 F250
M106 S0
M106 S255
G1 X46.298 Y32.879 F250
M106 S0
M106 S255
G1 X46.126 Y32.858 F250
M106 S0
M106 S255
G1 X45.946 Y32.836 F250
M106 S0
M106 S255
G1 X45.759 Y32.813 F250
M106 S0
M106 S255
G1 X45.569 Y32.79 F250
M106 S0
M106 S255
G1 X45.376 Y32.769 F250
M106 S0
M106 S255
G1 X45.181 Y32.75 F250
M106 S0
M106 S255
G1 X44.992 Y32.735 F250
M106 S0
M106 S255
G1 X44.814 Y32.727 F250
M106 S0
M106 S255
G1 X44.683 Y32.726 F250
M106 S0
M106 S255
G1 X44.644 Y32.726 F250
M106 S0
M106 S255
G1 X44.605 Y32.726 F250
M106 S0
M106 S255
G1 X44.566 Y32.726 F250
M106 S0
M106 S255
G1 X44.527 Y32.728 F250
M106 S0
M106 S255
G1 X44.487 Y32.733 F250
M106 S0
M106 S255
G1 X44.447 Y32.741 F250
M106 S0
M106 S255
G1 X44.407 Y32.754 F250
M106 S0
M106 S255
G1 X44.366 Y32.771 F250
M106 S0
M106 S255
G1 X44.326 Y32.792 F250
M106 S0
M106 S255
G1 X44.285 Y32.82 F250
M106 S0
M106 S255
G1 X44.244 Y32.855 F250
M106 S0
M106 S255
G1 X44.218 Y32.89 F250
M106 S0
M106 S255
G1 X44.216 Y32.923 F250
M106 S0
M106 S255
G1 X44.214 Y32.962 F250
M106 S0
M106 S255
G1 X44.213 Y33.005 F250
M106 S0
M106 S255
G1 X44.215 Y33.05 F250
M106 S0
M106 S255
G1 X44.221 Y33.095 F250
M106 S0
M106 S255
G1 X44.231 Y33.141 F250
M106 S0
M106 S255
G1 X44.246 Y33.184 F250
M106 S0
M106 S255
G1 X44.269 Y33.225 F250
M106 S0
M106 S255
G1 X44.298 Y33.262 F250
M106 S0
M106 S255
G1 X44.337 Y33.291 F250
M106 S0
M106 S255
G1 X44.386 Y33.313 F250
M106 S0
M106 S255
G1 X44.478 Y33.335 F250
M106 S0
M106 S255
G1 X44.614 Y33.359 F250
M106 S0
M106 S255
G1 X44.763 Y33.379 F250
M106 S0
M106 S255
G1 X44.922 Y33.396 F250
M106 S0
M106 S255
G1 X45.083 Y33.411 F250
M106 S0
M106 S255
G1 X45.247 Y33.423 F250
M106 S0
M106 S255
G1 X45.412 Y33.435 F250
M106 S0
M106 S255
G1 X45.574 Y33.446 F250
M106 S0
M106 S255
G1 X45.734 Y33.457 F250
M106 S0
M106 S255
G1 X45.889 Y33.468 F250
M106 S0
M106 S255
G1 X46.033 Y33.482 F250
M106 S0
M106 S255
G1 X46.166 Y33.497 F250
M106 S0
M106 S255
G1 X46.27 Y33.51 F250
M106 S0
M106 S255
G1 X46.372 Y33.523 F250
M106 S0
M106 S255
G1 X46.487 Y33.538 F250
M106 S0
M106 S255
G1 X46.615 Y33.555 F250
M106 S0
M106 S255
G1 X46.745 Y33.573 F250
M106 S0
M106 S255
G1 X46.878 Y33.591 F250
M106 S0
M106 S255
G1 X47.012 Y33.611 F250
M106 S0
M106 S255
G1 X47.144 Y33.63 F250
M106 S0
M106 S255
G1 X47.272 Y33.65 F250
M106 S0
M106 S255
G1 X47.396 Y33.669 F250
M106 S0
M106 S255
G1 X47.504 Y33.687 F250
M106 S0
M106 S255
G1 X47.597 Y33.705 F250
M106 S0
M106 S255
G1 X47.74 Y33.734 F250
M106 S0
M106 S255
G1 X47.915 Y33.772 F250
M106 S0
M106 S255
G1 X48.097 Y33.813 F250
M106 S0
M106 S255
G1 X48.285 Y33.857 F250
M106 S0
M106 S255
G1 X48.474 Y33.9 F250
M106 S0
M106 S255
G1 X48.665 Y33.941 F250
M106 S0
M106 S255
G1 X48.857 Y33.98 F250
M106 S0
M106 S255
G1 X49.047 Y34.015 F250
M106 S0
M106 S255
G1 X49.237 Y34.045 F250
M106 S0
M106 S255
G1 X49.424 Y34.069 F250
M106 S0
M106 S255
G1 X49.606 Y34.084 F250
M106 S0
M106 S255
G1 X49.782 Y34.09 F250
M106 S0
M106 S255
G1 X49.836 Y34.09 F250
M106 S0
M106 S255
G1 X49.868 Y34.089 F250
M106 S0
M106 S255
G1 X49.91 Y34.088 F250
M106 S0
M106 S255
G1 X49.96 Y34.086 F250
M106 S0
M106 S255
G1 X50.014 Y34.083 F250
M106 S0
M106 S255
G1 X50.072 Y34.078 F250
M106 S0
M106 S255
G1 X50.134 Y34.072 F250
M106 S0
M106 S255
G1 X50.199 Y34.064 F250
M106 S0
M106 S255
G1 X50.267 Y34.054 F250
M106 S0
M106 S255
G1 X50.336 Y34.042 F250
M106 S0
M106 S255
G1 X50.401 Y34.027 F250
M106 S0
M106 S255
G1 X50.464 Y34.009 F250
M106 S0
M106 S255
G1 X50.497 Y33.997 F250
M106 S0
M106 S255
G1 X50.524 Y33.98 F250
M106 S0
M106 S255
G1 X50.549 Y33.956 F250
M106 S0
M106 S255
G1 X50.572 Y33.927 F250
M106 S0
M106 S255
G1 X50.592 Y33.897 F250
M106 S0
M106 S255
G1 X50.61 Y33.864 F250
M106 S0
M106 S255
G1 X50.625 Y33.831 F250
M106 S0
M106 S255
G1 X50.639 Y33.798 F250
M106 S0
M106 S255
G1 X50.65 Y33.764 F250
M106 S0
M106 S255
G1 X50.658 Y33.733 F250
M106 S0
M106 S255
G1 X50.663 Y33.705 F250
M106 S0
M106 S255
G1 X50.664 Y33.681 F250
M106 S0
G0 X61.314 Y40.148 F6000
M106 S255
G1 X61.314 Y40.148 F250
M106 S0
M106 S255
G1 X60.922 Y40.064 F250
M106 S0
M106 S255
G1 X60.75 Y40.047 F250
M106 S0
M106 S255
G1 X60.67 Y40.045 F250
M106 S0
M106 S255
G1 X60.514 Y40.05 F250
M106 S0
M106 S255
G1 X60.211 Y40.102 F250
M106 S0
M106 S255
G1 X59.948 Y40.21 F250
M106 S0
M106 S255
G1 X59.724 Y40.372 F250
M106 S0
M106 S255
G1 X59.546 Y40.587 F250
M106 S0
M106 S255
G1 X59.424 Y40.849 F250
M106 S0
M106 S255
G1 X59.359 Y41.157 F250
M106 S0
M106 S255
G1 X59.347 Y41.328 F250
M106 S0
M106 S255
G1 X59.346 Y41.392 F250
M106 S0
M106 S255
G1 X59.346 Y41.453 F250
M106 S0
M106 S255
G1 X59.346 Y41.578 F250
M106 S0
M106 S255
G1 X59.346 Y41.755 F250
M106 S0
M106 S255
G1 X59.346 Y42.223 F250
M106 S0
M106 S255
G1 X59.346 Y43.305 F250
M106 S0
M106 S255
G1 X59.346 Y43.542 F250
M106 S0
M106 S255
G1 X59.346 Y43.743 F250
M106 S0
M106 S255
G1 X59.346 Y43.899 F250
M106 S0
M106 S255
G1 X59.346 Y43.996 F250
M106 S0
M106 S255
G1 X59.346 Y44.026 F250
M106 S0
M106 S255
G1 X59.336 Y44.026 F250
M106 S0
M106 S255
G1 X59.277 Y44.026 F250
M106 S0
M106 S255
G1 X59.065 Y44.026 F250
M106 S0
M106 S255
G1 X58.853 Y44.026 F250
M106 S0
M106 S255
G1 X58.794 Y44.026 F250
M106 S0
M106 S255
G1 X58.784 Y44.033 F250
M106 S0
M106 S255
G1 X58.784 Y44.091 F250
M106 S0
M106 S255
G1 X58.784 Y44.193 F250
M106 S0
M106 S255
G1 X58.784 Y44.444 F250
M106 S0
M106 S255
G1 X58.784 Y44.553 F250
M106 S0
M106 S255
G1 X58.784 Y44.622 F250
M106 S0
M106 S255
G1 X58.788 Y44.638 F250
M106 S0
M106 S255
G1 X58.836 Y44.638 F250
M106 S0
M106 S255
G1 X59.258 Y44.638 F250
M106 S0
M106 S255
G1 X59.328 Y44.638 F250
M106 S0
M106 S255
G1 X59.346 Y44.64 F250
M106 S0
M106 S255
G1 X59.346 Y44.701 F250
M106 S0
M106 S255
G1 X59.346 Y44.826 F250
M106 S0
M106 S255
G1 X59.346 Y45.158 F250
M106 S0
M106 S255
G1 X59.346 Y45.31 F250
M106 S0
M106 S255
G1 X59.346 Y45.417 F250
M106 S0
M106 S255
G1 X59.347 Y45.452 F250
M106 S0
M106 S255
G1 X59.4 Y45.457 F250
M106 S0
M106 S255
G1 X59.519 Y45.469 F250
M106 S0
M106 S255
G1 X59.677 Y45.484 F250
M106 S0
M106 S255
G1 X60.004 Y45.515 F250
M106 S0
M106 S255
G1 X60.117 Y45.526 F250
M106 S0
M106 S255
G1 X60.161 Y45.531 F250
M106 S0
M106 S255
G1 X60.161 Y45.483 F250
M106 S0
M106 S255
G1 X60.161 Y45.358 F250
M106 S0
M106 S255
G1 X60.161 Y45.001 F250
M106 S0
M106 S255
G1 X60.161 Y44.827 F250
M106 S0
M106 S255
G1 X60.161 Y44.696 F250
M106 S0
M106 S255
G1 X60.161 Y44.638 F250
M106 S0
M106 S255
G1 X60.211 Y44.638 F250
M106 S0
M106 S255
G1 X60.365 Y44.638 F250
M106 S0
M106 S255
G1 X60.585 Y44.638 F250
M106 S0
M106 S255
G1 X61.062 Y44.638 F250
M106 S0
M106 S255
G1 X61.243 Y44.638 F250
M106 S0
M106 S255
G1 X61.331 Y44.638 F250
M106 S0
M106 S255
G1 X61.335 Y44.617 F250
M106 S0
M106 S255
G1 X61.335 Y44.542 F250
M106 S0
M106 S255
G1 X61.335 Y44.303 F250
M106 S0
M106 S255
G1 X61.335 Y44.082 F250
M106 S0
M106 S255
G1 X61.335 Y44.03 F250
M106 S0
M106 S255
G1 X61.306 Y44.026 F250
M106 S0
M106 S255
G1 X61.171 Y44.026 F250
M106 S0
M106 S255
G1 X60.963 Y44.026 F250
M106 S0
M106 S255
G1 X60.481 Y44.026 F250
M106 S0
M106 S255
G1 X60.286 Y44.026 F250
M106 S0
M106 S255
G1 X60.174 Y44.026 F250
M106 S0
M106 S255
G1 X60.161 Y44.025 F250
M106 S0
M106 S255
G1 X60.161 Y43.983 F250
M106 S0
M106 S255
G1 X60.161 Y43.878 F250
M106 S0
M106 S255
G1 X60.161 Y43.721 F250
M106 S0
M106 S255
G1 X60.161 Y43.292 F250
M106 S0
M106 S255
G1 X60.161 Y42.781 F250
M106 S0
M106 S255
G1 X60.161 Y42.27 F250
M106 S0
M106 S255
G1 X60.161 Y41.842 F250
M106 S0
M106 S255
G1 X60.161 Y41.685 F250
M106 S0
M106 S255
G1 X60.161 Y41.58 F250
M106 S0
M106 S255
G1 X60.161 Y41.479 F250
M106 S0
M106 S255
G1 X60.182 Y41.244 F250
M106 S0
M106 S255
G1 X60.232 Y41.052 F250
M106 S0
M106 S255
G1 X60.31 Y40.902 F250
M106 S0
M106 S255
G1 X60.418 Y40.792 F250
M106 S0
M106 S255
G1 X60.56 Y40.714 F250
M106 S0
M106 S255
G1 X60.736 Y40.669 F250
M106 S0
M106 S255
G1 X60.931 Y40.656 F250
M106 S0
M106 S255
G1 X61.029 Y40.662 F250
M106 S0
M106 S255
G1 X61.257 Y40.698 F250
M106 S0
M106 S255
G1 X61.314 Y40.71 F250
M106 S0
M106 S255
G1 X61.314 Y40.673 F250
M106 S0
M106 S255
G1 X61.314 Y40.481 F250
M106 S0
M106 S255
G1 X61.314 Y40.256 F250
M106 S0
M106 S255
G1 X61.314 Y40.178 F250
M106 S0
M106 S255
G1 X61.314 Y40.148 F250
M106 S0
M106 S255
G1 X61.314 Y40.148 F250
M106 S0
G0 X54.832 Y40.305 F6000
M106 S255
G1 X54.832 Y40.305 F250
M106 S0
M106 S255
G1 X54.832 Y40.508 F250
M106 S0
M106 S255
G1 X54.832 Y40.877 F250
M106 S0
M106 S255
G1 X54.874 Y41.033 F250
M106 S0
M106 S255
G1 X55.392 Y40.815 F250
M106 S0
M106 S255
G1 X55.861 Y40.69 F250
M106 S0
M106 S255
G1 X56.257 Y40.657 F250
M106 S0
M106 S255
G1 X56.477 Y40.686 F250
M106 S0
M106 S255
G1 X56.671 Y40.76 F250
M106 S0
M106 S255
G1 X56.837 Y40.878 F250
M106 S0
M106 S255
G1 X56.957 Y41.024 F250
M106 S0
M106 S255
G1 X57.022 Y41.193 F250
M106 S0
M106 S255
G1 X57.034 Y41.36 F250
M106 S0
M106 S255
G1 X57.012 Y41.48 F250
M106 S0
M106 S255
G1 X56.963 Y41.599 F250
M106 S0
M106 S255
G1 X56.883 Y41.715 F250
M106 S0
M106 S255
G1 X56.742 Y41.832 F250
M106 S0
M106 S255
G1 X56.529 Y41.95 F250
M106 S0
M106 S255
G1 X56.353 Y42.028 F250
M106 S0
M106 S255
G1 X56.147 Y42.115 F250
M106 S0
M106 S255
G1 X55.941 Y42.203 F250
M106 S0
M106 S255
G1 X55.716 Y42.303 F250
M106 S0
M106 S255
G1 X55.411 Y42.477 F250
M106 S0
M106 S255
G1 X55.177 Y42.668 F250
M106 S0
M106 S255
G1 X55.01 Y42.878 F250
M106 S0
M106 S255
G1 X54.903 Y43.117 F250
M106 S0
M106 S255
G1 X54.855 Y43.389 F250
M106 S0
M106 S255
G1 X54.875 Y43.726 F250
M106 S0
M106 S255
G1 X54.984 Y44.045 F250
M106 S0
M106 S255
G1 X55.186 Y44.323 F250
M106 S0
M106 S255
G1 X55.48 Y44.546 F250
M106 S0
M106 S255
G1 X55.861 Y44.685 F250
M106 S0
M106 S255
G1 X56.332 Y44.74 F250
M106 S0
M106 S255
G1 X56.645 Y44.732 F250
M106 S0
M106 S255
G1 X56.959 Y44.7 F250
M106 S0
M106 S255
G1 X57.315 Y44.643 F250
M106 S0
M106 S255
G1 X57.385 Y44.63 F250
M106 S0
M106 S255
G1 X57.469 Y44.613 F250
M106 S0
M106 S255
G1 X57.515 Y44.605 F250
M106 S0
M106 S255
G1 X57.515 Y44.42 F250
M106 S0
M106 S255
G1 X57.515 Y44.083 F250
M106 S0
M106 S255
G1 X57.479 Y43.933 F250
M106 S0
M106 S255
G1 X57.048 Y44.047 F250
M106 S0
M106 S255
G1 X56.682 Y44.112 F250
M106 S0
M106 S255
G1 X56.382 Y44.129 F250
M106 S0
M106 S255
G1 X56.142 Y44.103 F250
M106 S0
M106 S255
G1 X55.949 Y44.037 F250
M106 S0
M106 S255
G1 X55.803 Y43.932 F250
M106 S0
M106 S255
G1 X55.703 Y43.805 F250
M106 S0
M106 S255
G1 X55.649 Y43.664 F250
M106 S0
M106 S255
G1 X55.639 Y43.52 F250
M106 S0
M106 S255
G1 X55.664 Y43.402 F250
M106 S0
M106 S255
G1 X55.721 Y43.294 F250
M106 S0
M106 S255
G1 X55.808 Y43.192 F250
M106 S0
M106 S255
G1 X55.939 Y43.091 F250
M106 S0
M106 S255
G1 X56.118 Y42.991 F250
M106 S0
M106 S255
G1 X56.261 Y42.926 F250
M106 S0
M106 S255
G1 X56.431 Y42.854 F250
M106 S0
M106 S255
G1 X56.601 Y42.782 F250
M106 S0
M106 S255
G1 X56.9 Y42.648 F250
M106 S0
M106 S255
G1 X57.301 Y42.421 F250
M106 S0
M106 S255
G1 X57.568 Y42.195 F250
M106 S0
M106 S255
G1 X57.715 Y41.969 F250
M106 S0
M106 S255
G1 X57.806 Y41.73 F250
M106 S0
M106 S255
G1 X57.847 Y41.478 F250
M106 S0
M106 S255
G1 X57.838 Y41.226 F250
M106 S0
M106 S255
G1 X57.782 Y40.989 F250
M106 S0
M106 S255
G1 X57.68 Y40.765 F250
M106 S0
M106 S255
G1 X57.53 Y40.559 F250
M106 S0
M106 S255
G1 X57.337 Y40.384 F250
M106 S0
M106 S255
G1 X57.099 Y40.241 F250
M106 S0
M106 S255
G1 X56.824 Y40.134 F250
M106 S0
M106 S255
G1 X56.529 Y40.069 F250
M106 S0
M106 S255
G1 X56.213 Y40.045 F250
M106 S0
M106 S255
G1 X55.811 Y40.071 F250
M106 S0
M106 S255
G1 X55.35 Y40.157 F250
M106 S0
M106 S255
G1 X54.832 Y40.305 F250
M106 S0
G0 X50.793 Y42.876 F6000
M106 S255
G1 X50.793 Y42.876 F250
M106 S0
M106 S255
G1 X50.828 Y42.876 F250
M106 S0
M106 S255
G1 X50.926 Y42.876 F250
M106 S0
M106 S255
G1 X51.265 Y42.876 F250
M106 S0
M106 S255
G1 X52.186 Y42.876 F250
M106 S0
M106 S255
G1 X52.581 Y42.876 F250
M106 S0
M106 S255
G1 X52.721 Y42.876 F250
M106 S0
M106 S255
G1 X52.808 Y42.876 F250
M106 S0
M106 S255
G1 X52.831 Y42.897 F250
M106 S0
M106 S255
G1 X52.828 Y42.999 F250
M106 S0
M106 S255
G1 X52.814 Y43.189 F250
M106 S0
M106 S255
G1 X52.745 Y43.513 F250
M106 S0
M106 S255
G1 X52.624 Y43.761 F250
M106 S0
M106 S255
G1 X52.454 Y43.938 F250
M106 S0
M106 S255
G1 X52.253 Y44.057 F250
M106 S0
M106 S255
G1 X52.022 Y44.119 F250
M106 S0
M106 S255
G1 X51.752 Y44.124 F250
M106 S0
M106 S255
G1 X51.489 Y44.069 F250
M106 S0
M106 S255
G1 X51.266 Y43.954 F250
M106 S0
M106 S255
G1 X51.085 Y43.777 F250
M106 S0
M106 S255
G1 X50.946 Y43.538 F250
M106 S0
M106 S255
G1 X50.848 Y43.238 F250
M106 S0
M106 S255
G1 X50.793 Y42.876 F250
M106 S0
M106 S255
G1 X50.793 Y42.876 F250
M106 S0
G0 X53.625 Y40.293 F6000
M106 S255
G1 X53.625 Y40.293 F250
M106 S0
M106 S255
G1 X53.224 Y40.184 F250
M106 S0
M106 S255
G1 X52.854 Y40.107 F250
M106 S0
M106 S255
G1 X52.513 Y40.06 F250
M106 S0
M106 S255
G1 X52.202 Y40.045 F250
M106 S0
M106 S255
G1 X51.7 Y40.089 F250
M106 S0
M106 S255
G1 X51.254 Y40.221 F250
M106 S0
M106 S255
G1 X50.865 Y40.441 F250
M106 S0
M106 S255
G1 X50.533 Y40.749 F250
M106 S0
M106 S255
G1 X50.267 Y41.118 F250
M106 S0
M106 S255
G1 X50.077 Y41.518 F250
M106 S0
M106 S255
G1 X49.963 Y41.95 F250
M106 S0
M106 S255
G1 X49.925 Y42.413 F250
M106 S0
M106 S255
G1 X49.941 Y42.726 F250
M106 S0
M106 S255
G1 X49.992 Y43.03 F250
M106 S0
M106 S255
G1 X50.075 Y43.327 F250
M106 S0
M106 S255
G1 X50.193 Y43.616 F250
M106 S0
M106 S255
G1 X50.337 Y43.883 F250
M106 S0
M106 S255
G1 X50.503 Y44.114 F250
M106 S0
M106 S255
G1 X50.689 Y44.307 F250
M106 S0
M106 S255
G1 X50.895 Y44.464 F250
M106 S0
M106 S255
G1 X51.122 Y44.585 F250
M106 S0
M106 S255
G1 X51.368 Y44.672 F250
M106 S0
M106 S255
G1 X51.633 Y44.724 F250
M106 S0
M106 S255
G1 X51.917 Y44.741 F250
M106 S0
M106 S255
G1 X52.291 Y44.706 F250
M106 S0
M106 S255
G1 X52.626 Y44.601 F250
M106 S0
M106 S255
G1 X52.921 Y44.427 F250
M106 S0
M106 S255
G1 X53.175 Y44.183 F250
M106 S0
M106 S255
G1 X53.381 Y43.869 F250
M106 S0
M106 S255
G1 X53.528 Y43.486 F250
M106 S0
M106 S255
G1 X53.616 Y43.034 F250
M106 S0
M106 S255
G1 X53.645 Y42.513 F250
M106 S0
M106 S255
G1 X53.645 Y42.474 F250
M106 S0
M106 S255
G1 X53.643 Y42.389 F250
M106 S0
M106 S255
G1 X53.642 Y42.303 F250
M106 S0
M106 S255
G1 X53.641 Y42.265 F250
M106 S0
M106 S255
G1 X53.609 Y42.265 F250
M106 S0
M106 S255
G1 X53.517 Y42.265 F250
M106 S0
M106 S255
G1 X53.375 Y42.265 F250
M106 S0
M106 S255
G1 X53.19 Y42.265 F250
M106 S0
M106 S255
G1 X52.728 Y42.265 F250
M106 S0
M106 S255
G1 X52.198 Y42.265 F250
M106 S0
M106 S255
G1 X51.669 Y42.265 F250
M106 S0
M106 S255
G1 X51.206 Y42.265 F250
M106 S0
M106 S255
G1 X51.022 Y42.265 F250
M106 S0
M106 S255
G1 X50.88 Y42.265 F250
M106 S0
M106 S255
G1 X50.788 Y42.265 F250
M106 S0
M106 S255
G1 X50.756 Y42.265 F250
M106 S0
M106 S255
G1 X50.797 Y41.984 F250
M106 S0
M106 S255
G1 X50.854 Y41.737 F250
M106 S0
M106 S255
G1 X50.928 Y41.525 F250
M106 S0
M106 S255
G1 X51.017 Y41.347 F250
M106 S0
M106 S255
G1 X51.243 Y41.06 F250
M106 S0
M106 S255
G1 X51.533 Y40.845 F250
M106 S0
M106 S255
G1 X51.705 Y40.766 F250
M106 S0
M106 S255
G1 X51.899 Y40.71 F250
M106 S0
M106 S255
G1 X52.115 Y40.676 F250
M106 S0
M106 S255
G1 X52.352 Y40.665 F250
M106 S0
M106 S255
G1 X52.856 Y40.708 F250
M106 S0
M106 S255
G1 X52.998 Y40.739 F250
M106 S0
M106 S255
G1 X53.173 Y40.787 F250
M106 S0
M106 S255
G1 X53.382 Y40.853 F250
M106 S0
M106 S255
G1 X53.625 Y40.938 F250
M106 S0
M106 S255
G1 X53.625 Y40.91 F250
M106 S0
M106 S255
G1 X53.625 Y40.837 F250
M106 S0
M106 S255
G1 X53.625 Y40.615 F250
M106 S0
M106 S255
G1 X53.625 Y40.393 F250
M106 S0
M106 S255
G1 X53.625 Y40.32 F250
M106 S0
M106 S255
G1 X53.625 Y40.293 F250
M106 S0
M106 S255
G1 X53.625 Y40.293 F250
M106 S0
G0 X25.285 Y16.301 F6000
M106 S255
G1 X25.285 Y16.301 F250
M106 S0
M106 S255
G1 X25.235 Y15.992 F250
M106 S0
M106 S255
G1 X25.085 Y15.747 F250
M106 S0
M106 S255
G1 X24.835 Y15.566 F250
M106 S0
M106 S255
G1 X24.485 Y15.448 F250
M106 S0
M106 S255
G1 X24.035 Y15.395 F250
M106 S0
M106 S255
G1 X23.826 Y15.392 F250
M106 S0
M106 S255
G1 X23.713 Y15.397 F250
M106 S0
M106 S255
G1 X23.224 Y15.476 F250
M106 S0
M106 S255
G1 X22.678 Y15.651 F250
M106 S0
M106 S255
G1 X22.532 Y15.71 F250
M106 S0
M106 S255
G1 X22.483 Y15.732 F250
M106 S0
M106 S255
G1 X22.49 Y15.75 F250
M106 S0
M106 S255
G1 X22.532 Y15.854 F250
M106 S0
M106 S255
G1 X23.103 Y15.65 F250
M106 S0
M106 S255
G1 X23.588 Y15.541 F250
M106 S0
M106 S255
G1 X24.361 Y15.549 F250
M106 S0
M106 S255
G1 X24.64 Y15.608 F250
M106 S0
M106 S255
G1 X24.905 Y15.744 F250
M106 S0
M106 S255
G1 X25.088 Y15.979 F250
M106 S0
M106 S255
G1 X25.149 Y16.301 F250
M106 S0
M106 S255
G1 X25.099 Y16.573 F250
M106 S0
M106 S255
G1 X24.951 Y16.807 F250
M106 S0
M106 S255
G1 X24.84 Y16.91 F250
M106 S0
M106 S255
G1 X24.781 Y16.954 F250
M106 S0
M106 S255
G1 X24.712 Y16.998 F250
M106 S0
M106 S255
G1 X24.481 Y17.123 F250
M106 S0
M106 S255
G1 X24.119 Y17.297 F250
M106 S0
M106 S255
G1 X24.027 Y17.342 F250
M106 S0
M106 S255
G1 X23.804 Y17.449 F250
M106 S0
M106 S255
G1 X23.279 Y17.702 F250
M106 S0
M106 S255
G1 X22.834 Y17.943 F250
M106 S0
M106 S255
G1 X22.55 Y18.229 F250
M106 S0
M106 S255
G1 X22.441 Y18.67 F250
M106 S0
M106 S255
G1 X22.479 Y18.98 F250
M106 S0
M106 S255
G1 X22.593 Y19.227 F250
M106 S0
M106 S255
G1 X22.784 Y19.409 F250
M106 S0
M106 S255
G1 X23.05 Y19.526 F250
M106 S0
M106 S255
G1 X23.393 Y19.58 F250
M106 S0
M106 S255
G1 X23.691 Y19.578 F250
M106 S0
M106 S255
G1 X24.187 Y19.498 F250
M106 S0
M106 S255
G1 X24.674 Y19.321 F250
M106 S0
M106 S255
G1 X24.795 Y19.261 F250
M106 S0
M106 S255
G1 X24.834 Y19.239 F250
M106 S0
M106 S255
G1 X24.824 Y19.222 F250
M106 S0
M106 S255
G1 X24.768 Y19.12 F250
M106 S0
M106 S255
G1 X24.144 Y19.322 F250
M106 S0
M106 S255
G1 X23.709 Y19.431 F250
M106 S0
M106 S255
G1 X23.562 Y19.45 F250
M106 S0
M106 S255
G1 X23.466 Y19.45 F250
M106 S0
M106 S255
G1 X23.301 Y19.439 F250
M106 S0
M106 S255
G1 X23.023 Y19.375 F250
M106 S0
M106 S255
G1 X22.811 Y19.256 F250
M106 S0
M106 S255
G1 X22.666 Y19.082 F250
M106 S0
M106 S255
G1 X22.588 Y18.853 F250
M106 S0
M106 S255
G1 X22.575 Y18.623 F250
M106 S0
M106 S255
G1 X22.595 Y18.488 F250
M106 S0
M106 S255
G1 X22.711 Y18.246 F250
M106 S0
M106 S255
G1 X22.925 Y18.041 F250
M106 S0
M106 S255
G1 X23.055 Y17.967 F250
M106 S0
M106 S255
G1 X23.334 Y17.828 F250
M106 S0
M106 S255
G1 X23.529 Y17.734 F250
M106 S0
M106 S255
G1 X23.664 Y17.67 F250
M106 S0
M106 S255
G1 X23.886 Y17.566 F250
M106 S0
M106 S255
G1 X24.171 Y17.432 F250
M106 S0
M106 S255
G1 X24.252 Y17.393 F250
M106 S0
M106 S255
G1 X24.397 Y17.323 F250
M106 S0
M106 S255
G1 X24.69 Y17.169 F250
M106 S0
M106 S255
G1 X24.899 Y17.038 F250
M106 S0
M106 S255
G1 X25.097 Y16.855 F250
M106 S0
M106 S255
G1 X25.238 Y16.601 F250
M106 S0
M106 S255
G1 X25.285 Y16.301 F250
M106 S0
M106 S255
G1 X25.285 Y16.301 F250
M106 S0
G0 X18.443 Y17.554 F6000
M106 S255
G1 X18.443 Y17.554 F250
M106 S0
M106 S255
G1 X18.443 Y17.574 F250
M106 S0
M106 S255
G1 X18.443 Y17.628 F250
M106 S0
M106 S255
G1 X18.443 Y17.801 F250
M106 S0
M106 S255
G1 X18.443 Y17.995 F250
M106 S0
M106 S255
G1 X18.443 Y18.135 F250
M106 S0
M106 S255
G1 X18.443 Y18.161 F250
M106 S0
M106 S255
G1 X18.44 Y18.261 F250
M106 S0
M106 S255
G1 X18.407 Y18.481 F250
M106 S0
M106 S255
G1 X18.337 Y18.687 F250
M106 S0
M106 S255
G1 X18.232 Y18.877 F250
M106 S0
M106 S255
G1 X18.09 Y19.051 F250
M106 S0
M106 S255
G1 X17.922 Y19.203 F250
M106 S0
M106 S255
G1 X17.737 Y19.319 F250
M106 S0
M106 S255
G1 X17.537 Y19.398 F250
M106 S0
M106 S255
G1 X17.321 Y19.442 F250
M106 S0
M106 S255
G1 X17.091 Y19.45 F250
M106 S0
M106 S255
G1 X16.868 Y19.421 F250
M106 S0
M106 S255
G1 X16.66 Y19.357 F250
M106 S0
M106 S255
G1 X16.468 Y19.257 F250
M106 S0
M106 S255
G1 X16.292 Y19.121 F250
M106 S0
M106 S255
G1 X16.136 Y18.953 F250
M106 S0
M106 S255
G1 X16.015 Y18.77 F250
M106 S0
M106 S255
G1 X15.93 Y18.571 F250
M106 S0
M106 S255
G1 X15.881 Y18.357 F250
M106 S0
M106 S255
G1 X15.87 Y18.244 F250
M106 S0
M106 S255
G1 X15.868 Y18.186 F250
M106 S0
M106 S255
G1 X15.868 Y18.16 F250
M106 S0
M106 S255
G1 X15.868 Y18.066 F250
M106 S0
M106 S255
G1 X15.868 Y17.695 F250
M106 S0
M106 S255
G1 X15.868 Y17.569 F250
M106 S0
M106 S255
G1 X15.87 Y17.554 F250
M106 S0
M106 S255
G1 X15.904 Y17.554 F250
M106 S0
M106 S255
G1 X15.978 Y17.554 F250
M106 S0
M106 S255
G1 X16.226 Y17.554 F250
M106 S0
M106 S255
G1 X16.572 Y17.554 F250
M106 S0
M106 S255
G1 X17.396 Y17.554 F250
M106 S0
M106 S255
G1 X17.793 Y17.554 F250
M106 S0
M106 S255
G1 X18.127 Y17.554 F250
M106 S0
M106 S255
G1 X18.358 Y17.554 F250
M106 S0
M106 S255
G1 X18.421 Y17.554 F250
M106 S0
M106 S255
G1 X18.443 Y17.554 F250
M106 S0
M106 S255
G1 X18.443 Y17.554 F250
M106 S0
G0 X18.58 Y17.417 F6000
M106 S255
G1 X18.58 Y17.417 F250
M106 S0
M106 S255
G1 X18.553 Y17.417 F250
M106 S0
M106 S255
G1 X18.477 Y17.417 F250
M106 S0
M106 S255
G1 X18.358 Y17.417 F250
M106 S0
M106 S255
G1 X18.203 Y17.417 F250
M106 S0
M106 S255
G1 X17.81 Y17.417 F250
M106 S0
M106 S255
G1 X17.351 Y17.417 F250
M106 S0
M106 S255
G1 X16.878 Y17.417 F250
M106 S0
M106 S255
G1 X16.443 Y17.417 F250
M106 S0
M106 S255
G1 X16.099 Y17.417 F250
M106 S0
M106 S255
G1 X15.977 Y17.417 F250
M106 S0
M106 S255
G1 X15.898 Y17.417 F250
M106 S0
M106 S255
G1 X15.868 Y17.417 F250
M106 S0
M106 S255
G1 X15.868 Y17.412 F250
M106 S0
M106 S255
G1 X15.868 Y17.37 F250
M106 S0
M106 S255
G1 X15.868 Y17.198 F250
M106 S0
M106 S255
G1 X15.868 Y16.989 F250
M106 S0
M106 S255
G1 X15.868 Y16.836 F250
M106 S0
M106 S255
G1 X15.868 Y16.81 F250
M106 S0
M106 S255
G1 X15.871 Y16.646 F250
M106 S0
M106 S255
G1 X15.904 Y16.336 F250
M106 S0
M106 S255
G1 X15.971 Y16.079 F250
M106 S0
M106 S255
G1 X16.072 Y15.875 F250
M106 S0
M106 S255
G1 X16.203 Y15.73 F250
M106 S0
M106 S255
G1 X16.351 Y15.639 F250
M106 S0
M106 S255
G1 X16.539 Y15.574 F250
M106 S0
M106 S255
G1 X16.767 Y15.534 F250
M106 S0
M106 S255
G1 X17.035 Y15.52 F250
M106 S0
M106 S255
G1 X17.096 Y15.52 F250
M106 S0
M106 S255
G1 X17.233 Y15.52 F250
M106 S0
M106 S255
G1 X17.437 Y15.52 F250
M106 S0
M106 S255
G1 X17.68 Y15.52 F250
M106 S0
M106 S255
G1 X18.172 Y15.52 F250
M106 S0
M106 S255
G1 X18.365 Y15.52 F250
M106 S0
M106 S255
G1 X18.484 Y15.52 F250
M106 S0
M106 S255
G1 X18.509 Y15.519 F250
M106 S0
M106 S255
G1 X18.509 Y15.511 F250
M106 S0
M106 S255
G1 X18.509 Y15.432 F250
M106 S0
M106 S255
G1 X18.509 Y15.398 F250
M106 S0
M106 S255
G1 X18.509 Y15.392 F250
M106 S0
M106 S255
G1 X18.473 Y15.391 F250
M106 S0
M106 S255
G1 X18.343 Y15.391 F250
M106 S0
M106 S255
G1 X18.142 Y15.391 F250
M106 S0
M106 S255
G1 X17.646 Y15.391 F250
M106 S0
M106 S255
G1 X17.406 Y15.391 F250
M106 S0
M106 S255
G1 X17.21 Y15.391 F250
M106 S0
M106 S255
G1 X17.085 Y15.391 F250
M106 S0
M106 S255
G1 X17.057 Y15.391 F250
M106 S0
M106 S255
G1 X17.052 Y15.391 F250
M106 S0
M106 S255
G1 X17.012 Y15.392 F250
M106 S0
M106 S255
G1 X16.721 Y15.41 F250
M106 S0
M106 S255
G1 X16.473 Y15.457 F250
M106 S0
M106 S255
G1 X16.268 Y15.532 F250
M106 S0
M106 S255
G1 X16.105 Y15.636 F250
M106 S0
M106 S255
G1 X15.959 Y15.801 F250
M106 S0
M106 S255
G1 X15.847 Y16.028 F250
M106 S0
M106 S255
G1 X15.773 Y16.313 F250
M106 S0
M106 S255
G1 X15.739 Y16.656 F250
M106 S0
M106 S255
G1 X15.736 Y16.751 F250
M106 S0
M106 S255
G1 X15.735 Y16.8 F250
M106 S0
M106 S255
G1 X15.735 Y16.812 F250
M106 S0
M106 S255
G1 X15.735 Y16.882 F250
M106 S0
M106 S255
G1 X15.735 Y17.033 F250
M106 S0
M106 S255
G1 X15.735 Y17.237 F250
M106 S0
M106 S255
G1 X15.735 Y17.704 F250
M106 S0
M106 S255
G1 X15.735 Y17.913 F250
M106 S0
M106 S255
G1 X15.735 Y18.073 F250
M106 S0
M106 S255
G1 X15.735 Y18.155 F250
M106 S0
M106 S255
G1 X15.736 Y18.185 F250
M106 S0
M106 S255
G1 X15.738 Y18.253 F250
M106 S0
M106 S255
G1 X15.776 Y18.516 F250
M106 S0
M106 S255
G1 X15.859 Y18.758 F250
M106 S0
M106 S255
G1 X15.988 Y18.98 F250
M106 S0
M106 S255
G1 X16.162 Y19.183 F250
M106 S0
M106 S255
G1 X16.367 Y19.351 F250
M106 S0
M106 S255
G1 X16.592 Y19.474 F250
M106 S0
M106 S255
G1 X16.837 Y19.551 F250
M106 S0
M106 S255
G1 X17.102 Y19.583 F250
M106 S0
M106 S255
G1 X17.374 Y19.569 F250
M106 S0
M106 S255
G1 X17.627 Y19.51 F250
M106 S0
M106 S255
G1 X17.861 Y19.405 F250
M106 S0
M106 S255
G1 X18.074 Y19.256 F250
M106 S0
M106 S255
G1 X18.263 Y19.064 F250
M106 S0
M106 S255
G1 X18.41 Y18.849 F250
M106 S0
M106 S255
G1 X18.511 Y18.615 F250
M106 S0
M106 S255
G1 X18.567 Y18.361 F250
M106 S0
M106 S255
G1 X18.578 Y18.226 F250
M106 S0
M106 S255
G1 X18.58 Y18.161 F250
M106 S0
M106 S255
G1 X18.58 Y18.153 F250
M106 S0
M106 S255
G1 X18.58 Y18.098 F250
M106 S0
M106 S255
G1 X18.58 Y18.004 F250
M106 S0
M106 S255
G1 X18.58 Y17.754 F250
M106 S0
M106 S255
G1 X18.58 Y17.521 F250
M106 S0
M106 S255
G1 X18.58 Y17.445 F250
M106 S0
M106 S255
G1 X18.58 Y17.417 F250
M106 S0
M106 S255
G1 X18.58 Y17.417 F250
M106 S0
G0 X19.469 Y30.564 F6000
M106 S255
G1 X19.469 Y30.564 F250
M106 S0
M106 S255
G1 X19.462 Y30.525 F250
M106 S0
M106 S255
G1 X19.45 Y30.453 F250
M106 S0
M106 S255
G1 X19.444 Y30.415 F250
M106 S0
M106 S255
G1 X19.419 Y30.408 F250
M106 S0
M106 S255
G1 X19.375 Y30.396 F250
M106 S0
M106 S255
G1 X19.352 Y30.39 F250
M106 S0
M106 S255
G1 X19.309 Y30.4 F250
M106 S0
M106 S255
G1 X19.237 Y30.417 F250
M106 S0
M106 S255
G1 X19.138 Y30.441 F250
M106 S0
M106 S255
G1 X19.059 Y30.459 F250
M106 S0
M106 S255
G1 X18.989 Y30.469 F250
M106 S0
M106 S255
G1 X18.931 Y30.473 F250
M106 S0
M106 S255
G1 X18.907 Y30.47 F250
M106 S0
M106 S255
G1 X18.852 Y30.461 F250
M106 S0
M106 S255
G1 X18.774 Y30.448 F250
M106 S0
M106 S255
G1 X18.767 Y30.438 F250
M106 S0
M106 S255
G1 X18.755 Y30.422 F250
M106 S0
M106 S255
G1 X18.749 Y30.415 F250
M106 S0
M106 S255
G1 X18.696 Y30.415 F250
M106 S0
M106 S255
G1 X18.612 Y30.415 F250
M106 S0
M106 S255
G1 X18.575 Y30.414 F250
M106 S0
M106 S255
G1 X18.547 Y30.389 F250
M106 S0
M106 S255
G1 X18.503 Y30.349 F250
M106 S0
M106 S255
G1 X18.483 Y30.322 F250
M106 S0
M106 S255
G1 X18.46 Y30.245 F250
M106 S0
M106 S255
G1 X18.425 Y30.161 F250
M106 S0
M106 S255
G1 X18.387 Y30.072 F250
M106 S0
M106 S255
G1 X18.386 Y29.986 F250
M106 S0
M106 S255
G1 X18.373 Y29.894 F250
M106 S0
M106 S255
G1 X18.352 Y29.811 F250
M106 S0
M106 S255
G1 X18.333 Y29.792 F250
M106 S0
M106 S255
G1 X18.305 Y29.764 F250
M106 S0
M106 S255
G1 X18.295 Y29.752 F250
M106 S0
M106 S255
G1 X18.306 Y29.698 F250
M106 S0
M106 S255
G1 X18.322 Y29.624 F250
M106 S0
M106 S255
G1 X18.327 Y29.596 F250
M106 S0
M106 S255
G1 X18.307 Y29.587 F250
M106 S0
M106 S255
G1 X18.279 Y29.576 F250
M106 S0
M106 S255
G1 X18.269 Y29.571 F250
M106 S0
M106 S255
G1 X18.258 Y29.55 F250
M106 S0
M106 S255
G1 X18.242 Y29.523 F250
M106 S0
M106 S255
G1 X18.237 Y29.512 F250
M106 S0
M106 S255
G1 X18.249 Y29.489 F250
M106 S0
M106 S255
G1 X18.265 Y29.458 F250
M106 S0
M106 S255
G1 X18.268 Y29.446 F250
M106 S0
M106 S255
G1 X18.244 Y29.419 F250
M106 S0
M106 S255
G1 X18.213 Y29.384 F250
M106 S0
M106 S255
G1 X18.203 Y29.37 F250
M106 S0
M106 S255
G1 X18.194 Y29.325 F250
M106 S0
M106 S255
G1 X18.182 Y29.267 F250
M106 S0
M106 S255
G1 X18.178 Y29.249 F250
M106 S0
M106 S255
G1 X18.165 Y29.246 F250
M106 S0
M106 S255
G1 X18.15 Y29.242 F250
M106 S0
M106 S255
G1 X18.144 Y29.237 F250
M106 S0
M106 S255
G1 X18.122 Y29.19 F250
M106 S0
M106 S255
G1 X18.095 Y29.133 F250
M106 S0
M106 S255
G1 X18.088 Y29.116 F250
M106 S0
M106 S255
G1 X18.088 Y29.106 F250
M106 S0
M106 S255
G1 X18.088 Y29.095 F250
M106 S0
M106 S255
G1 X18.083 Y29.09 F250
M106 S0
M106 S255
G1 X18.035 Y29.064 F250
M106 S0
M106 S255
G1 X17.978 Y29.034 F250
M106 S0
M106 S255
G1 X17.965 Y29.022 F250
M106 S0
M106 S255
G1 X17.978 Y28.985 F250
M106 S0
M106 S255
G1 X17.993 Y28.941 F250
M106 S0
M106 S255
G1 X17.994 Y28.928 F250
M106 S0
M106 S255
G1 X17.968 Y28.905 F250
M106 S0
M106 S255
G1 X17.938 Y28.879 F250
M106 S0
M106 S255
G1 X17.929 Y28.868 F250
M106 S0
M106 S255
G1 X17.919 Y28.832 F250
M106 S0
M106 S255
G1 X17.908 Y28.791 F250
M106 S0
M106 S255
G1 X17.901 Y28.775 F250
M106 S0
M106 S255
G1 X17.862 Y28.725 F250
M106 S0
M106 S255
G1 X17.82 Y28.67 F250
M106 S0
M106 S255
G1 X17.811 Y28.655 F250
M106 S0
M106 S255
G1 X17.811 Y28.631 F250
M106 S0
M106 S255
G1 X17.811 Y28.605 F250
M106 S0
M106 S255
G1 X17.812 Y28.598 F250
M106 S0
M106 S255
G1 X17.823 Y28.588 F250
M106 S0
M106 S255
G1 X17.833 Y28.577 F250
M106 S0
M106 S255
G1 X17.84 Y28.575 F250
M106 S0
M106 S255
G1 X17.87 Y28.575 F250
M106 S0
M106 S255
G1 X17.9 Y28.575 F250
M106 S0
M106 S255
G1 X17.906 Y28.571 F250
M106 S0
M106 S255
G1 X17.906 Y28.543 F250
M106 S0
M106 S255
G1 X17.906 Y28.514 F250
M106 S0
M106 S255
G1 X17.903 Y28.507 F250
M106 S0
M106 S255
G1 X17.889 Y28.497 F250
M106 S0
M106 S255
G1 X17.875 Y28.486 F250
M106 S0
M106 S255
G1 X17.884 Y28.456 F250
M106 S0
M106 S255
G1 X17.902 Y28.396 F250
M106 S0
M106 S255
G1 X17.917 Y28.328 F250
M106 S0
M106 S255
G1 X17.936 Y28.297 F250
M106 S0
M106 S255
G1 X18.008 Y28.311 F250
M106 S0
M106 S255
G1 X18.077 Y28.325 F250
M106 S0
M106 S255
G1 X18.094 Y28.323 F250
M106 S0
M106 S255
G1 X18.123 Y28.305 F250
M106 S0
M106 S255
G1 X18.15 Y28.288 F250
M106 S0
M106 S255
G1 X18.159 Y28.29 F250
M106 S0
M106 S255
G1 X18.181 Y28.308 F250
M106 S0
M106 S255
G1 X18.201 Y28.325 F250
M106 S0
M106 S255
G1 X18.21 Y28.325 F250
M106 S0
M106 S255
G1 X18.24 Y28.314 F250
M106 S0
M106 S255
G1 X18.266 Y28.304 F250
M106 S0
M106 S255
G1 X18.308 Y28.317 F250
M106 S0
M106 S255
G1 X18.389 Y28.345 F250
M106 S0
M106 S255
G1 X18.49 Y28.379 F250
M106 S0
M106 S255
G1 X18.544 Y28.403 F250
M106 S0
M106 S255
G1 X18.585 Y28.444 F250
M106 S0
M106 S255
G1 X18.621 Y28.48 F250
M106 S0
M106 S255
G1 X18.633 Y28.504 F250
M106 S0
M106 S255
G1 X18.663 Y28.583 F250
M106 S0
M106 S255
G1 X18.689 Y28.651 F250
M106 S0
M106 S255
G1 X18.691 Y28.677 F250
M106 S0
M106 S255
G1 X18.691 Y28.749 F250
M106 S0
M106 S255
G1 X18.691 Y28.809 F250
M106 S0
M106 S255
G1 X18.723 Y28.89 F250
M106 S0
M106 S255
G1 X18.772 Y28.984 F250
M106 S0
M106 S255
G1 X18.824 Y29.057 F250
M106 S0
M106 S255
G1 X18.831 Y29.081 F250
M106 S0
M106 S255
G1 X18.801 Y29.1 F250
M106 S0
M106 S255
G1 X18.776 Y29.116 F250
M106 S0
M106 S255
G1 X18.783 Y29.125 F250
M106 S0
M106 S255
G1 X18.814 Y29.152 F250
M106 S0
M106 S255
G1 X18.838 Y29.173 F250
M106 S0
M106 S255
G1 X18.84 Y29.179 F250
M106 S0
M106 S255
G1 X18.84 Y29.195 F250
M106 S0
M106 S255
G1 X18.84 Y29.207 F250
M106 S0
M106 S255
G1 X18.854 Y29.216 F250
M106 S0
M106 S255
G1 X18.897 Y29.244 F250
M106 S0
M106 S255
G1 X18.929 Y29.264 F250
M106 S0
M106 S255
G1 X18.946 Y29.266 F250
M106 S0
M106 S255
G1 X18.988 Y29.266 F250
M106 S0
M106 S255
G1 X19.021 Y29.266 F250
M106 S0
M106 S255
G1 X19.065 Y29.254 F250
M106 S0
M106 S255
G1 X19.1 Y29.245 F250
M106 S0
M106 S255
G1 X19.113 Y29.241 F250
M106 S0
M106 S255
G1 X19.127 Y29.21 F250
M106 S0
M106 S255
G1 X19.166 Y29.123 F250
M106 S0
M106 S255
G1 X19.195 Y29.061 F250
M106 S0
M106 S255
G1 X19.185 Y29.042 F250
M106 S0
M106 S255
G1 X19.158 Y28.997 F250
M106 S0
M106 S255
G1 X19.138 Y28.965 F250
M106 S0
M106 S255
G1 X19.138 Y28.947 F250
M106 S0
M106 S255
G1 X19.138 Y28.903 F250
M106 S0
M106 S255
G1 X19.138 Y28.874 F250
M106 S0
M106 S255
G1 X19.081 Y28.803 F250
M106 S0
M106 S255
G1 X19.012 Y28.739 F250
M106 S0
M106 S255
G1 X18.942 Y28.696 F250
M106 S0
M106 S255
G1 X18.931 Y28.684 F250
M106 S0
M106 S255
G1 X18.931 Y28.668 F250
M106 S0
M106 S255
G1 X18.931 Y28.658 F250
M106 S0
M106 S255
G1 X18.912 Y28.634 F250
M106 S0
M106 S255
G1 X18.869 Y28.578 F250
M106 S0
M106 S255
G1 X18.841 Y28.543 F250
M106 S0
M106 S255
G1 X18.824 Y28.463 F250
M106 S0
M106 S255
G1 X18.789 Y28.384 F250
M106 S0
M106 S255
G1 X18.738 Y28.316 F250
M106 S0
M106 S255
G1 X18.711 Y28.296 F250
M106 S0
M106 S255
G1 X18.663 Y28.264 F250
M106 S0
M106 S255
G1 X18.634 Y28.245 F250
M106 S0
M106 S255
G1 X18.618 Y28.224 F250
M106 S0
M106 S255
G1 X18.586 Y28.18 F250
M106 S0
M106 S255
G1 X18.567 Y28.154 F250
M106 S0
M106 S255
G1 X18.459 Y28.102 F250
M106 S0
M106 S255
G1 X18.359 Y28.07 F250
M106 S0
M106 S255
G1 X18.273 Y28.062 F250
M106 S0
M106 S255
G1 X18.262 Y28.046 F250
M106 S0
M106 S255
G1 X18.246 Y28.014 F250
M106 S0
M106 S255
G1 X18.237 Y27.996 F250
M106 S0
M106 S255
G1 X18.222 Y27.996 F250
M106 S0
M106 S255
G1 X18.194 Y27.996 F250
M106 S0
M106 S255
G1 X18.179 Y27.996 F250
M106 S0
M106 S255
G1 X18.17 Y28.005 F250
M106 S0
M106 S255
G1 X18.154 Y28.021 F250
M106 S0
M106 S255
G1 X18.145 Y28.029 F250
M106 S0
M106 S255
G1 X18.093 Y28.014 F250
M106 S0
M106 S255
G1 X18.051 Y27.994 F250
M106 S0
M106 S255
G1 X18.022 Y27.972 F250
M106 S0
M106 S255
G1 X17.981 Y27.963 F250
M106 S0
M106 S255
G1 X17.909 Y27.947 F250
M106 S0
M106 S255
G1 X17.873 Y27.939 F250
M106 S0
M106 S255
G1 X17.873 Y27.948 F250
M106 S0
M106 S255
G1 X17.873 Y27.964 F250
M106 S0
M106 S255
G1 X17.865 Y27.973 F250
M106 S0
M106 S255
G1 X17.746 Y27.99 F250
M106 S0
M106 S255
G1 X17.646 Y27.998 F250
M106 S0
M106 S255
G1 X17.569 Y27.999 F250
M106 S0
M106 S255
G1 X17.537 Y28.037 F250
M106 S0
M106 S255
G1 X17.487 Y28.077 F250
M106 S0
M106 S255
G1 X17.419 Y28.121 F250
M106 S0
M106 S255
G1 X17.347 Y28.167 F250
M106 S0
M106 S255
G1 X17.295 Y28.206 F250
M106 S0
M106 S255
G1 X17.265 Y28.237 F250
M106 S0
M106 S255
G1 X17.265 Y28.285 F250
M106 S0
M106 S255
G1 X17.265 Y28.361 F250
M106 S0
M106 S255
G1 X17.265 Y28.393 F250
M106 S0
M106 S255
G1 X17.257 Y28.401 F250
M106 S0
M106 S255
G1 X17.245 Y28.413 F250
M106 S0
M106 S255
G1 X17.24 Y28.419 F250
M106 S0
M106 S255
G1 X17.24 Y28.459 F250
M106 S0
M106 S255
G1 X17.24 Y28.518 F250
M106 S0
M106 S255
G1 X17.25 Y28.569 F250
M106 S0
M106 S255
G1 X17.299 Y28.712 F250
M106 S0
M106 S255
G1 X17.326 Y28.816 F250
M106 S0
M106 S255
G1 X17.332 Y28.873 F250
M106 S0
M106 S255
G1 X17.348 Y28.89 F250
M106 S0
M106 S255
G1 X17.372 Y28.914 F250
M106 S0
M106 S255
G1 X17.387 Y28.934 F250
M106 S0
M106 S255
G1 X17.41 Y29.001 F250
M106 S0
M106 S255
G1 X17.418 Y29.079 F250
M106 S0
M106 S255
G1 X17.415 Y29.152 F250
M106 S0
M106 S255
G1 X17.453 Y29.201 F250
M106 S0
M106 S255
G1 X17.504 Y29.267 F250
M106 S0
M106 S255
G1 X17.521 Y29.298 F250
M106 S0
M106 S255
G1 X17.529 Y29.362 F250
M106 S0
M106 S255
G1 X17.552 Y29.48 F250
M106 S0
M106 S255
G1 X17.581 Y29.606 F250
M106 S0
M106 S255
G1 X17.607 Y29.636 F250
M106 S0
M106 S255
G1 X17.642 Y29.675 F250
M106 S0
M106 S255
G1 X17.653 Y29.689 F250
M106 S0
M106 S255
G1 X17.641 Y29.713 F250
M106 S0
M106 S255
G1 X17.625 Y29.744 F250
M106 S0
M106 S255
G1 X17.63 Y29.785 F250
M106 S0
M106 S255
G1 X17.667 Y29.921 F250
M106 S0
M106 S255
G1 X17.714 Y30.092 F250
M106 S0
M106 S255
G1 X17.755 Y30.233 F250
M106 S0
M106 S255
G1 X17.776 Y30.233 F250
M106 S0
M106 S255
G1 X17.803 Y30.233 F250
M106 S0
M106 S255
G1 X17.819 Y30.245 F250
M106 S0
M106 S255
G1 X17.841 Y30.299 F250
M106 S0
M106 S255
G1 X17.861 Y30.38 F250
M106 S0
M106 S255
G1 X17.871 Y30.449 F250
M106 S0
M106 S255
G1 X17.857 Y30.462 F250
M106 S0
M106 S255
G1 X17.84 Y30.477 F250
M106 S0
M106 S255
G1 X17.83 Y30.48 F250
M106 S0
M106 S255
G1 X17.772 Y30.467 F250
M106 S0
M106 S255
G1 X17.704 Y30.452 F250
M106 S0
M106 S255
G1 X17.666 Y30.431 F250
M106 S0
M106 S255
G1 X17.612 Y30.394 F250
M106 S0
M106 S255
G1 X17.565 Y30.368 F250
M106 S0
M106 S255
G1 X17.534 Y30.358 F250
M106 S0
M106 S255
G1 X17.497 Y30.368 F250
M106 S0
M106 S255
G1 X17.456 Y30.379 F250
M106 S0
M106 S255
G1 X17.401 Y30.361 F250
M106 S0
M106 S255
G1 X17.289 Y30.328 F250
M106 S0
M106 S255
G1 X17.179 Y30.318 F250
M106 S0
M106 S255
G1 X17.118 Y30.331 F250
M106 S0
M106 S255
G1 X17.132 Y30.381 F250
M106 S0
M106 S255
G1 X17.146 Y30.436 F250
M106 S0
M106 S255
G1 X17.18 Y30.472 F250
M106 S0
M106 S255
G1 X17.256 Y30.524 F250
M106 S0
M106 S255
G1 X17.34 Y30.572 F250
M106 S0
M106 S255
G1 X17.393 Y30.597 F250
M106 S0
M106 S255
G1 X17.417 Y30.597 F250
M106 S0
M106 S255
G1 X17.442 Y30.597 F250
M106 S0
M106 S255
G1 X17.449 Y30.601 F250
M106 S0
M106 S255
G1 X17.463 Y30.625 F250
M106 S0
M106 S255
G1 X17.477 Y30.65 F250
M106 S0
M106 S255
G1 X17.487 Y30.655 F250
M106 S0
M106 S255
G1 X17.525 Y30.655 F250
M106 S0
M106 S255
G1 X17.564 Y30.655 F250
M106 S0
M106 S255
G1 X17.58 Y30.659 F250
M106 S0
M106 S255
G1 X17.63 Y30.684 F250
M106 S0
M106 S255
G1 X17.679 Y30.709 F250
M106 S0
M106 S255
G1 X17.693 Y30.711 F250
M106 S0
M106 S255
G1 X17.725 Y30.704 F250
M106 S0
M106 S255
G1 X17.756 Y30.697 F250
M106 S0
M106 S255
G1 X17.818 Y30.707 F250
M106 S0
M106 S255
G1 X17.918 Y30.731 F250
M106 S0
M106 S255
G1 X18.009 Y30.76 F250
M106 S0
M106 S255
G1 X18.05 Y30.786 F250
M106 S0
M106 S255
G1 X18.068 Y30.841 F250
M106 S0
M106 S255
G1 X18.085 Y30.892 F250
M106 S0
M106 S255
G1 X18.093 Y30.899 F250
M106 S0
M106 S255
G1 X18.119 Y30.899 F250
M106 S0
M106 S255
G1 X18.143 Y30.899 F250
M106 S0
M106 S255
G1 X18.158 Y30.914 F250
M106 S0
M106 S255
G1 X18.214 Y30.98 F250
M106 S0
M106 S255
G1 X18.264 Y31.04 F250
M106 S0
M106 S255
G1 X18.272 Y31.057 F250
M106 S0
M106 S255
G1 X18.283 Y31.098 F250
M106 S0
M106 S255
G1 X18.293 Y31.134 F250
M106 S0
M106 S255
G1 X18.327 Y31.158 F250
M106 S0
M106 S255
G1 X18.372 Y31.183 F250
M106 S0
M106 S255
G1 X18.408 Y31.2 F250
M106 S0
M106 S255
G1 X18.421 Y31.215 F250
M106 S0
M106 S255
G1 X18.433 Y31.257 F250
M106 S0
M106 S255
G1 X18.442 Y31.292 F250
M106 S0
M106 S255
G1 X18.455 Y31.291 F250
M106 S0
M106 S255
G1 X18.496 Y31.276 F250
M106 S0
M106 S255
G1 X18.531 Y31.263 F250
M106 S0
M106 S255
G1 X18.539 Y31.267 F250
M106 S0
M106 S255
G1 X18.554 Y31.282 F250
M106 S0
M106 S255
G1 X18.566 Y31.294 F250
M106 S0
M106 S255
G1 X18.567 Y31.303 F250
M106 S0
M106 S255
G1 X18.567 Y31.33 F250
M106 S0
M106 S255
G1 X18.567 Y31.352 F250
M106 S0
M106 S255
G1 X18.585 Y31.362 F250
M106 S0
M106 S255
G1 X18.643 Y31.389 F250
M106 S0
M106 S255
G1 X18.688 Y31.41 F250
M106 S0
M106 S255
G1 X18.691 Y31.42 F250
M106 S0
M106 S255
G1 X18.691 Y31.447 F250
M106 S0
M106 S255
G1 X18.691 Y31.468 F250
M106 S0
M106 S255
G1 X18.7 Y31.483 F250
M106 S0
M106 S255
G1 X18.728 Y31.526 F250
M106 S0
M106 S255
G1 X18.748 Y31.558 F250
M106 S0
M106 S255
G1 X18.759 Y31.56 F250
M106 S0
M106 S255
G1 X18.786 Y31.56 F250
M106 S0
M106 S255
G1 X18.806 Y31.56 F250
M106 S0
M106 S255
G1 X18.813 Y31.556 F250
M106 S0
M106 S255
G1 X18.828 Y31.544 F250
M106 S0
M106 S255
G1 X18.84 Y31.536 F250
M106 S0
M106 S255
G1 X18.85 Y31.54 F250
M106 S0
M106 S255
G1 X18.878 Y31.551 F250
M106 S0
M106 S255
G1 X18.897 Y31.56 F250
M106 S0
M106 S255
G1 X18.898 Y31.522 F250
M106 S0
M106 S255
G1 X18.898 Y31.424 F250
M106 S0
M106 S255
G1 X18.898 Y31.355 F250
M106 S0
M106 S255
G1 X18.887 Y31.347 F250
M106 S0
M106 S255
G1 X18.859 Y31.331 F250
M106 S0
M106 S255
G1 X18.841 Y31.32 F250
M106 S0
M106 S255
G1 X18.84 Y31.315 F250
M106 S0
M106 S255
G1 X18.84 Y31.303 F250
M106 S0
M106 S255
G1 X18.84 Y31.296 F250
M106 S0
M106 S255
G1 X18.833 Y31.289 F250
M106 S0
M106 S255
G1 X18.818 Y31.273 F250
M106 S0
M106 S255
G1 X18.807 Y31.262 F250
M106 S0
M106 S255
G1 X18.807 Y31.243 F250
M106 S0
M106 S255
G1 X18.807 Y31.199 F250
M106 S0
M106 S255
G1 X18.807 Y31.172 F250
M106 S0
M106 S255
G1 X18.78 Y31.139 F250
M106 S0
M106 S255
G1 X18.72 Y31.067 F250
M106 S0
M106 S255
G1 X18.683 Y31.023 F250
M106 S0
M106 S255
G1 X18.668 Y30.929 F250
M106 S0
M106 S255
G1 X18.633 Y30.833 F250
M106 S0
M106 S255
G1 X18.58 Y30.743 F250
M106 S0
M106 S255
G1 X18.676 Y30.727 F250
M106 S0
M106 S255
G1 X18.784 Y30.711 F250
M106 S0
M106 S255
G1 X18.892 Y30.689 F250
M106 S0
M106 S255
G1 X18.954 Y30.701 F250
M106 S0
M106 S255
G1 X19.031 Y30.71 F250
M106 S0
M106 S255
G1 X19.126 Y30.713 F250
M106 S0
M106 S255
G1 X19.233 Y30.71 F250
M106 S0
M106 S255
G1 X19.328 Y30.702 F250
M106 S0
M106 S255
G1 X19.409 Y30.688 F250
M106 S0
M106 S255
G1 X19.425 Y30.656 F250
M106 S0
M106 S255
G1 X19.453 Y30.596 F250
M106 S0
M106 S255
G1 X19.469 Y30.564 F250
M106 S0
G0 X17.1 Y30.018 F6000
M106 S255
G1 X17.1 Y30.018 F250
M106 S0
M106 S255
G1 X17.093 Y29.996 F250
M106 S0
M106 S255
G1 X17.081 Y29.956 F250
M106 S0
M106 S255
G1 X17.075 Y29.935 F250
M106 S0
M106 S255
G1 X17.055 Y29.908 F250
M106 S0
M106 S255
G1 X17.018 Y29.86 F250
M106 S0
M106 S255
G1 X17.0 Y29.836 F250
M106 S0
M106 S255
G1 X16.959 Y29.841 F250
M106 S0
M106 S255
G1 X16.889 Y29.849 F250
M106 S0
M106 S255
G1 X16.856 Y29.853 F250
M106 S0
M106 S255
G1 X16.834 Y29.875 F250
M106 S0
M106 S255
G1 X16.798 Y29.911 F250
M106 S0
M106 S255
G1 X16.781 Y29.927 F250
M106 S0
M106 S255
G1 X16.769 Y29.965 F250
M106 S0
M106 S255
G1 X16.749 Y30.025 F250
M106 S0
M106 S255
G1 X16.74 Y30.052 F250
M106 S0
M106 S255
G1 X16.748 Y30.104 F250
M106 S0
M106 S255
G1 X16.76 Y30.183 F250
M106 S0
M106 S255
G1 X16.764 Y30.217 F250
M106 S0
M106 S255
G1 X16.735 Y30.247 F250
M106 S0
M106 S255
G1 X16.691 Y30.29 F250
M106 S0
M106 S255
G1 X16.666 Y30.312 F250
M106 S0
M106 S255
G1 X16.597 Y30.333 F250
M106 S0
M106 S255
G1 X16.487 Y30.346 F250
M106 S0
M106 S255
G1 X16.362 Y30.349 F250
M106 S0
M106 S255
G1 X16.331 Y30.346 F250
M106 S0
M106 S255
G1 X16.293 Y30.34 F250
M106 S0
M106 S255
G1 X16.248 Y30.323 F250
M106 S0
M106 S255
G1 X16.198 Y30.285 F250
M106 S0
M106 S255
G1 X16.156 Y30.256 F250
M106 S0
M106 S255
G1 X16.127 Y30.239 F250
M106 S0
M106 S255
G1 X16.106 Y30.204 F250
M106 S0
M106 S255
G1 X16.079 Y30.157 F250
M106 S0
M106 S255
G1 X16.076 Y30.121 F250
M106 S0
M106 S255
G1 X16.092 Y30.049 F250
M106 S0
M106 S255
G1 X16.102 Y29.985 F250
M106 S0
M106 S255
G1 X16.104 Y29.942 F250
M106 S0
M106 S255
G1 X16.12 Y29.914 F250
M106 S0
M106 S255
G1 X16.139 Y29.879 F250
M106 S0
M106 S255
G1 X16.18 Y29.846 F250
M106 S0
M106 S255
G1 X16.289 Y29.755 F250
M106 S0
M106 S255
G1 X16.397 Y29.638 F250
M106 S0
M106 S255
G1 X16.504 Y29.492 F250
M106 S0
M106 S255
G1 X16.585 Y29.342 F250
M106 S0
M106 S255
G1 X16.626 Y29.209 F250
M106 S0
M106 S255
G1 X16.63 Y29.128 F250
M106 S0
M106 S255
G1 X16.611 Y29.081 F250
M106 S0
M106 S255
G1 X16.588 Y29.026 F250
M106 S0
M106 S255
G1 X16.579 Y29.011 F250
M106 S0
M106 S255
G1 X16.549 Y28.987 F250
M106 S0
M106 S255
G1 X16.516 Y28.961 F250
M106 S0
M106 S255
G1 X16.508 Y28.951 F250
M106 S0
M106 S255
G1 X16.501 Y28.913 F250
M106 S0
M106 S255
G1 X16.494 Y28.873 F250
M106 S0
M106 S255
G1 X16.463 Y28.84 F250
M106 S0
M106 S255
G1 X16.411 Y28.769 F250
M106 S0
M106 S255
G1 X16.378 Y28.676 F250
M106 S0
M106 S255
G1 X16.361 Y28.613 F250
M106 S0
M106 S255
G1 X16.32 Y28.588 F250
M106 S0
M106 S255
G1 X16.277 Y28.563 F250
M106 S0
M106 S255
G1 X16.266 Y28.553 F250
M106 S0
M106 S255
G1 X16.252 Y28.517 F250
M106 S0
M106 S255
G1 X16.238 Y28.482 F250
M106 S0
M106 S255
G1 X16.22 Y28.465 F250
M106 S0
M106 S255
G1 X16.185 Y28.436 F250
M106 S0
M106 S255
G1 X16.142 Y28.398 F250
M106 S0
M106 S255
G1 X16.11 Y28.378 F250
M106 S0
M106 S255
G1 X16.059 Y28.385 F250
M106 S0
M106 S255
G1 X16.011 Y28.392 F250
M106 S0
M106 S255
G1 X15.957 Y28.374 F250
M106 S0
M106 S255
G1 X15.867 Y28.32 F250
M106 S0
M106 S255
G1 X15.772 Y28.242 F250
M106 S0
M106 S255
G1 X15.671 Y28.189 F250
M106 S0
M106 S255
G1 X15.578 Y28.153 F250
M106 S0
M106 S255
G1 X15.496 Y28.103 F250
M106 S0
M106 S255
G1 X15.396 Y28.073 F250
M106 S0
M106 S255
G1 X15.294 Y28.066 F250
M106 S0
M106 S255
G1 X15.211 Y28.063 F250
M106 S0
M106 S255
G1 X15.192 Y28.064 F250
M106 S0
M106 S255
G1 X15.152 Y28.075 F250
M106 S0
M106 S255
G1 X15.049 Y28.095 F250
M106 S0
M106 S255
G1 X14.933 Y28.116 F250
M106 S0
M106 S255
G1 X14.853 Y28.134 F250
M106 S0
M106 S255
G1 X14.797 Y28.149 F250
M106 S0
M106 S255
G1 X14.746 Y28.168 F250
M106 S0
M106 S255
G1 X14.68 Y28.2 F250
M106 S0
M106 S255
G1 X14.603 Y28.245 F250
M106 S0
M106 S255
G1 X14.535 Y28.321 F250
M106 S0
M106 S255
G1 X14.467 Y28.4 F250
M106 S0
M106 S255
G1 X14.393 Y28.474 F250
M106 S0
M106 S255
G1 X14.357 Y28.538 F250
M106 S0
M106 S255
G1 X14.344 Y28.617 F250
M106 S0
M106 S255
G1 X14.338 Y28.714 F250
M106 S0
M106 S255
G1 X14.358 Y28.82 F250
M106 S0
M106 S255
G1 X14.378 Y28.897 F250
M106 S0
M106 S255
G1 X14.393 Y28.942 F250
M106 S0
M106 S255
G1 X14.407 Y28.961 F250
M106 S0
M106 S255
G1 X14.439 Y28.998 F250
M106 S0
M106 S255
G1 X14.461 Y29.025 F250
M106 S0
M106 S255
G1 X14.468 Y29.05 F250
M106 S0
M106 S255
G1 X14.484 Y29.113 F250
M106 S0
M106 S255
G1 X14.495 Y29.157 F250
M106 S0
M106 S255
G1 X14.501 Y29.158 F250
M106 S0
M106 S255
G1 X14.517 Y29.158 F250
M106 S0
M106 S255
G1 X14.528 Y29.158 F250
M106 S0
M106 S255
G1 X14.532 Y29.183 F250
M106 S0
M106 S255
G1 X14.54 Y29.243 F250
M106 S0
M106 S255
G1 X14.545 Y29.281 F250
M106 S0
M106 S255
G1 X14.571 Y29.301 F250
M106 S0
M106 S255
G1 X14.631 Y29.345 F250
M106 S0
M106 S255
G1 X14.668 Y29.373 F250
M106 S0
M106 S255
G1 X14.689 Y29.373 F250
M106 S0
M106 S255
G1 X14.733 Y29.373 F250
M106 S0
M106 S255
G1 X14.76 Y29.373 F250
M106 S0
M106 S255
G1 X14.781 Y29.371 F250
M106 S0
M106 S255
G1 X14.826 Y29.363 F250
M106 S0
M106 S255
G1 X14.896 Y29.349 F250
M106 S0
M106 S255
G1 X15.012 Y29.279 F250
M106 S0
M106 S255
G1 X15.102 Y29.166 F250
M106 S0
M106 S255
G1 X15.164 Y29.011 F250
M106 S0
M106 S255
G1 X15.161 Y28.982 F250
M106 S0
M106 S255
G1 X15.153 Y28.934 F250
M106 S0
M106 S255
G1 X15.148 Y28.908 F250
M106 S0
M106 S255
G1 X15.156 Y28.878 F250
M106 S0
M106 S255
G1 X15.17 Y28.822 F250
M106 S0
M106 S255
G1 X15.177 Y28.793 F250
M106 S0
M106 S255
G1 X15.169 Y28.761 F250
M106 S0
M106 S255
G1 X15.155 Y28.706 F250
M106 S0
M106 S255
G1 X15.148 Y28.678 F250
M106 S0
M106 S255
G1 X15.118 Y28.636 F250
M106 S0
M106 S255
G1 X15.066 Y28.564 F250
M106 S0
M106 S255
G1 X15.041 Y28.53 F250
M106 S0
M106 S255
G1 X15.014 Y28.53 F250
M106 S0
M106 S255
G1 X14.97 Y28.53 F250
M106 S0
M106 S255
G1 X14.95 Y28.53 F250
M106 S0
M106 S255
G1 X14.93 Y28.567 F250
M106 S0
M106 S255
G1 X14.898 Y28.626 F250
M106 S0
M106 S255
G1 X14.884 Y28.653 F250
M106 S0
M106 S255
G1 X14.879 Y28.691 F250
M106 S0
M106 S255
G1 X14.871 Y28.75 F250
M106 S0
M106 S255
G1 X14.867 Y28.775 F250
M106 S0
M106 S255
G1 X14.848 Y28.799 F250
M106 S0
M106 S255
G1 X14.82 Y28.834 F250
M106 S0
M106 S255
G1 X14.809 Y28.848 F250
M106 S0
M106 S255
G1 X14.781 Y28.848 F250
M106 S0
M106 S255
G1 X14.742 Y28.848 F250
M106 S0
M106 S255
G1 X14.726 Y28.847 F250
M106 S0
M106 S255
G1 X14.697 Y28.83 F250
M106 S0
M106 S255
G1 X14.658 Y28.807 F250
M106 S0
M106 S255
G1 X14.638 Y28.776 F250
M106 S0
M106 S255
G1 X14.616 Y28.676 F250
M106 S0
M106 S255
G1 X14.608 Y28.579 F250
M106 S0
M106 S255
G1 X14.614 Y28.507 F250
M106 S0
M106 S255
G1 X14.664 Y28.459 F250
M106 S0
M106 S255
G1 X14.73 Y28.397 F250
M106 S0
M106 S255
G1 X14.797 Y28.364 F250
M106 S0
M106 S255
G1 X14.951 Y28.327 F250
M106 S0
M106 S255
G1 X15.077 Y28.307 F250
M106 S0
M106 S255
G1 X15.156 Y28.302 F250
M106 S0
M106 S255
G1 X15.187 Y28.303 F250
M106 S0
M106 S255
G1 X15.225 Y28.305 F250
M106 S0
M106 S255
G1 X15.27 Y28.307 F250
M106 S0
M106 S255
G1 X15.311 Y28.309 F250
M106 S0
M106 S255
G1 X15.343 Y28.31 F250
M106 S0
M106 S255
G1 X15.377 Y28.318 F250
M106 S0
M106 S255
G1 X15.432 Y28.353 F250
M106 S0
M106 S255
G1 X15.493 Y28.405 F250
M106 S0
M106 S255
G1 X15.559 Y28.472 F250
M106 S0
M106 S255
G1 X15.621 Y28.529 F250
M106 S0
M106 S255
G1 X15.676 Y28.568 F250
M106 S0
M106 S255
G1 X15.71 Y28.592 F250
M106 S0
M106 S255
G1 X15.725 Y28.626 F250
M106 S0
M106 S255
G1 X15.752 Y28.682 F250
M106 S0
M106 S255
G1 X15.772 Y28.729 F250
M106 S0
M106 S255
G1 X15.769 Y28.77 F250
M106 S0
M106 S255
G1 X15.765 Y28.814 F250
M106 S0
M106 S255
G1 X15.769 Y28.827 F250
M106 S0
M106 S255
G1 X15.8 Y28.855 F250
M106 S0
M106 S255
G1 X15.832 Y28.884 F250
M106 S0
M106 S255
G1 X15.836 Y28.895 F250
M106 S0
M106 S255
G1 X15.819 Y28.934 F250
M106 S0
M106 S255
G1 X15.801 Y28.973 F250
M106 S0
M106 S255
G1 X15.799 Y28.985 F250
M106 S0
M106 S255
G1 X15.81 Y29.015 F250
M106 S0
M106 S255
G1 X15.82 Y29.046 F250
M106 S0
M106 S255
G1 X15.818 Y29.054 F250
M106 S0
M106 S255
G1 X15.793 Y29.076 F250
M106 S0
M106 S255
G1 X15.768 Y29.097 F250
M106 S0
M106 S255
G1 X15.754 Y29.103 F250
M106 S0
M106 S255
G1 X15.699 Y29.118 F250
M106 S0
M106 S255
G1 X15.648 Y29.131 F250
M106 S0
M106 S255
G1 X15.63 Y29.149 F250
M106 S0
M106 S255
G1 X15.608 Y29.185 F250
M106 S0
M106 S255
G1 X15.579 Y29.231 F250
M106 S0
M106 S255
G1 X15.547 Y29.284 F250
M106 S0
M106 S255
G1 X15.52 Y29.328 F250
M106 S0
M106 S255
G1 X15.498 Y29.363 F250
M106 S0
M106 S255
G1 X15.488 Y29.373 F250
M106 S0
M106 S255
G1 X15.473 Y29.373 F250
M106 S0
M106 S255
G1 X15.46 Y29.373 F250
M106 S0
M106 S255
G1 X15.456 Y29.376 F250
M106 S0
M106 S255
G1 X15.444 Y29.387 F250
M106 S0
M106 S255
G1 X15.435 Y29.397 F250
M106 S0
M106 S255
G1 X15.408 Y29.476 F250
M106 S0
M106 S255
G1 X15.372 Y29.583 F250
M106 S0
M106 S255
G1 X15.337 Y29.677 F250
M106 S0
M106 S255
G1 X15.327 Y29.744 F250
M106 S0
M106 S255
G1 X15.334 Y29.802 F250
M106 S0
M106 S255
G1 X15.346 Y29.86 F250
M106 S0
M106 S255
G1 X15.383 Y29.918 F250
M106 S0
M106 S255
G1 X15.432 Y29.989 F250
M106 S0
M106 S255
G1 X15.485 Y30.075 F250
M106 S0
M106 S255
G1 X15.501 Y30.118 F250
M106 S0
M106 S255
G1 X15.505 Y30.173 F250
M106 S0
M106 S255
G1 X15.508 Y30.214 F250
M106 S0
M106 S255
G1 X15.52 Y30.226 F250
M106 S0
M106 S255
G1 X15.555 Y30.253 F250
M106 S0
M106 S255
G1 X15.581 Y30.273 F250
M106 S0
M106 S255
G1 X15.587 Y30.29 F250
M106 S0
M106 S255
G1 X15.598 Y30.333 F250
M106 S0
M106 S255
G1 X15.607 Y30.364 F250
M106 S0
M106 S255
G1 X15.613 Y30.365 F250
M106 S0
M106 S255
G1 X15.629 Y30.365 F250
M106 S0
M106 S255
G1 X15.64 Y30.365 F250
M106 S0
M106 S255
G1 X15.651 Y30.376 F250
M106 S0
M106 S255
G1 X15.679 Y30.404 F250
M106 S0
M106 S255
G1 X15.698 Y30.423 F250
M106 S0
M106 S255
G1 X15.766 Y30.44 F250
M106 S0
M106 S255
G1 X15.866 Y30.475 F250
M106 S0
M106 S255
G1 X15.988 Y30.524 F250
M106 S0
M106 S255
G1 X16.134 Y30.551 F250
M106 S0
M106 S255
G1 X16.242 Y30.566 F250
M106 S0
M106 S255
G1 X16.306 Y30.572 F250
M106 S0
M106 S255
G1 X16.389 Y30.569 F250
M106 S0
M106 S255
G1 X16.499 Y30.558 F250
M106 S0
M106 S255
G1 X16.63 Y30.54 F250
M106 S0
M106 S255
G1 X16.698 Y30.507 F250
M106 S0
M106 S255
G1 X16.777 Y30.466 F250
M106 S0
M106 S255
G1 X16.875 Y30.417 F250
M106 S0
M106 S255
G1 X16.936 Y30.353 F250
M106 S0
M106 S255
G1 X17.001 Y30.276 F250
M106 S0
M106 S255
G1 X17.073 Y30.186 F250
M106 S0
M106 S255
G1 X17.081 Y30.142 F250
M106 S0
M106 S255
G1 X17.093 Y30.061 F250
M106 S0
M106 S255
G1 X17.1 Y30.018 F250
M106 S0
G0 X13.735 Y29.762 F6000
M106 S255
G1 X13.735 Y29.762 F250
M106 S0
M106 S255
G1 X13.725 Y29.771 F250
M106 S0
M106 S255
G1 X13.709 Y29.787 F250
M106 S0
M106 S255
G1 X13.701 Y29.807 F250
M106 S0
M106 S255
G1 X13.7 Y29.899 F250
M106 S0
M106 S255
G1 X13.697 Y29.973 F250
M106 S0
M106 S255
G1 X13.684 Y30.035 F250
M106 S0
M106 S255
G1 X13.611 Y30.123 F250
M106 S0
M106 S255
G1 X13.487 Y30.237 F250
M106 S0
M106 S255
G1 X13.339 Y30.322 F250
M106 S0
M106 S255
G1 X13.211 Y30.302 F250
M106 S0
M106 S255
G1 X13.062 Y30.258 F250
M106 S0
M106 S255
G1 X12.971 Y30.22 F250
M106 S0
M106 S255
G1 X12.953 Y30.191 F250
M106 S0
M106 S255
G1 X12.935 Y30.162 F250
M106 S0
M106 S255
G1 X12.924 Y30.153 F250
M106 S0
M106 S255
G1 X12.89 Y30.13 F250
M106 S0
M106 S255
G1 X12.86 Y30.11 F250
M106 S0
M106 S255
G1 X12.853 Y30.098 F250
M106 S0
M106 S255
G1 X12.837 Y30.062 F250
M106 S0
M106 S255
G1 X12.825 Y30.035 F250
M106 S0
M106 S255
G1 X12.82 Y30.03 F250
M106 S0
M106 S255
G1 X12.808 Y30.017 F250
M106 S0
M106 S255
G1 X12.8 Y30.01 F250
M106 S0
M106 S255
G1 X12.8 Y29.993 F250
M106 S0
M106 S255
G1 X12.8 Y29.96 F250
M106 S0
M106 S255
G1 X12.8 Y29.944 F250
M106 S0
M106 S255
G1 X12.785 Y29.931 F250
M106 S0
M106 S255
G1 X12.76 Y29.91 F250
M106 S0
M106 S255
G1 X12.748 Y29.896 F250
M106 S0
M106 S255
G1 X12.732 Y29.851 F250
M106 S0
M106 S255
G1 X12.718 Y29.79 F250
M106 S0
M106 S255
G1 X12.708 Y29.737 F250
M106 S0
M106 S255
G1 X12.695 Y29.737 F250
M106 S0
M106 S255
G1 X12.68 Y29.737 F250
M106 S0
M106 S255
G1 X12.676 Y29.733 F250
M106 S0
M106 S255
G1 X12.672 Y29.701 F250
M106 S0
M106 S255
G1 X12.669 Y29.668 F250
M106 S0
M106 S255
G1 X12.67 Y29.654 F250
M106 S0
M106 S255
G1 X12.681 Y29.608 F250
M106 S0
M106 S255
G1 X12.692 Y29.567 F250
M106 S0
M106 S255
G1 X12.828 Y29.509 F250
M106 S0
M106 S255
G1 X13.118 Y29.444 F250
M106 S0
M106 S255
G1 X13.505 Y29.404 F250
M106 S0
M106 S255
G1 X13.63 Y29.459 F250
M106 S0
M106 S255
G1 X13.66 Y29.518 F250
M106 S0
M106 S255
G1 X13.697 Y29.552 F250
M106 S0
M106 S255
G1 X13.709 Y29.601 F250
M106 S0
M106 S255
G1 X13.725 Y29.704 F250
M106 S0
M106 S255
G1 X13.735 Y29.762 F250
M106 S0
G0 X14.206 Y29.861 F6000
M106 S255
G1 X14.206 Y29.861 F250
M106 S0
M106 S255
G1 X14.197 Y29.852 F250
M106 S0
M106 S255
G1 X14.181 Y29.836 F250
M106 S0
M106 S255
G1 X14.173 Y29.828 F250
M106 S0
M106 S255
G1 X14.17 Y29.802 F250
M106 S0
M106 S255
G1 X14.166 Y29.758 F250
M106 S0
M106 S255
G1 X14.165 Y29.737 F250
M106 S0
M106 S255
G1 X14.174 Y29.712 F250
M106 S0
M106 S255
G1 X14.19 Y29.672 F250
M106 S0
M106 S255
G1 X14.197 Y29.654 F250
M106 S0
M106 S255
G1 X14.187 Y29.623 F250
M106 S0
M106 S255
G1 X14.171 Y29.575 F250
M106 S0
M106 S255
G1 X14.165 Y29.554 F250
M106 S0
M106 S255
G1 X14.17 Y29.514 F250
M106 S0
M106 S255
G1 X14.178 Y29.455 F250
M106 S0
M106 S255
G1 X14.169 Y29.406 F250
M106 S0
M106 S255
G1 X14.1 Y29.278 F250
M106 S0
M106 S255
G1 X14.03 Y29.184 F250
M106 S0
M106 S255
G1 X13.973 Y29.133 F250
M106 S0
M106 S255
G1 X13.96 Y29.131 F250
M106 S0
M106 S255
G1 X13.937 Y29.126 F250
M106 S0
M106 S255
G1 X13.904 Y29.119 F250
M106 S0
M106 S255
G1 X13.875 Y29.113 F250
M106 S0
M106 S255
G1 X13.857 Y29.109 F250
M106 S0
M106 S255
G1 X13.847 Y29.109 F250
M106 S0
M106 S255
G1 X13.813 Y29.113 F250
M106 S0
M106 S255
G1 X13.741 Y29.123 F250
M106 S0
M106 S255
G1 X13.667 Y29.134 F250
M106 S0
M106 S255
G1 X13.645 Y29.147 F250
M106 S0
M106 S255
G1 X13.618 Y29.162 F250
M106 S0
M106 S255
G1 X13.585 Y29.165 F250
M106 S0
M106 S255
G1 X13.472 Y29.171 F250
M106 S0
M106 S255
G1 X13.302 Y29.194 F250
M106 S0
M106 S255
G1 X13.084 Y29.234 F250
M106 S0
M106 S255
G1 X12.896 Y29.274 F250
M106 S0
M106 S255
G1 X12.759 Y29.311 F250
M106 S0
M106 S255
G1 X12.696 Y29.329 F250
M106 S0
M106 S255
G1 X12.654 Y29.309 F250
M106 S0
M106 S255
G1 X12.608 Y29.287 F250
M106 S0
M106 S255
G1 X12.593 Y29.272 F250
M106 S0
M106 S255
G1 X12.573 Y29.221 F250
M106 S0
M106 S255
G1 X12.54 Y29.129 F250
M106 S0
M106 S255
G1 X12.497 Y29.005 F250
M106 S0
M106 S255
G1 X12.466 Y28.911 F250
M106 S0
M106 S255
G1 X12.451 Y28.859 F250
M106 S0
M106 S255
G1 X12.449 Y28.835 F250
M106 S0
M106 S255
G1 X12.45 Y28.802 F250
M106 S0
M106 S255
G1 X12.452 Y28.762 F250
M106 S0
M106 S255
G1 X12.454 Y28.716 F250
M106 S0
M106 S255
G1 X12.456 Y28.677 F250
M106 S0
M106 S255
G1 X12.457 Y28.645 F250
M106 S0
M106 S255
G1 X12.469 Y28.609 F250
M106 S0
M106 S255
G1 X12.524 Y28.494 F250
M106 S0
M106 S255
G1 X12.575 Y28.389 F250
M106 S0
M106 S255
G1 X12.624 Y28.362 F250
M106 S0
M106 S255
G1 X12.678 Y28.344 F250
M106 S0
M106 S255
G1 X12.711 Y28.336 F250
M106 S0
M106 S255
G1 X12.723 Y28.336 F250
M106 S0
M106 S255
G1 X12.731 Y28.337 F250
M106 S0
M106 S255
G1 X12.74 Y28.339 F250
M106 S0
M106 S255
G1 X12.748 Y28.341 F250
M106 S0
M106 S255
G1 X12.756 Y28.343 F250
M106 S0
M106 S255
G1 X12.765 Y28.344 F250
M106 S0
M106 S255
G1 X12.802 Y28.34 F250
M106 S0
M106 S255
G1 X12.918 Y28.329 F250
M106 S0
M106 S255
G1 X13.01 Y28.319 F250
M106 S0
M106 S255
G1 X13.064 Y28.334 F250
M106 S0
M106 S255
G1 X13.135 Y28.365 F250
M106 S0
M106 S255
G1 X13.211 Y28.407 F250
M106 S0
M106 S255
G1 X13.3 Y28.462 F250
M106 S0
M106 S255
G1 X13.372 Y28.505 F250
M106 S0
M106 S255
G1 X13.421 Y28.531 F250
M106 S0
M106 S255
G1 X13.439 Y28.535 F250
M106 S0
M106 S255
G1 X13.467 Y28.539 F250
M106 S0
M106 S255
G1 X13.486 Y28.542 F250
M106 S0
M106 S255
G1 X13.537 Y28.584 F250
M106 S0
M106 S255
G1 X13.588 Y28.642 F250
M106 S0
M106 S255
G1 X13.63 Y28.707 F250
M106 S0
M106 S255
G1 X13.671 Y28.726 F250
M106 S0
M106 S255
G1 X13.755 Y28.75 F250
M106 S0
M106 S255
G1 X13.808 Y28.765 F250
M106 S0
M106 S255
G1 X13.816 Y28.745 F250
M106 S0
M106 S255
G1 X13.832 Y28.701 F250
M106 S0
M106 S255
G1 X13.842 Y28.675 F250
M106 S0
M106 S255
G1 X13.791 Y28.579 F250
M106 S0
M106 S255
G1 X13.65 Y28.41 F250
M106 S0
M106 S255
G1 X13.421 Y28.171 F250
M106 S0
M106 S255
G1 X13.311 Y28.123 F250
M106 S0
M106 S255
G1 X13.182 Y28.094 F250
M106 S0
M106 S255
G1 X13.028 Y28.075 F250
M106 S0
M106 S255
G1 X12.862 Y28.059 F250
M106 S0
M106 S255
G1 X12.733 Y28.038 F250
M106 S0
M106 S255
G1 X12.643 Y28.013 F250
M106 S0
M106 S255
G1 X12.591 Y28.022 F250
M106 S0
M106 S255
G1 X12.501 Y28.038 F250
M106 S0
M106 S255
G1 X12.457 Y28.046 F250
M106 S0
M106 S255
G1 X12.45 Y28.053 F250
M106 S0
M106 S255
G1 X12.438 Y28.065 F250
M106 S0
M106 S255
G1 X12.432 Y28.071 F250
M106 S0
M106 S255
G1 X12.386 Y28.081 F250
M106 S0
M106 S255
G1 X12.314 Y28.097 F250
M106 S0
M106 S255
G1 X12.265 Y28.117 F250
M106 S0
M106 S255
G1 X12.126 Y28.24 F250
M106 S0
M106 S255
G1 X11.993 Y28.409 F250
M106 S0
M106 S255
G1 X11.886 Y28.595 F250
M106 S0
M106 S255
G1 X11.876 Y28.668 F250
M106 S0
M106 S255
G1 X11.861 Y28.75 F250
M106 S0
M106 S255
G1 X11.848 Y28.834 F250
M106 S0
M106 S255
G1 X11.865 Y28.91 F250
M106 S0
M106 S255
G1 X11.885 Y29.022 F250
M106 S0
M106 S255
G1 X11.904 Y29.134 F250
M106 S0
M106 S255
G1 X11.916 Y29.146 F250
M106 S0
M106 S255
G1 X11.931 Y29.161 F250
M106 S0
M106 S255
G1 X11.936 Y29.167 F250
M106 S0
M106 S255
G1 X11.93 Y29.176 F250
M106 S0
M106 S255
G1 X11.922 Y29.188 F250
M106 S0
M106 S255
G1 X11.921 Y29.193 F250
M106 S0
M106 S255
G1 X11.943 Y29.215 F250
M106 S0
M106 S255
G1 X11.97 Y29.242 F250
M106 S0
M106 S255
G1 X11.979 Y29.253 F250
M106 S0
M106 S255
G1 X11.992 Y29.302 F250
M106 S0
M106 S255
G1 X12.007 Y29.359 F250
M106 S0
M106 S255
G1 X12.028 Y29.386 F250
M106 S0
M106 S255
G1 X12.07 Y29.434 F250
M106 S0
M106 S255
G1 X12.107 Y29.503 F250
M106 S0
M106 S255
G1 X12.126 Y29.568 F250
M106 S0
M106 S255
G1 X12.126 Y29.68 F250
M106 S0
M106 S255
G1 X12.126 Y29.802 F250
M106 S0
M106 S255
G1 X12.13 Y29.829 F250
M106 S0
M106 S255
G1 X12.158 Y29.84 F250
M106 S0
M106 S255
G1 X12.187 Y29.85 F250
M106 S0
M106 S255
G1 X12.196 Y29.867 F250
M106 S0
M106 S255
G1 X12.221 Y29.958 F250
M106 S0
M106 S255
G1 X12.246 Y30.051 F250
M106 S0
M106 S255
G1 X12.353 Y30.179 F250
M106 S0
M106 S255
G1 X12.565 Y30.36 F250
M106 S0
M106 S255
G1 X12.785 Y30.484 F250
M106 S0
M106 S255
G1 X12.899 Y30.522 F250
M106 S0
M106 S255
G1 X12.918 Y30.521 F250
M106 S0
M106 S255
G1 X12.942 Y30.519 F250
M106 S0
M106 S255
G1 X12.968 Y30.517 F250
M106 S0
M106 S255
G1 X12.991 Y30.515 F250
M106 S0
M106 S255
G1 X13.009 Y30.514 F250
M106 S0
M106 S255
G1 X13.059 Y30.526 F250
M106 S0
M106 S255
G1 X13.108 Y30.54 F250
M106 S0
M106 S255
G1 X13.13 Y30.547 F250
M106 S0
M106 S255
G1 X13.143 Y30.542 F250
M106 S0
M106 S255
G1 X13.188 Y30.523 F250
M106 S0
M106 S255
G1 X13.227 Y30.507 F250
M106 S0
M106 S255
G1 X13.255 Y30.511 F250
M106 S0
M106 S255
G1 X13.299 Y30.523 F250
M106 S0
M106 S255
G1 X13.353 Y30.541 F250
M106 S0
M106 S255
G1 X13.403 Y30.543 F250
M106 S0
M106 S255
G1 X13.461 Y30.53 F250
M106 S0
M106 S255
G1 X13.532 Y30.509 F250
M106 S0
M106 S255
G1 X13.608 Y30.483 F250
M106 S0
M106 S255
G1 X13.673 Y30.466 F250
M106 S0
M106 S255
G1 X13.724 Y30.457 F250
M106 S0
M106 S255
G1 X13.748 Y30.441 F250
M106 S0
M106 S255
G1 X13.788 Y30.398 F250
M106 S0
M106 S255
G1 X13.816 Y30.366 F250
M106 S0
M106 S255
G1 X13.832 Y30.359 F250
M106 S0
M106 S255
G1 X13.872 Y30.343 F250
M106 S0
M106 S255
G1 X13.899 Y30.332 F250
M106 S0
M106 S255
G1 X13.908 Y30.321 F250
M106 S0
M106 S255
G1 X13.928 Y30.293 F250
M106 S0
M106 S255
G1 X13.941 Y30.275 F250
M106 S0
M106 S255
G1 X13.965 Y30.264 F250
M106 S0
M106 S255
G1 X14.021 Y30.24 F250
M106 S0
M106 S255
G1 X14.057 Y30.225 F250
M106 S0
M106 S255
G1 X14.072 Y30.208 F250
M106 S0
M106 S255
G1 X14.104 Y30.172 F250
M106 S0
M106 S255
G1 X14.123 Y30.15 F250
M106 S0
M106 S255
G1 X14.136 Y30.116 F250
M106 S0
M106 S255
G1 X14.15 Y30.068 F250
M106 S0
M106 S255
G1 X14.164 Y30.008 F250
M106 S0
M106 S255
G1 X14.178 Y29.947 F250
M106 S0
M106 S255
G1 X14.192 Y29.898 F250
M106 S0
M106 S255
G1 X14.206 Y29.861 F250
M106 S0
G0 X13.577 Y33.325 F6000
M106 S255
G1 X13.577 Y33.325 F250
M106 S0
M106 S255
G1 X13.381 Y33.357 F250
M106 S0
M106 S255
G1 X13.039 Y33.395 F250
M106 S0
M106 S255
G1 X12.668 Y33.407 F250
M106 S0
M106 S255
G1 X12.496 Y33.317 F250
M106 S0
M106 S255
G1 X12.346 Y33.171 F250
M106 S0
M106 S255
G1 X12.347 Y33.107 F250
M106 S0
M106 S255
G1 X12.462 Y33.1 F250
M106 S0
M106 S255
G1 X12.631 Y33.09 F250
M106 S0
M106 S255
G1 X12.774 Y33.082 F250
M106 S0
M106 S255
G1 X12.894 Y33.078 F250
M106 S0
M106 S255
G1 X13.024 Y33.079 F250
M106 S0
M106 S255
G1 X13.208 Y33.108 F250
M106 S0
M106 S255
G1 X13.387 Y33.172 F250
M106 S0
M106 S255
G1 X13.466 Y33.221 F250
M106 S0
M106 S255
G1 X13.536 Y33.286 F250
M106 S0
M106 S255
G1 X13.577 Y33.325 F250
M106 S0
G0 X14.007 Y33.375 F6000
M106 S255
G1 X14.007 Y33.375 F250
M106 S0
M106 S255
G1 X13.999 Y33.323 F250
M106 S0
M106 S255
G1 X13.983 Y33.227 F250
M106 S0
M106 S255
G1 X13.974 Y33.176 F250
M106 S0
M106 S255
G1 X13.95 Y33.141 F250
M106 S0
M106 S255
G1 X13.906 Y33.077 F250
M106 S0
M106 S255
G1 X13.882 Y33.043 F250
M106 S0
M106 S255
G1 X13.798 Y33.001 F250
M106 S0
M106 S255
G1 X13.661 Y32.952 F250
M106 S0
M106 S255
G1 X13.471 Y32.897 F250
M106 S0
M106 S255
G1 X13.281 Y32.849 F250
M106 S0
M106 S255
G1 X13.138 Y32.821 F250
M106 S0
M106 S255
G1 X13.026 Y32.813 F250
M106 S0
M106 S255
G1 X12.723 Y32.817 F250
M106 S0
M106 S255
G1 X12.448 Y32.828 F250
M106 S0
M106 S255
G1 X12.212 Y32.836 F250
M106 S0
M106 S255
G1 X12.155 Y32.708 F250
M106 S0
M106 S255
G1 X12.118 Y32.582 F250
M106 S0
M106 S255
G1 X12.101 Y32.469 F250
M106 S0
M106 S255
G1 X12.047 Y32.442 F250
M106 S0
M106 S255
G1 X11.959 Y32.398 F250
M106 S0
M106 S255
G1 X11.916 Y32.372 F250
M106 S0
M106 S255
G1 X11.89 Y32.299 F250
M106 S0
M106 S255
G1 X11.881 Y32.206 F250
M106 S0
M106 S255
G1 X11.887 Y32.106 F250
M106 S0
M106 S255
G1 X11.897 Y32.098 F250
M106 S0
M106 S255
G1 X11.913 Y32.086 F250
M106 S0
M106 S255
G1 X11.919 Y32.08 F250
M106 S0
M106 S255
G1 X11.901 Y32.004 F250
M106 S0
M106 S255
G1 X11.873 Y31.889 F250
M106 S0
M106 S255
G1 X11.861 Y31.84 F250
M106 S0
M106 S255
G1 X11.813 Y31.8 F250
M106 S0
M106 S255
G1 X11.742 Y31.741 F250
M106 S0
M106 S255
G1 X11.712 Y31.717 F250
M106 S0
M106 S255
G1 X11.683 Y31.717 F250
M106 S0
M106 S255
G1 X11.639 Y31.717 F250
M106 S0
M106 S255
G1 X11.622 Y31.716 F250
M106 S0
M106 S255
G1 X11.633 Y31.678 F250
M106 S0
M106 S255
G1 X11.649 Y31.622 F250
M106 S0
M106 S255
G1 X11.654 Y31.6 F250
M106 S0
M106 S255
G1 X11.626 Y31.558 F250
M106 S0
M106 S255
G1 X11.587 Y31.499 F250
M106 S0
M106 S255
G1 X11.572 Y31.475 F250
M106 S0
M106 S255
G1 X11.572 Y31.413 F250
M106 S0
M106 S255
G1 X11.572 Y31.326 F250
M106 S0
M106 S255
G1 X11.554 Y31.245 F250
M106 S0
M106 S255
G1 X11.473 Y31.048 F250
M106 S0
M106 S255
G1 X11.398 Y30.909 F250
M106 S0
M106 S255
G1 X11.344 Y30.826 F250
M106 S0
M106 S255
G1 X11.33 Y30.758 F250
M106 S0
M106 S255
G1 X11.3 Y30.679 F250
M106 S0
M106 S255
G1 X11.253 Y30.588 F250
M106 S0
M106 S255
G1 X11.206 Y30.496 F250
M106 S0
M106 S255
G1 X11.176 Y30.427 F250
M106 S0
M106 S255
G1 X11.164 Y30.387 F250
M106 S0
M106 S255
G1 X11.176 Y30.33 F250
M106 S0
M106 S255
G1 X11.191 Y30.256 F250
M106 S0
M106 S255
G1 X11.195 Y30.229 F250
M106 S0
M106 S255
G1 X11.163 Y30.16 F250
M106 S0
M106 S255
G1 X11.091 Y30.006 F250
M106 S0
M106 S255
G1 X11.013 Y29.843 F250
M106 S0
M106 S255
G1 X10.991 Y29.831 F250
M106 S0
M106 S255
G1 X10.964 Y29.816 F250
M106 S0
M106 S255
G1 X10.95 Y29.794 F250
M106 S0
M106 S255
G1 X10.923 Y29.725 F250
M106 S0
M106 S255
G1 X10.887 Y29.64 F250
M106 S0
M106 S255
G1 X10.853 Y29.568 F250
M106 S0
M106 S255
G1 X10.806 Y29.527 F250
M106 S0
M106 S255
G1 X10.749 Y29.478 F250
M106 S0
M106 S255
G1 X10.711 Y29.4 F250
M106 S0
M106 S255
G1 X10.636 Y29.233 F250
M106 S0
M106 S255
G1 X10.553 Y29.105 F250
M106 S0
M106 S255
G1 X10.492 Y29.035 F250
M106 S0
M106 S255
G1 X10.483 Y28.96 F250
M106 S0
M106 S255
G1 X10.472 Y28.871 F250
M106 S0
M106 S255
G1 X10.458 Y28.825 F250
M106 S0
M106 S255
G1 X10.409 Y28.755 F250
M106 S0
M106 S255
G1 X10.332 Y28.673 F250
M106 S0
M106 S255
G1 X10.262 Y28.615 F250
M106 S0
M106 S255
G1 X10.186 Y28.598 F250
M106 S0
M106 S255
G1 X10.101 Y28.58 F250
M106 S0
M106 S255
G1 X10.067 Y28.564 F250
M106 S0
M106 S255
G1 X9.958 Y28.472 F250
M106 S0
M106 S255
G1 X9.835 Y28.368 F250
M106 S0
M106 S255
G1 X9.732 Y28.321 F250
M106 S0
M106 S255
G1 X9.547 Y28.265 F250
M106 S0
M106 S255
G1 X9.361 Y28.208 F250
M106 S0
M106 S255
G1 X9.164 Y28.15 F250
M106 S0
M106 S255
G1 X8.963 Y28.104 F250
M106 S0
M106 S255
G1 X8.781 Y28.073 F250
M106 S0
M106 S255
G1 X8.675 Y28.066 F250
M106 S0
M106 S255
G1 X8.59 Y28.09 F250
M106 S0
M106 S255
G1 X8.499 Y28.115 F250
M106 S0
M106 S255
G1 X8.476 Y28.126 F250
M106 S0
M106 S255
G1 X8.449 Y28.164 F250
M106 S0
M106 S255
G1 X8.42 Y28.204 F250
M106 S0
M106 S255
G1 X8.369 Y28.243 F250
M106 S0
M106 S255
G1 X8.247 Y28.318 F250
M106 S0
M106 S255
G1 X8.089 Y28.403 F250
M106 S0
M106 S255
G1 X7.973 Y28.484 F250
M106 S0
M106 S255
G1 X7.906 Y28.587 F250
M106 S0
M106 S255
G1 X7.8 Y28.737 F250
M106 S0
M106 S255
G1 X7.68 Y28.905 F250
M106 S0
M106 S255
G1 X7.594 Y29.047 F250
M106 S0
M106 S255
G1 X7.531 Y29.179 F250
M106 S0
M106 S255
G1 X7.509 Y29.248 F250
M106 S0
M106 S255
G1 X7.509 Y29.287 F250
M106 S0
M106 S255
G1 X7.509 Y29.325 F250
M106 S0
M106 S255
G1 X7.513 Y29.336 F250
M106 S0
M106 S255
G1 X7.538 Y29.361 F250
M106 S0
M106 S255
G1 X7.563 Y29.386 F250
M106 S0
M106 S255
G1 X7.569 Y29.405 F250
M106 S0
M106 S255
G1 X7.584 Y29.484 F250
M106 S0
M106 S255
G1 X7.597 Y29.56 F250
M106 S0
M106 S255
G1 X7.608 Y29.582 F250
M106 S0
M106 S255
G1 X7.647 Y29.637 F250
M106 S0
M106 S255
G1 X7.685 Y29.688 F250
M106 S0
M106 S255
G1 X7.713 Y29.709 F250
M106 S0
M106 S255
G1 X7.819 Y29.775 F250
M106 S0
M106 S255
G1 X7.917 Y29.836 F250
M106 S0
M106 S255
G1 X7.936 Y29.856 F250
M106 S0
M106 S255
G1 X7.964 Y29.912 F250
M106 S0
M106 S255
G1 X7.989 Y29.962 F250
M106 S0
M106 S255
G1 X8.007 Y29.971 F250
M106 S0
M106 S255
G1 X8.074 Y29.982 F250
M106 S0
M106 S255
G1 X8.134 Y29.992 F250
M106 S0
M106 S255
G1 X8.154 Y30.006 F250
M106 S0
M106 S255
G1 X8.21 Y30.062 F250
M106 S0
M106 S255
G1 X8.26 Y30.112 F250
M106 S0
M106 S255
G1 X8.302 Y30.121 F250
M106 S0
M106 S255
G1 X8.451 Y30.136 F250
M106 S0
M106 S255
G1 X8.582 Y30.149 F250
M106 S0
M106 S255
G1 X8.663 Y30.117 F250
M106 S0
M106 S255
G1 X8.757 Y30.049 F250
M106 S0
M106 S255
G1 X8.836 Y29.962 F250
M106 S0
M106 S255
G1 X8.86 Y29.913 F250
M106 S0
M106 S255
G1 X8.86 Y29.86 F250
M106 S0
M106 S255
G1 X8.86 Y29.815 F250
M106 S0
M106 S255
G1 X8.846 Y29.797 F250
M106 S0
M106 S255
G1 X8.793 Y29.744 F250
M106 S0
M106 S255
G1 X8.748 Y29.699 F250
M106 S0
M106 S255
G1 X8.718 Y29.688 F250
M106 S0
M106 S255
G1 X8.622 Y29.661 F250
M106 S0
M106 S255
G1 X8.544 Y29.639 F250
M106 S0
M106 S255
G1 X8.526 Y29.645 F250
M106 S0
M106 S255
G1 X8.483 Y29.672 F250
M106 S0
M106 S255
G1 X8.449 Y29.694 F250
M106 S0
M106 S255
G1 X8.442 Y29.712 F250
M106 S0
M106 S255
G1 X8.427 Y29.766 F250
M106 S0
M106 S255
G1 X8.415 Y29.808 F250
M106 S0
M106 S255
G1 X8.401 Y29.811 F250
M106 S0
M106 S255
G1 X8.358 Y29.811 F250
M106 S0
M106 S255
G1 X8.325 Y29.811 F250
M106 S0
M106 S255
G1 X8.3 Y29.785 F250
M106 S0
M106 S255
G1 X8.248 Y29.738 F250
M106 S0
M106 S255
G1 X8.172 Y29.676 F250
M106 S0
M106 S255
G1 X8.085 Y29.611 F250
M106 S0
M106 S255
G1 X8.019 Y29.568 F250
M106 S0
M106 S255
G1 X7.975 Y29.548 F250
M106 S0
M106 S255
G1 X7.953 Y29.466 F250
M106 S0
M106 S255
G1 X7.924 Y29.372 F250
M106 S0
M106 S255
G1 X7.883 Y29.29 F250
M106 S0
M106 S255
G1 X7.907 Y29.097 F250
M106 S0
M106 S255
G1 X7.997 Y28.879 F250
M106 S0
M106 S255
G1 X8.138 Y28.674 F250
M106 S0
M106 S255
G1 X8.285 Y28.554 F250
M106 S0
M106 S255
G1 X8.41 Y28.486 F250
M106 S0
M106 S255
G1 X8.519 Y28.453 F250
M106 S0
M106 S255
G1 X8.559 Y28.436 F250
M106 S0
M106 S255
G1 X8.614 Y28.397 F250
M106 S0
M106 S255
G1 X8.652 Y28.369 F250
M106 S0
M106 S255
G1 X8.687 Y28.368 F250
M106 S0
M106 S255
G1 X8.774 Y28.368 F250
M106 S0
M106 S255
G1 X8.834 Y28.368 F250
M106 S0
M106 S255
G1 X8.855 Y28.373 F250
M106 S0
M106 S255
G1 X8.945 Y28.39 F250
M106 S0
M106 S255
G1 X9.11 Y28.421 F250
M106 S0
M106 S255
G1 X9.229 Y28.491 F250
M106 S0
M106 S255
G1 X9.346 Y28.587 F250
M106 S0
M106 S255
G1 X9.478 Y28.706 F250
M106 S0
M106 S255
G1 X9.497 Y28.731 F250
M106 S0
M106 S255
G1 X9.497 Y28.747 F250
M106 S0
M106 S255
G1 X9.497 Y28.757 F250
M106 S0
M106 S255
G1 X9.678 Y28.941 F250
M106 S0
M106 S255
G1 X9.835 Y29.151 F250
M106 S0
M106 S255
G1 X9.94 Y29.359 F250
M106 S0
M106 S255
G1 X9.961 Y29.44 F250
M106 S0
M106 S255
G1 X9.982 Y29.521 F250
M106 S0
M106 S255
G1 X10.011 Y29.619 F250
M106 S0
M106 S255
G1 X10.071 Y29.738 F250
M106 S0
M106 S255
G1 X10.172 Y29.891 F250
M106 S0
M106 S255
G1 X10.315 Y30.076 F250
M106 S0
M106 S255
G1 X10.378 Y30.253 F250
M106 S0
M106 S255
G1 X10.423 Y30.451 F250
M106 S0
M106 S255
G1 X10.458 Y30.673 F250
M106 S0
M106 S255
G1 X10.489 Y30.71 F250
M106 S0
M106 S255
G1 X10.549 Y30.756 F250
M106 S0
M106 S255
G1 X10.584 Y30.783 F250
M106 S0
M106 S255
G1 X10.59 Y30.812 F250
M106 S0
M106 S255
G1 X10.602 Y30.872 F250
M106 S0
M106 S255
G1 X10.609 Y30.907 F250
M106 S0
M106 S255
G1 X10.595 Y30.913 F250
M106 S0
M106 S255
