;GCode generated by Numa's program v0.0
G0 X0.0 Y0.0 F6000
M106 S255
G1 X0.0 Y0.0 F200
M106 S0
M106 S255
G1 X0.0 Y5.0 F200
M106 S0
M106 S255
G1 X5.0 Y5.0 F200
M106 S0
M106 S255
G1 X5.0 Y3.0 F200
M106 S0
M106 S255
G1 X7.0 Y3.0 F200
M106 S0
M106 S255
G1 X7.0 Y7.0 F200
M106 S0
M106 S255
G1 X9.0 Y7.0 F200
M106 S0
M106 S255
G1 X9.0 Y1.064 F200
M106 S0
G0 X9.0 Y1.064 F6000
M106 S255
G1 X9.0 Y1.064 F200
M106 S0
M106 S255
G1 X10.272 Y1.064 F200
M106 S0
M106 S255
G1 X10.272 Y4.043 F200
M106 S0
M106 S255
G1 X16.612 Y4.043 F200
M106 S0
G0 X16.612 Y4.043 F6000
M106 S255
G1 X16.612 Y4.043 F200
M106 S0
M106 S255
G1 X29.502 Y4.043 F200
M106 S0
M106 S255
G1 X29.502 Y6.278 F200
M106 S0
G0 X29.502 Y6.278 F6000
M106 S255
G1 X29.502 Y6.278 F200
M106 S0
M106 S255
G1 X30.643 Y6.278 F200
M106 S0
M106 S255
G1 X30.643 Y2.147 F200
M106 S0
M106 S255
G1 X33.282 Y2.147 F200
M106 S0
G0 X33.282 Y2.147 F6000
M106 S255
G1 X33.282 Y2.147 F200
M106 S0
M106 S255
G1 X33.282 Y21.3 F200
M106 S0
M106 S255
G1 X33.282 Y30.281 F200
M106 S0
M106 S0
