;GCode generated by Numa's program v0.0
G0 X-0.0 Y76.706 F6000
M106 S255
G1 X-0.0 Y76.706 F180
M106 S0
M106 S255
G1 X34.717 Y33.87 F180
M106 S0
M106 S255
G1 X37.051 Y33.87 F180
M106 S0
M106 S255
G1 X0.0 Y80.82 F180
M106 S0
G0 X0.003 Y82.219 F6000
M106 S255
G1 X0.003 Y82.219 F180
M106 S0
M106 S255
G1 X20.22 Y82.219 F180
M106 S0
G0 X10.335 Y63.886 F6000
M106 S255
G1 X10.335 Y63.886 F180
M106 S0
M106 S255
G1 X20.986 Y63.886 F180
M106 S0
M106 S255
G1 X50.448 Y65.504 F180
M106 S0
G0 X21.126 Y50.552 F6000
M106 S255
G1 X21.126 Y50.552 F180
M106 S0
M106 S255
G1 X29.465 Y50.552 F180
M106 S0
M106 S255
G1 X56.153 Y51.61 F180
M106 S0
G0 X29.242 Y40.585 F6000
M106 S255
G1 X29.242 Y40.585 F180
M106 S0
M106 S255
G1 X48.908 Y40.585 F180
M106 S0
G0 X3.424 Y89.222 F6000
M106 S255
G1 X3.424 Y89.222 F180
M106 S0
M106 S255
G1 X37.392 Y41.21 F180
M106 S0
G0 X0.31 Y89.751 F6000
M106 S255
G1 X0.31 Y89.751 F180
M106 S0
M106 S255
G1 X36.09 Y40.136 F180
M106 S0
G0 X14.53 Y73.524 F6000
M106 S255
G1 X14.53 Y73.524 F180
M106 S0
M106 S255
G1 X21.85 Y73.405 F180
M106 S0
M106 S255
G1 X41.517 Y72.219 F180
M106 S0
G0 X18.987 Y63.854 F6000
M106 S255
G1 X18.987 Y63.854 F180
M106 S0
M106 S255
G1 X29.681 Y72.908 F180
M106 S0
M106 S255
G1 X36.013 Y64.751 F180
M106 S0
M106 S255
G1 X43.516 Y70.873 F180
M106 S0
G0 X21.516 Y73.437 F6000
M106 S255
G1 X21.516 Y73.437 F180
M106 S0
M106 S255
G1 X28.197 Y64.302 F180
M106 S0
M106 S255
G1 X37.128 Y72.459 F180
M106 S0
M106 S255
G1 X44.025 Y65.184 F180
M106 S0
M106 S255
G1 X47.891 Y67.796 F180
M106 S0
G0 X24.693 Y59.142 F6000
M106 S255
G1 X24.693 Y59.142 F180
M106 S0
M106 S255
G1 X30.816 Y59.142 F180
M106 S0
M106 S255
G1 X56.885 Y57.491 F180
M106 S0
G0 X30.816 Y59.142 F6000
M106 S255
G1 X30.816 Y59.142 F180
M106 S0
M106 S255
G1 X36.633 Y50.841 F180
M106 S0
M106 S255
G1 X44.22 Y58.261 F180
M106 S0
M106 S255
G1 X50.747 Y51.418 F180
M106 S0
M106 S255
G1 X57.17 Y56.161 F180
M106 S0
G0 X29.465 Y50.552 F6000
M106 S255
G1 X29.465 Y50.552 F180
M106 S0
M106 S255
G1 X37.873 Y58.677 F180
M106 S0
M106 S255
G1 X43.618 Y51.145 F180
M106 S0
M106 S255
G1 X50.956 Y57.812 F180
M106 S0
M106 S255
G1 X57.679 Y52.7 F180
M106 S0
G0 X32.014 Y48.405 F6000
M106 S255
G1 X32.014 Y48.405 F180
M106 S0
M106 S255
G1 X49.612 Y47.972 F180
M106 S0
G0 X37.507 Y48.27 F6000
M106 S255
G1 X37.507 Y48.27 F180
M106 S0
M106 S255
G1 X42.764 Y40.601 F180
M106 S0
M106 S255
G1 X49.584 Y47.812 F180
M106 S0
G0 X36.083 Y40.585 F6000
M106 S255
G1 X36.083 Y40.585 F180
M106 S0
M106 S255
G1 X43.474 Y48.1 F180
M106 S0
M106 S255
G1 X49.145 Y40.873 F180
M106 S0
G0 X28.197 Y64.302 F6000
M106 S255
G1 X28.197 Y64.302 F180
M106 S0
M106 S255
G1 X29.681 Y72.908 F180
M106 S0
G0 X36.013 Y64.751 F6000
M106 S255
G1 X36.013 Y64.751 F180
M106 S0
M106 S255
G1 X37.128 Y72.459 F180
M106 S0
G0 X44.025 Y65.184 F6000
M106 S255
G1 X44.025 Y65.184 F180
M106 S0
M106 S255
G1 X44.44 Y70.256 F180
M106 S0
G0 X42.764 Y40.601 F6000
M106 S255
G1 X42.764 Y40.601 F180
M106 S0
M106 S255
G1 X43.474 Y48.1 F180
M106 S0
G0 X36.633 Y50.841 F6000
M106 S255
G1 X36.633 Y50.841 F180
M106 S0
M106 S255
G1 X37.873 Y58.677 F180
M106 S0
G0 X43.618 Y51.145 F6000
M106 S255
G1 X43.618 Y51.145 F180
M106 S0
M106 S255
G1 X44.22 Y58.261 F180
M106 S0
G0 X50.747 Y51.418 F6000
M106 S255
G1 X50.747 Y51.418 F180
M106 S0
M106 S255
G1 X50.956 Y57.812 F180
M106 S0
G0 X2.617 Y90.43 F6000
M106 S255
G1 X2.617 Y90.43 F180
M106 S0
M106 S255
G1 X10.75 Y96.891 F180
M106 S0
G0 X14.883 Y85.58 F6000
M106 S255
G1 X14.883 Y85.58 F180
M106 S0
M106 S255
G1 X22.138 Y91.603 F180
M106 S0
G0 X25.82 Y81.375 F6000
M106 S255
G1 X25.82 Y81.375 F180
M106 S0
M106 S255
G1 X31.629 Y86.782 F180
M106 S0
G0 X34.139 Y77.343 F6000
M106 S255
G1 X34.139 Y77.343 F180
M106 S0
M106 S255
G1 X39.773 Y82.291 F180
M106 S0
G0 X41.05 Y73.437 F6000
M106 S255
G1 X41.05 Y73.437 F180
M106 S0
M106 S255
G1 X46.296 Y78.129 F180
M106 S0
G0 X46.203 Y70.004 F6000
M106 S255
G1 X46.203 Y70.004 F180
M106 S0
M106 S255
G1 X51.463 Y74.231 F180
M106 S0
G0 X50.536 Y67.406 F6000
M106 S255
G1 X50.536 Y67.406 F180
M106 S0
M106 S255
G1 X55.888 Y70.69 F180
M106 S0
G0 X53.387 Y64.779 F6000
M106 S255
G1 X53.387 Y64.779 F180
M106 S0
M106 S255
G1 X58.308 Y67.81 F180
M106 S0
G0 X55.569 Y62.238 F6000
M106 S255
G1 X55.569 Y62.238 F180
M106 S0
M106 S255
G1 X60.728 Y64.927 F180
M106 S0
G0 X57.138 Y59.797 F6000
M106 S255
G1 X57.138 Y59.797 F180
M106 S0
M106 S255
G1 X62.409 Y62.398 F180
M106 S0
G0 X58.13 Y57.592 F6000
M106 S255
G1 X58.13 Y57.592 F180
M106 S0
M106 S255
G1 X63.563 Y59.865 F180
M106 S0
G0 X58.281 Y57.183 F6000
M106 S255
G1 X58.281 Y57.183 F180
M106 S0
M106 S255
G1 X64.746 Y55.968 F180
M106 S0
G0 X58.716 Y55.373 F6000
M106 S255
G1 X58.716 Y55.373 F180
M106 S0
M106 S255
G1 X64.251 Y57.599 F180
M106 S0
G0 X58.771 Y55.103 F6000
M106 S255
G1 X58.771 Y55.103 F180
M106 S0
M106 S255
G1 X64.492 Y53.939 F180
M106 S0
G0 X58.883 Y53.342 F6000
M106 S255
G1 X58.883 Y53.342 F180
M106 S0
M106 S255
G1 X64.866 Y55.571 F180
M106 S0
G0 X58.241 Y57.297 F6000
M106 S255
G1 X58.241 Y57.297 F180
M106 S0
M106 S255
G1 X64.168 Y57.872 F180
M106 S0
G0 X58.742 Y55.246 F6000
M106 S255
G1 X58.742 Y55.246 F180
M106 S0
M106 S255
G1 X64.811 Y55.752 F180
M106 S0
G0 X58.873 Y52.994 F6000
M106 S255
G1 X58.873 Y52.994 F180
M106 S0
M106 S255
G1 X64.387 Y51.743 F180
M106 S0
G0 X58.625 Y50.95 F6000
M106 S255
G1 X58.625 Y50.95 F180
M106 S0
M106 S255
G1 X64.494 Y53.238 F180
M106 S0
G0 X58.882 Y53.3 F6000
M106 S255
G1 X58.882 Y53.3 F180
M106 S0
M106 S255
G1 X64.494 Y53.57 F180
M106 S0
G0 X58.647 Y51.053 F6000
M106 S255
G1 X58.647 Y51.053 F180
M106 S0
M106 S255
G1 X64.341 Y51.383 F180
M106 S0
G0 X19.274 Y109.189 F6000
M106 S255
G1 X19.274 Y109.189 F180
M106 S0
M106 S255
G1 X20.253 Y108.582 F180
M106 S0
M106 S255
G1 X21.23 Y107.974 F180
M106 S0
M106 S255
G1 X22.206 Y107.365 F180
M106 S0
M106 S255
G1 X23.18 Y106.752 F180
M106 S0
M106 S255
G1 X24.152 Y106.135 F180
M106 S0
M106 S255
G1 X25.12 Y105.514 F180
M106 S0
M106 S255
G1 X26.085 Y104.886 F180
M106 S0
M106 S255
G1 X26.998 Y104.283 F180
M106 S0
M106 S255
G1 X27.999 Y103.609 F180
M106 S0
M106 S255
G1 X28.949 Y102.959 F180
M106 S0
M106 S255
G1 X29.894 Y102.302 F180
M106 S0
M106 S255
G1 X30.834 Y101.638 F180
M106 S0
M106 S255
G1 X31.769 Y100.967 F180
M106 S0
M106 S255
G1 X32.7 Y100.29 F180
M106 S0
M106 S255
G1 X33.626 Y99.607 F180
M106 S0
M106 S255
G1 X34.654 Y98.839 F180
M106 S0
M106 S255
G1 X35.467 Y98.224 F180
M106 S0
M106 S255
G1 X36.381 Y97.525 F180
M106 S0
M106 S255
G1 X37.291 Y96.821 F180
M106 S0
M106 S255
G1 X38.198 Y96.113 F180
M106 S0
M106 S255
G1 X39.101 Y95.4 F180
M106 S0
M106 S255
G1 X40.002 Y94.683 F180
M106 S0
M106 S255
G1 X41.101 Y93.799 F180
M106 S0
M106 S255
G1 X41.793 Y93.238 F180
M106 S0
M106 S255
G1 X42.684 Y92.509 F180
M106 S0
M106 S255
G1 X43.571 Y91.776 F180
M106 S0
M106 S255
G1 X44.453 Y91.037 F180
M106 S0
M106 S255
G1 X45.331 Y90.292 F180
M106 S0
M106 S255
G1 X46.407 Y89.363 F180
M106 S0
M106 S255
G1 X47.068 Y88.783 F180
M106 S0
M106 S255
G1 X47.928 Y88.018 F180
M106 S0
M106 S255
G1 X48.783 Y87.248 F180
M106 S0
M106 S255
G1 X49.635 Y86.474 F180
M106 S0
M106 S255
G1 X50.484 Y85.698 F180
M106 S0
M106 S255
G1 X50.696 Y85.504 F180
M106 S0
G0 X17.161 Y108.853 F6000
M106 S255
G1 X17.161 Y108.853 F180
M106 S0
M106 S255
G1 X18.221 Y108.208 F180
M106 S0
M106 S255
G1 X19.278 Y107.56 F180
M106 S0
M106 S255
G1 X20.849 Y106.576 F180
M106 S0
M106 S255
G1 X21.376 Y106.238 F180
M106 S0
M106 S255
G1 X22.415 Y105.561 F180
M106 S0
M106 S255
G1 X23.448 Y104.875 F180
M106 S0
M106 S255
G1 X24.476 Y104.182 F180
M106 S0
M106 S255
G1 X25.502 Y103.486 F180
M106 S0
M106 S255
G1 X26.498 Y102.808 F180
M106 S0
M106 S255
G1 X27.552 Y102.089 F180
M106 S0
M106 S255
G1 X28.577 Y101.391 F180
M106 S0
M106 S255
G1 X29.601 Y100.692 F180
M106 S0
M106 S255
G1 X30.624 Y99.991 F180
M106 S0
M106 S255
G1 X31.645 Y99.287 F180
M106 S0
M106 S255
G1 X32.664 Y98.581 F180
M106 S0
M106 S255
G1 X33.68 Y97.87 F180
M106 S0
M106 S255
G1 X34.693 Y97.154 F180
M106 S0
M106 S255
G1 X36.198 Y96.076 F180
M106 S0
M106 S255
G1 X36.706 Y95.706 F180
M106 S0
M106 S255
G1 X37.706 Y94.971 F180
M106 S0
M106 S255
G1 X38.7 Y94.229 F180
M106 S0
M106 S255
G1 X39.688 Y93.479 F180
M106 S0
M106 S255
G1 X40.668 Y92.72 F180
M106 S0
M106 S255
G1 X41.642 Y91.952 F180
M106 S0
M106 S255
G1 X43.076 Y90.789 F180
M106 S0
M106 S255
G1 X43.563 Y90.385 F180
M106 S0
M106 S255
G1 X44.511 Y89.586 F180
M106 S0
M106 S255
G1 X45.451 Y88.778 F180
M106 S0
M106 S255
G1 X46.385 Y87.961 F180
M106 S0
M106 S255
G1 X47.312 Y87.139 F180
M106 S0
M106 S255
G1 X48.235 Y86.31 F180
M106 S0
M106 S255
G1 X49.154 Y85.477 F180
M106 S0
M106 S255
G1 X50.07 Y84.64 F180
M106 S0
M106 S255
G1 X50.984 Y83.801 F180
M106 S0
M106 S255
G1 X51.435 Y83.387 F180
M106 S0
G0 X64.44 Y55.412 F6000
M106 S255
G1 X64.44 Y55.412 F180
M106 S0
M106 S255
G1 X64.472 Y54.645 F180
M106 S0
M106 S255
G1 X64.492 Y53.967 F180
M106 S0
M106 S255
G1 X64.496 Y53.289 F180
M106 S0
M106 S255
G1 X64.474 Y52.612 F180
M106 S0
M106 S255
G1 X64.444 Y52.19 F180
M106 S0
M106 S255
G1 X64.326 Y51.264 F180
M106 S0
M106 S255
G1 X64.197 Y50.597 F180
M106 S0
M106 S255
G1 X64.031 Y49.936 F180
M106 S0
M106 S255
G1 X63.832 Y49.284 F180
M106 S0
M106 S255
G1 X63.599 Y48.645 F180
M106 S0
M106 S255
G1 X63.46 Y48.304 F180
M106 S0
M106 S255
G1 X63.041 Y47.408 F180
M106 S0
M106 S255
G1 X62.721 Y46.811 F180
M106 S0
M106 S255
G1 X62.376 Y46.226 F180
M106 S0
M106 S255
G1 X62.01 Y45.654 F180
M106 S0
M106 S255
G1 X61.626 Y45.092 F180
M106 S0
M106 S255
G1 X61.227 Y44.54 F180
M106 S0
M106 S255
G1 X60.639 Y43.771 F180
M106 S0
M106 S255
G1 X60.394 Y43.463 F180
M106 S0
M106 S255
G1 X59.964 Y42.937 F180
M106 S0
M106 S255
G1 X59.525 Y42.42 F180
M106 S0
M106 S255
G1 X59.075 Y41.912 F180
M106 S0
M106 S255
G1 X58.615 Y41.416 F180
M106 S0
M106 S255
G1 X58.143 Y40.931 F180
M106 S0
M106 S255
G1 X57.791 Y40.585 F180
M106 S0
M106 S255
G1 X57.162 Y39.999 F180
M106 S0
M106 S255
G1 X56.654 Y39.551 F180
M106 S0
M106 S255
G1 X56.136 Y39.114 F180
M106 S0
M106 S255
G1 X55.608 Y38.688 F180
M106 S0
M106 S255
G1 X55.073 Y38.271 F180
M106 S0
M106 S255
G1 X54.53 Y37.863 F180
M106 S0
M106 S255
G1 X53.982 Y37.462 F180
M106 S0
M106 S255
G1 X53.428 Y37.068 F180
M106 S0
M106 S255
G1 X52.886 Y36.691 F180
M106 S0
M106 S255
G1 X52.311 Y36.297 F180
M106 S0
M106 S255
G1 X51.748 Y35.918 F180
M106 S0
M106 S255
G1 X51.183 Y35.544 F180
M106 S0
M106 S255
G1 X50.616 Y35.173 F180
M106 S0
M106 S255
G1 X50.047 Y34.805 F180
M106 S0
M106 S255
G1 X49.477 Y34.44 F180
M106 S0
M106 S255
G1 X48.905 Y34.078 F180
M106 S0
M106 S255
G1 X48.332 Y33.717 F180
M106 S0
M106 S255
G1 X47.58 Y33.246 F180
M106 S0
M106 S255
G1 X47.183 Y32.998 F180
M106 S0
M106 S255
G1 X46.608 Y32.64 F180
M106 S0
M106 S255
G1 X46.033 Y32.282 F180
M106 S0
M106 S255
G1 X45.457 Y31.925 F180
M106 S0
G0 X65.127 Y54.712 F6000
M106 S255
G1 X65.127 Y54.712 F180
M106 S0
M106 S255
G1 X65.114 Y53.888 F180
M106 S0
M106 S255
G1 X65.09 Y53.113 F180
M106 S0
M106 S255
G1 X65.042 Y52.341 F180
M106 S0
M106 S255
G1 X64.947 Y51.496 F180
M106 S0
M106 S255
G1 X64.828 Y50.81 F180
M106 S0
M106 S255
G1 X64.652 Y50.055 F180
M106 S0
M106 S255
G1 X64.432 Y49.309 F180
M106 S0
M106 S255
G1 X64.172 Y48.574 F180
M106 S0
M106 S255
G1 X63.874 Y47.853 F180
M106 S0
M106 S255
G1 X63.541 Y47.147 F180
M106 S0
M106 S255
G1 X63.237 Y46.565 F180
M106 S0
M106 S255
G1 X62.785 Y45.788 F180
M106 S0
M106 S255
G1 X62.366 Y45.135 F180
M106 S0
M106 S255
G1 X61.922 Y44.5 F180
M106 S0
M106 S255
G1 X61.457 Y43.879 F180
M106 S0
M106 S255
G1 X60.971 Y43.274 F180
M106 S0
M106 S255
G1 X60.468 Y42.682 F180
M106 S0
M106 S255
G1 X59.95 Y42.102 F180
M106 S0
M106 S255
G1 X59.419 Y41.534 F180
M106 S0
M106 S255
G1 X58.794 Y40.893 F180
M106 S0
M106 S255
G1 X58.326 Y40.429 F180
M106 S0
M106 S255
G1 X57.766 Y39.891 F180
M106 S0
M106 S255
G1 X57.197 Y39.364 F180
M106 S0
M106 S255
G1 X56.618 Y38.849 F180
M106 S0
M106 S255
G1 X56.029 Y38.347 F180
M106 S0
M106 S255
G1 X55.429 Y37.858 F180
M106 S0
M106 S255
G1 X54.556 Y37.189 F180
M106 S0
M106 S255
G1 X54.195 Y36.926 F180
M106 S0
M106 S255
G1 X53.562 Y36.483 F180
M106 S0
M106 S255
G1 X52.918 Y36.053 F180
M106 S0
M106 S255
G1 X52.267 Y35.634 F180
M106 S0
M106 S255
G1 X51.61 Y35.224 F180
M106 S0
M106 S255
G1 X50.947 Y34.821 F180
M106 S0
M106 S255
G1 X50.199 Y34.374 F180
M106 S0
M106 S255
G1 X49.615 Y34.03 F180
M106 S0
M106 S255
G1 X48.946 Y33.638 F180
M106 S0
M106 S255
G1 X48.277 Y33.25 F180
M106 S0
M106 S255
G1 X47.607 Y32.863 F180
M106 S0
M106 S255
G1 X46.936 Y32.477 F180
M106 S0
M106 S255
G1 X46.264 Y32.093 F180
M106 S0
M106 S255
G1 X45.593 Y31.709 F180
M106 S0
G0 X0.015 Y103.364 F6000
M106 S255
G1 X0.015 Y103.364 F180
M106 S0
M106 S255
G1 X1.274 Y102.787 F180
M106 S0
M106 S255
G1 X2.533 Y102.212 F180
M106 S0
M106 S255
G1 X3.793 Y101.639 F180
M106 S0
M106 S255
G1 X5.564 Y100.842 F180
M106 S0
M106 S255
G1 X6.32 Y100.505 F180
M106 S0
M106 S255
G1 X7.586 Y99.945 F180
M106 S0
M106 S255
G1 X8.853 Y99.388 F180
M106 S0
M106 S255
G1 X10.12 Y98.831 F180
M106 S0
M106 S255
G1 X11.387 Y98.272 F180
M106 S0
M106 S255
G1 X12.652 Y97.71 F180
M106 S0
M106 S255
G1 X14.474 Y96.887 F180
M106 S0
M106 S255
G1 X15.174 Y96.567 F180
M106 S0
M106 S255
G1 X16.429 Y95.983 F180
M106 S0
M106 S255
G1 X17.681 Y95.392 F180
M106 S0
M106 S255
G1 X18.93 Y94.794 F180
M106 S0
M106 S255
G1 X20.175 Y94.19 F180
M106 S0
M106 S255
G1 X21.418 Y93.579 F180
M106 S0
M106 S255
G1 X22.658 Y92.963 F180
M106 S0
M106 S255
G1 X23.895 Y92.342 F180
M106 S0
M106 S255
G1 X25.13 Y91.716 F180
M106 S0
M106 S255
G1 X26.813 Y90.856 F180
M106 S0
M106 S255
G1 X27.595 Y90.453 F180
M106 S0
M106 S255
G1 X28.824 Y89.816 F180
M106 S0
M106 S255
G1 X30.051 Y89.175 F180
M106 S0
M106 S255
G1 X31.276 Y88.529 F180
M106 S0
M106 S255
G1 X32.497 Y87.877 F180
M106 S0
M106 S255
G1 X33.715 Y87.219 F180
M106 S0
M106 S255
G1 X34.929 Y86.553 F180
M106 S0
M106 S255
G1 X36.139 Y85.88 F180
M106 S0
M106 S255
G1 X37.344 Y85.199 F180
M106 S0
M106 S255
G1 X38.545 Y84.508 F180
M106 S0
M106 S255
G1 X39.74 Y83.808 F180
M106 S0
M106 S255
G1 X41.508 Y82.747 F180
M106 S0
M106 S255
G1 X42.113 Y82.376 F180
M106 S0
M106 S255
G1 X43.29 Y81.643 F180
M106 S0
M106 S255
G1 X44.458 Y80.895 F180
M106 S0
M106 S255
G1 X45.615 Y80.133 F180
M106 S0
M106 S255
G1 X46.761 Y79.353 F180
M106 S0
M106 S255
G1 X47.893 Y78.555 F180
M106 S0
M106 S255
G1 X49.011 Y77.738 F180
M106 S0
M106 S255
G1 X50.111 Y76.898 F180
M106 S0
M106 S255
G1 X50.946 Y76.237 F180
M106 S0
M106 S255
G1 X52.256 Y75.151 F180
M106 S0
M106 S255
G1 X53.303 Y74.245 F180
M106 S0
M106 S255
G1 X54.334 Y73.32 F180
M106 S0
M106 S255
G1 X55.111 Y72.607 F180
M106 S0
M106 S255
G1 X56.36 Y71.426 F180
M106 S0
M106 S255
G1 X57.346 Y70.451 F180
M106 S0
M106 S255
G1 X58.302 Y69.449 F180
M106 S0
M106 S255
G1 X59.477 Y68.108 F180
M106 S0
M106 S255
G1 X60.093 Y67.342 F180
M106 S0
M106 S255
G1 X60.931 Y66.24 F180
M106 S0
M106 S255
G1 X62.12 Y64.621 F180
M106 S0
G0 X0.017 Y101.351 F6000
M106 S255
G1 X0.017 Y101.351 F180
M106 S0
M106 S255
G1 X1.518 Y100.74 F180
M106 S0
M106 S255
G1 X3.019 Y100.127 F180
M106 S0
M106 S255
G1 X4.519 Y99.512 F180
M106 S0
M106 S255
G1 X6.017 Y98.893 F180
M106 S0
M106 S255
G1 X7.513 Y98.269 F180
M106 S0
M106 S255
G1 X9.006 Y97.639 F180
M106 S0
M106 S255
G1 X10.496 Y97.001 F180
M106 S0
M106 S255
G1 X11.982 Y96.355 F180
M106 S0
M106 S255
G1 X13.463 Y95.699 F180
M106 S0
M106 S255
G1 X14.292 Y95.327 F180
M106 S0
M106 S255
G1 X16.411 Y94.354 F180
M106 S0
M106 S255
G1 X17.877 Y93.666 F180
M106 S0
M106 S255
G1 X19.339 Y92.968 F180
M106 S0
M106 S255
G1 X20.798 Y92.261 F180
M106 S0
M106 S255
G1 X22.252 Y91.547 F180
M106 S0
M106 S255
G1 X23.704 Y90.826 F180
M106 S0
M106 S255
G1 X25.153 Y90.099 F180
M106 S0
M106 S255
G1 X26.6 Y89.367 F180
M106 S0
M106 S255
G1 X27.947 Y88.681 F180
M106 S0
M106 S255
G1 X29.49 Y87.891 F180
M106 S0
M106 S255
G1 X30.931 Y87.146 F180
M106 S0
M106 S255
G1 X32.369 Y86.395 F180
M106 S0
M106 S255
G1 X33.801 Y85.635 F180
M106 S0
M106 S255
G1 X35.229 Y84.865 F180
M106 S0
M106 S255
G1 X36.649 Y84.083 F180
M106 S0
M106 S255
G1 X38.061 Y83.287 F180
M106 S0
M106 S255
G1 X39.463 Y82.475 F180
M106 S0
M106 S255
G1 X40.856 Y81.647 F180
M106 S0
M106 S255
G1 X42.237 Y80.799 F180
M106 S0
M106 S255
G1 X43.634 Y79.912 F180
M106 S0
M106 S255
G1 X44.96 Y79.04 F180
M106 S0
M106 S255
G1 X46.3 Y78.126 F180
M106 S0
M106 S255
G1 X47.623 Y77.188 F180
M106 S0
M106 S255
G1 X48.928 Y76.226 F180
M106 S0
M106 S255
G1 X50.214 Y75.238 F180
M106 S0
M106 S255
G1 X51.889 Y73.887 F180
M106 S0
M106 S255
G1 X52.723 Y73.185 F180
M106 S0
M106 S255
G1 X53.943 Y72.117 F180
M106 S0
M106 S255
G1 X55.138 Y71.021 F180
M106 S0
M106 S255
G1 X56.305 Y69.896 F180
M106 S0
M106 S255
G1 X57.444 Y68.74 F180
M106 S0
M106 S255
G1 X58.096 Y68.049 F180
M106 S0
M106 S255
G1 X59.62 Y66.33 F180
M106 S0
M106 S255
G1 X60.631 Y65.062 F180
M106 S0
M106 S255
G1 X61.385 Y64.012 F180
M106 S0
M106 S255
G1 X62.427 Y62.369 F180
M106 S0
M106 S255
G1 X63.208 Y61.037 F180
M106 S0
G0 X35.33 Y44.124 F6000
M106 S255
G1 X35.33 Y44.124 F180
M106 S0
M106 S255
G1 X35.768 Y44.192 F180
M106 S0
M106 S255
G1 X36.205 Y44.264 F180
M106 S0
M106 S255
G1 X36.641 Y44.34 F180
M106 S0
M106 S255
G1 X37.075 Y44.423 F180
M106 S0
M106 S255
G1 X37.508 Y44.513 F180
M106 S0
M106 S255
G1 X37.938 Y44.614 F180
M106 S0
M106 S255
G1 X38.366 Y44.726 F180
M106 S0
M106 S255
G1 X38.791 Y44.847 F180
M106 S0
M106 S255
G1 X39.214 Y44.975 F180
M106 S0
M106 S255
G1 X39.636 Y45.11 F180
M106 S0
M106 S255
G1 X40.056 Y45.25 F180
M106 S0
M106 S255
G1 X40.475 Y45.394 F180
M106 S0
M106 S255
G1 X40.894 Y45.538 F180
M106 S0
M106 S255
G1 X41.311 Y45.684 F180
M106 S0
M106 S255
G1 X41.728 Y45.831 F180
M106 S0
M106 S255
G1 X42.145 Y45.98 F180
M106 S0
M106 S255
G1 X42.561 Y46.129 F180
M106 S0
M106 S255
G1 X42.977 Y46.279 F180
M106 S0
M106 S255
G1 X43.392 Y46.431 F180
M106 S0
M106 S255
G1 X43.808 Y46.584 F180
M106 S0
M106 S255
G1 X44.223 Y46.738 F180
M106 S0
M106 S255
G1 X44.638 Y46.894 F180
M106 S0
M106 S255
G1 X45.052 Y47.051 F180
M106 S0
M106 S255
G1 X45.462 Y47.209 F180
M106 S0
M106 S255
G1 X45.869 Y47.369 F180
M106 S0
M106 S255
G1 X46.269 Y47.53 F180
M106 S0
M106 S255
G1 X46.662 Y47.692 F180
M106 S0
M106 S255
G1 X47.046 Y47.855 F180
M106 S0
M106 S255
G1 X47.42 Y48.02 F180
M106 S0
M106 S255
G1 X47.782 Y48.186 F180
M106 S0
M106 S255
G1 X48.13 Y48.354 F180
M106 S0
M106 S255
G1 X48.464 Y48.522 F180
M106 S0
M106 S255
G1 X48.789 Y48.694 F180
M106 S0
M106 S255
G1 X49.113 Y48.871 F180
M106 S0
M106 S255
G1 X49.441 Y49.055 F180
M106 S0
M106 S255
G1 X49.78 Y49.247 F180
M106 S0
M106 S255
G1 X50.137 Y49.451 F180
M106 S0
M106 S255
G1 X50.518 Y49.666 F180
M106 S0
M106 S255
G1 X50.93 Y49.896 F180
M106 S0
M106 S255
G1 X51.372 Y50.142 F180
M106 S0
M106 S255
G1 X51.832 Y50.401 F180
M106 S0
M106 S255
G1 X52.295 Y50.672 F180
M106 S0
M106 S255
G1 X52.75 Y50.955 F180
M106 S0
M106 S255
G1 X53.181 Y51.248 F180
M106 S0
M106 S255
G1 X53.579 Y51.548 F180
M106 S0
M106 S255
G1 X53.947 Y51.856 F180
M106 S0
M106 S255
G1 X54.29 Y52.169 F180
M106 S0
M106 S255
G1 X54.617 Y52.488 F180
M106 S0
M106 S255
G1 X54.932 Y52.809 F180
M106 S0
M106 S255
G1 X55.243 Y53.133 F180
M106 S0
M106 S255
G1 X55.55 Y53.46 F180
M106 S0
M106 S255
G1 X55.849 Y53.793 F180
M106 S0
M106 S255
G1 X56.131 Y54.135 F180
M106 S0
M106 S255
G1 X56.39 Y54.49 F180
M106 S0
M106 S255
G1 X56.621 Y54.862 F180
M106 S0
M106 S255
G1 X56.818 Y55.253 F180
M106 S0
M106 S255
G1 X56.985 Y55.66 F180
M106 S0
M106 S255
G1 X57.13 Y56.079 F180
M106 S0
M106 S255
G1 X57.262 Y56.506 F180
M106 S0
G0 X35.996 Y43.184 F6000
M106 S255
G1 X35.996 Y43.184 F180
M106 S0
M106 S255
G1 X36.478 Y43.277 F180
M106 S0
M106 S255
G1 X36.96 Y43.374 F180
M106 S0
M106 S255
G1 X37.44 Y43.476 F180
M106 S0
M106 S255
G1 X37.919 Y43.586 F180
M106 S0
M106 S255
G1 X38.396 Y43.704 F180
M106 S0
M106 S255
G1 X38.87 Y43.831 F180
M106 S0
M106 S255
G1 X39.343 Y43.965 F180
M106 S0
M106 S255
G1 X39.814 Y44.106 F180
M106 S0
M106 S255
G1 X40.283 Y44.253 F180
M106 S0
M106 S255
G1 X40.75 Y44.406 F180
M106 S0
M106 S255
G1 X41.216 Y44.565 F180
M106 S0
M106 S255
G1 X41.68 Y44.727 F180
M106 S0
M106 S255
G1 X42.142 Y44.894 F180
M106 S0
M106 S255
G1 X42.603 Y45.065 F180
M106 S0
M106 S255
G1 X43.062 Y45.239 F180
M106 S0
M106 S255
G1 X43.52 Y45.416 F180
M106 S0
M106 S255
G1 X43.977 Y45.597 F180
M106 S0
M106 S255
G1 X44.432 Y45.781 F180
M106 S0
M106 S255
G1 X44.887 Y45.968 F180
M106 S0
M106 S255
G1 X45.34 Y46.157 F180
M106 S0
M106 S255
G1 X45.792 Y46.35 F180
M106 S0
M106 S255
G1 X46.244 Y46.546 F180
M106 S0
M106 S255
G1 X46.694 Y46.744 F180
M106 S0
M106 S255
G1 X47.143 Y46.945 F180
M106 S0
M106 S255
G1 X47.591 Y47.151 F180
M106 S0
M106 S255
G1 X48.036 Y47.36 F180
M106 S0
M106 S255
G1 X48.479 Y47.574 F180
M106 S0
M106 S255
G1 X48.919 Y47.793 F180
M106 S0
M106 S255
G1 X49.357 Y48.017 F180
M106 S0
M106 S255
G1 X49.79 Y48.247 F180
M106 S0
M106 S255
G1 X50.22 Y48.484 F180
M106 S0
M106 S255
G1 X50.646 Y48.727 F180
M106 S0
M106 S255
G1 X51.068 Y48.977 F180
M106 S0
M106 S255
G1 X51.485 Y49.235 F180
M106 S0
M106 S255
G1 X51.899 Y49.499 F180
M106 S0
M106 S255
G1 X52.309 Y49.768 F180
M106 S0
M106 S255
G1 X52.717 Y50.043 F180
M106 S0
M106 S255
G1 X53.123 Y50.323 F180
M106 S0
M106 S255
G1 X53.528 Y50.607 F180
M106 S0
M106 S255
G1 X53.928 Y50.898 F180
M106 S0
M106 S255
G1 X54.322 Y51.197 F180
M106 S0
M106 S255
G1 X54.706 Y51.507 F180
M106 S0
M106 S255
G1 X55.077 Y51.831 F180
M106 S0
M106 S255
G1 X55.432 Y52.17 F180
M106 S0
M106 S255
G1 X55.768 Y52.529 F180
M106 S0
M106 S255
G1 X56.083 Y52.908 F180
M106 S0
M106 S255
G1 X56.372 Y53.309 F180
M106 S0
M106 S255
G1 X56.633 Y53.731 F180
M106 S0
M106 S255
G1 X56.862 Y54.17 F180
M106 S0
M106 S255
G1 X57.055 Y54.625 F180
M106 S0
M106 S255
G1 X57.209 Y55.091 F180
M106 S0
M106 S255
G1 X57.323 Y55.568 F180
M106 S0
M106 S255
G1 X57.406 Y56.052 F180
M106 S0
G0 X33.385 Y31.94 F6000
M106 S255
G1 X33.385 Y31.94 F180
M106 S0
M106 S255
G1 X33.993 Y32.174 F180
M106 S0
M106 S255
G1 X34.601 Y32.41 F180
M106 S0
M106 S255
G1 X35.207 Y32.649 F180
M106 S0
M106 S255
G1 X35.812 Y32.891 F180
M106 S0
M106 S255
G1 X36.413 Y33.139 F180
M106 S0
M106 S255
G1 X37.012 Y33.394 F180
M106 S0
M106 S255
G1 X37.606 Y33.657 F180
M106 S0
M106 S255
G1 X38.195 Y33.93 F180
M106 S0
M106 S255
G1 X38.779 Y34.213 F180
M106 S0
M106 S255
G1 X39.358 Y34.508 F180
M106 S0
M106 S255
G1 X39.932 Y34.811 F180
M106 S0
M106 S255
G1 X40.502 Y35.124 F180
M106 S0
M106 S255
G1 X41.068 Y35.444 F180
M106 S0
M106 S255
G1 X41.631 Y35.77 F180
M106 S0
M106 S255
G1 X42.191 Y36.103 F180
M106 S0
M106 S255
G1 X42.749 Y36.439 F180
M106 S0
M106 S255
G1 X43.305 Y36.78 F180
M106 S0
M106 S255
G1 X43.86 Y37.122 F180
M106 S0
M106 S255
G1 X44.414 Y37.466 F180
M106 S0
M106 S255
G1 X44.968 Y37.811 F180
M106 S0
M106 S255
G1 X45.522 Y38.155 F180
M106 S0
M106 S255
G1 X46.076 Y38.5 F180
M106 S0
M106 S255
G1 X46.628 Y38.847 F180
M106 S0
M106 S255
G1 X47.176 Y39.199 F180
M106 S0
M106 S255
G1 X47.72 Y39.556 F180
M106 S0
M106 S255
G1 X48.259 Y39.92 F180
M106 S0
M106 S255
G1 X48.79 Y40.294 F180
M106 S0
M106 S255
G1 X49.313 Y40.68 F180
M106 S0
M106 S255
G1 X49.827 Y41.077 F180
M106 S0
M106 S255
G1 X50.33 Y41.489 F180
M106 S0
M106 S255
G1 X50.823 Y41.913 F180
M106 S0
M106 S255
G1 X51.307 Y42.349 F180
M106 S0
M106 S255
G1 X51.78 Y42.796 F180
M106 S0
M106 S255
G1 X52.244 Y43.254 F180
M106 S0
M106 S255
G1 X52.698 Y43.723 F180
M106 S0
M106 S255
G1 X53.143 Y44.201 F180
M106 S0
M106 S255
G1 X53.578 Y44.688 F180
M106 S0
M106 S255
G1 X54.004 Y45.183 F180
M106 S0
M106 S255
G1 X54.419 Y45.688 F180
M106 S0
M106 S255
G1 X54.821 Y46.202 F180
M106 S0
M106 S255
G1 X55.205 Y46.727 F180
M106 S0
M106 S255
G1 X55.57 Y47.265 F180
M106 S0
M106 S255
G1 X55.912 Y47.818 F180
M106 S0
M106 S255
G1 X56.229 Y48.385 F180
M106 S0
M106 S255
G1 X56.521 Y48.967 F180
M106 S0
M106 S255
G1 X56.787 Y49.562 F180
M106 S0
M106 S255
G1 X57.029 Y50.168 F180
M106 S0
M106 S255
G1 X57.248 Y50.784 F180
M106 S0
M106 S255
G1 X57.441 Y51.409 F180
M106 S0
M106 S255
G1 X57.6 Y52.041 F180
M106 S0
M106 S255
G1 X57.718 Y52.681 F180
M106 S0
M106 S255
G1 X57.787 Y53.326 F180
M106 S0
M106 S255
G1 X57.811 Y53.975 F180
M106 S0
G0 X0.022 Y92.185 F6000
M106 S255
G1 X0.022 Y92.185 F180
M106 S0
M106 S255
G1 X1.089 Y91.792 F180
M106 S0
M106 S255
G1 X2.156 Y91.399 F180
M106 S0
M106 S255
G1 X3.223 Y91.005 F180
M106 S0
M106 S255
G1 X4.289 Y90.61 F180
M106 S0
M106 S255
G1 X5.355 Y90.214 F180
M106 S0
M106 S255
G1 X6.42 Y89.816 F180
M106 S0
M106 S255
G1 X7.485 Y89.415 F180
M106 S0
M106 S255
G1 X8.548 Y89.012 F180
M106 S0
M106 S255
G1 X9.61 Y88.606 F180
M106 S0
M106 S255
G1 X10.671 Y88.197 F180
M106 S0
M106 S255
G1 X11.731 Y87.784 F180
M106 S0
M106 S255
G1 X12.788 Y87.367 F180
M106 S0
M106 S255
G1 X13.845 Y86.946 F180
M106 S0
M106 S255
G1 X14.551 Y86.661 F180
M106 S0
M106 S255
G1 X15.951 Y86.089 F180
M106 S0
M106 S255
G1 X17.001 Y85.653 F180
M106 S0
M106 S255
G1 X18.05 Y85.213 F180
M106 S0
M106 S255
G1 X19.096 Y84.767 F180
M106 S0
M106 S255
G1 X20.141 Y84.318 F180
M106 S0
M106 S255
G1 X21.183 Y83.863 F180
M106 S0
M106 S255
G1 X22.551 Y83.259 F180
M106 S0
M106 S255
G1 X23.262 Y82.941 F180
M106 S0
M106 S255
G1 X24.298 Y82.474 F180
M106 S0
M106 S255
G1 X25.333 Y82.002 F180
M106 S0
M106 S255
G1 X26.365 Y81.526 F180
M106 S0
M106 S255
G1 X27.396 Y81.046 F180
M106 S0
M106 S255
G1 X28.424 Y80.561 F180
M106 S0
M106 S255
G1 X29.451 Y80.071 F180
M106 S0
M106 S255
G1 X30.475 Y79.577 F180
M106 S0
M106 S255
G1 X31.497 Y79.079 F180
M106 S0
M106 S255
G1 X32.517 Y78.575 F180
M106 S0
M106 S255
G1 X33.295 Y78.187 F180
M106 S0
M106 S255
G1 X34.551 Y77.554 F180
M106 S0
M106 S255
G1 X35.564 Y77.035 F180
M106 S0
M106 S255
G1 X36.572 Y76.508 F180
M106 S0
M106 S255
G1 X37.576 Y75.974 F180
M106 S0
M106 S255
G1 X38.575 Y75.431 F180
M106 S0
M106 S255
G1 X39.713 Y74.795 F180
M106 S0
M106 S255
G1 X40.552 Y74.313 F180
M106 S0
M106 S255
G1 X41.529 Y73.737 F180
M106 S0
M106 S255
G1 X42.499 Y73.148 F180
M106 S0
M106 S255
G1 X43.461 Y72.546 F180
M106 S0
M106 S255
G1 X44.415 Y71.929 F180
M106 S0
M106 S255
G1 X45.36 Y71.298 F180
M106 S0
M106 S255
G1 X46.297 Y70.651 F180
M106 S0
M106 S255
G1 X47.225 Y69.988 F180
M106 S0
M106 S255
G1 X48.143 Y69.308 F180
M106 S0
M106 S255
G1 X49.231 Y68.47 F180
M106 S0
M106 S255
G1 X49.951 Y67.893 F180
M106 S0
M106 S255
G1 X50.836 Y67.157 F180
M106 S0
M106 S255
G1 X51.703 Y66.398 F180
M106 S0
M106 S255
G1 X52.546 Y65.615 F180
M106 S0
M106 S255
G1 X53.361 Y64.807 F180
M106 S0
M106 S255
G1 X54.144 Y63.972 F180
M106 S0
M106 S255
G1 X54.888 Y63.107 F180
M106 S0
M106 S255
G1 X55.59 Y62.211 F180
M106 S0
M106 S255
G1 X56.245 Y61.283 F180
M106 S0
M106 S255
G1 X57.012 Y60.033 F180
M106 S0
M106 S255
G1 X57.392 Y59.321 F180
M106 S0
M106 S255
G1 X57.87 Y58.287 F180
M106 S0
M106 S255
G1 X58.27 Y57.219 F180
M106 S0
M106 S255
G1 X58.492 Y56.476 F180
M106 S0
M106 S255
G1 X58.792 Y54.996 F180
M106 S0
M106 S255
G1 X58.898 Y53.857 F180
M106 S0
M106 S255
G1 X58.852 Y52.246 F180
M106 S0
M106 S255
G1 X58.763 Y51.582 F180
M106 S0
M106 S255
G1 X58.52 Y50.467 F180
M106 S0
M106 S255
G1 X58.174 Y49.377 F180
M106 S0
M106 S255
G1 X57.737 Y48.318 F180
M106 S0
M106 S255
G1 X57.446 Y47.717 F180
M106 S0
M106 S255
G1 X56.639 Y46.317 F180
M106 S0
M106 S255
G1 X55.995 Y45.377 F180
M106 S0
M106 S255
G1 X55.297 Y44.477 F180
M106 S0
M106 S255
G1 X54.814 Y43.906 F180
M106 S0
M106 S255
G1 X53.77 Y42.787 F180
M106 S0
M106 S255
G1 X52.95 Y41.996 F180
M106 S0
M106 S255
G1 X52.097 Y41.241 F180
M106 S0
M106 S255
G1 X51.214 Y40.521 F180
M106 S0
M106 S255
G1 X50.731 Y40.15 F180
M106 S0
M106 S255
G1 X49.378 Y39.178 F180
M106 S0
M106 S255
G1 X48.1 Y38.313 F180
M106 S0
M106 S255
G1 X47.492 Y37.908 F180
M106 S0
M106 S255
G1 X46.544 Y37.281 F180
M106 S0
M106 S255
G1 X45.592 Y36.659 F180
M106 S0
M106 S255
G1 X44.319 Y35.843 F180
M106 S0
M106 S255
G1 X43.672 Y35.437 F180
M106 S0
M106 S255
G1 X42.702 Y34.841 F180
M106 S0
M106 S255
G1 X41.722 Y34.263 F180
M106 S0
M106 S255
G1 X40.73 Y33.706 F180
M106 S0
M106 S255
G1 X39.272 Y32.952 F180
M106 S0
M106 S255
G1 X38.703 Y32.679 F180
M106 S0
M106 S255
G1 X37.667 Y32.212 F180
M106 S0
M106 S255
G1 X36.62 Y31.767 F180
M106 S0
M106 S255
G1 X35.566 Y31.338 F180
M106 S0
M106 S255
G1 X34.509 Y30.916 F180
M106 S0
G0 X-0.045 Y90.419 F6000
M106 S255
G1 X-0.045 Y90.419 F180
M106 S0
M106 S255
G1 X0.837 Y90.108 F180
M106 S0
M106 S255
G1 X1.718 Y89.797 F180
M106 S0
M106 S255
G1 X2.599 Y89.485 F180
M106 S0
M106 S255
G1 X3.48 Y89.171 F180
M106 S0
M106 S255
G1 X4.359 Y88.855 F180
M106 S0
M106 S255
G1 X5.238 Y88.537 F180
M106 S0
M106 S255
G1 X6.115 Y88.215 F180
M106 S0
M106 S255
G1 X6.991 Y87.889 F180
M106 S0
M106 S255
G1 X7.865 Y87.559 F180
M106 S0
M106 S255
G1 X8.936 Y87.148 F180
M106 S0
M106 S255
G1 X9.608 Y86.885 F180
M106 S0
M106 S255
G1 X10.476 Y86.54 F180
M106 S0
M106 S255
G1 X11.343 Y86.192 F180
M106 S0
M106 S255
G1 X12.209 Y85.84 F180
M106 S0
M106 S255
G1 X13.073 Y85.486 F180
M106 S0
M106 S255
G1 X13.938 Y85.13 F180
M106 S0
M106 S255
G1 X14.802 Y84.773 F180
M106 S0
M106 S255
G1 X15.666 Y84.417 F180
M106 S0
M106 S255
G1 X16.53 Y84.062 F180
M106 S0
M106 S255
G1 X17.406 Y83.703 F180
M106 S0
M106 S255
G1 X18.261 Y83.356 F180
M106 S0
M106 S255
G1 X19.127 Y83.006 F180
M106 S0
M106 S255
G1 X19.994 Y82.656 F180
M106 S0
M106 S255
G1 X20.86 Y82.305 F180
M106 S0
M106 S255
G1 X21.725 Y81.952 F180
M106 S0
M106 S255
G1 X22.589 Y81.596 F180
M106 S0
M106 S255
G1 X23.851 Y81.067 F180
M106 S0
M106 S255
G1 X24.311 Y80.87 F180
M106 S0
M106 S255
G1 X25.168 Y80.498 F180
M106 S0
M106 S255
G1 X26.023 Y80.121 F180
M106 S0
M106 S255
G1 X26.876 Y79.738 F180
M106 S0
M106 S255
G1 X27.726 Y79.351 F180
M106 S0
M106 S255
G1 X28.575 Y78.958 F180
M106 S0
M106 S255
G1 X29.421 Y78.562 F180
M106 S0
M106 S255
G1 X30.265 Y78.161 F180
M106 S0
M106 S255
G1 X31.108 Y77.756 F180
M106 S0
M106 S255
G1 X31.948 Y77.347 F180
M106 S0
M106 S255
G1 X32.476 Y77.089 F180
M106 S0
M106 S255
G1 X33.625 Y76.52 F180
M106 S0
M106 S255
G1 X34.46 Y76.101 F180
M106 S0
M106 S255
G1 X35.293 Y75.677 F180
M106 S0
M106 S255
G1 X36.123 Y75.248 F180
M106 S0
M106 S255
G1 X36.951 Y74.814 F180
M106 S0
M106 S255
G1 X37.786 Y74.367 F180
M106 S0
M106 S255
G1 X38.595 Y73.926 F180
M106 S0
M106 S255
G1 X39.412 Y73.471 F180
M106 S0
M106 S255
G1 X40.223 Y73.008 F180
M106 S0
M106 S255
G1 X41.03 Y72.536 F180
M106 S0
M106 S255
G1 X41.832 Y72.055 F180
M106 S0
M106 S255
G1 X42.296 Y71.77 F180
M106 S0
M106 S255
G1 X43.416 Y71.061 F180
M106 S0
M106 S255
G1 X44.198 Y70.548 F180
M106 S0
M106 S255
G1 X44.972 Y70.023 F180
M106 S0
M106 S255
G1 X45.738 Y69.487 F180
M106 S0
M106 S255
G1 X46.495 Y68.939 F180
M106 S0
M106 S255
G1 X47.243 Y68.378 F180
M106 S0
M106 S255
G1 X48.294 Y67.556 F180
M106 S0
M106 S255
G1 X48.71 Y67.219 F180
M106 S0
M106 S255
G1 X49.427 Y66.62 F180
M106 S0
M106 S255
G1 X50.132 Y66.006 F180
M106 S0
M106 S255
G1 X50.824 Y65.378 F180
M106 S0
M106 S255
G1 X51.503 Y64.735 F180
M106 S0
M106 S255
G1 X51.903 Y64.343 F180
M106 S0
M106 S255
G1 X52.817 Y63.399 F180
M106 S0
M106 S255
G1 X53.445 Y62.705 F180
M106 S0
M106 S255
G1 X54.051 Y61.99 F180
M106 S0
M106 S255
G1 X54.631 Y61.255 F180
M106 S0
M106 S255
G1 X55.18 Y60.497 F180
M106 S0
M106 S255
G1 X55.802 Y59.547 F180
M106 S0
M106 S255
G1 X56.176 Y58.91 F180
M106 S0
M106 S255
G1 X56.612 Y58.078 F180
M106 S0
M106 S255
G1 X56.994 Y57.222 F180
M106 S0
M106 S255
G1 X57.317 Y56.341 F180
M106 S0
M106 S255
G1 X57.569 Y55.439 F180
M106 S0
M106 S255
G1 X57.746 Y54.51 F180
M106 S0
M106 S255
G1 X57.843 Y53.569 F180
M106 S0
M106 S255
G1 X57.86 Y52.622 F180
M106 S0
M106 S255
G1 X57.795 Y51.678 F180
M106 S0
M106 S255
G1 X57.647 Y50.747 F180
M106 S0
M106 S255
G1 X57.461 Y49.992 F180
M106 S0
M106 S255
G1 X57.1 Y48.955 F180
M106 S0
M106 S255
G1 X56.715 Y48.101 F180
M106 S0
M106 S255
G1 X56.272 Y47.273 F180
M106 S0
M106 S255
G1 X55.619 Y46.213 F180
M106 S0
M106 S255
G1 X55.267 Y45.69 F180
M106 S0
M106 S255
G1 X54.518 Y44.664 F180
M106 S0
M106 S255
G1 X54.149 Y44.193 F180
M106 S0
M106 S255
G1 X53.549 Y43.473 F180
M106 S0
M106 S255
G1 X52.924 Y42.776 F180
M106 S0
M106 S255
G1 X52.271 Y42.103 F180
M106 S0
M106 S255
G1 X51.593 Y41.458 F180
M106 S0
M106 S255
G1 X51.011 Y40.946 F180
M106 S0
M106 S255
G1 X50.16 Y40.259 F180
M106 S0
M106 S255
G1 X49.412 Y39.699 F180
M106 S0
M106 S255
G1 X48.649 Y39.158 F180
M106 S0
M106 S255
G1 X47.877 Y38.629 F180
M106 S0
M106 S255
G1 X47.098 Y38.104 F180
M106 S0
M106 S255
G1 X46.326 Y37.585 F180
M106 S0
M106 S255
G1 X45.549 Y37.065 F180
M106 S0
M106 S255
G1 X44.771 Y36.548 F180
M106 S0
M106 S255
G1 X43.982 Y36.031 F180
M106 S0
M106 S255
G1 X43.202 Y35.531 F180
M106 S0
M106 S255
G1 X42.409 Y35.035 F180
M106 S0
M106 S255
G1 X41.609 Y34.549 F180
M106 S0
M106 S255
G1 X40.801 Y34.077 F180
M106 S0
M106 S255
G1 X39.986 Y33.62 F180
M106 S0
M106 S255
G1 X39.161 Y33.181 F180
M106 S0
M106 S255
G1 X38.269 Y32.733 F180
M106 S0
M106 S255
G1 X37.482 Y32.362 F180
M106 S0
M106 S255
G1 X36.629 Y31.981 F180
M106 S0
M106 S255
G1 X35.77 Y31.613 F180
M106 S0
M106 S255
G1 X34.907 Y31.254 F180
M106 S0
M106 S255
G1 X34.041 Y30.9 F180
M106 S0
G0 X35.102 Y40.594 F6000
M106 S255
G1 X35.102 Y40.594 F180
M106 S0
M106 S255
G1 X35.26 Y40.825 F180
M106 S0
M106 S255
G1 X35.416 Y41.057 F180
M106 S0
M106 S255
G1 X35.567 Y41.291 F180
M106 S0
M106 S255
G1 X35.712 Y41.528 F180
M106 S0
M106 S255
G1 X35.848 Y41.768 F180
M106 S0
M106 S255
G1 X35.972 Y42.014 F180
M106 S0
M106 S255
G1 X36.082 Y42.265 F180
M106 S0
M106 S255
G1 X36.178 Y42.522 F180
M106 S0
M106 S255
G1 X36.26 Y42.785 F180
M106 S0
M106 S255
G1 X36.331 Y43.052 F180
M106 S0
M106 S255
G1 X36.391 Y43.324 F180
M106 S0
M106 S255
G1 X36.442 Y43.598 F180
M106 S0
M106 S255
G1 X36.488 Y43.874 F180
M106 S0
M106 S255
G1 X36.528 Y44.151 F180
M106 S0
M106 S255
G1 X36.565 Y44.428 F180
M106 S0
M106 S255
G1 X36.6 Y44.705 F180
M106 S0
M106 S255
G1 X36.632 Y44.982 F180
M106 S0
M106 S255
G1 X36.66 Y45.258 F180
M106 S0
M106 S255
G1 X36.685 Y45.534 F180
M106 S0
M106 S255
G1 X36.704 Y45.81 F180
M106 S0
M106 S255
G1 X36.717 Y46.086 F180
M106 S0
M106 S255
G1 X36.724 Y46.362 F180
M106 S0
M106 S255
G1 X36.723 Y46.637 F180
M106 S0
M106 S255
G1 X36.715 Y46.913 F180
M106 S0
M106 S255
G1 X36.7 Y47.189 F180
M106 S0
M106 S255
G1 X36.678 Y47.465 F180
M106 S0
M106 S255
G1 X36.653 Y47.741 F180
M106 S0
M106 S255
G1 X36.623 Y48.016 F180
M106 S0
M106 S255
G1 X36.591 Y48.292 F180
M106 S0
G0 X28.343 Y50.568 F6000
M106 S255
G1 X28.343 Y50.568 F180
M106 S0
M106 S255
G1 X28.444 Y50.854 F180
M106 S0
M106 S255
G1 X28.545 Y51.14 F180
M106 S0
M106 S255
G1 X28.645 Y51.426 F180
M106 S0
M106 S255
G1 X28.744 Y51.713 F180
M106 S0
M106 S255
G1 X28.841 Y52.0 F180
M106 S0
M106 S255
G1 X28.937 Y52.287 F180
M106 S0
M106 S255
G1 X29.03 Y52.575 F180
M106 S0
M106 S255
G1 X29.12 Y52.864 F180
M106 S0
M106 S255
G1 X29.207 Y53.154 F180
M106 S0
M106 S255
G1 X29.27 Y53.373 F180
M106 S0
M106 S255
G1 X29.369 Y53.737 F180
M106 S0
M106 S255
G1 X29.445 Y54.03 F180
M106 S0
M106 S255
G1 X29.517 Y54.324 F180
M106 S0
M106 S255
G1 X29.585 Y54.619 F180
M106 S0
M106 S255
G1 X29.649 Y54.915 F180
M106 S0
M106 S255
G1 X29.71 Y55.212 F180
M106 S0
M106 S255
G1 X29.757 Y55.456 F180
M106 S0
M106 S255
G1 X29.821 Y55.81 F180
M106 S0
M106 S255
G1 X29.868 Y56.11 F180
M106 S0
M106 S255
G1 X29.908 Y56.411 F180
M106 S0
M106 S255
G1 X29.939 Y56.713 F180
M106 S0
M106 S255
G1 X29.959 Y57.014 F180
M106 S0
M106 S255
G1 X29.966 Y57.267 F180
M106 S0
M106 S255
G1 X29.96 Y57.618 F180
M106 S0
M106 S255
G1 X29.942 Y57.92 F180
M106 S0
M106 S255
G1 X29.914 Y58.221 F180
M106 S0
M106 S255
G1 X29.88 Y58.523 F180
M106 S0
M106 S255
G1 X29.84 Y58.824 F180
M106 S0
M106 S255
G1 X29.799 Y59.126 F180
M106 S0
G0 X18.339 Y63.902 F6000
M106 S255
G1 X18.339 Y63.902 F180
M106 S0
M106 S255
G1 X18.536 Y64.29 F180
M106 S0
M106 S255
G1 X18.732 Y64.68 F180
M106 S0
M106 S255
G1 X18.925 Y65.07 F180
M106 S0
M106 S255
G1 X19.114 Y65.462 F180
M106 S0
M106 S255
G1 X19.296 Y65.856 F180
M106 S0
M106 S255
G1 X19.471 Y66.253 F180
M106 S0
M106 S255
G1 X19.637 Y66.653 F180
M106 S0
M106 S255
G1 X19.793 Y67.056 F180
M106 S0
M106 S255
G1 X19.937 Y67.464 F180
M106 S0
M106 S255
G1 X20.053 Y67.828 F180
M106 S0
M106 S255
G1 X20.184 Y68.295 F180
M106 S0
M106 S255
G1 X20.285 Y68.717 F180
M106 S0
M106 S255
G1 X20.372 Y69.143 F180
M106 S0
M106 S255
G1 X20.445 Y69.571 F180
M106 S0
M106 S255
G1 X20.503 Y70.002 F180
M106 S0
M106 S255
G1 X20.561 Y70.616 F180
M106 S0
M106 S255
G1 X20.577 Y70.867 F180
M106 S0
M106 S255
G1 X20.594 Y71.301 F180
M106 S0
M106 S255
G1 X20.601 Y71.734 F180
M106 S0
M106 S255
G1 X20.598 Y72.167 F180
M106 S0
M106 S255
G1 X20.59 Y72.601 F180
M106 S0
M106 S255
G1 X20.577 Y73.035 F180
M106 S0
M106 S255
G1 X20.561 Y73.469 F180
M106 S0
G0 X3.304 Y90.975 F6000
M106 S255
G1 X3.304 Y90.975 F180
M106 S0
M106 S255
G1 X30.21 Y87.519 F180
M106 S0
M106 S255
G1 X15.951 Y86.089 F180
M106 S0
M106 S255
G1 X38.061 Y83.287 F180
M106 S0
M106 S255
G1 X26.109 Y81.644 F180
M106 S0
M106 S255
G1 X44.96 Y79.04 F180
M106 S0
M106 S255
G1 X34.442 Y77.609 F180
M106 S0
M106 S255
G1 X50.214 Y75.238 F180
M106 S0
M106 S255
G1 X41.529 Y73.737 F180
M106 S0
M106 S255
G1 X55.138 Y71.021 F180
M106 S0
M106 S255
G1 X46.761 Y70.32 F180
M106 S0
M106 S255
G1 X57.77 Y68.395 F180
M106 S0
M106 S255
G1 X50.536 Y67.406 F180
M106 S0
M106 S255
G1 X60.125 Y65.696 F180
M106 S0
M106 S255
G1 X53.387 Y64.779 F180
M106 S0
M106 S255
G1 X61.906 Y63.19 F180
M106 S0
M106 S255
G1 X55.569 Y62.238 F180
M106 S0
M106 S255
G1 X63.398 Y60.41 F180
M106 S0
G0 X63.043 Y60.033 F6000
M106 S255
G1 X63.043 Y60.033 F180
M106 S0
M106 S255
G1 X57.202 Y59.677 F180
M106 S0
M106 S255
G1 X64.027 Y58.338 F180
M106 S0
G0 X64.326 Y51.264 F6000
M106 S255
G1 X64.326 Y51.264 F180
M106 S0
M106 S255
G1 X57.956 Y48.847 F180
M106 S0
M106 S255
G1 X63.832 Y49.284 F180
M106 S0
M106 S255
G1 X57.042 Y47.017 F180
M106 S0
M106 S255
G1 X63.041 Y47.408 F180
M106 S0
M106 S255
G1 X55.646 Y44.927 F180
M106 S0
M106 S255
G1 X61.626 Y45.092 F180
M106 S0
M106 S255
G1 X53.77 Y42.787 F180
M106 S0
M106 S255
G1 X60.179 Y43.2 F180
M106 S0
M106 S255
G1 X51.214 Y40.521 F180
M106 S0
M106 S255
G1 X59.075 Y41.912 F180
M106 S0
M106 S255
G1 X50.055 Y39.664 F180
M106 S0
M106 S255
G1 X57.477 Y40.292 F180
M106 S0
M106 S255
G1 X48.1 Y38.313 F180
M106 S0
M106 S255
G1 X55.341 Y38.48 F180
M106 S0
M106 S255
G1 X43.672 Y35.437 F180
M106 S0
M106 S255
G1 X52.029 Y36.108 F180
M106 S0
M106 S255
G1 X40.73 Y33.706 F180
M106 S0
M106 S255
G1 X48.618 Y33.897 F180
M106 S0
M106 S255
G1 X41.271 Y32.209 F180
M106 S0
G0 X12.863 Y108.415 F6000
M106 S255
G1 X12.863 Y108.415 F180
M106 S0
M106 S255
G1 X10.12 Y98.831 F180
M106 S0
G0 X10.754 Y98.551 F6000
M106 S255
G1 X10.754 Y98.551 F180
M106 S0
M106 S255
G1 X23.962 Y104.529 F180
M106 S0
G0 X24.476 Y104.182 F6000
M106 S255
G1 X24.476 Y104.182 F180
M106 S0
M106 S255
G1 X21.742 Y93.418 F180
M106 S0
G0 X15.381 Y108.647 F6000
M106 S255
G1 X15.381 Y108.647 F180
M106 S0
M106 S255
G1 X21.158 Y93.706 F180
M106 S0
G0 X22.429 Y93.076 F6000
M106 S255
G1 X22.429 Y93.076 F180
M106 S0
M106 S255
G1 X33.006 Y98.342 F180
M106 S0
G0 X25.358 Y103.584 F6000
M106 S255
G1 X25.358 Y103.584 F180
M106 S0
M106 S255
G1 X30.953 Y88.699 F180
M106 S0
G0 X31.576 Y88.368 F6000
M106 S255
G1 X31.576 Y88.368 F180
M106 S0
M106 S255
G1 X33.647 Y97.893 F180
M106 S0
G0 X32.156 Y88.059 F6000
M106 S255
G1 X32.156 Y88.059 F180
M106 S0
M106 S255
G1 X40.927 Y92.516 F180
M106 S0
G0 X34.151 Y97.537 F6000
M106 S255
G1 X34.151 Y97.537 F180
M106 S0
M106 S255
G1 X39.118 Y84.172 F180
M106 S0
G0 X41.904 Y91.739 F6000
M106 S255
G1 X41.904 Y91.739 F180
M106 S0
M106 S255
G1 X45.623 Y80.127 F180
M106 S0
G0 X40.697 Y83.234 F6000
M106 S255
G1 X40.697 Y83.234 F180
M106 S0
M106 S255
G1 X47.271 Y87.175 F180
M106 S0
G0 X48.056 Y86.471 F6000
M106 S255
G1 X48.056 Y86.471 F180
M106 S0
M106 S255
G1 X51.004 Y76.189 F180
M106 S0
G0 X46.763 Y79.352 F6000
M106 S255
G1 X46.763 Y79.352 F180
M106 S0
M106 S255
G1 X51.74 Y82.513 F180
M106 S0
G0 X52.146 Y81.348 F6000
M106 S255
G1 X52.146 Y81.348 F180
M106 S0
M106 S255
G1 X51.42 Y75.844 F180
M106 S0
G0 X0.008 Y96.489 F6000
M106 S255
G1 X0.008 Y96.489 F180
M106 S0
M106 S255
G1 X0.87 Y96.17 F180
M106 S0
M106 S255
G1 X1.732 Y95.85 F180
M106 S0
M106 S255
G1 X2.593 Y95.53 F180
M106 S0
M106 S255
G1 X3.454 Y95.209 F180
M106 S0
M106 S255
G1 X4.314 Y94.886 F180
M106 S0
M106 S255
G1 X5.174 Y94.561 F180
M106 S0
M106 S255
G1 X6.032 Y94.233 F180
M106 S0
M106 S255
G1 X6.889 Y93.903 F180
M106 S0
M106 S255
G1 X7.745 Y93.57 F180
M106 S0
M106 S255
G1 X8.6 Y93.234 F180
M106 S0
M106 S255
G1 X9.453 Y92.894 F180
M106 S0
M106 S255
G1 X10.304 Y92.549 F180
M106 S0
M106 S255
G1 X11.153 Y92.2 F180
M106 S0
M106 S255
G1 X11.853 Y91.908 F180
M106 S0
M106 S255
G1 X12.844 Y91.487 F180
M106 S0
M106 S255
G1 X13.687 Y91.123 F180
M106 S0
M106 S255
G1 X14.528 Y90.756 F180
M106 S0
M106 S255
G1 X15.368 Y90.384 F180
M106 S0
M106 S255
G1 X16.206 Y90.01 F180
M106 S0
M106 S255
G1 X17.044 Y89.633 F180
M106 S0
M106 S255
G1 X17.881 Y89.255 F180
M106 S0
M106 S255
G1 X18.717 Y88.875 F180
M106 S0
M106 S255
G1 X19.553 Y88.494 F180
M106 S0
M106 S255
G1 X20.389 Y88.114 F180
M106 S0
M106 S255
G1 X21.226 Y87.733 F180
M106 S0
M106 S255
G1 X22.063 Y87.354 F180
M106 S0
M106 S255
G1 X22.901 Y86.976 F180
M106 S0
M106 S255
G1 X24.091 Y86.443 F180
M106 S0
M106 S255
G1 X24.58 Y86.227 F180
M106 S0
M106 S255
G1 X25.422 Y85.855 F180
M106 S0
M106 S255
G1 X26.264 Y85.485 F180
M106 S0
M106 S255
G1 X27.105 Y85.114 F180
M106 S0
M106 S255
G1 X27.946 Y84.742 F180
M106 S0
M106 S255
G1 X28.786 Y84.368 F180
M106 S0
M106 S255
G1 X29.623 Y83.989 F180
M106 S0
M106 S255
G1 X30.458 Y83.606 F180
M106 S0
M106 S255
G1 X31.29 Y83.216 F180
M106 S0
M106 S255
G1 X32.117 Y82.818 F180
M106 S0
M106 S255
G1 X32.94 Y82.412 F180
M106 S0
M106 S255
G1 X33.758 Y81.996 F180
M106 S0
M106 S255
G1 X34.701 Y81.499 F180
M106 S0
M106 S255
G1 X35.376 Y81.13 F180
M106 S0
M106 S255
G1 X36.175 Y80.679 F180
M106 S0
M106 S255
G1 X36.97 Y80.218 F180
M106 S0
M106 S255
G1 X37.759 Y79.747 F180
M106 S0
M106 S255
G1 X38.543 Y79.269 F180
M106 S0
M106 S255
G1 X39.323 Y78.783 F180
M106 S0
M106 S255
G1 X40.1 Y78.292 F180
M106 S0
M106 S255
G1 X40.874 Y77.795 F180
M106 S0
M106 S255
G1 X41.646 Y77.295 F180
M106 S0
M106 S255
G1 X42.113 Y76.99 F180
M106 S0
M106 S255
G1 X43.183 Y76.287 F180
M106 S0
M106 S255
G1 X43.948 Y75.778 F180
M106 S0
M106 S255
G1 X44.709 Y75.264 F180
M106 S0
M106 S255
G1 X45.814 Y74.501 F180
M106 S0
M106 S255
G1 X46.217 Y74.216 F180
M106 S0
M106 S255
G1 X46.962 Y73.679 F180
M106 S0
M106 S255
G1 X47.702 Y73.134 F180
M106 S0
M106 S255
G1 X48.435 Y72.581 F180
M106 S0
M106 S255
G1 X49.163 Y72.019 F180
M106 S0
M106 S255
G1 X50.135 Y71.247 F180
M106 S0
M106 S255
G1 X50.597 Y70.871 F180
M106 S0
M106 S255
G1 X51.304 Y70.285 F180
M106 S0
M106 S255
G1 X52.004 Y69.69 F180
M106 S0
M106 S255
G1 X52.696 Y69.087 F180
M106 S0
M106 S255
G1 X53.382 Y68.476 F180
M106 S0
M106 S255
G1 X54.265 Y67.665 F180
M106 S0
M106 S255
G1 X54.731 Y67.225 F180
M106 S0
M106 S255
G1 X55.392 Y66.585 F180
M106 S0
M106 S255
G1 X56.038 Y65.93 F180
M106 S0
M106 S255
G1 X56.666 Y65.259 F180
M106 S0
M106 S255
G1 X57.271 Y64.568 F180
M106 S0
M106 S255
G1 X57.707 Y64.037 F180
M106 S0
M106 S255
G1 X58.399 Y63.118 F180
M106 S0
M106 S255
G1 X58.918 Y62.358 F180
M106 S0
M106 S255
G1 X59.404 Y61.577 F180
M106 S0
M106 S255
G1 X59.858 Y60.775 F180
M106 S0
M106 S255
G1 X60.369 Y59.765 F180
M106 S0
M106 S255
G1 X60.663 Y59.117 F180
M106 S0
M106 S255
G1 X61.002 Y58.261 F180
M106 S0
M106 S255
G1 X61.333 Y57.194 F180
M106 S0
M106 S255
G1 X61.489 Y56.493 F180
M106 S0
M106 S255
G1 X61.628 Y55.584 F180
M106 S0
M106 S255
G1 X61.7 Y54.805 F180
M106 S0
M106 S255
G1 X61.738 Y53.746 F180
M106 S0
M106 S255
G1 X61.712 Y52.827 F180
M106 S0
M106 S255
G1 X61.608 Y51.774 F180
M106 S0
M106 S255
G1 X61.479 Y51.003 F180
M106 S0
M106 S255
G1 X61.268 Y50.106 F180
M106 S0
M106 S255
G1 X60.997 Y49.226 F180
M106 S0
M106 S255
G1 X60.782 Y48.651 F180
M106 S0
M106 S255
G1 X60.278 Y47.536 F180
M106 S0
M106 S255
G1 X59.841 Y46.727 F180
M106 S0
M106 S255
G1 X59.362 Y45.94 F180
M106 S0
M106 S255
G1 X58.847 Y45.173 F180
M106 S0
M106 S255
G1 X58.304 Y44.426 F180
M106 S0
M106 S255
G1 X57.737 Y43.697 F180
M106 S0
M106 S255
G1 X57.148 Y42.988 F180
M106 S0
M106 S255
G1 X56.534 Y42.302 F180
M106 S0
M106 S255
G1 X55.896 Y41.642 F180
M106 S0
M106 S255
G1 X55.045 Y40.844 F180
M106 S0
M106 S255
G1 X54.539 Y40.409 F180
M106 S0
M106 S255
G1 X53.823 Y39.836 F180
M106 S0
M106 S255
G1 X53.087 Y39.286 F180
M106 S0
M106 S255
G1 X52.336 Y38.755 F180
M106 S0
M106 S255
G1 X51.575 Y38.236 F180
M106 S0
M106 S255
G1 X50.731 Y37.675 F180
M106 S0
M106 S255
G1 X50.039 Y37.219 F180
M106 S0
M106 S255
G1 X49.267 Y36.719 F180
M106 S0
M106 S255
G1 X48.491 Y36.227 F180
M106 S0
M106 S255
G1 X47.708 Y35.748 F180
M106 S0
M106 S255
G1 X46.652 Y35.137 F180
M106 S0
M106 S255
G1 X46.113 Y34.841 F180
M106 S0
M106 S255
G1 X45.301 Y34.411 F180
M106 S0
M106 S255
G1 X44.486 Y33.987 F180
M106 S0
M106 S255
G1 X43.347 Y33.384 F180
M106 S0
M106 S255
G1 X42.867 Y33.119 F180
M106 S0
M106 S255
G1 X42.067 Y32.668 F180
M106 S0
M106 S255
G1 X41.271 Y32.209 F180
M106 S0
G0 X-0.094 Y111.892 F6000
M106 S255
G1 X-0.094 Y111.892 F180
M106 S0
M106 S255
G1 X38.961 Y114.296 F180
M106 S0
M106 S255
G1 X40.117 Y112.159 F180
M106 S0
M106 S255
G1 X0.0 Y107.524 F180
M106 S0
G0 X-0.005 Y123.465 F6000
M106 S255
G1 X-0.005 Y123.465 F180
M106 S0
M106 S255
G1 X38.872 Y120.082 F180
M106 S0
G0 X38.961 Y114.296 F6000
M106 S255
G1 X38.961 Y114.296 F180
M106 S0
M106 S255
G1 X39.505 Y117.582 F180
M106 S0
G0 X0.768 Y123.472 F6000
M106 S255
G1 X0.768 Y123.472 F180
M106 S0
M106 S255
G1 X9.431 Y112.478 F180
M106 S0
G0 X27.957 Y121.032 F6000
M106 S255
G1 X27.957 Y121.032 F180
M106 S0
M106 S255
G1 X38.468 Y114.284 F180
M106 S0
G0 X-0.003 Y114.242 F6000
M106 S255
G1 X-0.003 Y114.242 F180
M106 S0
M106 S255
G1 X12.708 Y122.233 F180
M106 S0
G0 X14.192 Y122.246 F6000
M106 S255
G1 X14.192 Y122.246 F180
M106 S0
M106 S255
G1 X24.129 Y113.383 F180
M106 S0
G0 X25.688 Y113.479 F6000
M106 S255
G1 X25.688 Y113.479 F180
M106 S0
M106 S255
G1 X39.081 Y119.795 F180
M106 S0
G0 X25.103 Y113.44 F6000
M106 S255
G1 X25.103 Y113.44 F180
M106 S0
M106 S255
G1 X27.208 Y121.098 F180
M106 S0
G0 X24.265 Y113.395 F6000
M106 S255
G1 X24.265 Y113.395 F180
M106 S0
M106 S255
G1 X26.401 Y121.167 F180
M106 S0
G0 X10.602 Y112.579 F6000
M106 S255
G1 X10.602 Y112.579 F180
M106 S0
M106 S255
G1 X13.679 Y122.274 F180
M106 S0
G0 X9.651 Y112.492 F6000
M106 S255
G1 X9.651 Y112.492 F180
M106 S0
M106 S255
G1 X12.747 Y122.355 F180
M106 S0
G0 X10.917 Y112.57 F6000
M106 S255
G1 X10.917 Y112.57 F180
M106 S0
M106 S255
G1 X26.166 Y121.188 F180
M106 S0
G0 X2.311 Y112.04 F6000
M106 S255
G1 X2.311 Y112.04 F180
M106 S0
M106 S255
G1 X11.201 Y108.924 F180
M106 S0
G0 X10.369 Y112.416 F6000
M106 S255
G1 X10.369 Y112.416 F180
M106 S0
M106 S255
G1 X18.265 Y109.634 F180
M106 S0
G0 X20.033 Y109.839 F6000
M106 S255
G1 X20.033 Y109.839 F180
M106 S0
M106 S255
G1 X24.494 Y113.405 F180
M106 S0
G0 X25.146 Y110.429 F6000
M106 S255
G1 X25.146 Y110.429 F180
M106 S0
M106 S255
G1 X17.204 Y112.957 F180
M106 S0
G0 X18.682 Y113.048 F6000
M106 S255
G1 X18.682 Y113.048 F180
M106 S0
M106 S255
G1 X12.874 Y109.011 F180
M106 S0
G0 X9.572 Y112.432 F6000
M106 S255
G1 X9.572 Y112.432 F180
M106 S0
M106 S255
G1 X5.736 Y108.187 F180
M106 S0
G0 X10.305 Y112.532 F6000
M106 S255
G1 X10.305 Y112.532 F180
M106 S0
M106 S255
G1 X12.284 Y108.943 F180
M106 S0
G0 X27.39 Y110.689 F6000
M106 S255
G1 X27.39 Y110.689 F180
M106 S0
M106 S255
G1 X32.479 Y113.897 F180
M106 S0
G0 X32.713 Y113.911 F6000
M106 S255
G1 X32.713 Y113.911 F180
M106 S0
M106 S255
G1 X38.627 Y111.987 F180
M106 S0
G0 X39.073 Y114.088 F6000
M106 S255
G1 X39.073 Y114.088 F180
M106 S0
M106 S255
G1 X33.957 Y111.447 F180
M106 S0
G0 X32.321 Y111.258 F6000
M106 S255
G1 X32.321 Y111.258 F180
M106 S0
M106 S255
G1 X25.474 Y113.466 F180
M106 S0
G0 X24.726 Y113.42 F6000
M106 S255
G1 X24.726 Y113.42 F180
M106 S0
M106 S255
G1 X26.23 Y110.555 F180
M106 S0
G0 X18.259 Y178.478 F6000
M106 S255
G1 X18.259 Y178.478 F180
M106 S0
M106 S255
G1 X55.87 Y70.675 F180
M106 S0
G0 X28.731 Y178.478 F6000
M106 S255
G1 X28.731 Y178.478 F180
M106 S0
M106 S255
G1 X65.505 Y55.179 F180
M106 S0
M106 S255
G1 X75.09 Y16.881 F180
M106 S0
G0 X31.34 Y178.478 F6000
M106 S255
G1 X31.34 Y178.478 F180
M106 S0
M106 S255
G1 X66.317 Y56.275 F180
M106 S0
M106 S255
G1 X76.473 Y14.54 F180
M106 S0
G0 X38.518 Y178.697 F6000
M106 S255
G1 X38.518 Y178.697 F180
M106 S0
M106 S255
G1 X68.318 Y59.866 F180
M106 S0
M106 S255
G1 X77.849 Y14.54 F180
M106 S0
G0 X36.176 Y178.452 F6000
M106 S255
G1 X36.176 Y178.452 F180
M106 S0
M106 S255
G1 X67.268 Y58.422 F180
M106 S0
M106 S255
G1 X77.224 Y14.54 F180
M106 S0
G0 X36.543 Y151.338 F6000
M106 S255
G1 X36.543 Y151.338 F180
M106 S0
M106 S255
G1 X48.204 Y151.704 F180
M106 S0
M106 S255
G1 X50.491 Y165.021 F180
M106 S0
M106 S255
G1 X39.012 Y164.472 F180
M106 S0
G0 X46.072 Y118.37 F6000
M106 S255
G1 X46.072 Y118.37 F180
M106 S0
M106 S255
G1 X56.163 Y118.546 F180
M106 S0
M106 S255
G1 X57.619 Y131.025 F180
M106 S0
M106 S255
G1 X49.181 Y130.771 F180
M106 S0
G0 X53.373 Y96.266 F6000
M106 S255
G1 X53.373 Y96.266 F180
M106 S0
M106 S255
G1 X61.489 Y96.356 F180
M106 S0
M106 S255
G1 X62.379 Y108.318 F180
M106 S0
M106 S255
G1 X55.037 Y108.24 F180
M106 S0
G0 X58.494 Y79.929 F6000
M106 S255
G1 X58.494 Y79.929 F180
M106 S0
M106 S255
G1 X65.439 Y79.9 F180
M106 S0
M106 S255
G1 X65.969 Y91.191 F180
M106 S0
M106 S255
G1 X59.534 Y91.341 F180
M106 S0
G0 X62.769 Y66.266 F6000
M106 S255
G1 X62.769 Y66.266 F180
M106 S0
M106 S255
G1 X68.743 Y66.134 F180
M106 S0
M106 S255
G1 X68.966 Y76.925 F180
M106 S0
M106 S255
G1 X63.13 Y76.93 F180
M106 S0
G0 X65.489 Y56.303 F6000
M106 S255
G1 X65.489 Y56.303 F180
M106 S0
M106 S255
G1 X70.751 Y56.185 F180
M106 S0
M106 S255
G1 X71.154 Y66.034 F180
M106 S0
M106 S255
G1 X66.034 Y66.102 F180
M106 S0
G0 X67.537 Y48.095 F6000
M106 S255
G1 X67.537 Y48.095 F180
M106 S0
M106 S255
G1 X72.288 Y48.018 F180
M106 S0
M106 S255
G1 X72.833 Y57.174 F180
M106 S0
M106 S255
G1 X67.844 Y57.347 F180
M106 S0
G0 X69.466 Y40.885 F6000
M106 S255
G1 X69.466 Y40.885 F180
M106 S0
M106 S255
G1 X73.651 Y40.807 F180
M106 S0
M106 S255
G1 X74.06 Y49.36 F180
M106 S0
M106 S255
G1 X69.427 Y49.418 F180
M106 S0
G0 X73.988 Y47.858 F6000
M106 S255
G1 X73.988 Y47.858 F180
M106 S0
M106 S255
G1 X73.974 Y47.913 F180
M106 S0
M106 S255
G1 X73.959 Y47.968 F180
M106 S0
M106 S255
G1 X73.942 Y48.023 F180
M106 S0
M106 S255
G1 X73.923 Y48.077 F180
M106 S0
M106 S255
G1 X73.904 Y48.13 F180
M106 S0
M106 S255
G1 X73.882 Y48.183 F180
M106 S0
M106 S255
G1 X73.859 Y48.236 F180
M106 S0
M106 S255
G1 X73.834 Y48.287 F180
M106 S0
M106 S255
G1 X73.808 Y48.338 F180
M106 S0
M106 S255
G1 X73.78 Y48.388 F180
M106 S0
M106 S255
G1 X73.751 Y48.438 F180
M106 S0
M106 S255
G1 X73.72 Y48.488 F180
M106 S0
M106 S255
G1 X73.689 Y48.536 F180
M106 S0
M106 S255
G1 X73.657 Y48.584 F180
M106 S0
M106 S255
G1 X73.624 Y48.632 F180
M106 S0
M106 S255
G1 X73.59 Y48.679 F180
M106 S0
M106 S255
G1 X73.555 Y48.726 F180
M106 S0
M106 S255
G1 X73.52 Y48.773 F180
M106 S0
M106 S255
G1 X73.484 Y48.818 F180
M106 S0
M106 S255
G1 X73.447 Y48.862 F180
M106 S0
M106 S255
G1 X73.409 Y48.906 F180
M106 S0
M106 S255
G1 X73.37 Y48.948 F180
M106 S0
M106 S255
G1 X73.329 Y48.988 F180
M106 S0
M106 S255
G1 X73.287 Y49.027 F180
M106 S0
M106 S255
G1 X73.243 Y49.064 F180
M106 S0
M106 S255
G1 X73.198 Y49.1 F180
M106 S0
M106 S255
G1 X73.151 Y49.134 F180
M106 S0
M106 S255
G1 X73.104 Y49.167 F180
M106 S0
M106 S255
G1 X73.056 Y49.199 F180
M106 S0
M106 S255
G1 X73.007 Y49.23 F180
M106 S0
M106 S255
G1 X72.957 Y49.26 F180
M106 S0
M106 S255
G1 X72.907 Y49.29 F180
M106 S0
M106 S255
G1 X72.858 Y49.319 F180
M106 S0
M106 S255
G1 X72.807 Y49.348 F180
M106 S0
M106 S255
G1 X72.757 Y49.376 F180
M106 S0
G0 X71.934 Y40.839 F6000
M106 S255
G1 X71.934 Y40.839 F180
M106 S0
M106 S255
G1 X72.012 Y40.86 F180
M106 S0
M106 S255
G1 X72.09 Y40.883 F180
M106 S0
M106 S255
G1 X72.167 Y40.907 F180
M106 S0
M106 S255
G1 X72.244 Y40.932 F180
M106 S0
M106 S255
G1 X72.32 Y40.96 F180
M106 S0
M106 S255
G1 X72.396 Y40.989 F180
M106 S0
M106 S255
G1 X72.471 Y41.022 F180
M106 S0
M106 S255
G1 X72.544 Y41.056 F180
M106 S0
M106 S255
G1 X72.617 Y41.094 F180
M106 S0
M106 S255
G1 X72.688 Y41.134 F180
M106 S0
M106 S255
G1 X72.756 Y41.177 F180
M106 S0
M106 S255
G1 X72.823 Y41.224 F180
M106 S0
M106 S255
G1 X72.887 Y41.273 F180
M106 S0
M106 S255
G1 X72.949 Y41.326 F180
M106 S0
M106 S255
G1 X73.008 Y41.381 F180
M106 S0
M106 S255
G1 X73.064 Y41.44 F180
M106 S0
M106 S255
G1 X73.117 Y41.501 F180
M106 S0
M106 S255
G1 X73.168 Y41.565 F180
M106 S0
M106 S255
G1 X73.216 Y41.63 F180
M106 S0
M106 S255
G1 X73.262 Y41.698 F180
M106 S0
M106 S255
G1 X73.306 Y41.766 F180
M106 S0
M106 S255
G1 X73.348 Y41.836 F180
M106 S0
M106 S255
G1 X73.387 Y41.907 F180
M106 S0
M106 S255
G1 X73.425 Y41.978 F180
M106 S0
M106 S255
G1 X73.461 Y42.051 F180
M106 S0
M106 S255
G1 X73.495 Y42.124 F180
M106 S0
M106 S255
G1 X73.528 Y42.198 F180
M106 S0
M106 S255
G1 X73.56 Y42.273 F180
M106 S0
M106 S255
G1 X73.59 Y42.348 F180
M106 S0
M106 S255
G1 X73.618 Y42.424 F180
M106 S0
M106 S255
G1 X73.646 Y42.5 F180
M106 S0
M106 S255
G1 X73.673 Y42.576 F180
M106 S0
M106 S255
G1 X73.698 Y42.653 F180
M106 S0
M106 S255
G1 X73.723 Y42.73 F180
M106 S0
M106 S255
G1 X73.747 Y42.807 F180
M106 S0
G0 X72.734 Y55.512 F6000
M106 S255
G1 X72.734 Y55.512 F180
M106 S0
M106 S255
G1 X72.712 Y55.593 F180
M106 S0
M106 S255
G1 X72.689 Y55.673 F180
M106 S0
M106 S255
G1 X72.663 Y55.752 F180
M106 S0
M106 S255
G1 X72.635 Y55.829 F180
M106 S0
M106 S255
G1 X72.604 Y55.905 F180
M106 S0
M106 S255
G1 X72.57 Y55.979 F180
M106 S0
M106 S255
G1 X72.532 Y56.05 F180
M106 S0
M106 S255
G1 X72.49 Y56.12 F180
M106 S0
M106 S255
G1 X72.444 Y56.187 F180
M106 S0
M106 S255
G1 X72.395 Y56.252 F180
M106 S0
M106 S255
G1 X72.343 Y56.315 F180
M106 S0
M106 S255
G1 X72.288 Y56.377 F180
M106 S0
M106 S255
G1 X72.231 Y56.437 F180
M106 S0
M106 S255
G1 X72.172 Y56.496 F180
M106 S0
M106 S255
G1 X72.112 Y56.555 F180
M106 S0
M106 S255
G1 X72.051 Y56.613 F180
M106 S0
M106 S255
G1 X71.99 Y56.671 F180
M106 S0
M106 S255
G1 X71.929 Y56.729 F180
M106 S0
M106 S255
G1 X71.868 Y56.787 F180
M106 S0
M106 S255
G1 X71.807 Y56.843 F180
M106 S0
M106 S255
G1 X71.745 Y56.899 F180
M106 S0
M106 S255
G1 X71.682 Y56.952 F180
M106 S0
M106 S255
G1 X71.617 Y57.002 F180
M106 S0
M106 S255
G1 X71.55 Y57.049 F180
M106 S0
M106 S255
G1 X71.481 Y57.092 F180
M106 S0
M106 S255
G1 X71.409 Y57.132 F180
M106 S0
M106 S255
G1 X71.335 Y57.167 F180
M106 S0
M106 S255
G1 X71.259 Y57.2 F180
M106 S0
M106 S255
G1 X71.182 Y57.231 F180
M106 S0
G0 X69.985 Y48.055 F6000
M106 S255
G1 X69.985 Y48.055 F180
M106 S0
M106 S255
G1 X70.108 Y48.106 F180
M106 S0
M106 S255
G1 X70.232 Y48.157 F180
M106 S0
M106 S255
G1 X70.355 Y48.209 F180
M106 S0
M106 S255
G1 X70.477 Y48.263 F180
M106 S0
M106 S255
G1 X70.6 Y48.319 F180
M106 S0
M106 S255
G1 X70.721 Y48.376 F180
M106 S0
M106 S255
G1 X70.842 Y48.436 F180
M106 S0
M106 S255
G1 X70.962 Y48.499 F180
M106 S0
M106 S255
G1 X71.081 Y48.564 F180
M106 S0
M106 S255
G1 X71.199 Y48.633 F180
M106 S0
M106 S255
G1 X71.315 Y48.706 F180
M106 S0
M106 S255
G1 X71.427 Y48.784 F180
M106 S0
M106 S255
G1 X71.533 Y48.867 F180
M106 S0
M106 S255
G1 X71.632 Y48.956 F180
M106 S0
M106 S255
G1 X71.722 Y49.052 F180
M106 S0
M106 S255
G1 X71.803 Y49.156 F180
M106 S0
M106 S255
G1 X71.873 Y49.267 F180
M106 S0
M106 S255
G1 X71.936 Y49.384 F180
M106 S0
M106 S255
G1 X71.992 Y49.505 F180
M106 S0
M106 S255
G1 X72.042 Y49.631 F180
M106 S0
M106 S255
G1 X72.089 Y49.759 F180
M106 S0
M106 S255
G1 X72.132 Y49.889 F180
M106 S0
M106 S255
G1 X72.175 Y50.02 F180
M106 S0
M106 S255
G1 X72.217 Y50.151 F180
M106 S0
M106 S255
G1 X72.26 Y50.281 F180
M106 S0
M106 S255
G1 X72.306 Y50.409 F180
M106 S0
M106 S255
G1 X72.353 Y50.536 F180
M106 S0
M106 S255
G1 X72.402 Y50.662 F180
M106 S0
M106 S255
G1 X72.453 Y50.786 F180
M106 S0
G0 X71.071 Y64.016 F6000
M106 S255
G1 X71.071 Y64.016 F180
M106 S0
M106 S255
G1 X71.056 Y64.112 F180
M106 S0
M106 S255
G1 X71.039 Y64.208 F180
M106 S0
M106 S255
G1 X71.02 Y64.304 F180
M106 S0
M106 S255
G1 X71.0 Y64.399 F180
M106 S0
M106 S255
G1 X70.976 Y64.493 F180
M106 S0
M106 S255
G1 X70.95 Y64.586 F180
M106 S0
M106 S255
G1 X70.919 Y64.678 F180
M106 S0
M106 S255
G1 X70.884 Y64.768 F180
M106 S0
M106 S255
G1 X70.845 Y64.856 F180
M106 S0
M106 S255
G1 X70.801 Y64.943 F180
M106 S0
M106 S255
G1 X70.752 Y65.028 F180
M106 S0
M106 S255
G1 X70.7 Y65.111 F180
M106 S0
M106 S255
G1 X70.644 Y65.191 F180
M106 S0
M106 S255
G1 X70.583 Y65.268 F180
M106 S0
M106 S255
G1 X70.52 Y65.343 F180
M106 S0
M106 S255
G1 X70.453 Y65.415 F180
M106 S0
M106 S255
G1 X70.383 Y65.483 F180
M106 S0
M106 S255
G1 X70.31 Y65.548 F180
M106 S0
M106 S255
G1 X70.235 Y65.61 F180
M106 S0
M106 S255
G1 X70.157 Y65.668 F180
M106 S0
M106 S255
G1 X70.076 Y65.723 F180
M106 S0
M106 S255
G1 X69.994 Y65.775 F180
M106 S0
M106 S255
G1 X69.91 Y65.823 F180
M106 S0
M106 S255
G1 X69.825 Y65.868 F180
M106 S0
M106 S255
G1 X69.738 Y65.911 F180
M106 S0
M106 S255
G1 X69.649 Y65.951 F180
M106 S0
M106 S255
G1 X69.56 Y65.988 F180
M106 S0
M106 S255
G1 X69.47 Y66.024 F180
M106 S0
M106 S255
G1 X69.379 Y66.057 F180
M106 S0
G0 X68.415 Y56.237 F6000
M106 S255
G1 X68.415 Y56.237 F180
M106 S0
M106 S255
G1 X68.533 Y56.275 F180
M106 S0
M106 S255
G1 X68.65 Y56.314 F180
M106 S0
M106 S255
G1 X68.766 Y56.355 F180
M106 S0
M106 S255
G1 X68.88 Y56.4 F180
M106 S0
M106 S255
G1 X68.993 Y56.447 F180
M106 S0
M106 S255
G1 X69.104 Y56.498 F180
M106 S0
M106 S255
G1 X69.212 Y56.554 F180
M106 S0
M106 S255
G1 X69.318 Y56.613 F180
M106 S0
M106 S255
G1 X69.421 Y56.678 F180
M106 S0
M106 S255
G1 X69.521 Y56.748 F180
M106 S0
M106 S255
G1 X69.618 Y56.823 F180
M106 S0
M106 S255
G1 X69.713 Y56.902 F180
M106 S0
M106 S255
G1 X69.804 Y56.985 F180
M106 S0
M106 S255
G1 X69.892 Y57.071 F180
M106 S0
M106 S255
G1 X69.978 Y57.162 F180
M106 S0
M106 S255
G1 X70.06 Y57.255 F180
M106 S0
M106 S255
G1 X70.138 Y57.35 F180
M106 S0
M106 S255
G1 X70.214 Y57.448 F180
M106 S0
M106 S255
G1 X70.286 Y57.548 F180
M106 S0
M106 S255
G1 X70.355 Y57.65 F180
M106 S0
M106 S255
G1 X70.421 Y57.754 F180
M106 S0
M106 S255
G1 X70.484 Y57.859 F180
M106 S0
M106 S255
G1 X70.544 Y57.966 F180
M106 S0
M106 S255
G1 X70.601 Y58.075 F180
M106 S0
M106 S255
G1 X70.656 Y58.184 F180
M106 S0
M106 S255
G1 X70.708 Y58.295 F180
M106 S0
M106 S255
G1 X70.758 Y58.406 F180
M106 S0
M106 S255
G1 X70.805 Y58.519 F180
M106 S0
M106 S255
G1 X70.851 Y58.633 F180
M106 S0
G0 X69.079 Y74.359 F6000
M106 S255
G1 X69.079 Y74.359 F180
M106 S0
M106 S255
G1 X69.054 Y74.487 F180
M106 S0
M106 S255
G1 X69.029 Y74.614 F180
M106 S0
M106 S255
G1 X69.002 Y74.741 F180
M106 S0
M106 S255
G1 X68.973 Y74.867 F180
M106 S0
M106 S255
G1 X68.942 Y74.991 F180
M106 S0
M106 S255
G1 X68.906 Y75.114 F180
M106 S0
M106 S255
G1 X68.867 Y75.235 F180
M106 S0
M106 S255
G1 X68.823 Y75.353 F180
M106 S0
M106 S255
G1 X68.773 Y75.469 F180
M106 S0
M106 S255
G1 X68.717 Y75.582 F180
M106 S0
M106 S255
G1 X68.655 Y75.691 F180
M106 S0
M106 S255
G1 X68.585 Y75.797 F180
M106 S0
M106 S255
G1 X68.508 Y75.899 F180
M106 S0
M106 S255
G1 X68.426 Y75.997 F180
M106 S0
M106 S255
G1 X68.338 Y76.09 F180
M106 S0
M106 S255
G1 X68.245 Y76.18 F180
M106 S0
M106 S255
G1 X68.147 Y76.264 F180
M106 S0
M106 S255
G1 X68.046 Y76.344 F180
M106 S0
M106 S255
G1 X67.942 Y76.418 F180
M106 S0
M106 S255
G1 X67.834 Y76.488 F180
M106 S0
M106 S255
G1 X67.724 Y76.552 F180
M106 S0
M106 S255
G1 X67.612 Y76.612 F180
M106 S0
M106 S255
G1 X67.498 Y76.668 F180
M106 S0
M106 S255
G1 X67.382 Y76.719 F180
M106 S0
M106 S255
G1 X67.265 Y76.767 F180
M106 S0
M106 S255
G1 X67.146 Y76.811 F180
M106 S0
M106 S255
G1 X67.026 Y76.852 F180
M106 S0
M106 S255
G1 X66.905 Y76.891 F180
M106 S0
M106 S255
G1 X66.783 Y76.927 F180
M106 S0
G0 X66.003 Y66.195 F6000
M106 S255
G1 X66.003 Y66.195 F180
M106 S0
M106 S255
G1 X66.141 Y66.254 F180
M106 S0
M106 S255
G1 X66.278 Y66.314 F180
M106 S0
M106 S255
G1 X66.414 Y66.376 F180
M106 S0
M106 S255
G1 X66.549 Y66.441 F180
M106 S0
M106 S255
G1 X66.683 Y66.508 F180
M106 S0
M106 S255
G1 X66.816 Y66.578 F180
M106 S0
M106 S255
G1 X66.946 Y66.651 F180
M106 S0
M106 S255
G1 X67.075 Y66.729 F180
M106 S0
M106 S255
G1 X67.202 Y66.811 F180
M106 S0
M106 S255
G1 X67.326 Y66.897 F180
M106 S0
M106 S255
G1 X67.446 Y66.988 F180
M106 S0
M106 S255
G1 X67.563 Y67.084 F180
M106 S0
M106 S255
G1 X67.674 Y67.184 F180
M106 S0
M106 S255
G1 X67.781 Y67.29 F180
M106 S0
M106 S255
G1 X67.881 Y67.401 F180
M106 S0
M106 S255
G1 X67.974 Y67.517 F180
M106 S0
M106 S255
G1 X68.061 Y67.639 F180
M106 S0
M106 S255
G1 X68.141 Y67.765 F180
M106 S0
M106 S255
G1 X68.216 Y67.895 F180
M106 S0
M106 S255
G1 X68.286 Y68.028 F180
M106 S0
M106 S255
G1 X68.352 Y68.163 F180
M106 S0
M106 S255
G1 X68.416 Y68.3 F180
M106 S0
M106 S255
G1 X68.476 Y68.438 F180
M106 S0
M106 S255
G1 X68.535 Y68.577 F180
M106 S0
M106 S255
G1 X68.593 Y68.716 F180
M106 S0
M106 S255
G1 X68.649 Y68.855 F180
M106 S0
M106 S255
G1 X68.703 Y68.995 F180
M106 S0
M106 S255
G1 X68.756 Y69.135 F180
M106 S0
M106 S255
G1 X68.808 Y69.275 F180
M106 S0
G0 X65.895 Y89.616 F6000
M106 S255
G1 X65.895 Y89.616 F180
M106 S0
M106 S255
G1 X65.866 Y89.703 F180
M106 S0
M106 S255
G1 X65.833 Y89.788 F180
M106 S0
M106 S255
G1 X65.797 Y89.871 F180
M106 S0
M106 S255
G1 X65.757 Y89.951 F180
M106 S0
M106 S255
G1 X65.713 Y90.028 F180
M106 S0
M106 S255
G1 X65.664 Y90.102 F180
M106 S0
M106 S255
G1 X65.61 Y90.173 F180
M106 S0
M106 S255
G1 X65.551 Y90.241 F180
M106 S0
M106 S255
G1 X65.488 Y90.305 F180
M106 S0
M106 S255
G1 X65.421 Y90.367 F180
M106 S0
M106 S255
G1 X65.35 Y90.426 F180
M106 S0
M106 S255
G1 X65.277 Y90.483 F180
M106 S0
M106 S255
G1 X65.202 Y90.538 F180
M106 S0
M106 S255
G1 X65.125 Y90.592 F180
M106 S0
M106 S255
G1 X65.047 Y90.644 F180
M106 S0
M106 S255
G1 X64.969 Y90.695 F180
M106 S0
M106 S255
G1 X64.89 Y90.746 F180
M106 S0
M106 S255
G1 X64.812 Y90.796 F180
M106 S0
M106 S255
G1 X64.734 Y90.845 F180
M106 S0
M106 S255
G1 X64.655 Y90.893 F180
M106 S0
M106 S255
G1 X64.576 Y90.939 F180
M106 S0
M106 S255
G1 X64.497 Y90.983 F180
M106 S0
M106 S255
G1 X64.416 Y91.026 F180
M106 S0
M106 S255
G1 X64.335 Y91.067 F180
M106 S0
M106 S255
G1 X64.253 Y91.105 F180
M106 S0
M106 S255
G1 X64.17 Y91.142 F180
M106 S0
M106 S255
G1 X64.086 Y91.176 F180
M106 S0
M106 S255
G1 X64.001 Y91.208 F180
M106 S0
M106 S255
G1 X63.915 Y91.239 F180
M106 S0
G0 X62.088 Y79.914 F6000
M106 S255
G1 X62.088 Y79.914 F180
M106 S0
M106 S255
G1 X62.235 Y79.952 F180
M106 S0
M106 S255
G1 X62.381 Y79.992 F180
M106 S0
M106 S255
G1 X62.526 Y80.033 F180
M106 S0
M106 S255
G1 X62.67 Y80.077 F180
M106 S0
M106 S255
G1 X62.813 Y80.124 F180
M106 S0
M106 S255
G1 X62.955 Y80.173 F180
M106 S0
M106 S255
G1 X63.095 Y80.225 F180
M106 S0
M106 S255
G1 X63.233 Y80.282 F180
M106 S0
M106 S255
G1 X63.37 Y80.342 F180
M106 S0
M106 S255
G1 X63.505 Y80.406 F180
M106 S0
M106 S255
G1 X63.637 Y80.475 F180
M106 S0
M106 S255
G1 X63.768 Y80.548 F180
M106 S0
M106 S255
G1 X63.897 Y80.624 F180
M106 S0
M106 S255
G1 X64.024 Y80.705 F180
M106 S0
M106 S255
G1 X64.15 Y80.789 F180
M106 S0
M106 S255
G1 X64.273 Y80.875 F180
M106 S0
M106 S255
G1 X64.396 Y80.965 F180
M106 S0
M106 S255
G1 X64.517 Y81.057 F180
M106 S0
M106 S255
G1 X64.636 Y81.15 F180
M106 S0
M106 S255
G1 X64.754 Y81.247 F180
M106 S0
M106 S255
G1 X64.868 Y81.346 F180
M106 S0
M106 S255
G1 X64.977 Y81.45 F180
M106 S0
M106 S255
G1 X65.08 Y81.558 F180
M106 S0
M106 S255
G1 X65.176 Y81.671 F180
M106 S0
M106 S255
G1 X65.264 Y81.79 F180
M106 S0
M106 S255
G1 X65.345 Y81.914 F180
M106 S0
M106 S255
G1 X65.419 Y82.043 F180
M106 S0
M106 S255
G1 X65.488 Y82.175 F180
M106 S0
M106 S255
G1 X65.552 Y82.312 F180
M106 S0
G0 X62.241 Y106.463 F6000
M106 S255
G1 X62.241 Y106.463 F180
M106 S0
M106 S255
G1 X62.212 Y106.571 F180
M106 S0
M106 S255
G1 X62.178 Y106.676 F180
M106 S0
M106 S255
G1 X62.138 Y106.778 F180
M106 S0
M106 S255
G1 X62.091 Y106.875 F180
M106 S0
M106 S255
G1 X62.037 Y106.967 F180
M106 S0
M106 S255
G1 X61.975 Y107.053 F180
M106 S0
M106 S255
G1 X61.903 Y107.134 F180
M106 S0
M106 S255
G1 X61.825 Y107.21 F180
M106 S0
M106 S255
G1 X61.739 Y107.282 F180
M106 S0
M106 S255
G1 X61.65 Y107.35 F180
M106 S0
M106 S255
G1 X61.556 Y107.416 F180
M106 S0
M106 S255
G1 X61.461 Y107.48 F180
M106 S0
M106 S255
G1 X61.366 Y107.543 F180
M106 S0
M106 S255
G1 X61.271 Y107.605 F180
M106 S0
M106 S255
G1 X61.176 Y107.667 F180
M106 S0
M106 S255
G1 X61.082 Y107.727 F180
M106 S0
M106 S255
G1 X60.987 Y107.786 F180
M106 S0
M106 S255
G1 X60.891 Y107.843 F180
M106 S0
M106 S255
G1 X60.795 Y107.898 F180
M106 S0
M106 S255
G1 X60.698 Y107.951 F180
M106 S0
M106 S255
G1 X60.6 Y108.001 F180
M106 S0
M106 S255
G1 X60.5 Y108.047 F180
M106 S0
M106 S255
G1 X60.399 Y108.09 F180
M106 S0
M106 S255
G1 X60.296 Y108.13 F180
M106 S0
M106 S255
G1 X60.192 Y108.167 F180
M106 S0
M106 S255
G1 X60.087 Y108.201 F180
M106 S0
M106 S255
G1 X59.981 Y108.233 F180
M106 S0
M106 S255
G1 X59.873 Y108.263 F180
M106 S0
M106 S255
G1 X59.765 Y108.291 F180
M106 S0
G0 X58.569 Y96.324 F6000
M106 S255
G1 X58.569 Y96.324 F180
M106 S0
M106 S255
G1 X58.703 Y96.366 F180
M106 S0
M106 S255
G1 X58.836 Y96.41 F180
M106 S0
M106 S255
G1 X58.968 Y96.456 F180
M106 S0
M106 S255
G1 X59.099 Y96.505 F180
M106 S0
M106 S255
G1 X59.229 Y96.556 F180
M106 S0
M106 S255
G1 X59.357 Y96.61 F180
M106 S0
M106 S255
G1 X59.484 Y96.668 F180
M106 S0
M106 S255
G1 X59.608 Y96.73 F180
M106 S0
M106 S255
G1 X59.731 Y96.795 F180
M106 S0
M106 S255
G1 X59.852 Y96.865 F180
M106 S0
M106 S255
G1 X59.97 Y96.939 F180
M106 S0
M106 S255
G1 X60.086 Y97.017 F180
M106 S0
M106 S255
G1 X60.2 Y97.098 F180
M106 S0
M106 S255
G1 X60.312 Y97.183 F180
M106 S0
M106 S255
G1 X60.422 Y97.271 F180
M106 S0
M106 S255
G1 X60.529 Y97.363 F180
M106 S0
M106 S255
G1 X60.634 Y97.457 F180
M106 S0
M106 S255
G1 X60.736 Y97.553 F180
M106 S0
M106 S255
G1 X60.836 Y97.652 F180
M106 S0
M106 S255
G1 X60.933 Y97.754 F180
M106 S0
M106 S255
G1 X61.028 Y97.857 F180
M106 S0
M106 S255
G1 X61.12 Y97.963 F180
M106 S0
M106 S255
G1 X61.209 Y98.071 F180
M106 S0
M106 S255
G1 X61.294 Y98.182 F180
M106 S0
M106 S255
G1 X61.376 Y98.295 F180
M106 S0
M106 S255
G1 X61.454 Y98.41 F180
M106 S0
M106 S255
G1 X61.529 Y98.527 F180
M106 S0
M106 S255
G1 X61.6 Y98.646 F180
M106 S0
M106 S255
G1 X61.668 Y98.767 F180
M106 S0
G0 X57.378 Y128.959 F6000
M106 S255
G1 X57.378 Y128.959 F180
M106 S0
M106 S255
G1 X57.338 Y129.064 F180
M106 S0
M106 S255
G1 X57.295 Y129.167 F180
M106 S0
M106 S255
G1 X57.246 Y129.267 F180
M106 S0
M106 S255
G1 X57.192 Y129.365 F180
M106 S0
M106 S255
G1 X57.133 Y129.46 F180
M106 S0
M106 S255
G1 X57.069 Y129.553 F180
M106 S0
M106 S255
G1 X57.0 Y129.642 F180
M106 S0
M106 S255
G1 X56.926 Y129.729 F180
M106 S0
M106 S255
G1 X56.849 Y129.813 F180
M106 S0
M106 S255
G1 X56.769 Y129.894 F180
M106 S0
M106 S255
G1 X56.686 Y129.972 F180
M106 S0
M106 S255
G1 X56.6 Y130.047 F180
M106 S0
M106 S255
G1 X56.512 Y130.12 F180
M106 S0
M106 S255
G1 X56.422 Y130.189 F180
M106 S0
M106 S255
G1 X56.33 Y130.255 F180
M106 S0
M106 S255
G1 X56.236 Y130.319 F180
M106 S0
M106 S255
G1 X56.141 Y130.38 F180
M106 S0
M106 S255
G1 X56.044 Y130.439 F180
M106 S0
M106 S255
G1 X55.946 Y130.495 F180
M106 S0
M106 S255
G1 X55.847 Y130.549 F180
M106 S0
M106 S255
G1 X55.747 Y130.6 F180
M106 S0
M106 S255
G1 X55.645 Y130.65 F180
M106 S0
M106 S255
G1 X55.543 Y130.697 F180
M106 S0
M106 S255
G1 X55.44 Y130.742 F180
M106 S0
M106 S255
G1 X55.336 Y130.785 F180
M106 S0
M106 S255
G1 X55.231 Y130.827 F180
M106 S0
M106 S255
G1 X55.126 Y130.867 F180
M106 S0
M106 S255
G1 X55.02 Y130.906 F180
M106 S0
M106 S255
G1 X54.914 Y130.944 F180
M106 S0
G0 X51.989 Y118.473 F6000
M106 S255
G1 X51.989 Y118.473 F180
M106 S0
M106 S255
G1 X52.106 Y118.489 F180
M106 S0
M106 S255
G1 X52.224 Y118.506 F180
M106 S0
M106 S255
G1 X52.341 Y118.523 F180
M106 S0
M106 S255
G1 X52.459 Y118.54 F180
M106 S0
M106 S255
G1 X52.576 Y118.558 F180
M106 S0
M106 S255
G1 X52.693 Y118.576 F180
M106 S0
M106 S255
G1 X52.81 Y118.595 F180
M106 S0
M106 S255
G1 X52.926 Y118.615 F180
M106 S0
M106 S255
G1 X53.043 Y118.636 F180
M106 S0
M106 S255
G1 X53.159 Y118.659 F180
M106 S0
M106 S255
G1 X53.274 Y118.683 F180
M106 S0
M106 S255
G1 X53.389 Y118.708 F180
M106 S0
M106 S255
G1 X53.504 Y118.736 F180
M106 S0
M106 S255
G1 X53.618 Y118.765 F180
M106 S0
M106 S255
G1 X53.732 Y118.796 F180
M106 S0
M106 S255
G1 X53.845 Y118.83 F180
M106 S0
M106 S255
G1 X53.957 Y118.866 F180
M106 S0
M106 S255
G1 X54.069 Y118.905 F180
M106 S0
M106 S255
G1 X54.179 Y118.947 F180
M106 S0
M106 S255
G1 X54.29 Y118.991 F180
M106 S0
M106 S255
G1 X54.399 Y119.038 F180
M106 S0
M106 S255
G1 X54.507 Y119.089 F180
M106 S0
M106 S255
G1 X54.614 Y119.142 F180
M106 S0
M106 S255
G1 X54.719 Y119.198 F180
M106 S0
M106 S255
G1 X54.822 Y119.257 F180
M106 S0
M106 S255
G1 X54.924 Y119.32 F180
M106 S0
M106 S255
G1 X55.024 Y119.385 F180
M106 S0
M106 S255
G1 X55.121 Y119.453 F180
M106 S0
M106 S255
G1 X55.216 Y119.524 F180
M106 S0
M106 S255
G1 X55.309 Y119.598 F180
M106 S0
M106 S255
G1 X55.398 Y119.675 F180
M106 S0
M106 S255
G1 X55.485 Y119.756 F180
M106 S0
M106 S255
G1 X55.569 Y119.839 F180
M106 S0
M106 S255
G1 X55.649 Y119.925 F180
M106 S0
M106 S255
G1 X55.726 Y120.014 F180
M106 S0
M106 S255
G1 X55.8 Y120.106 F180
M106 S0
M106 S255
G1 X55.872 Y120.2 F180
M106 S0
M106 S255
G1 X55.94 Y120.296 F180
M106 S0
M106 S255
G1 X56.007 Y120.394 F180
M106 S0
M106 S255
G1 X56.071 Y120.493 F180
M106 S0
M106 S255
G1 X56.133 Y120.595 F180
M106 S0
M106 S255
G1 X56.194 Y120.697 F180
M106 S0
M106 S255
G1 X56.252 Y120.8 F180
M106 S0
M106 S255
G1 X56.31 Y120.904 F180
M106 S0
M106 S255
G1 X56.366 Y121.008 F180
M106 S0
M106 S255
G1 X56.421 Y121.113 F180
M106 S0
M106 S255
G1 X56.475 Y121.218 F180
M106 S0
G0 X46.253 Y164.818 F6000
M106 S255
G1 X46.253 Y164.818 F180
M106 S0
M106 S255
G1 X46.433 Y164.778 F180
M106 S0
M106 S255
G1 X46.613 Y164.738 F180
M106 S0
M106 S255
G1 X46.792 Y164.696 F180
M106 S0
M106 S255
G1 X46.972 Y164.653 F180
M106 S0
M106 S255
G1 X47.15 Y164.607 F180
M106 S0
M106 S255
G1 X47.328 Y164.558 F180
M106 S0
M106 S255
G1 X47.505 Y164.506 F180
M106 S0
M106 S255
G1 X47.681 Y164.45 F180
M106 S0
M106 S255
G1 X47.856 Y164.39 F180
M106 S0
M106 S255
G1 X48.03 Y164.325 F180
M106 S0
M106 S255
G1 X48.203 Y164.255 F180
M106 S0
M106 S255
G1 X48.374 Y164.179 F180
M106 S0
M106 S255
G1 X48.544 Y164.097 F180
M106 S0
M106 S255
G1 X48.711 Y164.009 F180
M106 S0
M106 S255
G1 X48.874 Y163.912 F180
M106 S0
M106 S255
G1 X49.03 Y163.807 F180
M106 S0
M106 S255
G1 X49.176 Y163.693 F180
M106 S0
M106 S255
G1 X49.312 Y163.568 F180
M106 S0
M106 S255
G1 X49.434 Y163.431 F180
M106 S0
M106 S255
G1 X49.541 Y163.283 F180
M106 S0
M106 S255
G1 X49.631 Y163.122 F180
M106 S0
M106 S255
G1 X49.707 Y162.953 F180
M106 S0
M106 S255
G1 X49.769 Y162.776 F180
M106 S0
M106 S255
G1 X49.818 Y162.595 F180
M106 S0
M106 S255
G1 X49.855 Y162.411 F180
M106 S0
M106 S255
G1 X49.883 Y162.227 F180
M106 S0
M106 S255
G1 X49.901 Y162.042 F180
M106 S0
M106 S255
G1 X49.912 Y161.858 F180
M106 S0
M106 S255
G1 X49.916 Y161.673 F180
M106 S0
G0 X43.146 Y151.546 F6000
M106 S255
G1 X43.146 Y151.546 F180
M106 S0
M106 S255
G1 X43.314 Y151.577 F180
M106 S0
M106 S255
G1 X43.481 Y151.608 F180
M106 S0
M106 S255
G1 X43.649 Y151.639 F180
M106 S0
M106 S255
G1 X43.817 Y151.671 F180
M106 S0
M106 S255
G1 X43.985 Y151.703 F180
M106 S0
M106 S255
G1 X44.152 Y151.736 F180
M106 S0
M106 S255
G1 X44.319 Y151.77 F180
M106 S0
M106 S255
G1 X44.486 Y151.806 F180
M106 S0
M106 S255
G1 X44.652 Y151.843 F180
M106 S0
M106 S255
G1 X44.818 Y151.883 F180
M106 S0
M106 S255
G1 X44.983 Y151.924 F180
M106 S0
M106 S255
G1 X45.148 Y151.969 F180
M106 S0
M106 S255
G1 X45.312 Y152.016 F180
M106 S0
M106 S255
G1 X45.476 Y152.066 F180
M106 S0
M106 S255
G1 X45.638 Y152.12 F180
M106 S0
M106 S255
G1 X45.8 Y152.178 F180
M106 S0
M106 S255
G1 X45.96 Y152.239 F180
M106 S0
M106 S255
G1 X46.12 Y152.305 F180
M106 S0
M106 S255
G1 X46.278 Y152.376 F180
M106 S0
M106 S255
G1 X46.435 Y152.451 F180
M106 S0
M106 S255
G1 X46.59 Y152.53 F180
M106 S0
M106 S255
G1 X46.743 Y152.614 F180
M106 S0
M106 S255
G1 X46.892 Y152.703 F180
M106 S0
M106 S255
G1 X47.039 Y152.796 F180
M106 S0
M106 S255
G1 X47.182 Y152.894 F180
M106 S0
M106 S255
G1 X47.321 Y152.996 F180
M106 S0
M106 S255
G1 X47.456 Y153.103 F180
M106 S0
M106 S255
G1 X47.586 Y153.215 F180
M106 S0
M106 S255
G1 X47.711 Y153.332 F180
M106 S0
M106 S255
G1 X47.83 Y153.453 F180
M106 S0
M106 S255
G1 X47.943 Y153.579 F180
M106 S0
M106 S255
G1 X48.05 Y153.71 F180
M106 S0
M106 S255
G1 X48.15 Y153.846 F180
M106 S0
M106 S255
G1 X48.245 Y153.985 F180
M106 S0
M106 S255
G1 X48.333 Y154.129 F180
M106 S0
M106 S255
G1 X48.417 Y154.277 F180
M106 S0
M106 S255
G1 X48.496 Y154.427 F180
M106 S0
M106 S255
G1 X48.571 Y154.581 F180
M106 S0
M106 S255
G1 X48.643 Y154.736 F180
M106 S0
M106 S255
G1 X48.712 Y154.894 F180
M106 S0
M106 S255
G1 X48.779 Y155.054 F180
M106 S0
G0 X32.972 Y160.663 F6000
M106 S255
G1 X32.972 Y160.663 F180
M106 S0
M106 S255
G1 X27.471 Y155.547 F180
M106 S0
G0 X27.952 Y154.153 F6000
M106 S255
G1 X27.952 Y154.153 F180
M106 S0
M106 S255
G1 X36.266 Y149.81 F180
M106 S0
G0 X35.083 Y153.708 F6000
M106 S255
G1 X35.083 Y153.708 F180
M106 S0
M106 S255
G1 X29.716 Y149.041 F180
M106 S0
G0 X19.56 Y178.478 F6000
M106 S255
G1 X19.56 Y178.478 F180
M106 S0
M106 S255
G1 X56.562 Y71.226 F180
M106 S0
G0 X28.24 Y176.257 F6000
M106 S255
G1 X28.24 Y176.257 F180
M106 S0
M106 S255
G1 X22.464 Y170.058 F180
M106 S0
G0 X22.592 Y169.69 F6000
M106 S255
G1 X22.592 Y169.69 F180
M106 S0
M106 S255
G1 X30.171 Y169.896 F180
M106 S0
G0 X30.442 Y169.002 F6000
M106 S255
G1 X30.442 Y169.002 F180
M106 S0
M106 S255
G1 X22.871 Y168.88 F180
M106 S0
G0 X30.701 Y168.148 F6000
M106 S255
G1 X30.701 Y168.148 F180
M106 S0
M106 S255
G1 X25.047 Y162.573 F180
M106 S0
G0 X25.643 Y160.845 F6000
M106 S255
G1 X25.643 Y160.845 F180
M106 S0
M106 S255
G1 X34.326 Y156.203 F180
M106 S0
G0 X30.223 Y147.571 F6000
M106 S255
G1 X30.223 Y147.571 F180
M106 S0
M106 S255
G1 X38.144 Y143.623 F180
M106 S0
G0 X37.027 Y147.303 F6000
M106 S255
G1 X37.027 Y147.303 F180
M106 S0
M106 S255
G1 X31.829 Y142.915 F180
M106 S0
G0 X32.324 Y141.481 F6000
M106 S255
G1 X32.324 Y141.481 F180
M106 S0
M106 S255
G1 X39.886 Y137.882 F180
M106 S0
G0 X38.849 Y141.298 F6000
M106 S255
G1 X38.849 Y141.298 F180
M106 S0
M106 S255
G1 X33.61 Y136.925 F180
M106 S0
G0 X33.53 Y136.255 F6000
M106 S255
G1 X33.53 Y136.255 F180
M106 S0
M106 S255
G1 X41.527 Y132.477 F180
M106 S0
G0 X40.569 Y135.632 F6000
M106 S255
G1 X40.569 Y135.632 F180
M106 S0
M106 S255
G1 X35.644 Y131.857 F180
M106 S0
G0 X36.083 Y130.586 F6000
M106 S255
G1 X36.083 Y130.586 F180
M106 S0
M106 S255
G1 X43.056 Y127.439 F180
M106 S0
G0 X42.155 Y130.406 F6000
M106 S255
G1 X42.155 Y130.406 F180
M106 S0
M106 S255
G1 X37.367 Y126.862 F180
M106 S0
G0 X37.751 Y125.751 F6000
M106 S255
G1 X37.751 Y125.751 F180
M106 S0
M106 S255
G1 X44.433 Y122.899 F180
M106 S0
G0 X43.698 Y125.32 F6000
M106 S255
G1 X43.698 Y125.32 F180
M106 S0
M106 S255
G1 X38.989 Y122.162 F180
M106 S0
G0 X39.328 Y121.178 F6000
M106 S255
G1 X39.328 Y121.178 F180
M106 S0
M106 S255
G1 X45.796 Y118.407 F180
M106 S0
G0 X45.094 Y120.721 F6000
M106 S255
G1 X45.094 Y120.721 F180
M106 S0
M106 S255
G1 X40.499 Y117.784 F180
M106 S0
G0 X40.811 Y116.882 F6000
M106 S255
G1 X40.811 Y116.882 F180
M106 S0
M106 S255
G1 X47.07 Y114.212 F180
M106 S0
G0 X46.355 Y116.567 F6000
M106 S255
G1 X46.355 Y116.567 F180
M106 S0
M106 S255
G1 X41.892 Y113.746 F180
M106 S0
G0 X41.978 Y113.499 F6000
M106 S255
G1 X41.978 Y113.499 F180
M106 S0
M106 S255
G1 X47.216 Y113.729 F180
M106 S0
G0 X47.48 Y112.861 F6000
M106 S255
G1 X47.48 Y112.861 F180
M106 S0
M106 S255
G1 X42.245 Y112.724 F180
M106 S0
G0 X42.734 Y112.894 F6000
M106 S255
G1 X42.734 Y112.894 F180
M106 S0
M106 S255
G1 X48.173 Y110.576 F180
M106 S0
G0 X47.644 Y112.319 F6000
M106 S255
G1 X47.644 Y112.319 F180
M106 S0
M106 S255
G1 X43.259 Y109.785 F180
M106 S0
G0 X43.411 Y109.345 F6000
M106 S255
G1 X43.411 Y109.345 F180
M106 S0
M106 S255
G1 X49.187 Y107.235 F180
M106 S0
G0 X48.748 Y108.682 F6000
M106 S255
G1 X48.748 Y108.682 F180
M106 S0
M106 S255
G1 X44.492 Y106.211 F180
M106 S0
G0 X44.662 Y105.72 F6000
M106 S255
G1 X44.662 Y105.72 F180
M106 S0
M106 S255
G1 X50.251 Y103.729 F180
M106 S0
G0 X49.797 Y105.224 F6000
M106 S255
G1 X49.797 Y105.224 F180
M106 S0
M106 S255
G1 X45.598 Y103.005 F180
M106 S0
G0 X45.763 Y102.528 F6000
M106 S255
G1 X45.763 Y102.528 F180
M106 S0
M106 S255
G1 X51.243 Y100.459 F180
M106 S0
G0 X50.807 Y101.898 F6000
M106 S255
G1 X50.807 Y101.898 F180
M106 S0
M106 S255
G1 X46.725 Y99.74 F180
M106 S0
G0 X46.866 Y99.332 F6000
M106 S255
G1 X46.866 Y99.332 F180
M106 S0
M106 S255
G1 X52.165 Y97.422 F180
M106 S0
G0 X51.791 Y98.655 F6000
M106 S255
G1 X51.791 Y98.655 F180
M106 S0
M106 S255
G1 X47.814 Y96.584 F180
M106 S0
G0 X47.919 Y96.277 F6000
M106 S255
G1 X47.919 Y96.277 F180
M106 S0
M106 S255
G1 X53.048 Y94.512 F180
M106 S0
G0 X52.703 Y95.649 F6000
M106 S255
G1 X52.703 Y95.649 F180
M106 S0
M106 S255
G1 X48.809 Y93.7 F180
M106 S0
G0 X48.94 Y93.32 F6000
M106 S255
G1 X48.94 Y93.32 F180
M106 S0
M106 S255
G1 X53.927 Y91.618 F180
M106 S0
G0 X53.604 Y92.681 F6000
M106 S255
G1 X53.604 Y92.681 F180
M106 S0
M106 S255
G1 X49.824 Y90.757 F180
M106 S0
G0 X49.964 Y90.352 F6000
M106 S255
G1 X49.964 Y90.352 F180
M106 S0
M106 S255
G1 X54.825 Y88.659 F180
M106 S0
G0 X54.415 Y90.009 F6000
M106 S255
G1 X54.415 Y90.009 F180
M106 S0
M106 S255
G1 X50.751 Y88.07 F180
M106 S0
G0 X50.821 Y87.866 F6000
M106 S255
G1 X50.821 Y87.866 F180
M106 S0
M106 S255
G1 X55.576 Y86.183 F180
M106 S0
G0 X55.229 Y87.326 F6000
M106 S255
G1 X55.229 Y87.326 F180
M106 S0
M106 S255
G1 X52.008 Y85.749 F180
M106 S0
G0 X55.689 Y85.811 F6000
M106 S255
G1 X55.689 Y85.811 F180
M106 S0
M106 S255
G1 X51.554 Y85.742 F180
M106 S0
G0 X55.892 Y85.141 F6000
M106 S255
G1 X55.892 Y85.141 F180
M106 S0
M106 S255
G1 X51.775 Y85.101 F180
M106 S0
G0 X51.947 Y85.103 F6000
M106 S255
G1 X51.947 Y85.103 F180
M106 S0
M106 S255
G1 X56.35 Y83.634 F180
M106 S0
G0 X56.041 Y84.991 F6000
M106 S255
G1 X56.041 Y84.991 F180
M106 S0
M106 S255
G1 X52.438 Y83.18 F180
M106 S0
G0 X52.582 Y82.763 F6000
M106 S255
G1 X52.582 Y82.763 F180
M106 S0
M106 S255
G1 X56.607 Y82.787 F180
M106 S0
G0 X58.719 Y75.827 F6000
M106 S255
G1 X58.719 Y75.827 F180
M106 S0
M106 S255
G1 X55.405 Y74.58 F180
M106 S0
G0 X55.52 Y74.246 F6000
M106 S255
G1 X55.52 Y74.246 F180
M106 S0
M106 S255
G1 X59.552 Y73.083 F180
M106 S0
G0 X59.333 Y73.804 F6000
M106 S255
G1 X59.333 Y73.804 F180
M106 S0
M106 S255
G1 X56.065 Y72.667 F180
M106 S0
G0 X59.647 Y72.769 F6000
M106 S255
G1 X59.647 Y72.769 F180
M106 S0
M106 S255
G1 X56.063 Y72.674 F180
M106 S0
G0 X59.797 Y72.274 F6000
M106 S255
G1 X59.797 Y72.274 F180
M106 S0
M106 S255
G1 X56.216 Y72.229 F180
M106 S0
G0 X56.423 Y72.232 F6000
M106 S255
G1 X56.423 Y72.232 F180
M106 S0
M106 S255
G1 X61.812 Y65.636 F180
M106 S0
G0 X65.016 Y52.109 F6000
M106 S255
G1 X65.016 Y52.109 F180
M106 S0
M106 S255
G1 X66.053 Y51.662 F180
M106 S0
G0 X66.121 Y52.813 F6000
M106 S255
G1 X66.121 Y52.813 F180
M106 S0
M106 S255
G1 X66.102 Y52.791 F180
M106 S0
G0 X70.853 Y33.809 F6000
M106 S255
G1 X70.853 Y33.809 F180
M106 S0
M106 S255
G1 X68.149 Y32.56 F180
M106 S0
G0 X56.642 Y71.964 F6000
M106 S255
G1 X56.642 Y71.964 F180
M106 S0
M106 S255
G1 X60.297 Y70.626 F180
M106 S0
G0 X59.868 Y72.039 F6000
M106 S255
G1 X59.868 Y72.039 F180
M106 S0
M106 S255
G1 X57.882 Y70.446 F180
M106 S0
G0 X58.138 Y70.132 F6000
M106 S255
G1 X58.138 Y70.132 F180
M106 S0
M106 S255
G1 X60.764 Y69.088 F180
M106 S0
G0 X60.483 Y70.014 F6000
M106 S255
G1 X60.483 Y70.014 F180
M106 S0
M106 S255
G1 X59.352 Y68.647 F180
M106 S0
G0 X23.181 Y167.981 F6000
M106 S255
G1 X23.181 Y167.981 F180
M106 S0
M106 S255
G1 X32.261 Y163.006 F180
M106 S0
G0 X50.84 Y85.092 F6000
M106 S255
G1 X50.84 Y85.092 F180
M106 S0
M106 S255
G1 X50.833 Y85.092 F180
M106 S0
G0 X52.512 Y82.964 F6000
M106 S255
G1 X52.512 Y82.964 F180
M106 S0
M106 S255
G1 X57.03 Y81.391 F180
M106 S0
G0 X53.231 Y80.883 F6000
M106 S255
G1 X53.231 Y80.883 F180
M106 S0
M106 S255
G1 X57.725 Y79.102 F180
M106 S0
G0 X54.001 Y78.651 F6000
M106 S255
G1 X54.001 Y78.651 F180
M106 S0
M106 S255
G1 X58.341 Y77.074 F180
M106 S0
G0 X54.799 Y76.337 F6000
M106 S255
G1 X54.799 Y76.337 F180
M106 S0
M106 S255
G1 X58.946 Y75.078 F180
M106 S0
G0 X66.188 Y51.215 F6000
M106 S255
G1 X66.188 Y51.215 F180
M106 S0
M106 S255
G1 X64.753 Y50.487 F180
M106 S0
G0 X66.795 Y49.214 F6000
M106 S255
G1 X66.795 Y49.214 F180
M106 S0
M106 S255
G1 X63.954 Y48.046 F180
M106 S0
G0 X67.713 Y46.355 F6000
M106 S255
G1 X67.713 Y46.355 F180
M106 S0
M106 S255
G1 X64.52 Y45.118 F180
M106 S0
G0 X68.277 Y44.1 F6000
M106 S255
G1 X68.277 Y44.1 F180
M106 S0
M106 S255
G1 X65.07 Y43.102 F180
M106 S0
M106 S255
G1 X68.724 Y42.317 F180
M106 S0
G0 X68.748 Y42.22 F6000
M106 S255
G1 X68.748 Y42.22 F180
M106 S0
M106 S255
G1 X65.697 Y41.045 F180
M106 S0
G0 X69.28 Y40.096 F6000
M106 S255
G1 X69.28 Y40.096 F180
M106 S0
M106 S255
G1 X66.308 Y38.931 F180
M106 S0
G0 X69.83 Y37.898 F6000
M106 S255
G1 X69.83 Y37.898 F180
M106 S0
M106 S255
G1 X66.903 Y36.872 F180
M106 S0
G0 X70.24 Y36.259 F6000
M106 S255
G1 X70.24 Y36.259 F180
M106 S0
M106 S255
G1 X67.33 Y35.395 F180
M106 S0
G0 X70.436 Y35.478 F6000
M106 S255
G1 X70.436 Y35.478 F180
M106 S0
M106 S255
G1 X67.607 Y34.436 F180
M106 S0
G0 X70.642 Y34.652 F6000
M106 S255
G1 X70.642 Y34.652 F180
M106 S0
M106 S255
G1 X67.891 Y33.451 F180
M106 S0
G0 X71.066 Y32.957 F6000
M106 S255
G1 X71.066 Y32.957 F180
M106 S0
M106 S255
G1 X68.386 Y31.738 F180
M106 S0
G0 X71.51 Y31.186 F6000
M106 S255
G1 X71.51 Y31.186 F180
M106 S0
M106 S255
G1 X68.913 Y29.913 F180
M106 S0
G0 X71.738 Y30.272 F6000
M106 S255
G1 X71.738 Y30.272 F180
M106 S0
M106 S255
G1 X69.087 Y28.918 F180
M106 S0
M106 S255
G1 X72.222 Y28.341 F180
M106 S0
G0 X72.005 Y29.205 F6000
M106 S255
G1 X72.005 Y29.205 F180
M106 S0
M106 S255
G1 X69.43 Y28.127 F180
M106 S0
G0 X72.239 Y28.273 F6000
M106 S255
G1 X72.239 Y28.273 F180
M106 S0
M106 S255
G1 X69.778 Y26.921 F180
M106 S0
G0 X72.466 Y27.365 F6000
M106 S255
G1 X72.466 Y27.365 F180
M106 S0
M106 S255
G1 X70.082 Y25.867 F180
M106 S0
G0 X72.756 Y26.205 F6000
M106 S255
G1 X72.756 Y26.205 F180
M106 S0
M106 S255
G1 X70.348 Y24.949 F180
M106 S0
G0 X72.991 Y25.268 F6000
M106 S255
G1 X72.991 Y25.268 F180
M106 S0
M106 S255
G1 X70.652 Y23.894 F180
M106 S0
G0 X73.257 Y24.204 F6000
M106 S255
G1 X73.257 Y24.204 F180
M106 S0
M106 S255
G1 X70.878 Y23.113 F180
M106 S0
G0 X73.44 Y23.471 F6000
M106 S255
G1 X73.44 Y23.471 F180
M106 S0
M106 S255
G1 X71.109 Y22.316 F180
M106 S0
G0 X73.674 Y22.539 F6000
M106 S255
G1 X73.674 Y22.539 F180
M106 S0
M106 S255
G1 X71.389 Y21.345 F180
M106 S0
G0 X71.299 Y32.03 F6000
M106 S255
G1 X71.299 Y32.03 F180
M106 S0
M106 S255
G1 X68.633 Y30.884 F180
M106 S0
G0 X73.896 Y21.652 F6000
M106 S255
G1 X73.896 Y21.652 F180
M106 S0
M106 S255
G1 X71.628 Y20.517 F180
M106 S0
G0 X74.121 Y20.752 F6000
M106 S255
G1 X74.121 Y20.752 F180
M106 S0
M106 S255
G1 X71.892 Y19.602 F180
M106 S0
G0 X74.34 Y19.878 F6000
M106 S255
G1 X74.34 Y19.878 F180
M106 S0
M106 S255
G1 X72.201 Y18.534 F180
M106 S0
G0 X63.785 Y47.664 F6000
M106 S255
G1 X63.785 Y47.664 F180
M106 S0
M106 S255
G1 X72.22 Y18.469 F180
M106 S0
G0 X63.836 Y47.772 F6000
M106 S255
G1 X63.836 Y47.772 F180
M106 S0
M106 S255
G1 X67.691 Y46.443 F180
M106 S0
G0 X64.221 Y46.153 F6000
M106 S255
G1 X64.221 Y46.153 F180
M106 S0
M106 S255
G1 X68.09 Y45.057 F180
M106 S0
M106 S255
G1 X64.855 Y43.96 F180
M106 S0
G0 X64.56 Y44.979 F6000
M106 S255
G1 X64.56 Y44.979 F180
M106 S0
M106 S255
G1 X68.254 Y44.195 F180
M106 S0
G0 X64.872 Y43.9 F6000
M106 S255
G1 X64.872 Y43.9 F180
M106 S0
M106 S255
G1 X68.564 Y43.122 F180
M106 S0
M106 S255
G1 X65.358 Y42.218 F180
M106 S0
G0 X65.375 Y42.162 F6000
M106 S255
G1 X65.375 Y42.162 F180
M106 S0
M106 S255
G1 X68.966 Y41.206 F180
M106 S0
M106 S255
G1 X66.007 Y39.972 F180
M106 S0
G0 X65.719 Y40.97 F6000
M106 S255
G1 X65.719 Y40.97 F180
M106 S0
M106 S255
G1 X69.258 Y40.183 F180
M106 S0
G0 X66.029 Y39.896 F6000
M106 S255
G1 X66.029 Y39.896 F180
M106 S0
M106 S255
G1 X69.604 Y38.98 F180
M106 S0
M106 S255
G1 X66.618 Y37.859 F180
M106 S0
G0 X66.364 Y38.737 F6000
M106 S255
G1 X66.364 Y38.737 F180
M106 S0
M106 S255
G1 X69.803 Y38.005 F180
M106 S0
G0 X66.631 Y37.812 F6000
M106 S255
G1 X66.631 Y37.812 F180
M106 S0
M106 S255
G1 X70.06 Y37.136 F180
M106 S0
M106 S255
G1 X67.123 Y36.11 F180
M106 S0
G0 X66.933 Y36.767 F6000
M106 S255
G1 X66.933 Y36.767 F180
M106 S0
M106 S255
G1 X70.21 Y36.379 F180
M106 S0
G0 X67.137 Y36.06 F6000
M106 S255
G1 X67.137 Y36.06 F180
M106 S0
M106 S255
G1 X70.429 Y35.502 F180
M106 S0
G0 X67.352 Y35.316 F6000
M106 S255
G1 X67.352 Y35.316 F180
M106 S0
M106 S255
G1 X70.616 Y34.755 F180
M106 S0
G0 X67.624 Y34.377 F6000
M106 S255
G1 X67.624 Y34.377 F180
M106 S0
M106 S255
G1 X70.859 Y33.784 F180
M106 S0
G0 X67.925 Y33.336 F6000
M106 S255
G1 X67.925 Y33.336 F180
M106 S0
M106 S255
G1 X71.047 Y33.033 F180
M106 S0
G0 X68.174 Y32.472 F6000
M106 S255
G1 X68.174 Y32.472 F180
M106 S0
M106 S255
G1 X71.292 Y32.054 F180
M106 S0
G0 X68.399 Y31.695 F6000
M106 S255
G1 X68.399 Y31.695 F180
M106 S0
M106 S255
G1 X71.501 Y31.222 F180
M106 S0
G0 X68.645 Y30.841 F6000
M106 S255
G1 X68.645 Y30.841 F180
M106 S0
M106 S255
G1 X71.73 Y30.306 F180
M106 S0
G0 X68.946 Y29.799 F6000
M106 S255
G1 X68.946 Y29.799 F180
M106 S0
M106 S255
G1 X71.993 Y29.254 F180
M106 S0
G0 X69.466 Y27.999 F6000
M106 S255
G1 X69.466 Y27.999 F180
M106 S0
M106 S255
G1 X72.456 Y27.404 F180
M106 S0
G0 X69.799 Y26.847 F6000
M106 S255
G1 X69.799 Y26.847 F180
M106 S0
M106 S255
G1 X72.732 Y26.301 F180
M106 S0
G0 X70.111 Y25.769 F6000
M106 S255
G1 X70.111 Y25.769 F180
M106 S0
M106 S255
G1 X72.972 Y25.343 F180
M106 S0
G0 X70.371 Y24.87 F6000
M106 S255
G1 X70.371 Y24.87 F180
M106 S0
M106 S255
G1 X73.223 Y24.342 F180
M106 S0
G0 X70.679 Y23.802 F6000
M106 S255
G1 X70.679 Y23.802 F180
M106 S0
M106 S255
G1 X73.421 Y23.551 F180
M106 S0
G0 X70.897 Y23.05 F6000
M106 S255
G1 X70.897 Y23.05 F180
M106 S0
M106 S255
G1 X73.658 Y22.6 F180
M106 S0
G0 X71.122 Y22.269 F6000
M106 S255
G1 X71.122 Y22.269 F180
M106 S0
M106 S255
G1 X73.876 Y21.731 F180
M106 S0
G0 X71.423 Y21.227 F6000
M106 S255
G1 X71.423 Y21.227 F180
M106 S0
M106 S255
G1 X74.119 Y20.761 F180
M106 S0
G0 X71.645 Y20.459 F6000
M106 S255
G1 X71.645 Y20.459 F180
M106 S0
M106 S255
G1 X74.32 Y19.958 F180
M106 S0
G0 X71.923 Y19.496 F6000
M106 S255
G1 X71.923 Y19.496 F180
M106 S0
M106 S255
G1 X74.56 Y18.999 F180
M106 S0
G0 X64.902 Y51.235 F6000
M106 S255
G1 X64.902 Y51.235 F180
M106 S0
M106 S255
G1 X66.396 Y50.53 F180
M106 S0
G0 X64.701 Y50.265 F6000
M106 S255
G1 X64.701 Y50.265 F180
M106 S0
M106 S255
G1 X66.691 Y49.56 F180
M106 S0
G0 X47.658 Y33.002 F6000
M106 S255
G1 X47.658 Y33.002 F180
M106 S0
M106 S255
G1 X66.693 Y34.362 F180
M106 S0
M106 S255
G1 X66.8 Y37.229 F180
M106 S0
G0 X66.693 Y34.362 F6000
M106 S255
G1 X66.693 Y34.362 F180
M106 S0
M106 S255
G1 X66.825 Y33.701 F180
M106 S0
M106 S255
G1 X47.779 Y32.152 F180
M106 S0
G0 X66.631 Y37.812 F6000
M106 S255
G1 X66.631 Y37.812 F180
M106 S0
M106 S255
G1 X56.618 Y38.849 F180
M106 S0
G0 X60.459 Y33.917 F6000
M106 S255
G1 X60.459 Y33.917 F180
M106 S0
M106 S255
G1 X60.672 Y38.429 F180
M106 S0
G0 X59.916 Y33.878 F6000
M106 S255
G1 X59.916 Y33.878 F180
M106 S0
M106 S255
G1 X60.196 Y38.478 F180
M106 S0
G0 X53.682 Y33.432 F6000
M106 S255
G1 X53.682 Y33.432 F180
M106 S0
M106 S255
G1 X54.064 Y36.835 F180
M106 S0
G0 X53.158 Y33.395 F6000
M106 S255
G1 X53.158 Y33.395 F180
M106 S0
M106 S255
G1 X53.537 Y36.466 F180
M106 S0
G0 X53.675 Y33.432 F6000
M106 S255
G1 X53.675 Y33.432 F180
M106 S0
M106 S255
G1 X60.185 Y38.479 F180
M106 S0
G0 X55.728 Y38.102 F6000
M106 S255
G1 X55.728 Y38.102 F180
M106 S0
M106 S255
G1 X59.92 Y33.93 F180
M106 S0
G0 X61.132 Y38.381 F6000
M106 S255
G1 X61.132 Y38.381 F180
M106 S0
M106 S255
G1 X66.423 Y34.223 F180
M106 S0
G0 X60.607 Y33.927 F6000
M106 S255
G1 X60.607 Y33.927 F180
M106 S0
M106 S255
G1 X66.336 Y37.842 F180
M106 S0
G0 X53.164 Y33.395 F6000
M106 S255
G1 X53.164 Y33.395 F180
M106 S0
M106 S255
G1 X51.701 Y35.281 F180
M106 S0
G0 X60.154 Y33.895 F6000
M106 S255
G1 X60.154 Y33.895 F180
M106 S0
M106 S255
G1 X60.825 Y33.213 F180
M106 S0
G0 X53.522 Y33.421 F6000
M106 S255
G1 X53.522 Y33.421 F180
M106 S0
M106 S255
G1 X54.322 Y32.684 F180
M106 S0
G0 X66.825 Y33.701 F6000
M106 S255
G1 X66.825 Y33.701 F180
M106 S0
M106 S255
G1 X66.832 Y33.893 F180
M106 S0
G0 X66.795 Y34.235 F6000
M106 S255
G1 X66.795 Y34.235 F180
M106 S0
M106 S255
G1 X67.666 Y34.231 F180
M106 S0
G0 X66.804 Y33.894 F6000
M106 S255
G1 X66.804 Y33.894 F180
M106 S0
M106 S255
G1 X67.767 Y33.88 F180
M106 S0
G0 X66.844 Y34.235 F6000
M106 S255
G1 X66.844 Y34.235 F180
M106 S0
M106 S255
G1 X66.933 Y36.767 F180
M106 S0
G0 X40.097 Y115.883 F6000
M106 S255
G1 X40.097 Y115.883 F180
M106 S0
M106 S255
G1 X39.81 Y114.259 F180
M106 S0
M106 S255
G1 X40.754 Y112.442 F180
M106 S0
G0 X41.188 Y112.758 F6000
M106 S255
G1 X41.188 Y112.758 F180
M106 S0
M106 S255
G1 X40.601 Y112.736 F180
M106 S0
G0 X40.911 Y113.552 F6000
M106 S255
G1 X40.911 Y113.552 F180
M106 S0
M106 S255
G1 X40.177 Y113.552 F180
M106 S0
G0 X94.912 Y0.621 F6000
M106 S255
G1 X94.912 Y0.621 F180
M106 S0
M106 S255
G1 X94.912 Y0.836 F180
M106 S0
M106 S255
G1 X95.613 Y0.836 F180
M106 S0
M106 S255
G1 X95.678 Y1.784 F180
M106 S0
M106 S255
G1 X95.535 Y2.148 F180
M106 S0
M106 S255
G1 X94.496 Y2.187 F180
M106 S0
M106 S255
G1 X94.483 Y2.434 F180
M106 S0
M106 S255
G1 X95.639 Y2.421 F180
M106 S0
M106 S255
G1 X95.639 Y4.136 F180
M106 S0
M106 S255
G1 X95.483 Y4.136 F180
M106 S0
M106 S255
G1 X95.483 Y4.552 F180
M106 S0
M106 S255
G1 X95.652 Y4.773 F180
M106 S0
M106 S255
G1 X95.652 Y5.085 F180
M106 S0
M106 S255
G1 X95.522 Y5.085 F180
M106 S0
M106 S255
G1 X95.522 Y5.786 F180
M106 S0
M106 S255
G1 X94.574 Y5.786 F180
M106 S0
M106 S255
G1 X94.574 Y6.033 F180
M106 S0
M106 S255
G1 X93.925 Y6.033 F180
M106 S0
M106 S255
G1 X93.925 Y6.501 F180
M106 S0
M106 S255
G1 X95.47 Y6.501 F180
M106 S0
M106 S255
G1 X95.47 Y7.099 F180
M106 S0
M106 S255
G1 X95.548 Y7.099 F180
M106 S0
M106 S255
G1 X95.548 Y7.943 F180
M106 S0
M106 S255
G1 X95.327 Y7.943 F180
M106 S0
M106 S255
G1 X95.327 Y8.255 F180
M106 S0
M106 S255
G1 X94.86 Y8.255 F180
M106 S0
M106 S255
G1 X94.86 Y8.736 F180
M106 S0
M106 S255
G1 X95.158 Y8.97 F180
M106 S0
M106 S255
G1 X95.353 Y8.97 F180
M106 S0
M106 S255
G1 X95.522 Y9.463 F180
M106 S0
M106 S255
G1 X95.522 Y10.035 F180
M106 S0
M106 S255
G1 X95.522 Y10.295 F180
M106 S0
M106 S255
G1 X95.522 Y10.438 F180
M106 S0
M106 S255
G1 X95.522 Y11.113 F180
M106 S0
M106 S255
G1 X95.704 Y11.308 F180
M106 S0
M106 S255
G1 X95.561 Y11.763 F180
M106 S0
M106 S255
G1 X95.561 Y12.101 F180
M106 S0
M106 S255
G1 X95.249 Y12.322 F180
M106 S0
M106 S255
G1 X94.717 Y12.322 F180
M106 S0
M106 S255
G1 X94.717 Y12.595 F180
M106 S0
M106 S255
G1 X94.34 Y12.595 F180
M106 S0
M106 S255
G1 X94.34 Y16.622 F180
M106 S0
M106 S255
G1 X94.613 Y16.622 F180
M106 S0
M106 S255
G1 X94.613 Y17.337 F180
M106 S0
M106 S255
G1 X94.185 Y17.337 F180
M106 S0
M106 S255
G1 X94.185 Y17.714 F180
M106 S0
M106 S255
G1 X94.003 Y17.714 F180
M106 S0
M106 S255
G1 X94.003 Y17.974 F180
M106 S0
M106 S255
G1 X93.795 Y17.974 F180
M106 S0
M106 S255
G1 X93.795 Y18.675 F180
M106 S0
M106 S255
G1 X93.795 Y19.052 F180
M106 S0
M106 S255
G1 X94.678 Y19.052 F180
M106 S0
M106 S255
G1 X94.678 Y20.585 F180
M106 S0
M106 S255
G1 X94.434 Y20.585 F180
M106 S0
M106 S255
G1 X94.434 Y21.179 F180
M106 S0
M106 S255
G1 X94.739 Y21.179 F180
M106 S0
M106 S255
G1 X94.739 Y22.043 F180
M106 S0
M106 S255
G1 X93.685 Y22.043 F180
M106 S0
M106 S255
G1 X93.685 Y22.669 F180
M106 S0
M106 S255
G1 X94.747 Y22.669 F180
M106 S0
M106 S255
G1 X94.747 Y22.817 F180
M106 S0
M106 S255
G1 X94.804 Y22.817 F180
M106 S0
M106 S255
G1 X94.804 Y23.221 F180
M106 S0
M106 S255
G1 X94.591 Y23.221 F180
M106 S0
M106 S255
G1 X94.591 Y23.427 F180
M106 S0
M106 S255
G1 X94.879 Y23.427 F180
M106 S0
M106 S255
G1 X94.879 Y25.098 F180
M106 S0
M106 S255
G1 X94.961 Y25.098 F180
M106 S0
M106 S255
G1 X94.961 Y25.839 F180
M106 S0
M106 S255
G1 X94.813 Y25.839 F180
M106 S0
M106 S255
G1 X94.813 Y26.193 F180
M106 S0
M106 S255
G1 X94.558 Y26.193 F180
M106 S0
M106 S255
G1 X94.558 Y26.309 F180
M106 S0
M106 S255
G1 X94.747 Y26.309 F180
M106 S0
M106 S255
G1 X94.747 Y27.313 F180
M106 S0
M106 S255
G1 X93.825 Y27.313 F180
M106 S0
M106 S255
G1 X93.825 Y28.801 F180
M106 S0
M106 S255
G1 X94.048 Y28.801 F180
M106 S0
M106 S255
G1 X94.048 Y30.153 F180
M106 S0
M106 S255
G1 X94.3 Y30.153 F180
M106 S0
M106 S255
G1 X94.3 Y30.923 F180
M106 S0
M106 S255
G1 X95.122 Y30.923 F180
M106 S0
M106 S255
G1 X95.122 Y32.448 F180
M106 S0
M106 S255
G1 X94.711 Y32.448 F180
M106 S0
M106 S255
G1 X94.711 Y32.7 F180
M106 S0
M106 S255
G1 X95.122 Y32.7 F180
M106 S0
M106 S255
G1 X95.122 Y32.978 F180
M106 S0
M106 S255
G1 X94.698 Y32.978 F180
M106 S0
M106 S255
G1 X94.698 Y33.403 F180
M106 S0
M106 S255
G1 X95.201 Y33.403 F180
M106 S0
M106 S255
G1 X95.201 Y33.628 F180
M106 S0
M106 S255
G1 X94.737 Y33.628 F180
M106 S0
M106 S255
G1 X94.737 Y33.907 F180
M106 S0
M106 S255
G1 X95.095 Y33.907 F180
M106 S0
M106 S255
G1 X95.095 Y35.538 F180
M106 S0
M106 S255
G1 X94.406 Y35.538 F180
M106 S0
M106 S255
G1 X93.372 Y35.538 F180
M106 S0
M106 S255
G1 X92.869 Y35.538 F180
M106 S0
M106 S255
G1 X92.71 Y35.79 F180
M106 S0
M106 S255
G1 X92.71 Y36.122 F180
M106 S0
M106 S255
G1 X93.333 Y36.122 F180
M106 S0
M106 S255
G1 X93.333 Y36.506 F180
M106 S0
M106 S255
G1 X92.723 Y36.506 F180
M106 S0
M106 S255
G1 X92.723 Y37.541 F180
M106 S0
M106 S255
G1 X92.979 Y37.541 F180
M106 S0
M106 S255
G1 X92.979 Y38.554 F180
M106 S0
M106 S255
G1 X93.1 Y38.554 F180
M106 S0
M106 S255
G1 X93.1 Y39.411 F180
M106 S0
M106 S255
G1 X93.1 Y39.773 F180
M106 S0
M106 S255
G1 X92.805 Y39.773 F180
M106 S0
M106 S255
G1 X92.805 Y40.309 F180
M106 S0
M106 S255
G1 X93.14 Y40.309 F180
M106 S0
M106 S255
G1 X93.14 Y41.086 F180
M106 S0
M106 S255
G1 X93.14 Y41.609 F180
M106 S0
M106 S255
G1 X93.502 Y41.609 F180
M106 S0
M106 S255
G1 X93.502 Y42.252 F180
M106 S0
M106 S255
G1 X95.149 Y42.252 F180
M106 S0
M106 S255
G1 X95.149 Y41.984 F180
M106 S0
M106 S255
G1 X95.631 Y41.984 F180
M106 S0
M106 S255
G1 X95.631 Y42.306 F180
M106 S0
M106 S255
G1 X97.318 Y42.306 F180
M106 S0
M106 S255
G1 X97.318 Y42.534 F180
M106 S0
M106 S255
G1 X95.992 Y42.534 F180
M106 S0
M106 S255
G1 X95.992 Y43.19 F180
M106 S0
M106 S255
G1 X95.992 Y43.338 F180
M106 S0
M106 S255
G1 X96.702 Y43.338 F180
M106 S0
M106 S255
G1 X96.89 Y43.338 F180
M106 S0
M106 S255
G1 X97.131 Y43.619 F180
M106 S0
M106 S255
G1 X97.318 Y43.927 F180
M106 S0
M106 S255
G1 X97.466 Y44.182 F180
M106 S0
M106 S255
G1 X98.416 Y44.182 F180
M106 S0
M106 S255
G1 X98.416 Y44.637 F180
M106 S0
M106 S255
G1 X97.519 Y44.637 F180
M106 S0
M106 S255
G1 X97.519 Y44.999 F180
M106 S0
M106 S255
G1 X97.198 Y45.374 F180
M106 S0
M106 S255
G1 X96.809 Y45.656 F180
M106 S0
M106 S255
G1 X95.992 Y45.656 F180
M106 S0
M106 S255
G1 X95.992 Y46.607 F180
M106 S0
M106 S255
G1 X96.875 Y46.607 F180
M106 S0
M106 S255
G1 X97.245 Y46.817 F180
M106 S0
M106 S255
G1 X97.438 Y47.195 F180
M106 S0
M106 S255
G1 X97.531 Y47.464 F180
M106 S0
M106 S255
G1 X99.253 Y47.649 F180
M106 S0
M106 S255
G1 X97.523 Y47.968 F180
M106 S0
M106 S255
G1 X97.38 Y48.515 F180
M106 S0
M106 S255
G1 X97.187 Y48.792 F180
M106 S0
M106 S255
G1 X96.675 Y48.792 F180
M106 S0
M106 S255
G1 X96.381 Y48.792 F180
M106 S0
M106 S255
G1 X96.381 Y49.414 F180
M106 S0
M106 S255
G1 X97.523 Y49.414 F180
M106 S0
M106 S255
G1 X97.523 Y50.086 F180
M106 S0
M106 S255
G1 X92.342 Y50.086 F180
M106 S0
M106 S255
G1 X92.342 Y50.464 F180
M106 S0
M106 S255
G1 X92.342 Y50.83 F180
M106 S0
M106 S255
G1 X92.041 Y51.217 F180
M106 S0
M106 S255
G1 X92.041 Y56.874 F180
M106 S0
M106 S255
G1 X95.889 Y56.874 F180
M106 S0
M106 S255
G1 X95.889 Y57.24 F180
M106 S0
M106 S255
G1 X96.405 Y57.24 F180
M106 S0
M106 S255
G1 X96.773 Y57.016 F180
M106 S0
M106 S255
G1 X97.425 Y57.016 F180
M106 S0
M106 S255
G1 X97.425 Y57.388 F180
M106 S0
M106 S255
G1 X98.685 Y57.388 F180
M106 S0
M106 S255
G1 X99.111 Y57.694 F180
M106 S0
M106 S255
G1 X100.271 Y57.814 F180
M106 S0
M106 S255
G1 X99.096 Y58.07 F180
M106 S0
M106 S255
G1 X98.704 Y58.385 F180
M106 S0
M106 S255
G1 X97.427 Y58.385 F180
M106 S0
M106 S255
G1 X97.427 Y58.666 F180
M106 S0
M106 S255
G1 X96.865 Y58.666 F180
M106 S0
M106 S255
G1 X96.447 Y58.504 F180
M106 S0
M106 S255
G1 X96.03 Y58.504 F180
M106 S0
M106 S255
G1 X96.03 Y58.786 F180
M106 S0
M106 S255
G1 X92.124 Y58.786 F180
M106 S0
M106 S255
G1 X92.124 Y60.442 F180
M106 S0
M106 S255
G1 X92.411 Y61.523 F180
M106 S0
M106 S255
G1 X92.714 Y62.328 F180
M106 S0
M106 S255
G1 X92.714 Y65.853 F180
M106 S0
M106 S255
G1 X93.771 Y65.853 F180
M106 S0
M106 S255
G1 X93.771 Y66.118 F180
M106 S0
M106 S255
G1 X94.3 Y66.404 F180
M106 S0
M106 S255
G1 X94.525 Y66.836 F180
M106 S0
M106 S255
G1 X95.304 Y66.836 F180
M106 S0
M106 S255
G1 X95.304 Y67.634 F180
M106 S0
M106 S255
G1 X94.507 Y67.634 F180
M106 S0
M106 S255
G1 X94.273 Y67.972 F180
M106 S0
M106 S255
G1 X93.823 Y68.345 F180
M106 S0
M106 S255
G1 X92.783 Y68.345 F180
M106 S0
M106 S255
G1 X92.23 Y68.988 F180
M106 S0
M106 S255
G1 X92.23 Y75.977 F180
M106 S0
M106 S255
G1 X91.371 Y78.349 F180
M106 S0
M106 S255
G1 X91.371 Y80.157 F180
M106 S0
M106 S255
G1 X92.673 Y80.725 F180
M106 S0
M106 S255
G1 X92.673 Y80.975 F180
M106 S0
M106 S255
G1 X92.451 Y80.975 F180
M106 S0
M106 S255
G1 X92.991 Y81.71 F180
M106 S0
M106 S255
G1 X92.991 Y82.986 F180
M106 S0
M106 S255
G1 X91.883 Y83.638 F180
M106 S0
M106 S255
G1 X91.883 Y85.634 F180
M106 S0
G0 X91.883 Y85.634 F6000
M106 S255
G1 X91.883 Y85.634 F180
M106 S0
M106 S255
G1 X91.883 Y85.872 F180
M106 S0
M106 S255
G1 X92.34 Y85.872 F180
M106 S0
M106 S255
G1 X92.014 Y86.392 F180
M106 S0
M106 S255
G1 X93.008 Y86.392 F180
M106 S0
M106 S255
G1 X93.008 Y86.659 F180
M106 S0
M106 S255
G1 X92.029 Y86.659 F180
M106 S0
M106 S255
G1 X91.791 Y87.639 F180
M106 S0
M106 S255
G1 X91.791 Y91.248 F180
M106 S0
M106 S255
G1 X92.474 Y91.605 F180
M106 S0
M106 S255
G1 X92.474 Y92.629 F180
M106 S0
M106 S255
G1 X92.875 Y92.629 F180
M106 S0
M106 S255
G1 X92.875 Y92.971 F180
M106 S0
M106 S255
G1 X92.489 Y92.971 F180
M106 S0
M106 S255
G1 X92.058 Y93.298 F180
M106 S0
M106 S255
G1 X92.058 Y94.189 F180
M106 S0
M106 S255
G1 X91.524 Y94.189 F180
M106 S0
M106 S255
G1 X91.524 Y94.423 F180
M106 S0
M106 S255
G1 X92.959 Y94.423 F180
M106 S0
M106 S255
G1 X92.959 Y94.594 F180
M106 S0
M106 S255
G1 X92.508 Y94.594 F180
M106 S0
M106 S255
G1 X92.508 Y94.822 F180
M106 S0
M106 S255
G1 X93.058 Y95.166 F180
M106 S0
M106 S255
G1 X93.817 Y95.315 F180
M106 S0
M106 S255
G1 X93.03 Y95.472 F180
M106 S0
M106 S255
G1 X92.498 Y95.919 F180
M106 S0
M106 S255
G1 X92.498 Y96.08 F180
M106 S0
M106 S255
G1 X93.042 Y96.08 F180
M106 S0
M106 S255
G1 X93.042 Y96.262 F180
M106 S0
M106 S255
G1 X91.623 Y96.262 F180
M106 S0
M106 S255
G1 X91.623 Y97.71 F180
M106 S0
M106 S255
G1 X92.446 Y97.71 F180
M106 S0
M106 S255
G1 X92.446 Y98.227 F180
M106 S0
M106 S255
G1 X93.011 Y98.61 F180
M106 S0
M106 S255
G1 X93.681 Y98.715 F180
M106 S0
M106 S255
G1 X93.039 Y98.869 F180
M106 S0
M106 S255
G1 X92.398 Y99.424 F180
M106 S0
M106 S255
G1 X92.398 Y99.52 F180
M106 S0
M106 S255
G1 X92.848 Y99.52 F180
M106 S0
M106 S255
G1 X92.848 Y99.644 F180
M106 S0
M106 S255
G1 X92.016 Y99.644 F180
M106 S0
M106 S255
G1 X92.016 Y100.078 F180
M106 S0
M106 S255
G1 X91.345 Y100.834 F180
M106 S0
M106 S255
G1 X90.78 Y102.347 F180
M106 S0
M106 S255
G1 X90.377 Y102.347 F180
M106 S0
M106 S255
G1 X90.377 Y104.781 F180
M106 S0
M106 S255
G1 X89.947 Y104.781 F180
M106 S0
M106 S255
G1 X89.947 Y105.719 F180
M106 S0
M106 S255
G1 X91.191 Y105.719 F180
M106 S0
M106 S255
G1 X91.191 Y105.996 F180
M106 S0
M106 S255
G1 X92.366 Y106.301 F180
M106 S0
M106 S255
G1 X91.152 Y107.061 F180
M106 S0
M106 S255
G1 X91.152 Y107.17 F180
M106 S0
M106 S255
G1 X89.958 Y107.17 F180
M106 S0
M106 S255
G1 X89.958 Y107.831 F180
M106 S0
M106 S255
G1 X90.432 Y107.831 F180
M106 S0
M106 S255
G1 X90.432 Y108.246 F180
M106 S0
M106 S255
G1 X89.889 Y108.246 F180
M106 S0
M106 S255
G1 X89.889 Y109.49 F180
M106 S0
M106 S255
G1 X90.57 Y109.49 F180
M106 S0
M106 S255
G1 X90.57 Y109.955 F180
M106 S0
M106 S255
G1 X89.781 Y109.955 F180
M106 S0
M106 S255
G1 X89.781 Y111.677 F180
M106 S0
M106 S255
G1 X90.422 Y111.677 F180
M106 S0
M106 S255
G1 X90.422 Y112.971 F180
M106 S0
M106 S255
G1 X89.672 Y112.971 F180
M106 S0
M106 S255
G1 X88.902 Y114.679 F180
M106 S0
M106 S255
G1 X90.589 Y114.679 F180
M106 S0
M106 S255
G1 X90.589 Y115.39 F180
M106 S0
M106 S255
G1 X90.816 Y115.39 F180
M106 S0
M106 S255
G1 X90.816 Y116.131 F180
M106 S0
M106 S255
G1 X91.093 Y116.131 F180
M106 S0
M106 S255
G1 X91.093 Y116.368 F180
M106 S0
M106 S255
G1 X91.685 Y116.368 F180
M106 S0
M106 S255
G1 X91.685 Y117.177 F180
M106 S0
M106 S255
G1 X91.033 Y117.177 F180
M106 S0
M106 S255
G1 X91.033 Y117.375 F180
M106 S0
M106 S255
G1 X90.382 Y117.375 F180
M106 S0
M106 S255
G1 X90.382 Y118.086 F180
M106 S0
M106 S255
G1 X89.02 Y118.086 F180
M106 S0
G0 X89.02 Y118.086 F6000
M106 S255
G1 X89.02 Y118.086 F180
M106 S0
