;GCode generated by Numa's program v0.0
G0 X3.051 Y5.264 F6000
M106 S255
G1 X3.051 Y5.264 F380
M106 S0
M106 S255
G1 X3.051 Y6.042 F380
M106 S0
M106 S255
G1 X7.748 Y6.042 F380
M106 S0
M106 S255
G1 X12.444 Y6.042 F380
M106 S0
M106 S255
G1 X12.444 Y5.264 F380
M106 S0
M106 S255
G1 X7.748 Y5.264 F380
M106 S0
M106 S255
G1 X3.051 Y5.264 F380
M106 S0
G0 X8.569 Y8.426 F6000
M106 S255
G1 X8.569 Y8.426 F380
M106 S0
M106 S255
G1 X8.645 Y8.408 F380
M106 S0
M106 S255
G1 X8.769 Y8.38 F380
M106 S0
M106 S255
G1 X8.893 Y8.353 F380
M106 S0
M106 S255
G1 X9.017 Y8.329 F380
M106 S0
M106 S255
G1 X9.141 Y8.307 F380
M106 S0
M106 S255
G1 X9.266 Y8.289 F380
M106 S0
M106 S255
G1 X9.391 Y8.275 F380
M106 S0
M106 S255
G1 X9.466 Y8.27 F380
M106 S0
M106 S255
G1 X9.642 Y8.265 F380
M106 S0
M106 S255
G1 X9.768 Y8.268 F380
M106 S0
M106 S255
G1 X9.895 Y8.276 F380
M106 S0
M106 S255
G1 X10.021 Y8.29 F380
M106 S0
M106 S255
G1 X10.146 Y8.308 F380
M106 S0
M106 S255
G1 X10.272 Y8.331 F380
M106 S0
M106 S255
G1 X10.396 Y8.358 F380
M106 S0
M106 S255
G1 X10.52 Y8.389 F380
M106 S0
M106 S255
G1 X10.633 Y8.421 F380
M106 S0
M106 S255
G1 X10.766 Y8.462 F380
M106 S0
M106 S255
G1 X10.887 Y8.505 F380
M106 S0
M106 S255
G1 X11.006 Y8.55 F380
M106 S0
M106 S255
G1 X11.124 Y8.6 F380
M106 S0
M106 S255
G1 X11.241 Y8.653 F380
M106 S0
M106 S255
G1 X11.355 Y8.709 F380
M106 S0
M106 S255
G1 X11.468 Y8.769 F380
M106 S0
M106 S255
G1 X11.579 Y8.832 F380
M106 S0
M106 S255
G1 X11.688 Y8.899 F380
M106 S0
M106 S255
G1 X11.794 Y8.969 F380
M106 S0
M106 S255
G1 X11.898 Y9.043 F380
M106 S0
M106 S255
G1 X11.999 Y9.12 F380
M106 S0
M106 S255
G1 X12.098 Y9.201 F380
M106 S0
M106 S255
G1 X12.193 Y9.285 F380
M106 S0
M106 S255
G1 X12.286 Y9.372 F380
M106 S0
M106 S255
G1 X12.337 Y9.424 F380
M106 S0
M106 S255
G1 X12.462 Y9.557 F380
M106 S0
M106 S255
G1 X12.544 Y9.654 F380
M106 S0
M106 S255
G1 X12.624 Y9.754 F380
M106 S0
M106 S255
G1 X12.699 Y9.857 F380
M106 S0
M106 S255
G1 X12.771 Y9.963 F380
M106 S0
M106 S255
G1 X12.839 Y10.071 F380
M106 S0
M106 S255
G1 X12.903 Y10.181 F380
M106 S0
M106 S255
G1 X12.962 Y10.294 F380
M106 S0
M106 S255
G1 X13.018 Y10.408 F380
M106 S0
M106 S255
G1 X13.069 Y10.525 F380
M106 S0
M106 S255
G1 X13.115 Y10.643 F380
M106 S0
M106 S255
G1 X13.155 Y10.755 F380
M106 S0
M106 S255
G1 X13.194 Y10.883 F380
M106 S0
M106 S255
G1 X13.227 Y11.006 F380
M106 S0
M106 S255
G1 X13.255 Y11.129 F380
M106 S0
M106 S255
G1 X13.278 Y11.253 F380
M106 S0
M106 S255
G1 X13.293 Y11.348 F380
M106 S0
M106 S255
G1 X13.311 Y11.504 F380
M106 S0
M106 S255
G1 X13.321 Y11.63 F380
M106 S0
M106 S255
G1 X13.326 Y11.757 F380
M106 S0
M106 S255
G1 X13.325 Y11.884 F380
M106 S0
M106 S255
G1 X13.318 Y12.01 F380
M106 S0
M106 S255
G1 X13.306 Y12.137 F380
M106 S0
M106 S255
G1 X13.293 Y12.226 F380
M106 S0
M106 S255
G1 X13.261 Y12.387 F380
M106 S0
M106 S255
G1 X13.228 Y12.511 F380
M106 S0
M106 S255
G1 X13.188 Y12.632 F380
M106 S0
M106 S255
G1 X13.14 Y12.75 F380
M106 S0
M106 S255
G1 X13.085 Y12.864 F380
M106 S0
M106 S255
G1 X12.997 Y13.009 F380
M106 S0
M106 S255
G1 X12.948 Y13.078 F380
M106 S0
M106 S255
G1 X12.867 Y13.176 F380
M106 S0
M106 S255
G1 X12.778 Y13.268 F380
M106 S0
M106 S255
G1 X12.682 Y13.352 F380
M106 S0
M106 S255
G1 X12.58 Y13.427 F380
M106 S0
M106 S255
G1 X12.489 Y13.484 F380
M106 S0
M106 S255
G1 X12.358 Y13.551 F380
M106 S0
M106 S255
G1 X12.24 Y13.598 F380
M106 S0
M106 S255
G1 X12.118 Y13.636 F380
M106 S0
M106 S255
G1 X11.995 Y13.664 F380
M106 S0
M106 S255
G1 X11.877 Y13.683 F380
M106 S0
M106 S255
G1 X11.743 Y13.696 F380
M106 S0
M106 S255
G1 X11.617 Y13.699 F380
M106 S0
M106 S255
G1 X11.49 Y13.695 F380
M106 S0
M106 S255
G1 X11.355 Y13.683 F380
M106 S0
M106 S255
G1 X11.238 Y13.667 F380
M106 S0
M106 S255
G1 X11.113 Y13.642 F380
M106 S0
M106 S255
G1 X10.991 Y13.61 F380
M106 S0
M106 S255
G1 X10.868 Y13.567 F380
M106 S0
M106 S255
G1 X10.757 Y13.517 F380
M106 S0
M106 S255
G1 X10.646 Y13.457 F380
M106 S0
M106 S255
G1 X10.539 Y13.389 F380
M106 S0
M106 S255
G1 X10.437 Y13.314 F380
M106 S0
M106 S255
G1 X10.338 Y13.232 F380
M106 S0
M106 S255
G1 X10.242 Y13.147 F380
M106 S0
M106 S255
G1 X10.126 Y13.031 F380
M106 S0
M106 S255
G1 X10.063 Y12.964 F380
M106 S0
M106 S255
G1 X9.979 Y12.869 F380
M106 S0
M106 S255
G1 X9.898 Y12.771 F380
M106 S0
M106 S255
G1 X9.82 Y12.672 F380
M106 S0
M106 S255
G1 X9.745 Y12.57 F380
M106 S0
M106 S255
G1 X9.673 Y12.466 F380
M106 S0
M106 S255
G1 X9.604 Y12.361 F380
M106 S0
M106 S255
G1 X9.556 Y12.283 F380
M106 S0
M106 S255
G1 X9.474 Y12.145 F380
M106 S0
M106 S255
G1 X9.413 Y12.035 F380
M106 S0
M106 S255
G1 X9.354 Y11.923 F380
M106 S0
M106 S255
G1 X9.297 Y11.81 F380
M106 S0
M106 S255
G1 X9.242 Y11.696 F380
M106 S0
M106 S255
G1 X9.165 Y11.528 F380
M106 S0
M106 S255
G1 X9.137 Y11.465 F380
M106 S0
M106 S255
G1 X9.087 Y11.348 F380
M106 S0
M106 S255
G1 X9.039 Y11.23 F380
M106 S0
M106 S255
G1 X8.993 Y11.111 F380
M106 S0
M106 S255
G1 X8.95 Y10.992 F380
M106 S0
M106 S255
G1 X8.909 Y10.873 F380
M106 S0
M106 S255
G1 X8.862 Y10.723 F380
M106 S0
M106 S255
G1 X8.837 Y10.636 F380
M106 S0
M106 S255
G1 X8.805 Y10.518 F380
M106 S0
M106 S255
G1 X8.775 Y10.399 F380
M106 S0
M106 S255
G1 X8.748 Y10.279 F380
M106 S0
M106 S255
G1 X8.723 Y10.156 F380
M106 S0
M106 S255
G1 X8.7 Y10.032 F380
M106 S0
M106 S255
G1 X8.677 Y9.903 F380
M106 S0
M106 S255
G1 X8.649 Y9.728 F380
M106 S0
M106 S255
G1 X8.635 Y9.635 F380
M106 S0
M106 S255
G1 X8.615 Y9.496 F380
M106 S0
M106 S255
G1 X8.596 Y9.357 F380
M106 S0
M106 S255
G1 X8.578 Y9.22 F380
M106 S0
M106 S255
G1 X8.562 Y9.088 F380
M106 S0
M106 S255
G1 X8.548 Y8.964 F380
M106 S0
M106 S255
G1 X8.537 Y8.851 F380
M106 S0
M106 S255
G1 X8.525 Y8.712 F380
M106 S0
M106 S255
G1 X8.523 Y8.665 F380
M106 S0
M106 S255
G1 X8.52 Y8.595 F380
M106 S0
M106 S255
G1 X8.519 Y8.536 F380
M106 S0
M106 S255
G1 X8.519 Y8.485 F380
M106 S0
M106 S255
G1 X8.569 Y8.426 F380
M106 S0
G0 X7.748 Y4.742 F6000
M106 S255
G1 X7.748 Y4.742 F380
M106 S0
M106 S255
G1 X3.051 Y4.742 F380
M106 S0
M106 S255
G1 X3.051 Y3.907 F380
M106 S0
M106 S255
G1 X3.255 Y3.885 F380
M106 S0
M106 S255
G1 X3.458 Y3.864 F380
M106 S0
M106 S255
G1 X3.662 Y3.842 F380
M106 S0
M106 S255
G1 X3.866 Y3.821 F380
M106 S0
M106 S255
G1 X4.069 Y3.799 F380
M106 S0
M106 S255
G1 X4.273 Y3.778 F380
M106 S0
M106 S255
G1 X4.477 Y3.756 F380
M106 S0
M106 S255
G1 X4.681 Y3.735 F380
M106 S0
M106 S255
G1 X4.884 Y3.715 F380
M106 S0
M106 S255
G1 X5.088 Y3.696 F380
M106 S0
M106 S255
G1 X5.292 Y3.678 F380
M106 S0
M106 S255
G1 X5.496 Y3.662 F380
M106 S0
M106 S255
G1 X5.701 Y3.648 F380
M106 S0
M106 S255
G1 X5.905 Y3.636 F380
M106 S0
M106 S255
G1 X6.109 Y3.627 F380
M106 S0
M106 S255
G1 X6.314 Y3.621 F380
M106 S0
M106 S255
G1 X6.519 Y3.618 F380
M106 S0
M106 S255
G1 X6.723 Y3.617 F380
M106 S0
M106 S255
G1 X6.928 Y3.617 F380
M106 S0
M106 S255
G1 X7.133 Y3.619 F380
M106 S0
M106 S255
G1 X7.338 Y3.622 F380
M106 S0
M106 S255
G1 X7.543 Y3.626 F380
M106 S0
M106 S255
G1 X7.748 Y3.63 F380
M106 S0
M106 S255
G1 X7.952 Y3.626 F380
M106 S0
M106 S255
G1 X8.157 Y3.622 F380
M106 S0
M106 S255
G1 X8.362 Y3.619 F380
M106 S0
M106 S255
G1 X8.567 Y3.617 F380
M106 S0
M106 S255
G1 X8.772 Y3.617 F380
M106 S0
M106 S255
G1 X8.976 Y3.618 F380
M106 S0
M106 S255
G1 X9.181 Y3.621 F380
M106 S0
M106 S255
G1 X9.386 Y3.627 F380
M106 S0
M106 S255
G1 X9.59 Y3.636 F380
M106 S0
M106 S255
G1 X9.794 Y3.648 F380
M106 S0
M106 S255
G1 X9.999 Y3.662 F380
M106 S0
M106 S255
G1 X10.203 Y3.678 F380
M106 S0
M106 S255
G1 X10.407 Y3.696 F380
M106 S0
M106 S255
G1 X10.611 Y3.715 F380
M106 S0
M106 S255
G1 X10.814 Y3.735 F380
M106 S0
M106 S255
G1 X11.018 Y3.756 F380
M106 S0
M106 S255
G1 X11.222 Y3.778 F380
M106 S0
M106 S255
G1 X11.426 Y3.799 F380
M106 S0
M106 S255
G1 X11.629 Y3.821 F380
M106 S0
M106 S255
G1 X11.833 Y3.842 F380
M106 S0
M106 S255
G1 X12.037 Y3.864 F380
M106 S0
M106 S255
G1 X12.24 Y3.885 F380
M106 S0
M106 S255
G1 X12.444 Y3.907 F380
M106 S0
M106 S255
G1 X12.444 Y4.742 F380
M106 S0
M106 S255
G1 X7.748 Y4.742 F380
M106 S0
G0 X7.748 Y6.587 F6000
M106 S255
G1 X7.748 Y6.587 F380
M106 S0
M106 S255
G1 X12.444 Y6.587 F380
M106 S0
M106 S255
G1 X12.444 Y7.542 F380
M106 S0
M106 S255
G1 X12.168 Y7.551 F380
M106 S0
M106 S255
G1 X11.891 Y7.56 F380
M106 S0
M106 S255
G1 X11.615 Y7.568 F380
M106 S0
M106 S255
G1 X11.339 Y7.577 F380
M106 S0
M106 S255
G1 X11.063 Y7.586 F380
M106 S0
M106 S255
G1 X10.786 Y7.594 F380
M106 S0
M106 S255
G1 X10.51 Y7.603 F380
M106 S0
M106 S255
G1 X10.234 Y7.611 F380
M106 S0
M106 S255
G1 X9.958 Y7.62 F380
M106 S0
M106 S255
G1 X9.681 Y7.628 F380
M106 S0
M106 S255
G1 X9.405 Y7.636 F380
M106 S0
M106 S255
G1 X9.129 Y7.644 F380
M106 S0
M106 S255
G1 X8.853 Y7.652 F380
M106 S0
M106 S255
G1 X8.576 Y7.66 F380
M106 S0
M106 S255
G1 X8.3 Y7.668 F380
M106 S0
M106 S255
G1 X8.024 Y7.676 F380
M106 S0
M106 S255
G1 X7.748 Y7.684 F380
M106 S0
M106 S255
G1 X7.471 Y7.676 F380
M106 S0
M106 S255
G1 X7.195 Y7.668 F380
M106 S0
M106 S255
G1 X6.919 Y7.66 F380
M106 S0
M106 S255
G1 X6.642 Y7.652 F380
M106 S0
M106 S255
G1 X6.366 Y7.644 F380
M106 S0
M106 S255
G1 X6.09 Y7.636 F380
M106 S0
M106 S255
G1 X5.814 Y7.628 F380
M106 S0
M106 S255
G1 X5.537 Y7.62 F380
M106 S0
M106 S255
G1 X5.261 Y7.611 F380
M106 S0
M106 S255
G1 X4.985 Y7.603 F380
M106 S0
M106 S255
G1 X4.709 Y7.594 F380
M106 S0
M106 S255
G1 X4.432 Y7.586 F380
M106 S0
M106 S255
G1 X4.156 Y7.577 F380
M106 S0
M106 S255
G1 X3.88 Y7.568 F380
M106 S0
M106 S255
G1 X3.604 Y7.56 F380
M106 S0
M106 S255
G1 X3.328 Y7.551 F380
M106 S0
M106 S255
G1 X3.051 Y7.542 F380
M106 S0
M106 S255
G1 X3.051 Y6.587 F380
M106 S0
M106 S255
G1 X7.748 Y6.587 F380
M106 S0
G0 X7.748 Y8.8 F6000
M106 S255
G1 X7.748 Y8.8 F380
M106 S0
M106 S255
G1 X7.779 Y8.91 F380
M106 S0
M106 S255
G1 X7.808 Y9.02 F380
M106 S0
M106 S255
G1 X7.835 Y9.131 F380
M106 S0
M106 S255
G1 X7.86 Y9.243 F380
M106 S0
M106 S255
G1 X7.883 Y9.355 F380
M106 S0
M106 S255
G1 X7.905 Y9.467 F380
M106 S0
M106 S255
G1 X7.925 Y9.579 F380
M106 S0
M106 S255
G1 X7.945 Y9.692 F380
M106 S0
M106 S255
G1 X7.965 Y9.805 F380
M106 S0
M106 S255
G1 X7.985 Y9.918 F380
M106 S0
M106 S255
G1 X8.005 Y10.031 F380
M106 S0
M106 S255
G1 X8.026 Y10.143 F380
M106 S0
M106 S255
G1 X8.048 Y10.255 F380
M106 S0
M106 S255
G1 X8.071 Y10.368 F380
M106 S0
M106 S255
G1 X8.094 Y10.48 F380
M106 S0
M106 S255
G1 X8.118 Y10.592 F380
M106 S0
M106 S255
G1 X8.141 Y10.704 F380
M106 S0
M106 S255
G1 X8.165 Y10.816 F380
M106 S0
M106 S255
G1 X8.188 Y10.928 F380
M106 S0
M106 S255
G1 X8.21 Y11.04 F380
M106 S0
M106 S255
G1 X8.231 Y11.152 F380
M106 S0
M106 S255
G1 X8.251 Y11.265 F380
M106 S0
M106 S255
G1 X8.27 Y11.378 F380
M106 S0
M106 S255
G1 X8.288 Y11.491 F380
M106 S0
M106 S255
G1 X8.305 Y11.604 F380
M106 S0
M106 S255
G1 X8.32 Y11.717 F380
M106 S0
M106 S255
G1 X8.334 Y11.831 F380
M106 S0
M106 S255
G1 X8.346 Y11.945 F380
M106 S0
M106 S255
G1 X8.357 Y12.06 F380
M106 S0
M106 S255
G1 X8.365 Y12.174 F380
M106 S0
M106 S255
G1 X8.372 Y12.289 F380
M106 S0
M106 S255
G1 X8.377 Y12.404 F380
M106 S0
M106 S255
G1 X8.38 Y12.519 F380
M106 S0
M106 S255
G1 X8.381 Y12.634 F380
M106 S0
M106 S255
G1 X8.379 Y12.749 F380
M106 S0
M106 S255
G1 X8.375 Y12.863 F380
M106 S0
M106 S255
G1 X8.369 Y12.978 F380
M106 S0
M106 S255
G1 X8.36 Y13.092 F380
M106 S0
M106 S255
G1 X8.348 Y13.205 F380
M106 S0
M106 S255
G1 X8.334 Y13.318 F380
M106 S0
M106 S255
G1 X8.317 Y13.431 F380
M106 S0
M106 S255
G1 X8.298 Y13.544 F380
M106 S0
M106 S255
G1 X8.277 Y13.656 F380
M106 S0
M106 S255
G1 X8.254 Y13.768 F380
M106 S0
M106 S255
G1 X8.231 Y13.881 F380
M106 S0
M106 S255
G1 X8.207 Y13.994 F380
M106 S0
M106 S255
G1 X8.182 Y14.107 F380
M106 S0
M106 S255
G1 X8.155 Y14.22 F380
M106 S0
M106 S255
G1 X8.126 Y14.331 F380
M106 S0
M106 S255
G1 X8.093 Y14.442 F380
M106 S0
M106 S255
G1 X8.056 Y14.55 F380
M106 S0
M106 S255
G1 X8.014 Y14.656 F380
M106 S0
M106 S255
G1 X7.965 Y14.758 F380
M106 S0
M106 S255
G1 X7.91 Y14.857 F380
M106 S0
M106 S255
G1 X7.848 Y14.953 F380
M106 S0
M106 S255
G1 X7.782 Y15.046 F380
M106 S0
M106 S255
G1 X7.713 Y15.046 F380
M106 S0
M106 S255
G1 X7.647 Y14.953 F380
M106 S0
M106 S255
G1 X7.585 Y14.857 F380
M106 S0
M106 S255
G1 X7.53 Y14.758 F380
M106 S0
M106 S255
G1 X7.482 Y14.656 F380
M106 S0
M106 S255
G1 X7.439 Y14.55 F380
M106 S0
M106 S255
G1 X7.402 Y14.442 F380
M106 S0
M106 S255
G1 X7.369 Y14.331 F380
M106 S0
M106 S255
G1 X7.34 Y14.22 F380
M106 S0
M106 S255
G1 X7.313 Y14.107 F380
M106 S0
M106 S255
G1 X7.288 Y13.994 F380
M106 S0
M106 S255
G1 X7.264 Y13.881 F380
M106 S0
M106 S255
G1 X7.241 Y13.768 F380
M106 S0
M106 S255
G1 X7.219 Y13.656 F380
M106 S0
M106 S255
G1 X7.197 Y13.544 F380
M106 S0
M106 S255
G1 X7.178 Y13.431 F380
M106 S0
M106 S255
G1 X7.161 Y13.318 F380
M106 S0
M106 S255
G1 X7.147 Y13.205 F380
M106 S0
M106 S255
G1 X7.135 Y13.092 F380
M106 S0
M106 S255
G1 X7.126 Y12.978 F380
M106 S0
M106 S255
G1 X7.12 Y12.863 F380
M106 S0
M106 S255
G1 X7.116 Y12.749 F380
M106 S0
M106 S255
G1 X7.114 Y12.634 F380
M106 S0
M106 S255
G1 X7.115 Y12.519 F380
M106 S0
M106 S255
G1 X7.118 Y12.404 F380
M106 S0
M106 S255
G1 X7.123 Y12.289 F380
M106 S0
M106 S255
G1 X7.13 Y12.174 F380
M106 S0
M106 S255
G1 X7.138 Y12.06 F380
M106 S0
M106 S255
G1 X7.149 Y11.945 F380
M106 S0
M106 S255
G1 X7.161 Y11.831 F380
M106 S0
M106 S255
G1 X7.175 Y11.717 F380
M106 S0
M106 S255
G1 X7.19 Y11.604 F380
M106 S0
M106 S255
G1 X7.207 Y11.491 F380
M106 S0
M106 S255
G1 X7.225 Y11.378 F380
M106 S0
M106 S255
G1 X7.244 Y11.265 F380
M106 S0
M106 S255
G1 X7.264 Y11.152 F380
M106 S0
M106 S255
G1 X7.285 Y11.04 F380
M106 S0
M106 S255
G1 X7.307 Y10.928 F380
M106 S0
M106 S255
G1 X7.33 Y10.816 F380
M106 S0
M106 S255
G1 X7.354 Y10.704 F380
M106 S0
M106 S255
G1 X7.377 Y10.592 F380
M106 S0
M106 S255
G1 X7.401 Y10.48 F380
M106 S0
M106 S255
G1 X7.424 Y10.368 F380
M106 S0
M106 S255
G1 X7.447 Y10.255 F380
M106 S0
M106 S255
G1 X7.469 Y10.143 F380
M106 S0
M106 S255
G1 X7.49 Y10.031 F380
M106 S0
M106 S255
G1 X7.51 Y9.918 F380
M106 S0
M106 S255
G1 X7.53 Y9.805 F380
M106 S0
M106 S255
G1 X7.55 Y9.692 F380
M106 S0
M106 S255
G1 X7.57 Y9.579 F380
M106 S0
M106 S255
G1 X7.59 Y9.467 F380
M106 S0
M106 S255
G1 X7.612 Y9.355 F380
M106 S0
M106 S255
G1 X7.635 Y9.243 F380
M106 S0
M106 S255
G1 X7.66 Y9.131 F380
M106 S0
M106 S255
G1 X7.687 Y9.02 F380
M106 S0
M106 S255
G1 X7.716 Y8.91 F380
M106 S0
M106 S255
G1 X7.748 Y8.8 F380
M106 S0
G0 X6.926 Y8.426 F6000
M106 S255
G1 X6.926 Y8.426 F380
M106 S0
M106 S255
G1 X6.85 Y8.408 F380
M106 S0
M106 S255
G1 X6.726 Y8.38 F380
M106 S0
M106 S255
G1 X6.602 Y8.353 F380
M106 S0
M106 S255
G1 X6.478 Y8.329 F380
M106 S0
M106 S255
G1 X6.354 Y8.307 F380
M106 S0
M106 S255
G1 X6.229 Y8.289 F380
M106 S0
M106 S255
G1 X6.104 Y8.275 F380
M106 S0
M106 S255
G1 X6.029 Y8.27 F380
M106 S0
M106 S255
G1 X5.853 Y8.265 F380
M106 S0
M106 S255
G1 X5.727 Y8.268 F380
M106 S0
M106 S255
G1 X5.6 Y8.276 F380
M106 S0
M106 S255
G1 X5.474 Y8.29 F380
M106 S0
M106 S255
G1 X5.349 Y8.308 F380
M106 S0
M106 S255
G1 X5.223 Y8.331 F380
M106 S0
M106 S255
G1 X5.099 Y8.358 F380
M106 S0
M106 S255
G1 X4.975 Y8.389 F380
M106 S0
M106 S255
G1 X4.862 Y8.421 F380
M106 S0
M106 S255
G1 X4.729 Y8.462 F380
M106 S0
M106 S255
G1 X4.608 Y8.505 F380
M106 S0
M106 S255
G1 X4.489 Y8.55 F380
M106 S0
M106 S255
G1 X4.371 Y8.6 F380
M106 S0
M106 S255
G1 X4.254 Y8.653 F380
M106 S0
M106 S255
G1 X4.14 Y8.709 F380
M106 S0
M106 S255
G1 X4.027 Y8.769 F380
M106 S0
M106 S255
G1 X3.916 Y8.832 F380
M106 S0
M106 S255
G1 X3.807 Y8.899 F380
M106 S0
M106 S255
G1 X3.701 Y8.969 F380
M106 S0
M106 S255
G1 X3.597 Y9.043 F380
M106 S0
M106 S255
G1 X3.496 Y9.12 F380
M106 S0
M106 S255
G1 X3.397 Y9.201 F380
M106 S0
M106 S255
G1 X3.302 Y9.285 F380
M106 S0
M106 S255
G1 X3.209 Y9.372 F380
M106 S0
M106 S255
G1 X3.158 Y9.424 F380
M106 S0
M106 S255
G1 X3.033 Y9.557 F380
M106 S0
M106 S255
G1 X2.951 Y9.654 F380
M106 S0
M106 S255
G1 X2.872 Y9.754 F380
M106 S0
M106 S255
G1 X2.796 Y9.857 F380
M106 S0
M106 S255
G1 X2.724 Y9.963 F380
M106 S0
M106 S255
G1 X2.656 Y10.071 F380
M106 S0
M106 S255
G1 X2.592 Y10.181 F380
M106 S0
M106 S255
G1 X2.533 Y10.294 F380
M106 S0
M106 S255
G1 X2.477 Y10.408 F380
M106 S0
M106 S255
G1 X2.426 Y10.525 F380
M106 S0
M106 S255
G1 X2.38 Y10.643 F380
M106 S0
M106 S255
G1 X2.34 Y10.755 F380
M106 S0
M106 S255
G1 X2.301 Y10.883 F380
M106 S0
M106 S255
G1 X2.268 Y11.006 F380
M106 S0
M106 S255
G1 X2.24 Y11.129 F380
M106 S0
M106 S255
G1 X2.217 Y11.253 F380
M106 S0
M106 S255
G1 X2.202 Y11.348 F380
M106 S0
M106 S255
G1 X2.184 Y11.504 F380
M106 S0
M106 S255
G1 X2.174 Y11.63 F380
M106 S0
M106 S255
G1 X2.169 Y11.757 F380
M106 S0
M106 S255
G1 X2.17 Y11.884 F380
M106 S0
M106 S255
G1 X2.177 Y12.01 F380
M106 S0
M106 S255
G1 X2.19 Y12.137 F380
M106 S0
M106 S255
G1 X2.202 Y12.226 F380
M106 S0
M106 S255
G1 X2.234 Y12.387 F380
M106 S0
M106 S255
G1 X2.267 Y12.511 F380
M106 S0
M106 S255
G1 X2.307 Y12.632 F380
M106 S0
M106 S255
G1 X2.355 Y12.75 F380
M106 S0
M106 S255
G1 X2.41 Y12.864 F380
M106 S0
M106 S255
G1 X2.498 Y13.009 F380
M106 S0
M106 S255
G1 X2.547 Y13.078 F380
M106 S0
M106 S255
G1 X2.628 Y13.176 F380
M106 S0
M106 S255
G1 X2.717 Y13.268 F380
M106 S0
M106 S255
G1 X2.813 Y13.352 F380
M106 S0
M106 S255
G1 X2.915 Y13.427 F380
M106 S0
M106 S255
G1 X3.006 Y13.484 F380
M106 S0
M106 S255
G1 X3.137 Y13.551 F380
M106 S0
M106 S255
G1 X3.255 Y13.598 F380
M106 S0
M106 S255
G1 X3.377 Y13.636 F380
M106 S0
M106 S255
G1 X3.501 Y13.664 F380
M106 S0
M106 S255
G1 X3.618 Y13.683 F380
M106 S0
M106 S255
G1 X3.752 Y13.696 F380
M106 S0
M106 S255
G1 X3.878 Y13.699 F380
M106 S0
M106 S255
G1 X4.005 Y13.695 F380
M106 S0
M106 S255
G1 X4.14 Y13.683 F380
M106 S0
M106 S255
G1 X4.257 Y13.667 F380
M106 S0
M106 S255
G1 X4.382 Y13.642 F380
M106 S0
M106 S255
G1 X4.504 Y13.61 F380
M106 S0
M106 S255
G1 X4.627 Y13.567 F380
M106 S0
M106 S255
G1 X4.738 Y13.517 F380
M106 S0
M106 S255
G1 X4.849 Y13.457 F380
M106 S0
M106 S255
G1 X4.956 Y13.389 F380
M106 S0
M106 S255
G1 X5.059 Y13.314 F380
M106 S0
M106 S255
G1 X5.157 Y13.232 F380
M106 S0
M106 S255
G1 X5.253 Y13.147 F380
M106 S0
M106 S255
G1 X5.369 Y13.031 F380
M106 S0
M106 S255
G1 X5.432 Y12.964 F380
M106 S0
M106 S255
G1 X5.516 Y12.869 F380
M106 S0
M106 S255
G1 X5.597 Y12.771 F380
M106 S0
M106 S255
G1 X5.675 Y12.672 F380
M106 S0
M106 S255
G1 X5.75 Y12.57 F380
M106 S0
M106 S255
G1 X5.822 Y12.466 F380
M106 S0
M106 S255
G1 X5.891 Y12.361 F380
M106 S0
M106 S255
G1 X5.939 Y12.283 F380
M106 S0
M106 S255
G1 X6.021 Y12.145 F380
M106 S0
M106 S255
G1 X6.082 Y12.035 F380
M106 S0
M106 S255
G1 X6.141 Y11.923 F380
M106 S0
M106 S255
G1 X6.198 Y11.81 F380
M106 S0
M106 S255
G1 X6.253 Y11.696 F380
M106 S0
M106 S255
G1 X6.33 Y11.528 F380
M106 S0
M106 S255
G1 X6.358 Y11.465 F380
M106 S0
M106 S255
G1 X6.408 Y11.348 F380
M106 S0
M106 S255
G1 X6.456 Y11.23 F380
M106 S0
M106 S255
G1 X6.502 Y11.111 F380
M106 S0
M106 S255
G1 X6.545 Y10.992 F380
M106 S0
M106 S255
G1 X6.586 Y10.873 F380
M106 S0
M106 S255
G1 X6.633 Y10.723 F380
M106 S0
M106 S255
G1 X6.658 Y10.636 F380
M106 S0
M106 S255
G1 X6.69 Y10.518 F380
M106 S0
M106 S255
G1 X6.72 Y10.399 F380
M106 S0
M106 S255
G1 X6.747 Y10.279 F380
M106 S0
M106 S255
G1 X6.772 Y10.156 F380
M106 S0
M106 S255
G1 X6.795 Y10.032 F380
M106 S0
M106 S255
G1 X6.818 Y9.903 F380
M106 S0
M106 S255
G1 X6.846 Y9.728 F380
M106 S0
M106 S255
G1 X6.86 Y9.635 F380
M106 S0
M106 S255
G1 X6.88 Y9.496 F380
M106 S0
M106 S255
G1 X6.899 Y9.357 F380
M106 S0
M106 S255
G1 X6.917 Y9.22 F380
M106 S0
M106 S255
G1 X6.933 Y9.088 F380
M106 S0
M106 S255
G1 X6.947 Y8.964 F380
M106 S0
M106 S255
G1 X6.958 Y8.851 F380
M106 S0
M106 S255
G1 X6.97 Y8.712 F380
M106 S0
M106 S255
G1 X6.973 Y8.665 F380
M106 S0
M106 S255
G1 X6.975 Y8.595 F380
M106 S0
M106 S255
G1 X6.976 Y8.536 F380
M106 S0
M106 S255
G1 X6.976 Y8.485 F380
M106 S0
M106 S255
G1 X6.926 Y8.426 F380
M106 S0
G0 X5.723 Y29.219 F6000
M106 S255
G1 X5.723 Y29.219 F380
M106 S0
M106 S255
G1 X7.538 Y29.219 F380
M106 S0
G0 X5.706 Y27.079 F6000
M106 S255
G1 X5.706 Y27.079 F380
M106 S0
M106 S255
G1 X7.538 Y27.079 F380
M106 S0
G0 X6.349 Y26.033 F6000
M106 S255
G1 X6.349 Y26.033 F380
M106 S0
M106 S255
G1 X7.538 Y26.033 F380
M106 S0
G0 X5.715 Y22.566 F6000
M106 S255
G1 X5.715 Y22.566 F380
M106 S0
M106 S255
G1 X7.538 Y22.566 F380
M106 S0
G0 X4.685 Y21.54 F6000
M106 S255
G1 X4.685 Y21.54 F380
M106 S0
M106 S255
G1 X7.538 Y21.54 F380
M106 S0
G0 X9.354 Y29.219 F6000
M106 S255
G1 X9.354 Y29.219 F380
M106 S0
M106 S255
G1 X7.538 Y29.219 F380
M106 S0
G0 X9.371 Y27.079 F6000
M106 S255
G1 X9.371 Y27.079 F380
M106 S0
M106 S255
G1 X7.538 Y27.079 F380
M106 S0
G0 X8.728 Y26.033 F6000
M106 S255
G1 X8.728 Y26.033 F380
M106 S0
M106 S255
G1 X7.538 Y26.033 F380
M106 S0
G0 X9.361 Y22.566 F6000
M106 S255
G1 X9.361 Y22.566 F380
M106 S0
M106 S255
G1 X7.538 Y22.566 F380
M106 S0
G0 X10.392 Y21.54 F6000
M106 S255
G1 X10.392 Y21.54 F380
M106 S0
M106 S255
G1 X7.538 Y21.54 F380
M106 S0
G0 X4.966 Y48.258 F6000
M106 S255
G1 X4.966 Y48.258 F380
M106 S0
M106 S255
G1 X6.781 Y48.258 F380
M106 S0
G0 X4.949 Y46.117 F6000
M106 S255
G1 X4.949 Y46.117 F380
M106 S0
M106 S255
G1 X6.781 Y46.117 F380
M106 S0
G0 X5.592 Y45.071 F6000
M106 S255
G1 X5.592 Y45.071 F380
M106 S0
M106 S255
G1 X6.781 Y45.071 F380
M106 S0
G0 X4.958 Y41.604 F6000
M106 S255
G1 X4.958 Y41.604 F380
M106 S0
M106 S255
G1 X6.781 Y41.604 F380
M106 S0
G0 X3.928 Y40.579 F6000
M106 S255
G1 X3.928 Y40.579 F380
M106 S0
M106 S255
G1 X6.781 Y40.579 F380
M106 S0
G0 X8.596 Y48.258 F6000
M106 S255
G1 X8.596 Y48.258 F380
M106 S0
M106 S255
G1 X6.781 Y48.258 F380
M106 S0
G0 X8.614 Y46.117 F6000
M106 S255
G1 X8.614 Y46.117 F380
M106 S0
M106 S255
G1 X6.781 Y46.117 F380
M106 S0
G0 X7.971 Y45.071 F6000
M106 S255
G1 X7.971 Y45.071 F380
M106 S0
M106 S255
G1 X6.781 Y45.071 F380
M106 S0
G0 X8.604 Y41.604 F6000
M106 S255
G1 X8.604 Y41.604 F380
M106 S0
M106 S255
G1 X6.781 Y41.604 F380
M106 S0
G0 X9.635 Y40.579 F6000
M106 S255
G1 X9.635 Y40.579 F380
M106 S0
M106 S255
G1 X6.781 Y40.579 F380
M106 S0
M106 S0
