;GCode generated by Numa's program v0.0
G0 X13.149 Y8.102 F6000
M106 S255
G1 X13.149 Y8.102 F50
M106 S0
M106 S255
G1 X13.149 Y3.294 F50
M106 S0
M106 S255
G1 X12.915 Y3.272 F50
M106 S0
M106 S255
G1 X12.68 Y3.25 F50
M106 S0
M106 S255
G1 X12.446 Y3.228 F50
M106 S0
M106 S255
G1 X12.211 Y3.205 F50
M106 S0
M106 S255
G1 X11.977 Y3.183 F50
M106 S0
M106 S255
G1 X11.742 Y3.16 F50
M106 S0
M106 S255
G1 X11.508 Y3.136 F50
M106 S0
M106 S255
G1 X11.273 Y3.113 F50
M106 S0
M106 S255
G1 X11.089 Y3.094 F50
M106 S0
M106 S255
G1 X10.804 Y3.064 F50
M106 S0
M106 S255
G1 X10.57 Y3.039 F50
M106 S0
M106 S255
G1 X10.335 Y3.015 F50
M106 S0
M106 S255
G1 X10.1 Y2.992 F50
M106 S0
M106 S255
G1 X9.866 Y2.971 F50
M106 S0
M106 S255
G1 X9.631 Y2.952 F50
M106 S0
M106 S255
G1 X9.396 Y2.935 F50
M106 S0
M106 S255
G1 X9.161 Y2.922 F50
M106 S0
M106 S255
G1 X8.941 Y2.914 F50
M106 S0
M106 S255
G1 X8.69 Y2.908 F50
M106 S0
M106 S255
G1 X8.455 Y2.907 F50
M106 S0
M106 S255
G1 X8.219 Y2.907 F50
M106 S0
M106 S255
G1 X7.983 Y2.91 F50
M106 S0
M106 S255
G1 X7.748 Y2.914 F50
M106 S0
M106 S255
G1 X7.512 Y2.91 F50
M106 S0
M106 S255
G1 X7.276 Y2.907 F50
M106 S0
M106 S255
G1 X7.04 Y2.907 F50
M106 S0
M106 S255
G1 X6.805 Y2.908 F50
M106 S0
M106 S255
G1 X6.554 Y2.914 F50
M106 S0
M106 S255
G1 X6.334 Y2.922 F50
M106 S0
M106 S255
G1 X6.099 Y2.935 F50
M106 S0
M106 S255
G1 X5.864 Y2.952 F50
M106 S0
M106 S255
G1 X5.629 Y2.971 F50
M106 S0
M106 S255
G1 X5.395 Y2.992 F50
M106 S0
M106 S255
G1 X5.16 Y3.015 F50
M106 S0
M106 S255
G1 X4.925 Y3.039 F50
M106 S0
M106 S255
G1 X4.691 Y3.064 F50
M106 S0
M106 S255
G1 X4.406 Y3.094 F50
M106 S0
M106 S255
G1 X4.222 Y3.113 F50
M106 S0
M106 S255
G1 X3.987 Y3.136 F50
M106 S0
M106 S255
G1 X3.753 Y3.16 F50
M106 S0
M106 S255
G1 X3.518 Y3.183 F50
M106 S0
M106 S255
G1 X3.284 Y3.205 F50
M106 S0
M106 S255
G1 X3.049 Y3.228 F50
M106 S0
M106 S255
G1 X2.815 Y3.25 F50
M106 S0
M106 S255
G1 X2.58 Y3.272 F50
M106 S0
M106 S255
G1 X2.346 Y3.294 F50
M106 S0
M106 S255
G1 X2.346 Y8.102 F50
M106 S0
M106 S255
G1 X2.435 Y8.108 F50
M106 S0
M106 S255
G1 X2.524 Y8.114 F50
M106 S0
M106 S255
G1 X2.613 Y8.12 F50
M106 S0
M106 S255
G1 X2.702 Y8.126 F50
M106 S0
M106 S255
G1 X2.791 Y8.132 F50
M106 S0
M106 S255
G1 X2.88 Y8.138 F50
M106 S0
M106 S255
G1 X2.969 Y8.144 F50
M106 S0
M106 S255
G1 X3.058 Y8.149 F50
M106 S0
M106 S255
G1 X3.147 Y8.155 F50
M106 S0
M106 S255
G1 X3.236 Y8.16 F50
M106 S0
M106 S255
G1 X3.325 Y8.164 F50
M106 S0
M106 S255
G1 X3.414 Y8.169 F50
M106 S0
M106 S255
G1 X3.503 Y8.173 F50
M106 S0
M106 S255
G1 X3.593 Y8.177 F50
M106 S0
M106 S255
G1 X3.682 Y8.18 F50
M106 S0
M106 S255
G1 X3.771 Y8.183 F50
M106 S0
M106 S255
G1 X3.86 Y8.186 F50
M106 S0
M106 S255
G1 X3.696 Y8.259 F50
M106 S0
M106 S255
G1 X3.535 Y8.335 F50
M106 S0
M106 S255
G1 X3.376 Y8.415 F50
M106 S0
M106 S255
G1 X3.22 Y8.501 F50
M106 S0
M106 S255
G1 X3.068 Y8.595 F50
M106 S0
M106 S255
G1 X2.922 Y8.696 F50
M106 S0
M106 S255
G1 X2.78 Y8.806 F50
M106 S0
M106 S255
G1 X2.644 Y8.924 F50
M106 S0
M106 S255
G1 X2.514 Y9.05 F50
M106 S0
M106 S255
G1 X2.391 Y9.183 F50
M106 S0
M106 S255
G1 X2.274 Y9.322 F50
M106 S0
M106 S255
G1 X2.165 Y9.468 F50
M106 S0
M106 S255
G1 X2.063 Y9.618 F50
M106 S0
M106 S255
G1 X1.968 Y9.774 F50
M106 S0
M106 S255
G1 X1.882 Y9.933 F50
M106 S0
M106 S255
G1 X1.805 Y10.097 F50
M106 S0
M106 S255
G1 X1.736 Y10.263 F50
M106 S0
M106 S255
G1 X1.677 Y10.432 F50
M106 S0
M106 S255
G1 X1.626 Y10.604 F50
M106 S0
M106 S255
G1 X1.584 Y10.777 F50
M106 S0
M106 S255
G1 X1.549 Y10.952 F50
M106 S0
M106 S255
G1 X1.521 Y11.129 F50
M106 S0
M106 S255
G1 X1.5 Y11.307 F50
M106 S0
M106 S255
G1 X1.485 Y11.485 F50
M106 S0
M106 S255
G1 X1.475 Y11.665 F50
M106 S0
M106 S255
G1 X1.471 Y11.844 F50
M106 S0
M106 S255
G1 X1.474 Y12.023 F50
M106 S0
M106 S255
G1 X1.487 Y12.201 F50
M106 S0
M106 S255
G1 X1.511 Y12.378 F50
M106 S0
M106 S255
G1 X1.547 Y12.553 F50
M106 S0
M106 S255
G1 X1.598 Y12.725 F50
M106 S0
M106 S255
G1 X1.662 Y12.893 F50
M106 S0
M106 S255
G1 X1.74 Y13.055 F50
M106 S0
M106 S255
G1 X1.831 Y13.211 F50
M106 S0
M106 S255
G1 X1.934 Y13.358 F50
M106 S0
M106 S255
G1 X2.049 Y13.496 F50
M106 S0
M106 S255
G1 X2.174 Y13.623 F50
M106 S0
M106 S255
G1 X2.31 Y13.74 F50
M106 S0
M106 S255
G1 X2.454 Y13.847 F50
M106 S0
M106 S255
G1 X2.606 Y13.944 F50
M106 S0
M106 S255
G1 X2.765 Y14.03 F50
M106 S0
M106 S255
G1 X2.928 Y14.105 F50
M106 S0
M106 S255
G1 X3.097 Y14.17 F50
M106 S0
M106 S255
G1 X3.269 Y14.224 F50
M106 S0
M106 S255
G1 X3.443 Y14.266 F50
M106 S0
M106 S255
G1 X3.62 Y14.296 F50
M106 S0
M106 S255
G1 X3.798 Y14.313 F50
M106 S0
M106 S255
G1 X3.977 Y14.317 F50
M106 S0
M106 S255
G1 X4.156 Y14.306 F50
M106 S0
M106 S255
G1 X4.334 Y14.283 F50
M106 S0
M106 S255
G1 X4.51 Y14.247 F50
M106 S0
M106 S255
G1 X4.684 Y14.198 F50
M106 S0
M106 S255
G1 X4.855 Y14.139 F50
M106 S0
M106 S255
G1 X5.022 Y14.069 F50
M106 S0
M106 S255
G1 X5.184 Y13.988 F50
M106 S0
M106 S255
G1 X5.342 Y13.899 F50
M106 S0
M106 S255
G1 X5.494 Y13.8 F50
M106 S0
M106 S255
G1 X5.639 Y13.693 F50
M106 S0
M106 S255
G1 X5.777 Y13.578 F50
M106 S0
M106 S255
G1 X5.908 Y13.455 F50
M106 S0
M106 S255
G1 X6.032 Y13.325 F50
M106 S0
M106 S255
G1 X6.146 Y13.188 F50
M106 S0
M106 S255
G1 X6.252 Y13.045 F50
M106 S0
M106 S255
G1 X6.349 Y12.895 F50
M106 S0
M106 S255
G1 X6.44 Y12.742 F50
M106 S0
M106 S255
G1 X6.443 Y12.842 F50
M106 S0
M106 S255
G1 X6.447 Y12.943 F50
M106 S0
M106 S255
G1 X6.452 Y13.043 F50
M106 S0
M106 S255
G1 X6.457 Y13.143 F50
M106 S0
M106 S255
G1 X6.464 Y13.243 F50
M106 S0
M106 S255
G1 X6.473 Y13.343 F50
M106 S0
M106 S255
G1 X6.483 Y13.442 F50
M106 S0
M106 S255
G1 X6.496 Y13.542 F50
M106 S0
M106 S255
G1 X6.511 Y13.641 F50
M106 S0
M106 S255
G1 X6.527 Y13.74 F50
M106 S0
M106 S255
G1 X6.546 Y13.839 F50
M106 S0
M106 S255
G1 X6.567 Y13.938 F50
M106 S0
M106 S255
G1 X6.59 Y14.036 F50
M106 S0
M106 S255
G1 X6.615 Y14.133 F50
M106 S0
M106 S255
G1 X6.642 Y14.23 F50
M106 S0
M106 S255
G1 X6.672 Y14.326 F50
M106 S0
M106 S255
G1 X6.703 Y14.421 F50
M106 S0
M106 S255
G1 X6.737 Y14.516 F50
M106 S0
M106 S255
G1 X6.772 Y14.61 F50
M106 S0
M106 S255
G1 X6.809 Y14.703 F50
M106 S0
M106 S255
G1 X6.849 Y14.795 F50
M106 S0
M106 S255
G1 X6.89 Y14.886 F50
M106 S0
M106 S255
G1 X6.932 Y14.977 F50
M106 S0
M106 S255
G1 X6.976 Y15.067 F50
M106 S0
M106 S255
G1 X7.021 Y15.157 F50
M106 S0
M106 S255
G1 X7.067 Y15.246 F50
M106 S0
M106 S255
G1 X7.114 Y15.335 F50
M106 S0
M106 S255
G1 X7.161 Y15.424 F50
M106 S0
M106 S255
G1 X7.209 Y15.512 F50
M106 S0
M106 S255
G1 X7.257 Y15.601 F50
M106 S0
M106 S255
G1 X7.306 Y15.689 F50
M106 S0
M106 S255
G1 X7.357 Y15.775 F50
M106 S0
M106 S255
G1 X7.409 Y15.861 F50
M106 S0
M106 S255
G1 X7.464 Y15.944 F50
M106 S0
M106 S255
G1 X7.522 Y16.026 F50
M106 S0
M106 S255
G1 X7.583 Y16.105 F50
M106 S0
M106 S255
G1 X7.647 Y16.182 F50
M106 S0
M106 S255
G1 X7.714 Y16.257 F50
M106 S0
M106 S255
G1 X7.781 Y16.257 F50
M106 S0
M106 S255
G1 X7.848 Y16.182 F50
M106 S0
M106 S255
G1 X7.912 Y16.105 F50
M106 S0
M106 S255
G1 X7.973 Y16.026 F50
M106 S0
M106 S255
G1 X8.031 Y15.944 F50
M106 S0
M106 S255
G1 X8.086 Y15.861 F50
M106 S0
M106 S255
G1 X8.138 Y15.775 F50
M106 S0
M106 S255
G1 X8.189 Y15.689 F50
M106 S0
M106 S255
G1 X8.238 Y15.601 F50
M106 S0
M106 S255
G1 X8.286 Y15.512 F50
M106 S0
M106 S255
G1 X8.334 Y15.424 F50
M106 S0
M106 S255
G1 X8.381 Y15.335 F50
M106 S0
M106 S255
G1 X8.428 Y15.246 F50
M106 S0
M106 S255
G1 X8.474 Y15.157 F50
M106 S0
M106 S255
G1 X8.519 Y15.067 F50
M106 S0
M106 S255
G1 X8.563 Y14.977 F50
M106 S0
M106 S255
G1 X8.605 Y14.886 F50
M106 S0
M106 S255
G1 X8.646 Y14.795 F50
M106 S0
M106 S255
G1 X8.686 Y14.703 F50
M106 S0
M106 S255
G1 X8.723 Y14.61 F50
M106 S0
M106 S255
G1 X8.759 Y14.516 F50
M106 S0
M106 S255
G1 X8.792 Y14.421 F50
M106 S0
M106 S255
G1 X8.823 Y14.326 F50
M106 S0
M106 S255
G1 X8.853 Y14.23 F50
M106 S0
M106 S255
G1 X8.88 Y14.133 F50
M106 S0
M106 S255
G1 X8.905 Y14.036 F50
M106 S0
M106 S255
G1 X8.928 Y13.938 F50
M106 S0
M106 S255
G1 X8.949 Y13.839 F50
M106 S0
M106 S255
G1 X8.968 Y13.74 F50
M106 S0
M106 S255
G1 X8.985 Y13.641 F50
M106 S0
M106 S255
G1 X8.999 Y13.542 F50
M106 S0
M106 S255
G1 X9.012 Y13.442 F50
M106 S0
M106 S255
G1 X9.022 Y13.343 F50
M106 S0
M106 S255
G1 X9.031 Y13.243 F50
M106 S0
M106 S255
G1 X9.038 Y13.143 F50
M106 S0
M106 S255
G1 X9.043 Y13.043 F50
M106 S0
M106 S255
G1 X9.048 Y12.943 F50
M106 S0
M106 S255
G1 X9.052 Y12.842 F50
M106 S0
M106 S255
G1 X9.055 Y12.742 F50
M106 S0
M106 S255
G1 X9.146 Y12.895 F50
M106 S0
M106 S255
G1 X9.243 Y13.045 F50
M106 S0
M106 S255
G1 X9.349 Y13.188 F50
M106 S0
M106 S255
G1 X9.464 Y13.325 F50
M106 S0
M106 S255
G1 X9.587 Y13.455 F50
M106 S0
M106 S255
G1 X9.718 Y13.578 F50
M106 S0
M106 S255
G1 X9.856 Y13.693 F50
M106 S0
M106 S255
G1 X10.001 Y13.8 F50
M106 S0
M106 S255
G1 X10.153 Y13.899 F50
M106 S0
M106 S255
G1 X10.311 Y13.988 F50
M106 S0
M106 S255
G1 X10.473 Y14.069 F50
M106 S0
M106 S255
G1 X10.641 Y14.139 F50
M106 S0
M106 S255
G1 X10.811 Y14.198 F50
M106 S0
M106 S255
G1 X10.985 Y14.247 F50
M106 S0
M106 S255
G1 X11.162 Y14.283 F50
M106 S0
M106 S255
G1 X11.339 Y14.306 F50
M106 S0
M106 S255
G1 X11.518 Y14.317 F50
M106 S0
M106 S255
G1 X11.697 Y14.313 F50
M106 S0
M106 S255
G1 X11.875 Y14.296 F50
M106 S0
M106 S255
G1 X12.052 Y14.266 F50
M106 S0
M106 S255
G1 X12.227 Y14.224 F50
M106 S0
M106 S255
G1 X12.398 Y14.17 F50
M106 S0
M106 S255
G1 X12.567 Y14.105 F50
M106 S0
M106 S255
G1 X12.73 Y14.03 F50
M106 S0
M106 S255
G1 X12.889 Y13.944 F50
M106 S0
M106 S255
G1 X13.041 Y13.847 F50
M106 S0
M106 S255
G1 X13.185 Y13.74 F50
M106 S0
M106 S255
G1 X13.321 Y13.623 F50
M106 S0
M106 S255
G1 X13.446 Y13.496 F50
M106 S0
M106 S255
G1 X13.561 Y13.358 F50
M106 S0
M106 S255
G1 X13.664 Y13.211 F50
M106 S0
M106 S255
G1 X13.755 Y13.055 F50
M106 S0
M106 S255
G1 X13.833 Y12.893 F50
M106 S0
M106 S255
G1 X13.897 Y12.725 F50
M106 S0
M106 S255
G1 X13.948 Y12.553 F50
M106 S0
M106 S255
G1 X13.984 Y12.378 F50
M106 S0
M106 S255
G1 X14.008 Y12.201 F50
M106 S0
M106 S255
G1 X14.021 Y12.023 F50
M106 S0
M106 S255
G1 X14.024 Y11.844 F50
M106 S0
M106 S255
G1 X14.02 Y11.665 F50
M106 S0
M106 S255
G1 X14.01 Y11.485 F50
M106 S0
M106 S255
G1 X13.995 Y11.307 F50
M106 S0
M106 S255
G1 X13.974 Y11.129 F50
M106 S0
M106 S255
G1 X13.946 Y10.952 F50
M106 S0
M106 S255
G1 X13.911 Y10.777 F50
M106 S0
M106 S255
G1 X13.869 Y10.604 F50
M106 S0
M106 S255
G1 X13.818 Y10.432 F50
M106 S0
M106 S255
G1 X13.759 Y10.263 F50
M106 S0
M106 S255
G1 X13.69 Y10.097 F50
M106 S0
M106 S255
G1 X13.613 Y9.933 F50
M106 S0
M106 S255
G1 X13.527 Y9.774 F50
M106 S0
M106 S255
G1 X13.432 Y9.618 F50
M106 S0
M106 S255
G1 X13.33 Y9.468 F50
M106 S0
M106 S255
G1 X13.221 Y9.322 F50
M106 S0
M106 S255
G1 X13.104 Y9.183 F50
M106 S0
M106 S255
G1 X12.981 Y9.05 F50
M106 S0
M106 S255
G1 X12.851 Y8.924 F50
M106 S0
M106 S255
G1 X12.715 Y8.806 F50
M106 S0
M106 S255
G1 X12.574 Y8.696 F50
M106 S0
M106 S255
G1 X12.427 Y8.595 F50
M106 S0
M106 S255
G1 X12.275 Y8.501 F50
M106 S0
M106 S255
G1 X12.119 Y8.415 F50
M106 S0
M106 S255
G1 X11.96 Y8.335 F50
M106 S0
M106 S255
G1 X11.799 Y8.259 F50
M106 S0
M106 S255
G1 X11.635 Y8.186 F50
M106 S0
M106 S255
G1 X11.724 Y8.183 F50
M106 S0
M106 S255
G1 X11.813 Y8.18 F50
M106 S0
M106 S255
G1 X11.902 Y8.177 F50
M106 S0
M106 S255
G1 X11.992 Y8.173 F50
M106 S0
M106 S255
G1 X12.081 Y8.169 F50
M106 S0
M106 S255
G1 X12.17 Y8.164 F50
M106 S0
M106 S255
G1 X12.259 Y8.16 F50
M106 S0
M106 S255
G1 X12.348 Y8.155 F50
M106 S0
M106 S255
G1 X12.437 Y8.149 F50
M106 S0
M106 S255
G1 X12.526 Y8.144 F50
M106 S0
M106 S255
G1 X12.615 Y8.138 F50
M106 S0
M106 S255
G1 X12.704 Y8.132 F50
M106 S0
M106 S255
G1 X12.793 Y8.126 F50
M106 S0
M106 S255
G1 X12.882 Y8.12 F50
M106 S0
M106 S255
G1 X12.971 Y8.114 F50
M106 S0
M106 S255
G1 X13.06 Y8.108 F50
M106 S0
M106 S255
G1 X13.149 Y8.102 F50
M106 S0
G0 X10.392 Y21.54 F6000
M106 S255
G1 X10.392 Y21.54 F50
M106 S0
M106 S255
G1 X10.487 Y21.539 F50
M106 S0
M106 S255
G1 X10.582 Y21.535 F50
M106 S0
M106 S255
G1 X10.678 Y21.527 F50
M106 S0
M106 S255
G1 X10.773 Y21.516 F50
M106 S0
M106 S255
G1 X10.868 Y21.501 F50
M106 S0
M106 S255
G1 X10.962 Y21.481 F50
M106 S0
M106 S255
G1 X11.055 Y21.457 F50
M106 S0
M106 S255
G1 X11.146 Y21.428 F50
M106 S0
M106 S255
G1 X11.236 Y21.394 F50
M106 S0
M106 S255
G1 X11.323 Y21.355 F50
M106 S0
M106 S255
G1 X11.407 Y21.31 F50
M106 S0
M106 S255
G1 X11.489 Y21.259 F50
M106 S0
M106 S255
G1 X11.567 Y21.203 F50
M106 S0
M106 S255
G1 X11.641 Y21.141 F50
M106 S0
M106 S255
G1 X11.711 Y21.075 F50
M106 S0
M106 S255
G1 X11.776 Y21.005 F50
M106 S0
M106 S255
G1 X11.837 Y20.93 F50
M106 S0
M106 S255
G1 X11.892 Y20.852 F50
M106 S0
M106 S255
G1 X11.942 Y20.77 F50
M106 S0
M106 S255
G1 X11.987 Y20.684 F50
M106 S0
M106 S255
G1 X12.026 Y20.597 F50
M106 S0
M106 S255
G1 X12.06 Y20.507 F50
M106 S0
M106 S255
G1 X12.09 Y20.415 F50
M106 S0
M106 S255
G1 X12.114 Y20.322 F50
M106 S0
M106 S255
G1 X12.134 Y20.228 F50
M106 S0
M106 S255
G1 X12.15 Y20.133 F50
M106 S0
M106 S255
G1 X12.161 Y20.038 F50
M106 S0
M106 S255
G1 X12.168 Y19.943 F50
M106 S0
M106 S255
G1 X12.172 Y19.848 F50
M106 S0
M106 S255
G1 X12.173 Y19.753 F50
M106 S0
M106 S255
G1 X12.171 Y19.657 F50
M106 S0
M106 S255
G1 X12.167 Y19.562 F50
M106 S0
M106 S255
G1 X12.162 Y19.466 F50
M106 S0
M106 S255
G1 X12.156 Y19.371 F50
M106 S0
M106 S255
G1 X12.15 Y19.275 F50
M106 S0
M106 S255
G1 X7.538 Y19.275 F50
M106 S0
M106 S255
G1 X2.927 Y19.275 F50
M106 S0
M106 S255
G1 X2.921 Y19.371 F50
M106 S0
M106 S255
G1 X2.915 Y19.466 F50
M106 S0
M106 S255
G1 X2.909 Y19.562 F50
M106 S0
M106 S255
G1 X2.906 Y19.657 F50
M106 S0
M106 S255
G1 X2.904 Y19.753 F50
M106 S0
M106 S255
G1 X2.905 Y19.848 F50
M106 S0
M106 S255
G1 X2.909 Y19.943 F50
M106 S0
M106 S255
G1 X2.916 Y20.038 F50
M106 S0
M106 S255
G1 X2.927 Y20.133 F50
M106 S0
M106 S255
G1 X2.942 Y20.228 F50
M106 S0
M106 S255
G1 X2.962 Y20.322 F50
M106 S0
M106 S255
G1 X2.987 Y20.415 F50
M106 S0
M106 S255
G1 X3.016 Y20.507 F50
M106 S0
M106 S255
G1 X3.051 Y20.597 F50
M106 S0
M106 S255
G1 X3.09 Y20.684 F50
M106 S0
M106 S255
G1 X3.135 Y20.77 F50
M106 S0
M106 S255
G1 X3.185 Y20.852 F50
M106 S0
M106 S255
G1 X3.24 Y20.93 F50
M106 S0
M106 S255
G1 X3.3 Y21.005 F50
M106 S0
M106 S255
G1 X3.366 Y21.075 F50
M106 S0
M106 S255
G1 X3.436 Y21.141 F50
M106 S0
M106 S255
G1 X3.51 Y21.203 F50
M106 S0
M106 S255
G1 X3.588 Y21.259 F50
M106 S0
M106 S255
G1 X3.669 Y21.31 F50
M106 S0
M106 S255
G1 X3.754 Y21.355 F50
M106 S0
M106 S255
G1 X3.841 Y21.394 F50
M106 S0
M106 S255
G1 X3.931 Y21.428 F50
M106 S0
M106 S255
G1 X4.022 Y21.457 F50
M106 S0
M106 S255
G1 X4.115 Y21.481 F50
M106 S0
M106 S255
G1 X4.209 Y21.501 F50
M106 S0
M106 S255
G1 X4.304 Y21.516 F50
M106 S0
M106 S255
G1 X4.399 Y21.527 F50
M106 S0
M106 S255
G1 X4.494 Y21.535 F50
M106 S0
M106 S255
G1 X4.59 Y21.539 F50
M106 S0
M106 S255
G1 X4.685 Y21.54 F50
M106 S0
M106 S255
G1 X4.685 Y22.015 F50
M106 S0
M106 S255
G1 X5.346 Y22.566 F50
M106 S0
M106 S255
G1 X5.715 Y22.566 F50
M106 S0
M106 S255
G1 X5.767 Y22.677 F50
M106 S0
M106 S255
G1 X5.819 Y22.789 F50
M106 S0
M106 S255
G1 X5.87 Y22.901 F50
M106 S0
M106 S255
G1 X5.922 Y23.014 F50
M106 S0
M106 S255
G1 X5.952 Y23.081 F50
M106 S0
M106 S255
G1 X6.022 Y23.24 F50
M106 S0
M106 S255
G1 X6.07 Y23.353 F50
M106 S0
M106 S255
G1 X6.116 Y23.468 F50
M106 S0
M106 S255
G1 X6.158 Y23.584 F50
M106 S0
M106 S255
G1 X6.208 Y23.742 F50
M106 S0
M106 S255
G1 X6.229 Y23.82 F50
M106 S0
M106 S255
G1 X6.257 Y23.94 F50
M106 S0
M106 S255
G1 X6.28 Y24.06 F50
M106 S0
M106 S255
G1 X6.3 Y24.182 F50
M106 S0
M106 S255
G1 X6.316 Y24.305 F50
M106 S0
M106 S255
G1 X6.328 Y24.428 F50
M106 S0
M106 S255
G1 X6.338 Y24.552 F50
M106 S0
M106 S255
G1 X6.349 Y24.737 F50
M106 S0
M106 S255
G1 X6.351 Y24.8 F50
M106 S0
M106 S255
G1 X6.356 Y24.923 F50
M106 S0
M106 S255
G1 X6.358 Y25.047 F50
M106 S0
M106 S255
G1 X6.36 Y25.17 F50
M106 S0
M106 S255
G1 X6.36 Y25.294 F50
M106 S0
M106 S255
G1 X6.36 Y25.417 F50
M106 S0
M106 S255
G1 X6.359 Y25.54 F50
M106 S0
M106 S255
G1 X6.357 Y25.663 F50
M106 S0
M106 S255
G1 X6.354 Y25.786 F50
M106 S0
M106 S255
G1 X6.352 Y25.909 F50
M106 S0
M106 S255
G1 X6.349 Y26.033 F50
M106 S0
M106 S255
G1 X6.292 Y26.052 F50
M106 S0
M106 S255
G1 X6.236 Y26.073 F50
M106 S0
M106 S255
G1 X6.18 Y26.095 F50
M106 S0
M106 S255
G1 X6.127 Y26.119 F50
M106 S0
M106 S255
G1 X6.075 Y26.146 F50
M106 S0
M106 S255
G1 X6.026 Y26.176 F50
M106 S0
M106 S255
G1 X5.98 Y26.21 F50
M106 S0
M106 S255
G1 X5.937 Y26.249 F50
M106 S0
M106 S255
G1 X5.898 Y26.293 F50
M106 S0
M106 S255
G1 X5.862 Y26.34 F50
M106 S0
M106 S255
G1 X5.83 Y26.391 F50
M106 S0
M106 S255
G1 X5.802 Y26.444 F50
M106 S0
M106 S255
G1 X5.778 Y26.499 F50
M106 S0
M106 S255
G1 X5.758 Y26.555 F50
M106 S0
M106 S255
G1 X5.742 Y26.612 F50
M106 S0
M106 S255
G1 X5.729 Y26.67 F50
M106 S0
M106 S255
G1 X5.719 Y26.728 F50
M106 S0
M106 S255
G1 X5.713 Y26.786 F50
M106 S0
M106 S255
G1 X5.709 Y26.844 F50
M106 S0
M106 S255
G1 X5.706 Y26.903 F50
M106 S0
M106 S255
G1 X5.705 Y26.961 F50
M106 S0
M106 S255
G1 X5.705 Y27.02 F50
M106 S0
M106 S255
G1 X5.706 Y27.079 F50
M106 S0
M106 S255
G1 X5.141 Y27.079 F50
M106 S0
M106 S255
G1 X5.088 Y27.109 F50
M106 S0
M106 S255
G1 X5.035 Y27.14 F50
M106 S0
M106 S255
G1 X4.983 Y27.171 F50
M106 S0
M106 S255
G1 X4.932 Y27.204 F50
M106 S0
M106 S255
G1 X4.882 Y27.238 F50
M106 S0
M106 S255
G1 X4.833 Y27.274 F50
M106 S0
M106 S255
G1 X4.765 Y27.331 F50
M106 S0
M106 S255
G1 X4.741 Y27.354 F50
M106 S0
M106 S255
G1 X4.698 Y27.398 F50
M106 S0
M106 S255
G1 X4.658 Y27.445 F50
M106 S0
M106 S255
G1 X4.621 Y27.495 F50
M106 S0
M106 S255
G1 X4.586 Y27.546 F50
M106 S0
M106 S255
G1 X4.556 Y27.6 F50
M106 S0
M106 S255
G1 X4.529 Y27.655 F50
M106 S0
M106 S255
G1 X4.507 Y27.712 F50
M106 S0
M106 S255
G1 X4.489 Y27.772 F50
M106 S0
M106 S255
G1 X4.476 Y27.829 F50
M106 S0
M106 S255
G1 X4.468 Y27.888 F50
M106 S0
M106 S255
G1 X4.462 Y27.949 F50
M106 S0
M106 S255
G1 X4.46 Y28.01 F50
M106 S0
M106 S255
G1 X4.459 Y28.071 F50
M106 S0
M106 S255
G1 X4.459 Y28.132 F50
M106 S0
M106 S255
G1 X4.46 Y28.193 F50
M106 S0
M106 S255
G1 X4.463 Y28.254 F50
M106 S0
M106 S255
G1 X4.469 Y28.315 F50
M106 S0
M106 S255
G1 X4.479 Y28.374 F50
M106 S0
M106 S255
G1 X4.491 Y28.433 F50
M106 S0
M106 S255
G1 X4.508 Y28.492 F50
M106 S0
M106 S255
G1 X4.529 Y28.549 F50
M106 S0
M106 S255
G1 X4.554 Y28.604 F50
M106 S0
M106 S255
G1 X4.583 Y28.659 F50
M106 S0
M106 S255
G1 X4.614 Y28.712 F50
M106 S0
M106 S255
G1 X4.649 Y28.763 F50
M106 S0
M106 S255
G1 X4.686 Y28.812 F50
M106 S0
M106 S255
G1 X4.727 Y28.859 F50
M106 S0
M106 S255
G1 X4.769 Y28.904 F50
M106 S0
M106 S255
G1 X4.803 Y28.937 F50
M106 S0
M106 S255
G1 X4.861 Y28.987 F50
M106 S0
M106 S255
G1 X4.909 Y29.024 F50
M106 S0
M106 S255
G1 X4.959 Y29.058 F50
M106 S0
M106 S255
G1 X5.011 Y29.09 F50
M106 S0
M106 S255
G1 X5.065 Y29.118 F50
M106 S0
M106 S255
G1 X5.12 Y29.143 F50
M106 S0
M106 S255
G1 X5.176 Y29.165 F50
M106 S0
M106 S255
G1 X5.234 Y29.185 F50
M106 S0
M106 S255
G1 X5.292 Y29.202 F50
M106 S0
M106 S255
G1 X5.35 Y29.219 F50
M106 S0
M106 S255
G1 X5.723 Y29.219 F50
M106 S0
M106 S255
G1 X5.684 Y29.293 F50
M106 S0
M106 S255
G1 X5.646 Y29.367 F50
M106 S0
M106 S255
G1 X5.61 Y29.442 F50
M106 S0
M106 S255
G1 X5.575 Y29.517 F50
M106 S0
M106 S255
G1 X5.544 Y29.594 F50
M106 S0
M106 S255
G1 X5.517 Y29.671 F50
M106 S0
M106 S255
G1 X5.494 Y29.75 F50
M106 S0
M106 S255
G1 X5.476 Y29.831 F50
M106 S0
M106 S255
G1 X5.463 Y29.912 F50
M106 S0
M106 S255
G1 X5.453 Y29.994 F50
M106 S0
M106 S255
G1 X5.446 Y30.077 F50
M106 S0
M106 S255
G1 X5.442 Y30.161 F50
M106 S0
M106 S255
G1 X5.441 Y30.244 F50
M106 S0
M106 S255
G1 X5.442 Y30.328 F50
M106 S0
M106 S255
G1 X5.444 Y30.411 F50
M106 S0
M106 S255
G1 X5.449 Y30.493 F50
M106 S0
M106 S255
G1 X5.456 Y30.576 F50
M106 S0
M106 S255
G1 X5.466 Y30.658 F50
M106 S0
M106 S255
G1 X5.479 Y30.739 F50
M106 S0
M106 S255
G1 X5.496 Y30.821 F50
M106 S0
M106 S255
G1 X5.515 Y30.902 F50
M106 S0
M106 S255
G1 X5.538 Y30.982 F50
M106 S0
M106 S255
G1 X5.564 Y31.061 F50
M106 S0
M106 S255
G1 X5.594 Y31.14 F50
M106 S0
M106 S255
G1 X5.627 Y31.217 F50
M106 S0
M106 S255
G1 X5.664 Y31.293 F50
M106 S0
M106 S255
G1 X5.703 Y31.366 F50
M106 S0
M106 S255
G1 X5.746 Y31.438 F50
M106 S0
M106 S255
G1 X5.793 Y31.507 F50
M106 S0
M106 S255
G1 X5.843 Y31.574 F50
M106 S0
M106 S255
G1 X5.896 Y31.638 F50
M106 S0
M106 S255
G1 X5.952 Y31.699 F50
M106 S0
M106 S255
G1 X6.011 Y31.757 F50
M106 S0
M106 S255
G1 X6.074 Y31.812 F50
M106 S0
M106 S255
G1 X6.139 Y31.864 F50
M106 S0
M106 S255
G1 X6.206 Y31.913 F50
M106 S0
M106 S255
G1 X6.275 Y31.958 F50
M106 S0
M106 S255
G1 X6.347 Y32.001 F50
M106 S0
M106 S255
G1 X6.42 Y32.04 F50
M106 S0
M106 S255
G1 X6.494 Y32.076 F50
M106 S0
M106 S255
G1 X6.57 Y32.11 F50
M106 S0
M106 S255
G1 X6.647 Y32.14 F50
M106 S0
M106 S255
G1 X6.725 Y32.168 F50
M106 S0
M106 S255
G1 X6.804 Y32.193 F50
M106 S0
M106 S255
G1 X6.884 Y32.216 F50
M106 S0
M106 S255
G1 X6.964 Y32.236 F50
M106 S0
M106 S255
G1 X7.045 Y32.253 F50
M106 S0
M106 S255
G1 X7.127 Y32.267 F50
M106 S0
M106 S255
G1 X7.209 Y32.278 F50
M106 S0
M106 S255
G1 X7.291 Y32.286 F50
M106 S0
M106 S255
G1 X7.373 Y32.291 F50
M106 S0
M106 S255
G1 X7.456 Y32.293 F50
M106 S0
M106 S255
G1 X7.538 Y32.294 F50
M106 S0
M106 S255
G1 X7.621 Y32.293 F50
M106 S0
M106 S255
G1 X7.704 Y32.291 F50
M106 S0
M106 S255
G1 X7.786 Y32.286 F50
M106 S0
M106 S255
G1 X7.868 Y32.278 F50
M106 S0
M106 S255
G1 X7.95 Y32.267 F50
M106 S0
M106 S255
G1 X8.031 Y32.253 F50
M106 S0
M106 S255
G1 X8.112 Y32.236 F50
M106 S0
M106 S255
G1 X8.193 Y32.216 F50
M106 S0
M106 S255
G1 X8.273 Y32.193 F50
M106 S0
M106 S255
G1 X8.352 Y32.168 F50
M106 S0
M106 S255
G1 X8.43 Y32.14 F50
M106 S0
M106 S255
G1 X8.507 Y32.11 F50
M106 S0
M106 S255
G1 X8.583 Y32.076 F50
M106 S0
M106 S255
G1 X8.657 Y32.04 F50
M106 S0
M106 S255
G1 X8.73 Y32.001 F50
M106 S0
M106 S255
G1 X8.801 Y31.958 F50
M106 S0
M106 S255
G1 X8.871 Y31.913 F50
M106 S0
M106 S255
G1 X8.938 Y31.864 F50
M106 S0
M106 S255
G1 X9.003 Y31.812 F50
M106 S0
M106 S255
G1 X9.065 Y31.757 F50
M106 S0
M106 S255
G1 X9.125 Y31.699 F50
M106 S0
M106 S255
G1 X9.181 Y31.638 F50
M106 S0
M106 S255
G1 X9.234 Y31.574 F50
M106 S0
M106 S255
G1 X9.284 Y31.507 F50
M106 S0
M106 S255
G1 X9.33 Y31.438 F50
M106 S0
M106 S255
G1 X9.373 Y31.366 F50
M106 S0
M106 S255
G1 X9.413 Y31.293 F50
M106 S0
M106 S255
G1 X9.45 Y31.217 F50
M106 S0
M106 S255
G1 X9.483 Y31.14 F50
M106 S0
M106 S255
G1 X9.512 Y31.061 F50
M106 S0
M106 S255
G1 X9.539 Y30.982 F50
M106 S0
M106 S255
G1 X9.562 Y30.902 F50
M106 S0
M106 S255
G1 X9.581 Y30.821 F50
M106 S0
M106 S255
G1 X9.597 Y30.739 F50
M106 S0
M106 S255
G1 X9.61 Y30.658 F50
M106 S0
M106 S255
G1 X9.62 Y30.576 F50
M106 S0
M106 S255
G1 X9.628 Y30.493 F50
M106 S0
M106 S255
G1 X9.632 Y30.411 F50
M106 S0
M106 S255
G1 X9.635 Y30.328 F50
M106 S0
M106 S255
G1 X9.636 Y30.244 F50
M106 S0
M106 S255
G1 X9.634 Y30.161 F50
M106 S0
M106 S255
G1 X9.631 Y30.077 F50
M106 S0
M106 S255
G1 X9.624 Y29.994 F50
M106 S0
M106 S255
G1 X9.614 Y29.912 F50
M106 S0
M106 S255
G1 X9.6 Y29.831 F50
M106 S0
M106 S255
G1 X9.582 Y29.75 F50
M106 S0
M106 S255
G1 X9.56 Y29.671 F50
M106 S0
M106 S255
G1 X9.532 Y29.594 F50
M106 S0
M106 S255
G1 X9.501 Y29.517 F50
M106 S0
M106 S255
G1 X9.467 Y29.442 F50
M106 S0
M106 S255
G1 X9.431 Y29.367 F50
M106 S0
M106 S255
G1 X9.392 Y29.293 F50
M106 S0
M106 S255
G1 X9.354 Y29.219 F50
M106 S0
M106 S255
G1 X9.727 Y29.219 F50
M106 S0
M106 S255
G1 X9.785 Y29.202 F50
M106 S0
M106 S255
G1 X9.843 Y29.185 F50
M106 S0
M106 S255
G1 X9.9 Y29.165 F50
M106 S0
M106 S255
G1 X9.957 Y29.143 F50
M106 S0
M106 S255
G1 X10.012 Y29.118 F50
M106 S0
M106 S255
G1 X10.065 Y29.09 F50
M106 S0
M106 S255
G1 X10.117 Y29.058 F50
M106 S0
M106 S255
G1 X10.168 Y29.024 F50
M106 S0
M106 S255
G1 X10.216 Y28.987 F50
M106 S0
M106 S255
G1 X10.273 Y28.937 F50
M106 S0
M106 S255
G1 X10.307 Y28.904 F50
M106 S0
M106 S255
G1 X10.35 Y28.859 F50
M106 S0
M106 S255
G1 X10.39 Y28.812 F50
M106 S0
M106 S255
G1 X10.428 Y28.763 F50
M106 S0
M106 S255
G1 X10.463 Y28.712 F50
M106 S0
M106 S255
G1 X10.494 Y28.659 F50
M106 S0
M106 S255
G1 X10.522 Y28.604 F50
M106 S0
M106 S255
G1 X10.547 Y28.549 F50
M106 S0
M106 S255
G1 X10.568 Y28.492 F50
M106 S0
M106 S255
G1 X10.585 Y28.433 F50
M106 S0
M106 S255
G1 X10.598 Y28.374 F50
M106 S0
M106 S255
G1 X10.607 Y28.315 F50
M106 S0
M106 S255
G1 X10.613 Y28.254 F50
M106 S0
M106 S255
G1 X10.617 Y28.193 F50
M106 S0
M106 S255
G1 X10.618 Y28.132 F50
M106 S0
M106 S255
G1 X10.618 Y28.071 F50
M106 S0
M106 S255
G1 X10.617 Y28.01 F50
M106 S0
M106 S255
G1 X10.614 Y27.949 F50
M106 S0
M106 S255
G1 X10.609 Y27.888 F50
M106 S0
M106 S255
G1 X10.6 Y27.829 F50
M106 S0
M106 S255
G1 X10.588 Y27.772 F50
M106 S0
M106 S255
G1 X10.57 Y27.712 F50
M106 S0
M106 S255
G1 X10.547 Y27.655 F50
M106 S0
M106 S255
G1 X10.521 Y27.6 F50
M106 S0
M106 S255
G1 X10.49 Y27.546 F50
M106 S0
M106 S255
G1 X10.456 Y27.495 F50
M106 S0
M106 S255
G1 X10.419 Y27.445 F50
M106 S0
M106 S255
G1 X10.378 Y27.398 F50
M106 S0
M106 S255
G1 X10.336 Y27.354 F50
M106 S0
M106 S255
G1 X10.311 Y27.331 F50
M106 S0
M106 S255
G1 X10.243 Y27.274 F50
M106 S0
M106 S255
G1 X10.195 Y27.238 F50
M106 S0
M106 S255
G1 X10.145 Y27.204 F50
M106 S0
M106 S255
G1 X10.093 Y27.171 F50
M106 S0
M106 S255
G1 X10.041 Y27.14 F50
M106 S0
M106 S255
G1 X9.989 Y27.109 F50
M106 S0
M106 S255
G1 X9.936 Y27.079 F50
M106 S0
M106 S255
G1 X9.371 Y27.079 F50
M106 S0
M106 S255
G1 X9.371 Y27.02 F50
M106 S0
M106 S255
G1 X9.371 Y26.961 F50
M106 S0
M106 S255
G1 X9.37 Y26.903 F50
M106 S0
M106 S255
G1 X9.368 Y26.844 F50
M106 S0
M106 S255
G1 X9.364 Y26.786 F50
M106 S0
M106 S255
G1 X9.357 Y26.728 F50
M106 S0
M106 S255
G1 X9.348 Y26.67 F50
M106 S0
M106 S255
G1 X9.335 Y26.612 F50
M106 S0
M106 S255
G1 X9.319 Y26.555 F50
M106 S0
M106 S255
G1 X9.298 Y26.499 F50
M106 S0
M106 S255
G1 X9.274 Y26.444 F50
M106 S0
M106 S255
G1 X9.246 Y26.391 F50
M106 S0
M106 S255
G1 X9.214 Y26.34 F50
M106 S0
M106 S255
G1 X9.179 Y26.293 F50
M106 S0
M106 S255
G1 X9.14 Y26.249 F50
M106 S0
M106 S255
G1 X9.097 Y26.21 F50
M106 S0
M106 S255
G1 X9.051 Y26.176 F50
M106 S0
M106 S255
G1 X9.002 Y26.146 F50
M106 S0
M106 S255
G1 X8.95 Y26.119 F50
M106 S0
M106 S255
G1 X8.896 Y26.095 F50
M106 S0
M106 S255
G1 X8.841 Y26.073 F50
M106 S0
M106 S255
G1 X8.785 Y26.052 F50
M106 S0
M106 S255
G1 X8.728 Y26.033 F50
M106 S0
M106 S255
G1 X8.725 Y25.909 F50
M106 S0
M106 S255
G1 X8.722 Y25.786 F50
M106 S0
M106 S255
G1 X8.72 Y25.663 F50
M106 S0
M106 S255
G1 X8.718 Y25.54 F50
M106 S0
M106 S255
G1 X8.717 Y25.417 F50
M106 S0
M106 S255
G1 X8.716 Y25.294 F50
M106 S0
M106 S255
G1 X8.717 Y25.17 F50
M106 S0
M106 S255
G1 X8.718 Y25.047 F50
M106 S0
M106 S255
G1 X8.721 Y24.923 F50
M106 S0
M106 S255
G1 X8.725 Y24.8 F50
M106 S0
M106 S255
G1 X8.728 Y24.737 F50
M106 S0
M106 S255
G1 X8.738 Y24.552 F50
M106 S0
M106 S255
G1 X8.748 Y24.428 F50
M106 S0
M106 S255
G1 X8.761 Y24.305 F50
M106 S0
M106 S255
G1 X8.777 Y24.182 F50
M106 S0
M106 S255
G1 X8.796 Y24.06 F50
M106 S0
M106 S255
G1 X8.82 Y23.94 F50
M106 S0
M106 S255
G1 X8.848 Y23.82 F50
M106 S0
M106 S255
G1 X8.869 Y23.742 F50
M106 S0
M106 S255
G1 X8.919 Y23.584 F50
M106 S0
M106 S255
G1 X8.961 Y23.468 F50
M106 S0
M106 S255
G1 X9.007 Y23.353 F50
M106 S0
M106 S255
G1 X9.055 Y23.24 F50
M106 S0
M106 S255
G1 X9.125 Y23.081 F50
M106 S0
M106 S255
G1 X9.155 Y23.014 F50
M106 S0
M106 S255
G1 X9.206 Y22.901 F50
M106 S0
M106 S255
G1 X9.258 Y22.789 F50
M106 S0
M106 S255
G1 X9.309 Y22.677 F50
M106 S0
M106 S255
G1 X9.361 Y22.566 F50
M106 S0
M106 S255
G1 X9.73 Y22.566 F50
M106 S0
M106 S255
G1 X10.392 Y22.015 F50
M106 S0
M106 S255
G1 X10.392 Y21.54 F50
M106 S0
G0 X9.635 Y40.579 F6000
M106 S255
G1 X9.635 Y40.579 F50
M106 S0
M106 S255
G1 X9.73 Y40.577 F50
M106 S0
M106 S255
G1 X9.825 Y40.573 F50
M106 S0
M106 S255
G1 X9.92 Y40.565 F50
M106 S0
M106 S255
G1 X10.016 Y40.554 F50
M106 S0
M106 S255
G1 X10.111 Y40.539 F50
M106 S0
M106 S255
G1 X10.205 Y40.52 F50
M106 S0
M106 S255
G1 X10.298 Y40.495 F50
M106 S0
M106 S255
G1 X10.389 Y40.467 F50
M106 S0
M106 S255
G1 X10.478 Y40.432 F50
M106 S0
M106 S255
G1 X10.566 Y40.393 F50
M106 S0
M106 S255
G1 X10.65 Y40.348 F50
M106 S0
M106 S255
G1 X10.731 Y40.297 F50
M106 S0
M106 S255
G1 X10.809 Y40.241 F50
M106 S0
M106 S255
G1 X10.884 Y40.179 F50
M106 S0
M106 S255
G1 X10.954 Y40.113 F50
M106 S0
M106 S255
G1 X11.019 Y40.043 F50
M106 S0
M106 S255
G1 X11.08 Y39.968 F50
M106 S0
M106 S255
G1 X11.135 Y39.89 F50
M106 S0
M106 S255
G1 X11.185 Y39.808 F50
M106 S0
M106 S255
G1 X11.229 Y39.723 F50
M106 S0
M106 S255
G1 X11.269 Y39.635 F50
M106 S0
M106 S255
G1 X11.303 Y39.545 F50
M106 S0
M106 S255
G1 X11.332 Y39.453 F50
M106 S0
M106 S255
G1 X11.357 Y39.36 F50
M106 S0
M106 S255
G1 X11.377 Y39.266 F50
M106 S0
M106 S255
G1 X11.393 Y39.171 F50
M106 S0
M106 S255
G1 X11.404 Y39.076 F50
M106 S0
M106 S255
G1 X11.411 Y38.981 F50
M106 S0
M106 S255
G1 X11.415 Y38.886 F50
M106 S0
M106 S255
G1 X11.415 Y38.791 F50
M106 S0
M106 S255
G1 X11.414 Y38.695 F50
M106 S0
M106 S255
G1 X11.41 Y38.6 F50
M106 S0
M106 S255
G1 X11.405 Y38.505 F50
M106 S0
M106 S255
G1 X11.399 Y38.409 F50
M106 S0
M106 S255
G1 X11.392 Y38.314 F50
M106 S0
M106 S255
G1 X6.781 Y38.314 F50
M106 S0
M106 S255
G1 X2.17 Y38.314 F50
M106 S0
M106 S255
G1 X2.163 Y38.409 F50
M106 S0
M106 S255
G1 X2.157 Y38.505 F50
M106 S0
M106 S255
G1 X2.152 Y38.6 F50
M106 S0
M106 S255
G1 X2.149 Y38.695 F50
M106 S0
M106 S255
G1 X2.147 Y38.791 F50
M106 S0
M106 S255
G1 X2.148 Y38.886 F50
M106 S0
M106 S255
G1 X2.152 Y38.981 F50
M106 S0
M106 S255
G1 X2.159 Y39.076 F50
M106 S0
M106 S255
G1 X2.17 Y39.171 F50
M106 S0
M106 S255
G1 X2.185 Y39.266 F50
M106 S0
M106 S255
G1 X2.205 Y39.36 F50
M106 S0
M106 S255
G1 X2.23 Y39.453 F50
M106 S0
M106 S255
G1 X2.259 Y39.545 F50
M106 S0
M106 S255
G1 X2.294 Y39.635 F50
M106 S0
M106 S255
G1 X2.333 Y39.723 F50
M106 S0
M106 S255
G1 X2.378 Y39.808 F50
M106 S0
M106 S255
G1 X2.427 Y39.89 F50
M106 S0
M106 S255
G1 X2.483 Y39.968 F50
M106 S0
M106 S255
G1 X2.543 Y40.043 F50
M106 S0
M106 S255
G1 X2.609 Y40.113 F50
M106 S0
M106 S255
G1 X2.679 Y40.179 F50
M106 S0
M106 S255
G1 X2.753 Y40.241 F50
M106 S0
M106 S255
G1 X2.831 Y40.297 F50
M106 S0
M106 S255
G1 X2.912 Y40.348 F50
M106 S0
M106 S255
G1 X2.997 Y40.393 F50
M106 S0
M106 S255
G1 X3.084 Y40.432 F50
M106 S0
M106 S255
G1 X3.173 Y40.467 F50
M106 S0
M106 S255
G1 X3.265 Y40.495 F50
M106 S0
M106 S255
G1 X3.358 Y40.52 F50
M106 S0
M106 S255
G1 X3.452 Y40.539 F50
M106 S0
M106 S255
G1 X3.547 Y40.554 F50
M106 S0
M106 S255
G1 X3.642 Y40.565 F50
M106 S0
M106 S255
G1 X3.737 Y40.573 F50
M106 S0
M106 S255
G1 X3.832 Y40.577 F50
M106 S0
M106 S255
G1 X3.928 Y40.579 F50
M106 S0
M106 S255
G1 X3.928 Y41.053 F50
M106 S0
M106 S255
G1 X4.589 Y41.604 F50
M106 S0
M106 S255
G1 X4.958 Y41.604 F50
M106 S0
M106 S255
G1 X5.01 Y41.716 F50
M106 S0
M106 S255
G1 X5.062 Y41.827 F50
M106 S0
M106 S255
G1 X5.113 Y41.939 F50
M106 S0
M106 S255
G1 X5.164 Y42.052 F50
M106 S0
M106 S255
G1 X5.195 Y42.119 F50
M106 S0
M106 S255
G1 X5.265 Y42.278 F50
M106 S0
M106 S255
G1 X5.313 Y42.392 F50
M106 S0
M106 S255
G1 X5.358 Y42.506 F50
M106 S0
M106 S255
G1 X5.401 Y42.622 F50
M106 S0
M106 S255
G1 X5.451 Y42.78 F50
M106 S0
M106 S255
G1 X5.472 Y42.858 F50
M106 S0
M106 S255
G1 X5.5 Y42.978 F50
M106 S0
M106 S255
G1 X5.523 Y43.099 F50
M106 S0
M106 S255
G1 X5.543 Y43.221 F50
M106 S0
M106 S255
G1 X5.559 Y43.343 F50
M106 S0
M106 S255
G1 X5.571 Y43.467 F50
M106 S0
M106 S255
G1 X5.581 Y43.59 F50
M106 S0
M106 S255
G1 X5.592 Y43.776 F50
M106 S0
M106 S255
G1 X5.594 Y43.838 F50
M106 S0
M106 S255
G1 X5.598 Y43.961 F50
M106 S0
M106 S255
G1 X5.601 Y44.085 F50
M106 S0
M106 S255
G1 X5.603 Y44.208 F50
M106 S0
M106 S255
G1 X5.603 Y44.332 F50
M106 S0
M106 S255
G1 X5.603 Y44.455 F50
M106 S0
M106 S255
G1 X5.601 Y44.578 F50
M106 S0
M106 S255
G1 X5.599 Y44.701 F50
M106 S0
M106 S255
G1 X5.597 Y44.825 F50
M106 S0
M106 S255
G1 X5.594 Y44.948 F50
M106 S0
M106 S255
G1 X5.592 Y45.071 F50
M106 S0
M106 S255
G1 X5.535 Y45.091 F50
M106 S0
M106 S255
G1 X5.479 Y45.111 F50
M106 S0
M106 S255
G1 X5.423 Y45.133 F50
M106 S0
M106 S255
G1 X5.37 Y45.157 F50
M106 S0
M106 S255
G1 X5.318 Y45.184 F50
M106 S0
M106 S255
G1 X5.269 Y45.214 F50
M106 S0
M106 S255
G1 X5.222 Y45.248 F50
M106 S0
M106 S255
G1 X5.18 Y45.288 F50
M106 S0
M106 S255
G1 X5.141 Y45.331 F50
M106 S0
M106 S255
G1 X5.105 Y45.378 F50
M106 S0
M106 S255
G1 X5.073 Y45.429 F50
M106 S0
M106 S255
G1 X5.045 Y45.482 F50
M106 S0
M106 S255
G1 X5.021 Y45.537 F50
M106 S0
M106 S255
G1 X5.001 Y45.593 F50
M106 S0
M106 S255
G1 X4.984 Y45.65 F50
M106 S0
M106 S255
G1 X4.972 Y45.708 F50
M106 S0
M106 S255
G1 X4.962 Y45.766 F50
M106 S0
M106 S255
G1 X4.956 Y45.824 F50
M106 S0
M106 S255
G1 X4.951 Y45.882 F50
M106 S0
M106 S255
G1 X4.949 Y45.941 F50
M106 S0
M106 S255
G1 X4.948 Y46.0 F50
M106 S0
M106 S255
G1 X4.948 Y46.058 F50
M106 S0
M106 S255
G1 X4.949 Y46.117 F50
M106 S0
M106 S255
G1 X4.383 Y46.117 F50
M106 S0
M106 S255
G1 X4.331 Y46.147 F50
M106 S0
M106 S255
G1 X4.278 Y46.178 F50
M106 S0
M106 S255
G1 X4.226 Y46.209 F50
M106 S0
M106 S255
G1 X4.175 Y46.242 F50
M106 S0
M106 S255
G1 X4.125 Y46.276 F50
M106 S0
M106 S255
G1 X4.076 Y46.312 F50
M106 S0
M106 S255
G1 X4.008 Y46.369 F50
M106 S0
M106 S255
G1 X3.984 Y46.392 F50
M106 S0
M106 S255
G1 X3.941 Y46.436 F50
M106 S0
M106 S255
G1 X3.901 Y46.483 F50
M106 S0
M106 S255
G1 X3.863 Y46.533 F50
M106 S0
M106 S255
G1 X3.829 Y46.584 F50
M106 S0
M106 S255
G1 X3.799 Y46.638 F50
M106 S0
M106 S255
G1 X3.772 Y46.693 F50
M106 S0
M106 S255
G1 X3.75 Y46.75 F50
M106 S0
M106 S255
G1 X3.732 Y46.81 F50
M106 S0
M106 S255
G1 X3.719 Y46.867 F50
M106 S0
M106 S255
G1 X3.711 Y46.927 F50
M106 S0
M106 S255
G1 X3.705 Y46.987 F50
M106 S0
M106 S255
G1 X3.702 Y47.048 F50
M106 S0
M106 S255
G1 X3.701 Y47.11 F50
M106 S0
M106 S255
G1 X3.701 Y47.171 F50
M106 S0
M106 S255
G1 X3.703 Y47.232 F50
M106 S0
M106 S255
G1 X3.706 Y47.292 F50
M106 S0
M106 S255
G1 X3.712 Y47.353 F50
M106 S0
M106 S255
G1 X3.721 Y47.413 F50
M106 S0
M106 S255
G1 X3.734 Y47.472 F50
M106 S0
M106 S255
G1 X3.751 Y47.53 F50
M106 S0
M106 S255
G1 X3.772 Y47.587 F50
M106 S0
M106 S255
G1 X3.797 Y47.643 F50
M106 S0
M106 S255
G1 X3.825 Y47.697 F50
M106 S0
M106 S255
G1 X3.857 Y47.75 F50
M106 S0
M106 S255
G1 X3.892 Y47.801 F50
M106 S0
M106 S255
G1 X3.929 Y47.85 F50
M106 S0
M106 S255
G1 X3.969 Y47.897 F50
M106 S0
M106 S255
G1 X4.012 Y47.942 F50
M106 S0
M106 S255
G1 X4.046 Y47.975 F50
M106 S0
M106 S255
G1 X4.103 Y48.025 F50
M106 S0
M106 S255
G1 X4.152 Y48.062 F50
M106 S0
M106 S255
G1 X4.202 Y48.097 F50
M106 S0
M106 S255
G1 X4.254 Y48.128 F50
M106 S0
M106 S255
G1 X4.308 Y48.156 F50
M106 S0
M106 S255
G1 X4.362 Y48.181 F50
M106 S0
M106 S255
G1 X4.419 Y48.203 F50
M106 S0
M106 S255
G1 X4.476 Y48.223 F50
M106 S0
M106 S255
G1 X4.535 Y48.241 F50
M106 S0
M106 S255
G1 X4.593 Y48.258 F50
M106 S0
M106 S255
G1 X4.966 Y48.258 F50
M106 S0
M106 S255
G1 X4.927 Y48.331 F50
M106 S0
M106 S255
G1 X4.889 Y48.405 F50
M106 S0
M106 S255
G1 X4.852 Y48.48 F50
M106 S0
M106 S255
G1 X4.818 Y48.555 F50
M106 S0
M106 S255
G1 X4.787 Y48.632 F50
M106 S0
M106 S255
G1 X4.76 Y48.709 F50
M106 S0
M106 S255
G1 X4.737 Y48.788 F50
M106 S0
M106 S255
G1 X4.719 Y48.869 F50
M106 S0
M106 S255
G1 X4.706 Y48.95 F50
M106 S0
M106 S255
G1 X4.696 Y49.033 F50
M106 S0
M106 S255
G1 X4.689 Y49.116 F50
M106 S0
M106 S255
G1 X4.685 Y49.199 F50
M106 S0
M106 S255
G1 X4.684 Y49.282 F50
M106 S0
M106 S255
G1 X4.684 Y49.366 F50
M106 S0
M106 S255
G1 X4.687 Y49.449 F50
M106 S0
M106 S255
G1 X4.692 Y49.531 F50
M106 S0
M106 S255
G1 X4.699 Y49.614 F50
M106 S0
M106 S255
G1 X4.709 Y49.696 F50
M106 S0
M106 S255
G1 X4.722 Y49.778 F50
M106 S0
M106 S255
G1 X4.738 Y49.859 F50
M106 S0
M106 S255
G1 X4.758 Y49.94 F50
M106 S0
M106 S255
G1 X4.781 Y50.02 F50
M106 S0
M106 S255
G1 X4.807 Y50.1 F50
M106 S0
M106 S255
G1 X4.837 Y50.178 F50
M106 S0
M106 S255
G1 X4.87 Y50.255 F50
M106 S0
M106 S255
G1 X4.906 Y50.331 F50
M106 S0
M106 S255
G1 X4.946 Y50.405 F50
M106 S0
M106 S255
G1 X4.989 Y50.476 F50
M106 S0
M106 S255
G1 X5.036 Y50.546 F50
M106 S0
M106 S255
G1 X5.085 Y50.612 F50
M106 S0
M106 S255
G1 X5.138 Y50.677 F50
M106 S0
M106 S255
G1 X5.195 Y50.738 F50
M106 S0
M106 S255
G1 X5.254 Y50.796 F50
M106 S0
M106 S255
G1 X5.316 Y50.85 F50
M106 S0
M106 S255
G1 X5.381 Y50.902 F50
M106 S0
M106 S255
G1 X5.449 Y50.951 F50
M106 S0
M106 S255
G1 X5.518 Y50.997 F50
M106 S0
M106 S255
G1 X5.589 Y51.039 F50
M106 S0
M106 S255
G1 X5.662 Y51.078 F50
M106 S0
M106 S255
G1 X5.737 Y51.115 F50
M106 S0
M106 S255
G1 X5.813 Y51.148 F50
M106 S0
M106 S255
G1 X5.89 Y51.179 F50
M106 S0
M106 S255
G1 X5.968 Y51.206 F50
M106 S0
M106 S255
G1 X6.047 Y51.232 F50
M106 S0
M106 S255
G1 X6.127 Y51.254 F50
M106 S0
M106 S255
G1 X6.207 Y51.274 F50
M106 S0
M106 S255
G1 X6.288 Y51.291 F50
M106 S0
M106 S255
G1 X6.37 Y51.306 F50
M106 S0
M106 S255
G1 X6.451 Y51.317 F50
M106 S0
M106 S255
G1 X6.534 Y51.325 F50
M106 S0
M106 S255
G1 X6.616 Y51.329 F50
M106 S0
M106 S255
G1 X6.698 Y51.332 F50
M106 S0
M106 S255
G1 X6.781 Y51.332 F50
M106 S0
M106 S255
G1 X6.864 Y51.332 F50
M106 S0
M106 S255
G1 X6.946 Y51.329 F50
M106 S0
M106 S255
G1 X7.029 Y51.325 F50
M106 S0
M106 S255
G1 X7.111 Y51.317 F50
M106 S0
M106 S255
G1 X7.193 Y51.306 F50
M106 S0
M106 S255
G1 X7.274 Y51.291 F50
M106 S0
M106 S255
G1 X7.355 Y51.274 F50
M106 S0
M106 S255
G1 X7.436 Y51.254 F50
M106 S0
M106 S255
G1 X7.516 Y51.232 F50
M106 S0
M106 S255
G1 X7.595 Y51.206 F50
M106 S0
M106 S255
G1 X7.673 Y51.179 F50
M106 S0
M106 S255
G1 X7.75 Y51.148 F50
M106 S0
M106 S255
G1 X7.826 Y51.115 F50
M106 S0
M106 S255
G1 X7.9 Y51.078 F50
M106 S0
M106 S255
G1 X7.973 Y51.039 F50
M106 S0
M106 S255
G1 X8.044 Y50.997 F50
M106 S0
M106 S255
G1 X8.114 Y50.951 F50
M106 S0
M106 S255
G1 X8.181 Y50.902 F50
M106 S0
M106 S255
G1 X8.246 Y50.85 F50
M106 S0
M106 S255
G1 X8.308 Y50.796 F50
M106 S0
M106 S255
G1 X8.368 Y50.738 F50
M106 S0
M106 S255
G1 X8.424 Y50.677 F50
M106 S0
M106 S255
G1 X8.477 Y50.612 F50
M106 S0
M106 S255
G1 X8.527 Y50.546 F50
M106 S0
M106 S255
G1 X8.573 Y50.476 F50
M106 S0
M106 S255
G1 X8.616 Y50.405 F50
M106 S0
M106 S255
G1 X8.656 Y50.331 F50
M106 S0
M106 S255
G1 X8.692 Y50.255 F50
M106 S0
M106 S255
G1 X8.725 Y50.178 F50
M106 S0
M106 S255
G1 X8.755 Y50.1 F50
M106 S0
M106 S255
G1 X8.781 Y50.02 F50
M106 S0
M106 S255
G1 X8.804 Y49.94 F50
M106 S0
M106 S255
G1 X8.824 Y49.859 F50
M106 S0
M106 S255
G1 X8.84 Y49.778 F50
M106 S0
M106 S255
G1 X8.853 Y49.696 F50
M106 S0
M106 S255
G1 X8.863 Y49.614 F50
M106 S0
M106 S255
G1 X8.87 Y49.531 F50
M106 S0
M106 S255
G1 X8.875 Y49.449 F50
M106 S0
M106 S255
G1 X8.878 Y49.366 F50
M106 S0
M106 S255
G1 X8.879 Y49.282 F50
M106 S0
M106 S255
G1 X8.877 Y49.199 F50
M106 S0
M106 S255
G1 X8.873 Y49.116 F50
M106 S0
M106 S255
G1 X8.867 Y49.033 F50
M106 S0
M106 S255
G1 X8.857 Y48.95 F50
M106 S0
M106 S255
G1 X8.843 Y48.869 F50
M106 S0
M106 S255
G1 X8.825 Y48.788 F50
M106 S0
M106 S255
G1 X8.802 Y48.709 F50
M106 S0
M106 S255
G1 X8.775 Y48.632 F50
M106 S0
M106 S255
G1 X8.744 Y48.555 F50
M106 S0
M106 S255
G1 X8.71 Y48.48 F50
M106 S0
M106 S255
G1 X8.673 Y48.405 F50
M106 S0
M106 S255
G1 X8.635 Y48.331 F50
M106 S0
M106 S255
G1 X8.596 Y48.258 F50
M106 S0
M106 S255
G1 X8.969 Y48.258 F50
M106 S0
M106 S255
G1 X9.028 Y48.241 F50
M106 S0
M106 S255
G1 X9.086 Y48.223 F50
M106 S0
M106 S255
G1 X9.143 Y48.203 F50
M106 S0
M106 S255
G1 X9.2 Y48.181 F50
M106 S0
M106 S255
G1 X9.255 Y48.156 F50
M106 S0
M106 S255
G1 X9.308 Y48.128 F50
M106 S0
M106 S255
G1 X9.36 Y48.097 F50
M106 S0
M106 S255
G1 X9.41 Y48.062 F50
M106 S0
M106 S255
G1 X9.459 Y48.025 F50
M106 S0
M106 S255
G1 X9.516 Y47.975 F50
M106 S0
M106 S255
G1 X9.55 Y47.942 F50
M106 S0
M106 S255
G1 X9.593 Y47.897 F50
M106 S0
M106 S255
G1 X9.633 Y47.85 F50
M106 S0
M106 S255
G1 X9.671 Y47.801 F50
M106 S0
M106 S255
G1 X9.705 Y47.75 F50
M106 S0
M106 S255
G1 X9.737 Y47.697 F50
M106 S0
M106 S255
G1 X9.765 Y47.643 F50
M106 S0
M106 S255
G1 X9.79 Y47.587 F50
M106 S0
M106 S255
G1 X9.811 Y47.53 F50
M106 S0
M106 S255
G1 X9.828 Y47.472 F50
M106 S0
M106 S255
G1 X9.841 Y47.413 F50
M106 S0
M106 S255
G1 X9.85 Y47.353 F50
M106 S0
M106 S255
G1 X9.856 Y47.292 F50
M106 S0
M106 S255
G1 X9.86 Y47.232 F50
M106 S0
M106 S255
G1 X9.861 Y47.171 F50
M106 S0
M106 S255
G1 X9.861 Y47.11 F50
M106 S0
M106 S255
G1 X9.86 Y47.048 F50
M106 S0
M106 S255
G1 X9.857 Y46.987 F50
M106 S0
M106 S255
G1 X9.852 Y46.927 F50
M106 S0
M106 S255
G1 X9.843 Y46.867 F50
M106 S0
M106 S255
G1 X9.831 Y46.81 F50
M106 S0
M106 S255
G1 X9.813 Y46.75 F50
M106 S0
M106 S255
G1 X9.79 Y46.693 F50
M106 S0
M106 S255
G1 X9.764 Y46.638 F50
M106 S0
M106 S255
G1 X9.733 Y46.584 F50
M106 S0
M106 S255
G1 X9.699 Y46.533 F50
M106 S0
M106 S255
G1 X9.662 Y46.483 F50
M106 S0
M106 S255
G1 X9.621 Y46.436 F50
M106 S0
M106 S255
G1 X9.578 Y46.392 F50
M106 S0
M106 S255
G1 X9.554 Y46.369 F50
M106 S0
M106 S255
G1 X9.486 Y46.312 F50
M106 S0
M106 S255
G1 X9.438 Y46.276 F50
M106 S0
M106 S255
G1 X9.387 Y46.242 F50
M106 S0
M106 S255
G1 X9.336 Y46.209 F50
M106 S0
M106 S255
G1 X9.284 Y46.178 F50
M106 S0
M106 S255
G1 X9.232 Y46.147 F50
M106 S0
M106 S255
G1 X9.179 Y46.117 F50
M106 S0
M106 S255
G1 X8.614 Y46.117 F50
M106 S0
M106 S255
G1 X8.614 Y46.058 F50
M106 S0
M106 S255
G1 X8.614 Y46.0 F50
M106 S0
M106 S255
G1 X8.613 Y45.941 F50
M106 S0
M106 S255
G1 X8.611 Y45.882 F50
M106 S0
M106 S255
G1 X8.607 Y45.824 F50
M106 S0
M106 S255
G1 X8.6 Y45.766 F50
M106 S0
M106 S255
G1 X8.591 Y45.708 F50
M106 S0
M106 S255
G1 X8.578 Y45.65 F50
M106 S0
M106 S255
G1 X8.562 Y45.593 F50
M106 S0
M106 S255
G1 X8.541 Y45.537 F50
M106 S0
M106 S255
G1 X8.517 Y45.482 F50
M106 S0
M106 S255
G1 X8.489 Y45.429 F50
M106 S0
M106 S255
G1 X8.457 Y45.378 F50
M106 S0
M106 S255
G1 X8.422 Y45.331 F50
M106 S0
M106 S255
G1 X8.383 Y45.288 F50
M106 S0
M106 S255
G1 X8.34 Y45.248 F50
M106 S0
M106 S255
G1 X8.294 Y45.214 F50
M106 S0
M106 S255
G1 X8.245 Y45.184 F50
M106 S0
M106 S255
G1 X8.193 Y45.157 F50
M106 S0
M106 S255
G1 X8.139 Y45.133 F50
M106 S0
M106 S255
G1 X8.084 Y45.111 F50
M106 S0
M106 S255
G1 X8.027 Y45.091 F50
M106 S0
M106 S255
G1 X7.971 Y45.071 F50
M106 S0
M106 S255
G1 X7.968 Y44.948 F50
M106 S0
M106 S255
G1 X7.965 Y44.825 F50
M106 S0
M106 S255
G1 X7.963 Y44.701 F50
M106 S0
M106 S255
G1 X7.961 Y44.578 F50
M106 S0
M106 S255
G1 X7.96 Y44.455 F50
M106 S0
M106 S255
G1 X7.959 Y44.332 F50
M106 S0
M106 S255
G1 X7.96 Y44.208 F50
M106 S0
M106 S255
G1 X7.961 Y44.085 F50
M106 S0
M106 S255
G1 X7.964 Y43.961 F50
M106 S0
M106 S255
G1 X7.968 Y43.838 F50
M106 S0
M106 S255
G1 X7.971 Y43.776 F50
M106 S0
M106 S255
G1 X7.981 Y43.59 F50
M106 S0
M106 S255
G1 X7.991 Y43.467 F50
M106 S0
M106 S255
G1 X8.004 Y43.343 F50
M106 S0
M106 S255
G1 X8.02 Y43.221 F50
M106 S0
M106 S255
G1 X8.039 Y43.099 F50
M106 S0
M106 S255
G1 X8.063 Y42.978 F50
M106 S0
M106 S255
G1 X8.091 Y42.858 F50
M106 S0
M106 S255
G1 X8.112 Y42.78 F50
M106 S0
M106 S255
G1 X8.162 Y42.622 F50
M106 S0
M106 S255
G1 X8.204 Y42.506 F50
M106 S0
M106 S255
G1 X8.249 Y42.392 F50
M106 S0
M106 S255
G1 X8.297 Y42.278 F50
M106 S0
M106 S255
G1 X8.367 Y42.119 F50
M106 S0
M106 S255
G1 X8.398 Y42.052 F50
M106 S0
M106 S255
G1 X8.449 Y41.939 F50
M106 S0
M106 S255
G1 X8.5 Y41.827 F50
M106 S0
M106 S255
G1 X8.552 Y41.716 F50
M106 S0
M106 S255
G1 X8.604 Y41.604 F50
M106 S0
M106 S255
G1 X8.973 Y41.604 F50
M106 S0
M106 S255
G1 X9.635 Y41.053 F50
M106 S0
M106 S255
G1 X9.635 Y40.579 F50
M106 S0
M106 S0
