;GCode generated by Numa's program v0.0
G0 X13.149 Y8.102 F6000
M106 S255
G1 X13.149 Y8.102 F200
M106 S0
M106 S255
G1 X13.149 Y3.294 F200
M106 S0
M106 S255
G1 X12.915 Y3.272 F200
M106 S0
M106 S255
G1 X12.68 Y3.25 F200
M106 S0
M106 S255
G1 X12.446 Y3.228 F200
M106 S0
M106 S255
G1 X12.211 Y3.205 F200
M106 S0
M106 S255
G1 X11.977 Y3.183 F200
M106 S0
M106 S255
G1 X11.742 Y3.16 F200
M106 S0
M106 S255
G1 X11.508 Y3.136 F200
M106 S0
M106 S255
G1 X11.273 Y3.113 F200
M106 S0
M106 S255
G1 X11.089 Y3.094 F200
M106 S0
M106 S255
G1 X10.804 Y3.064 F200
M106 S0
M106 S255
G1 X10.57 Y3.039 F200
M106 S0
M106 S255
G1 X10.335 Y3.015 F200
M106 S0
M106 S255
G1 X10.1 Y2.992 F200
M106 S0
M106 S255
G1 X9.866 Y2.971 F200
M106 S0
M106 S255
G1 X9.631 Y2.952 F200
M106 S0
M106 S255
G1 X9.396 Y2.935 F200
M106 S0
M106 S255
G1 X9.161 Y2.922 F200
M106 S0
M106 S255
G1 X8.941 Y2.914 F200
M106 S0
M106 S255
G1 X8.69 Y2.908 F200
M106 S0
M106 S255
G1 X8.455 Y2.907 F200
M106 S0
M106 S255
G1 X8.219 Y2.907 F200
M106 S0
M106 S255
G1 X7.983 Y2.91 F200
M106 S0
M106 S255
G1 X7.748 Y2.914 F200
M106 S0
M106 S255
G1 X7.512 Y2.91 F200
M106 S0
M106 S255
G1 X7.276 Y2.907 F200
M106 S0
M106 S255
G1 X7.04 Y2.907 F200
M106 S0
M106 S255
G1 X6.805 Y2.908 F200
M106 S0
M106 S255
G1 X6.554 Y2.914 F200
M106 S0
M106 S255
G1 X6.334 Y2.922 F200
M106 S0
M106 S255
G1 X6.099 Y2.935 F200
M106 S0
M106 S255
G1 X5.864 Y2.952 F200
M106 S0
M106 S255
G1 X5.629 Y2.971 F200
M106 S0
M106 S255
G1 X5.395 Y2.992 F200
M106 S0
M106 S255
G1 X5.16 Y3.015 F200
M106 S0
M106 S255
G1 X4.925 Y3.039 F200
M106 S0
M106 S255
G1 X4.691 Y3.064 F200
M106 S0
M106 S255
G1 X4.406 Y3.094 F200
M106 S0
M106 S255
G1 X4.222 Y3.113 F200
M106 S0
M106 S255
G1 X3.987 Y3.136 F200
M106 S0
M106 S255
G1 X3.753 Y3.16 F200
M106 S0
M106 S255
G1 X3.518 Y3.183 F200
M106 S0
M106 S255
G1 X3.284 Y3.205 F200
M106 S0
M106 S255
G1 X3.049 Y3.228 F200
M106 S0
M106 S255
G1 X2.815 Y3.25 F200
M106 S0
M106 S255
G1 X2.58 Y3.272 F200
M106 S0
M106 S255
G1 X2.346 Y3.294 F200
M106 S0
M106 S255
G1 X2.346 Y8.102 F200
M106 S0
M106 S255
G1 X2.435 Y8.108 F200
M106 S0
M106 S255
G1 X2.524 Y8.114 F200
M106 S0
M106 S255
G1 X2.613 Y8.12 F200
M106 S0
M106 S255
G1 X2.702 Y8.126 F200
M106 S0
M106 S255
G1 X2.791 Y8.132 F200
M106 S0
M106 S255
G1 X2.88 Y8.138 F200
M106 S0
M106 S255
G1 X2.969 Y8.144 F200
M106 S0
M106 S255
G1 X3.058 Y8.149 F200
M106 S0
M106 S255
G1 X3.147 Y8.155 F200
M106 S0
M106 S255
G1 X3.236 Y8.16 F200
M106 S0
M106 S255
G1 X3.325 Y8.164 F200
M106 S0
M106 S255
G1 X3.414 Y8.169 F200
M106 S0
M106 S255
G1 X3.503 Y8.173 F200
M106 S0
M106 S255
G1 X3.593 Y8.177 F200
M106 S0
M106 S255
G1 X3.682 Y8.18 F200
M106 S0
M106 S255
G1 X3.771 Y8.183 F200
M106 S0
M106 S255
G1 X3.86 Y8.186 F200
M106 S0
M106 S255
G1 X3.696 Y8.259 F200
M106 S0
M106 S255
G1 X3.535 Y8.335 F200
M106 S0
M106 S255
G1 X3.376 Y8.415 F200
M106 S0
M106 S255
G1 X3.22 Y8.501 F200
M106 S0
M106 S255
G1 X3.068 Y8.595 F200
M106 S0
M106 S255
G1 X2.922 Y8.696 F200
M106 S0
M106 S255
G1 X2.78 Y8.806 F200
M106 S0
M106 S255
G1 X2.644 Y8.924 F200
M106 S0
M106 S255
G1 X2.514 Y9.05 F200
M106 S0
M106 S255
G1 X2.391 Y9.183 F200
M106 S0
M106 S255
G1 X2.274 Y9.322 F200
M106 S0
M106 S255
G1 X2.165 Y9.468 F200
M106 S0
M106 S255
G1 X2.063 Y9.618 F200
M106 S0
M106 S255
G1 X1.968 Y9.774 F200
M106 S0
M106 S255
G1 X1.882 Y9.933 F200
M106 S0
M106 S255
G1 X1.805 Y10.097 F200
M106 S0
M106 S255
G1 X1.736 Y10.263 F200
M106 S0
M106 S255
G1 X1.677 Y10.432 F200
M106 S0
M106 S255
G1 X1.626 Y10.604 F200
M106 S0
M106 S255
G1 X1.584 Y10.777 F200
M106 S0
M106 S255
G1 X1.549 Y10.952 F200
M106 S0
M106 S255
G1 X1.521 Y11.129 F200
M106 S0
M106 S255
G1 X1.5 Y11.307 F200
M106 S0
M106 S255
G1 X1.485 Y11.485 F200
M106 S0
M106 S255
G1 X1.475 Y11.665 F200
M106 S0
M106 S255
G1 X1.471 Y11.844 F200
M106 S0
M106 S255
G1 X1.474 Y12.023 F200
M106 S0
M106 S255
G1 X1.487 Y12.201 F200
M106 S0
M106 S255
G1 X1.511 Y12.378 F200
M106 S0
M106 S255
G1 X1.547 Y12.553 F200
M106 S0
M106 S255
G1 X1.598 Y12.725 F200
M106 S0
M106 S255
G1 X1.662 Y12.893 F200
M106 S0
M106 S255
G1 X1.74 Y13.055 F200
M106 S0
M106 S255
G1 X1.831 Y13.211 F200
M106 S0
M106 S255
G1 X1.934 Y13.358 F200
M106 S0
M106 S255
G1 X2.049 Y13.496 F200
M106 S0
M106 S255
G1 X2.174 Y13.623 F200
M106 S0
M106 S255
G1 X2.31 Y13.74 F200
M106 S0
M106 S255
G1 X2.454 Y13.847 F200
M106 S0
M106 S255
G1 X2.606 Y13.944 F200
M106 S0
M106 S255
G1 X2.765 Y14.03 F200
M106 S0
M106 S255
G1 X2.928 Y14.105 F200
M106 S0
M106 S255
G1 X3.097 Y14.17 F200
M106 S0
M106 S255
G1 X3.269 Y14.224 F200
M106 S0
M106 S255
G1 X3.443 Y14.266 F200
M106 S0
M106 S255
G1 X3.62 Y14.296 F200
M106 S0
M106 S255
G1 X3.798 Y14.313 F200
M106 S0
M106 S255
G1 X3.977 Y14.317 F200
M106 S0
M106 S255
G1 X4.156 Y14.306 F200
M106 S0
M106 S255
G1 X4.334 Y14.283 F200
M106 S0
M106 S255
G1 X4.51 Y14.247 F200
M106 S0
M106 S255
G1 X4.684 Y14.198 F200
M106 S0
M106 S255
G1 X4.855 Y14.139 F200
M106 S0
M106 S255
G1 X5.022 Y14.069 F200
M106 S0
M106 S255
G1 X5.184 Y13.988 F200
M106 S0
M106 S255
G1 X5.342 Y13.899 F200
M106 S0
M106 S255
G1 X5.494 Y13.8 F200
M106 S0
M106 S255
G1 X5.639 Y13.693 F200
M106 S0
M106 S255
G1 X5.777 Y13.578 F200
M106 S0
M106 S255
G1 X5.908 Y13.455 F200
M106 S0
M106 S255
G1 X6.032 Y13.325 F200
M106 S0
M106 S255
G1 X6.146 Y13.188 F200
M106 S0
M106 S255
G1 X6.252 Y13.045 F200
M106 S0
M106 S255
G1 X6.349 Y12.895 F200
M106 S0
M106 S255
G1 X6.44 Y12.742 F200
M106 S0
M106 S255
G1 X6.443 Y12.842 F200
M106 S0
M106 S255
G1 X6.447 Y12.943 F200
M106 S0
M106 S255
G1 X6.452 Y13.043 F200
M106 S0
M106 S255
G1 X6.457 Y13.143 F200
M106 S0
M106 S255
G1 X6.464 Y13.243 F200
M106 S0
M106 S255
G1 X6.473 Y13.343 F200
M106 S0
M106 S255
G1 X6.483 Y13.442 F200
M106 S0
M106 S255
G1 X6.496 Y13.542 F200
M106 S0
M106 S255
G1 X6.511 Y13.641 F200
M106 S0
M106 S255
G1 X6.527 Y13.74 F200
M106 S0
M106 S255
G1 X6.546 Y13.839 F200
M106 S0
M106 S255
G1 X6.567 Y13.938 F200
M106 S0
M106 S255
G1 X6.59 Y14.036 F200
M106 S0
M106 S255
G1 X6.615 Y14.133 F200
M106 S0
M106 S255
G1 X6.642 Y14.23 F200
M106 S0
M106 S255
G1 X6.672 Y14.326 F200
M106 S0
M106 S255
G1 X6.703 Y14.421 F200
M106 S0
M106 S255
G1 X6.737 Y14.516 F200
M106 S0
M106 S255
G1 X6.772 Y14.61 F200
M106 S0
M106 S255
G1 X6.809 Y14.703 F200
M106 S0
M106 S255
G1 X6.849 Y14.795 F200
M106 S0
M106 S255
G1 X6.89 Y14.886 F200
M106 S0
M106 S255
G1 X6.932 Y14.977 F200
M106 S0
M106 S255
G1 X6.976 Y15.067 F200
M106 S0
M106 S255
G1 X7.021 Y15.157 F200
M106 S0
M106 S255
G1 X7.067 Y15.246 F200
M106 S0
M106 S255
G1 X7.114 Y15.335 F200
M106 S0
M106 S255
G1 X7.161 Y15.424 F200
M106 S0
M106 S255
G1 X7.209 Y15.512 F200
M106 S0
M106 S255
G1 X7.257 Y15.601 F200
M106 S0
M106 S255
G1 X7.306 Y15.689 F200
M106 S0
M106 S255
G1 X7.357 Y15.775 F200
M106 S0
M106 S255
G1 X7.409 Y15.861 F200
M106 S0
M106 S255
G1 X7.464 Y15.944 F200
M106 S0
M106 S255
G1 X7.522 Y16.026 F200
M106 S0
M106 S255
G1 X7.583 Y16.105 F200
M106 S0
M106 S255
G1 X7.647 Y16.182 F200
M106 S0
M106 S255
G1 X7.714 Y16.257 F200
M106 S0
M106 S255
G1 X7.781 Y16.257 F200
M106 S0
M106 S255
G1 X7.848 Y16.182 F200
M106 S0
M106 S255
G1 X7.912 Y16.105 F200
M106 S0
M106 S255
G1 X7.973 Y16.026 F200
M106 S0
M106 S255
G1 X8.031 Y15.944 F200
M106 S0
M106 S255
G1 X8.086 Y15.861 F200
M106 S0
M106 S255
G1 X8.138 Y15.775 F200
M106 S0
M106 S255
G1 X8.189 Y15.689 F200
M106 S0
M106 S255
G1 X8.238 Y15.601 F200
M106 S0
M106 S255
G1 X8.286 Y15.512 F200
M106 S0
M106 S255
G1 X8.334 Y15.424 F200
M106 S0
M106 S255
G1 X8.381 Y15.335 F200
M106 S0
M106 S255
G1 X8.428 Y15.246 F200
M106 S0
M106 S255
G1 X8.474 Y15.157 F200
M106 S0
M106 S255
G1 X8.519 Y15.067 F200
M106 S0
M106 S255
G1 X8.563 Y14.977 F200
M106 S0
M106 S255
G1 X8.605 Y14.886 F200
M106 S0
M106 S255
G1 X8.646 Y14.795 F200
M106 S0
M106 S255
G1 X8.686 Y14.703 F200
M106 S0
M106 S255
G1 X8.723 Y14.61 F200
M106 S0
M106 S255
G1 X8.759 Y14.516 F200
M106 S0
M106 S255
G1 X8.792 Y14.421 F200
M106 S0
M106 S255
G1 X8.823 Y14.326 F200
M106 S0
M106 S255
G1 X8.853 Y14.23 F200
M106 S0
M106 S255
G1 X8.88 Y14.133 F200
M106 S0
M106 S255
G1 X8.905 Y14.036 F200
M106 S0
M106 S255
G1 X8.928 Y13.938 F200
M106 S0
M106 S255
G1 X8.949 Y13.839 F200
M106 S0
M106 S255
G1 X8.968 Y13.74 F200
M106 S0
M106 S255
G1 X8.985 Y13.641 F200
M106 S0
M106 S255
G1 X8.999 Y13.542 F200
M106 S0
M106 S255
G1 X9.012 Y13.442 F200
M106 S0
M106 S255
G1 X9.022 Y13.343 F200
M106 S0
M106 S255
G1 X9.031 Y13.243 F200
M106 S0
M106 S255
G1 X9.038 Y13.143 F200
M106 S0
M106 S255
G1 X9.043 Y13.043 F200
M106 S0
M106 S255
G1 X9.048 Y12.943 F200
M106 S0
M106 S255
G1 X9.052 Y12.842 F200
M106 S0
M106 S255
G1 X9.055 Y12.742 F200
M106 S0
M106 S255
G1 X9.146 Y12.895 F200
M106 S0
M106 S255
G1 X9.243 Y13.045 F200
M106 S0
M106 S255
G1 X9.349 Y13.188 F200
M106 S0
M106 S255
G1 X9.464 Y13.325 F200
M106 S0
M106 S255
G1 X9.587 Y13.455 F200
M106 S0
M106 S255
G1 X9.718 Y13.578 F200
M106 S0
M106 S255
G1 X9.856 Y13.693 F200
M106 S0
M106 S255
G1 X10.001 Y13.8 F200
M106 S0
M106 S255
G1 X10.153 Y13.899 F200
M106 S0
M106 S255
G1 X10.311 Y13.988 F200
M106 S0
M106 S255
G1 X10.473 Y14.069 F200
M106 S0
M106 S255
G1 X10.641 Y14.139 F200
M106 S0
M106 S255
G1 X10.811 Y14.198 F200
M106 S0
M106 S255
G1 X10.985 Y14.247 F200
M106 S0
M106 S255
G1 X11.162 Y14.283 F200
M106 S0
M106 S255
G1 X11.339 Y14.306 F200
M106 S0
M106 S255
G1 X11.518 Y14.317 F200
M106 S0
M106 S255
G1 X11.697 Y14.313 F200
M106 S0
M106 S255
G1 X11.875 Y14.296 F200
M106 S0
M106 S255
G1 X12.052 Y14.266 F200
M106 S0
M106 S255
G1 X12.227 Y14.224 F200
M106 S0
M106 S255
G1 X12.398 Y14.17 F200
M106 S0
M106 S255
G1 X12.567 Y14.105 F200
M106 S0
M106 S255
G1 X12.73 Y14.03 F200
M106 S0
M106 S255
G1 X12.889 Y13.944 F200
M106 S0
M106 S255
G1 X13.041 Y13.847 F200
M106 S0
M106 S255
G1 X13.185 Y13.74 F200
M106 S0
M106 S255
G1 X13.321 Y13.623 F200
M106 S0
M106 S255
G1 X13.446 Y13.496 F200
M106 S0
M106 S255
G1 X13.561 Y13.358 F200
M106 S0
M106 S255
G1 X13.664 Y13.211 F200
M106 S0
M106 S255
G1 X13.755 Y13.055 F200
M106 S0
M106 S255
G1 X13.833 Y12.893 F200
M106 S0
M106 S255
G1 X13.897 Y12.725 F200
M106 S0
M106 S255
G1 X13.948 Y12.553 F200
M106 S0
M106 S255
G1 X13.984 Y12.378 F200
M106 S0
M106 S255
G1 X14.008 Y12.201 F200
M106 S0
M106 S255
G1 X14.021 Y12.023 F200
M106 S0
M106 S255
G1 X14.024 Y11.844 F200
M106 S0
M106 S255
G1 X14.02 Y11.665 F200
M106 S0
M106 S255
G1 X14.01 Y11.485 F200
M106 S0
M106 S255
G1 X13.995 Y11.307 F200
M106 S0
M106 S255
G1 X13.974 Y11.129 F200
M106 S0
M106 S255
G1 X13.946 Y10.952 F200
M106 S0
M106 S255
G1 X13.911 Y10.777 F200
M106 S0
M106 S255
G1 X13.869 Y10.604 F200
M106 S0
M106 S255
G1 X13.818 Y10.432 F200
M106 S0
M106 S255
G1 X13.759 Y10.263 F200
M106 S0
M106 S255
G1 X13.69 Y10.097 F200
M106 S0
M106 S255
G1 X13.613 Y9.933 F200
M106 S0
M106 S255
G1 X13.527 Y9.774 F200
M106 S0
M106 S255
G1 X13.432 Y9.618 F200
M106 S0
M106 S255
G1 X13.33 Y9.468 F200
M106 S0
M106 S255
G1 X13.221 Y9.322 F200
M106 S0
M106 S255
G1 X13.104 Y9.183 F200
M106 S0
M106 S255
G1 X12.981 Y9.05 F200
M106 S0
M106 S255
G1 X12.851 Y8.924 F200
M106 S0
M106 S255
G1 X12.715 Y8.806 F200
M106 S0
M106 S255
G1 X12.574 Y8.696 F200
M106 S0
M106 S255
G1 X12.427 Y8.595 F200
M106 S0
M106 S255
G1 X12.275 Y8.501 F200
M106 S0
M106 S255
G1 X12.119 Y8.415 F200
M106 S0
M106 S255
G1 X11.96 Y8.335 F200
M106 S0
M106 S255
G1 X11.799 Y8.259 F200
M106 S0
M106 S255
G1 X11.635 Y8.186 F200
M106 S0
M106 S255
G1 X11.724 Y8.183 F200
M106 S0
M106 S255
G1 X11.813 Y8.18 F200
M106 S0
M106 S255
G1 X11.902 Y8.177 F200
M106 S0
M106 S255
G1 X11.992 Y8.173 F200
M106 S0
M106 S255
G1 X12.081 Y8.169 F200
M106 S0
M106 S255
G1 X12.17 Y8.164 F200
M106 S0
M106 S255
G1 X12.259 Y8.16 F200
M106 S0
M106 S255
G1 X12.348 Y8.155 F200
M106 S0
M106 S255
G1 X12.437 Y8.149 F200
M106 S0
M106 S255
G1 X12.526 Y8.144 F200
M106 S0
M106 S255
G1 X12.615 Y8.138 F200
M106 S0
M106 S255
G1 X12.704 Y8.132 F200
M106 S0
M106 S255
G1 X12.793 Y8.126 F200
M106 S0
M106 S255
G1 X12.882 Y8.12 F200
M106 S0
M106 S255
G1 X12.971 Y8.114 F200
M106 S0
M106 S255
G1 X13.06 Y8.108 F200
M106 S0
M106 S255
G1 X13.149 Y8.102 F200
M106 S0
G0 X10.392 Y21.54 F6000
M106 S255
G1 X10.392 Y21.54 F200
M106 S0
M106 S255
G1 X10.487 Y21.539 F200
M106 S0
M106 S255
G1 X10.582 Y21.535 F200
M106 S0
M106 S255
G1 X10.678 Y21.527 F200
M106 S0
M106 S255
G1 X10.773 Y21.516 F200
M106 S0
M106 S255
G1 X10.868 Y21.501 F200
M106 S0
M106 S255
G1 X10.962 Y21.481 F200
M106 S0
M106 S255
G1 X11.055 Y21.457 F200
M106 S0
M106 S255
G1 X11.146 Y21.428 F200
M106 S0
M106 S255
G1 X11.236 Y21.394 F200
M106 S0
M106 S255
G1 X11.323 Y21.355 F200
M106 S0
M106 S255
G1 X11.407 Y21.31 F200
M106 S0
M106 S255
G1 X11.489 Y21.259 F200
M106 S0
M106 S255
G1 X11.567 Y21.203 F200
M106 S0
M106 S255
G1 X11.641 Y21.141 F200
M106 S0
M106 S255
G1 X11.711 Y21.075 F200
M106 S0
M106 S255
G1 X11.776 Y21.005 F200
M106 S0
M106 S255
G1 X11.837 Y20.93 F200
M106 S0
M106 S255
G1 X11.892 Y20.852 F200
M106 S0
M106 S255
G1 X11.942 Y20.77 F200
M106 S0
M106 S255
G1 X11.987 Y20.684 F200
M106 S0
M106 S255
G1 X12.026 Y20.597 F200
M106 S0
M106 S255
G1 X12.06 Y20.507 F200
M106 S0
M106 S255
G1 X12.09 Y20.415 F200
M106 S0
M106 S255
G1 X12.114 Y20.322 F200
M106 S0
M106 S255
G1 X12.134 Y20.228 F200
M106 S0
M106 S255
G1 X12.15 Y20.133 F200
M106 S0
M106 S255
G1 X12.161 Y20.038 F200
M106 S0
M106 S255
G1 X12.168 Y19.943 F200
M106 S0
M106 S255
G1 X12.172 Y19.848 F200
M106 S0
M106 S255
G1 X12.173 Y19.753 F200
M106 S0
M106 S255
G1 X12.171 Y19.657 F200
M106 S0
M106 S255
G1 X12.167 Y19.562 F200
M106 S0
M106 S255
G1 X12.162 Y19.466 F200
M106 S0
M106 S255
G1 X12.156 Y19.371 F200
M106 S0
M106 S255
G1 X12.15 Y19.275 F200
M106 S0
M106 S255
G1 X7.538 Y19.275 F200
M106 S0
M106 S255
G1 X2.927 Y19.275 F200
M106 S0
M106 S255
G1 X2.921 Y19.371 F200
M106 S0
M106 S255
G1 X2.915 Y19.466 F200
M106 S0
M106 S255
G1 X2.909 Y19.562 F200
M106 S0
M106 S255
G1 X2.906 Y19.657 F200
M106 S0
M106 S255
G1 X2.904 Y19.753 F200
M106 S0
M106 S255
G1 X2.905 Y19.848 F200
M106 S0
M106 S255
G1 X2.909 Y19.943 F200
M106 S0
M106 S255
G1 X2.916 Y20.038 F200
M106 S0
M106 S255
G1 X2.927 Y20.133 F200
M106 S0
M106 S255
G1 X2.942 Y20.228 F200
M106 S0
M106 S255
G1 X2.962 Y20.322 F200
M106 S0
M106 S255
G1 X2.987 Y20.415 F200
M106 S0
M106 S255
G1 X3.016 Y20.507 F200
M106 S0
M106 S255
G1 X3.051 Y20.597 F200
M106 S0
M106 S255
G1 X3.09 Y20.684 F200
M106 S0
M106 S255
G1 X3.135 Y20.77 F200
M106 S0
M106 S255
G1 X3.185 Y20.852 F200
M106 S0
M106 S255
G1 X3.24 Y20.93 F200
M106 S0
M106 S255
G1 X3.3 Y21.005 F200
M106 S0
M106 S255
G1 X3.366 Y21.075 F200
M106 S0
M106 S255
G1 X3.436 Y21.141 F200
M106 S0
M106 S255
G1 X3.51 Y21.203 F200
M106 S0
M106 S255
G1 X3.588 Y21.259 F200
M106 S0
M106 S255
G1 X3.669 Y21.31 F200
M106 S0
M106 S255
G1 X3.754 Y21.355 F200
M106 S0
M106 S255
G1 X3.841 Y21.394 F200
M106 S0
M106 S255
G1 X3.931 Y21.428 F200
M106 S0
M106 S255
G1 X4.022 Y21.457 F200
M106 S0
M106 S255
G1 X4.115 Y21.481 F200
M106 S0
M106 S255
G1 X4.209 Y21.501 F200
M106 S0
M106 S255
G1 X4.304 Y21.516 F200
M106 S0
M106 S255
G1 X4.399 Y21.527 F200
M106 S0
M106 S255
G1 X4.494 Y21.535 F200
M106 S0
M106 S255
G1 X4.59 Y21.539 F200
M106 S0
M106 S255
G1 X4.685 Y21.54 F200
M106 S0
M106 S255
G1 X4.685 Y22.015 F200
M106 S0
M106 S255
G1 X5.346 Y22.566 F200
M106 S0
M106 S255
G1 X5.715 Y22.566 F200
M106 S0
M106 S255
G1 X5.767 Y22.677 F200
M106 S0
M106 S255
G1 X5.819 Y22.789 F200
M106 S0
M106 S255
G1 X5.87 Y22.901 F200
M106 S0
M106 S255
G1 X5.922 Y23.014 F200
M106 S0
M106 S255
G1 X5.952 Y23.081 F200
M106 S0
M106 S255
G1 X6.022 Y23.24 F200
M106 S0
M106 S255
G1 X6.07 Y23.353 F200
M106 S0
M106 S255
G1 X6.116 Y23.468 F200
M106 S0
M106 S255
G1 X6.158 Y23.584 F200
M106 S0
M106 S255
G1 X6.208 Y23.742 F200
M106 S0
M106 S255
G1 X6.229 Y23.82 F200
M106 S0
M106 S255
G1 X6.257 Y23.94 F200
M106 S0
M106 S255
G1 X6.28 Y24.06 F200
M106 S0
M106 S255
G1 X6.3 Y24.182 F200
M106 S0
M106 S255
G1 X6.316 Y24.305 F200
M106 S0
M106 S255
G1 X6.328 Y24.428 F200
M106 S0
M106 S255
G1 X6.338 Y24.552 F200
M106 S0
M106 S255
G1 X6.349 Y24.737 F200
M106 S0
M106 S255
G1 X6.351 Y24.8 F200
M106 S0
M106 S255
G1 X6.356 Y24.923 F200
M106 S0
M106 S255
G1 X6.358 Y25.047 F200
M106 S0
M106 S255
G1 X6.36 Y25.17 F200
M106 S0
M106 S255
G1 X6.36 Y25.294 F200
M106 S0
M106 S255
G1 X6.36 Y25.417 F200
M106 S0
M106 S255
G1 X6.359 Y25.54 F200
M106 S0
M106 S255
G1 X6.357 Y25.663 F200
M106 S0
M106 S255
G1 X6.354 Y25.786 F200
M106 S0
M106 S255
G1 X6.352 Y25.909 F200
M106 S0
M106 S255
G1 X6.349 Y26.033 F200
M106 S0
M106 S255
G1 X6.292 Y26.052 F200
M106 S0
M106 S255
G1 X6.236 Y26.073 F200
M106 S0
M106 S255
G1 X6.18 Y26.095 F200
M106 S0
M106 S255
G1 X6.127 Y26.119 F200
M106 S0
M106 S255
G1 X6.075 Y26.146 F200
M106 S0
M106 S255
G1 X6.026 Y26.176 F200
M106 S0
M106 S255
G1 X5.98 Y26.21 F200
M106 S0
M106 S255
G1 X5.937 Y26.249 F200
M106 S0
M106 S255
G1 X5.898 Y26.293 F200
M106 S0
M106 S255
G1 X5.862 Y26.34 F200
M106 S0
M106 S255
G1 X5.83 Y26.391 F200
M106 S0
M106 S255
G1 X5.802 Y26.444 F200
M106 S0
M106 S255
G1 X5.778 Y26.499 F200
M106 S0
M106 S255
G1 X5.758 Y26.555 F200
M106 S0
M106 S255
G1 X5.742 Y26.612 F200
M106 S0
M106 S255
G1 X5.729 Y26.67 F200
M106 S0
M106 S255
G1 X5.719 Y26.728 F200
M106 S0
M106 S255
G1 X5.713 Y26.786 F200
M106 S0
M106 S255
G1 X5.709 Y26.844 F200
M106 S0
M106 S255
G1 X5.706 Y26.903 F200
M106 S0
M106 S255
G1 X5.705 Y26.961 F200
M106 S0
M106 S255
G1 X5.705 Y27.02 F200
M106 S0
M106 S255
G1 X5.706 Y27.079 F200
M106 S0
M106 S255
G1 X5.141 Y27.079 F200
M106 S0
M106 S255
G1 X5.088 Y27.109 F200
M106 S0
M106 S255
G1 X5.035 Y27.14 F200
M106 S0
M106 S255
G1 X4.983 Y27.171 F200
M106 S0
M106 S255
G1 X4.932 Y27.204 F200
M106 S0
M106 S255
G1 X4.882 Y27.238 F200
M106 S0
M106 S255
G1 X4.833 Y27.274 F200
M106 S0
M106 S255
G1 X4.765 Y27.331 F200
M106 S0
M106 S255
G1 X4.741 Y27.354 F200
M106 S0
M106 S255
G1 X4.698 Y27.398 F200
M106 S0
M106 S255
G1 X4.658 Y27.445 F200
M106 S0
M106 S255
G1 X4.621 Y27.495 F200
M106 S0
M106 S255
G1 X4.586 Y27.546 F200
M106 S0
M106 S255
G1 X4.556 Y27.6 F200
M106 S0
M106 S255
G1 X4.529 Y27.655 F200
M106 S0
M106 S255
G1 X4.507 Y27.712 F200
M106 S0
M106 S255
G1 X4.489 Y27.772 F200
M106 S0
M106 S255
G1 X4.476 Y27.829 F200
M106 S0
M106 S255
G1 X4.468 Y27.888 F200
M106 S0
M106 S255
G1 X4.462 Y27.949 F200
M106 S0
M106 S255
G1 X4.46 Y28.01 F200
M106 S0
M106 S255
G1 X4.459 Y28.071 F200
M106 S0
M106 S255
G1 X4.459 Y28.132 F200
M106 S0
M106 S255
G1 X4.46 Y28.193 F200
M106 S0
M106 S255
G1 X4.463 Y28.254 F200
M106 S0
M106 S255
G1 X4.469 Y28.315 F200
M106 S0
M106 S255
G1 X4.479 Y28.374 F200
M106 S0
M106 S255
G1 X4.491 Y28.433 F200
M106 S0
M106 S255
G1 X4.508 Y28.492 F200
M106 S0
M106 S255
G1 X4.529 Y28.549 F200
M106 S0
M106 S255
G1 X4.554 Y28.604 F200
M106 S0
M106 S255
G1 X4.583 Y28.659 F200
M106 S0
M106 S255
G1 X4.614 Y28.712 F200
M106 S0
M106 S255
G1 X4.649 Y28.763 F200
M106 S0
M106 S255
G1 X4.686 Y28.812 F200
M106 S0
M106 S255
G1 X4.727 Y28.859 F200
M106 S0
M106 S255
G1 X4.769 Y28.904 F200
M106 S0
M106 S255
G1 X4.803 Y28.937 F200
M106 S0
M106 S255
G1 X4.861 Y28.987 F200
M106 S0
M106 S255
G1 X4.909 Y29.024 F200
M106 S0
M106 S255
G1 X4.959 Y29.058 F200
M106 S0
M106 S255
G1 X5.011 Y29.09 F200
M106 S0
M106 S255
G1 X5.065 Y29.118 F200
M106 S0
M106 S255
G1 X5.12 Y29.143 F200
M106 S0
M106 S255
G1 X5.176 Y29.165 F200
M106 S0
M106 S255
G1 X5.234 Y29.185 F200
M106 S0
M106 S255
G1 X5.292 Y29.202 F200
M106 S0
M106 S255
G1 X5.35 Y29.219 F200
M106 S0
M106 S255
G1 X5.723 Y29.219 F200
M106 S0
M106 S255
G1 X5.684 Y29.293 F200
M106 S0
M106 S255
G1 X5.646 Y29.367 F200
M106 S0
M106 S255
G1 X5.61 Y29.442 F200
M106 S0
M106 S255
G1 X5.575 Y29.517 F200
M106 S0
M106 S255
G1 X5.544 Y29.594 F200
M106 S0
M106 S255
G1 X5.517 Y29.671 F200
M106 S0
M106 S255
G1 X5.494 Y29.75 F200
M106 S0
M106 S255
G1 X5.476 Y29.831 F200
M106 S0
M106 S255
G1 X5.463 Y29.912 F200
M106 S0
M106 S255
G1 X5.453 Y29.994 F200
M106 S0
M106 S255
G1 X5.446 Y30.077 F200
M106 S0
M106 S255
G1 X5.442 Y30.161 F200
M106 S0
M106 S255
G1 X5.441 Y30.244 F200
M106 S0
M106 S255
G1 X5.442 Y30.328 F200
M106 S0
M106 S255
G1 X5.444 Y30.411 F200
M106 S0
M106 S255
G1 X5.449 Y30.493 F200
M106 S0
M106 S255
G1 X5.456 Y30.576 F200
M106 S0
M106 S255
G1 X5.466 Y30.658 F200
M106 S0
M106 S255
G1 X5.479 Y30.739 F200
M106 S0
M106 S255
G1 X5.496 Y30.821 F200
M106 S0
M106 S255
G1 X5.515 Y30.902 F200
M106 S0
M106 S255
G1 X5.538 Y30.982 F200
M106 S0
M106 S255
G1 X5.564 Y31.061 F200
M106 S0
M106 S255
G1 X5.594 Y31.14 F200
M106 S0
M106 S255
G1 X5.627 Y31.217 F200
M106 S0
M106 S255
G1 X5.664 Y31.293 F200
M106 S0
M106 S255
G1 X5.703 Y31.366 F200
M106 S0
M106 S255
G1 X5.746 Y31.438 F200
M106 S0
M106 S255
G1 X5.793 Y31.507 F200
M106 S0
M106 S255
G1 X5.843 Y31.574 F200
M106 S0
M106 S255
G1 X5.896 Y31.638 F200
M106 S0
M106 S255
G1 X5.952 Y31.699 F200
M106 S0
M106 S255
G1 X6.011 Y31.757 F200
M106 S0
M106 S255
G1 X6.074 Y31.812 F200
M106 S0
M106 S255
G1 X6.139 Y31.864 F200
M106 S0
M106 S255
G1 X6.206 Y31.913 F200
M106 S0
M106 S255
G1 X6.275 Y31.958 F200
M106 S0
M106 S255
G1 X6.347 Y32.001 F200
M106 S0
M106 S255
G1 X6.42 Y32.04 F200
M106 S0
M106 S255
G1 X6.494 Y32.076 F200
M106 S0
M106 S255
G1 X6.57 Y32.11 F200
M106 S0
M106 S255
G1 X6.647 Y32.14 F200
M106 S0
M106 S255
G1 X6.725 Y32.168 F200
M106 S0
M106 S255
G1 X6.804 Y32.193 F200
M106 S0
M106 S255
G1 X6.884 Y32.216 F200
M106 S0
M106 S255
G1 X6.964 Y32.236 F200
M106 S0
M106 S255
G1 X7.045 Y32.253 F200
M106 S0
M106 S255
G1 X7.127 Y32.267 F200
M106 S0
M106 S255
G1 X7.209 Y32.278 F200
M106 S0
M106 S255
G1 X7.291 Y32.286 F200
M106 S0
M106 S255
G1 X7.373 Y32.291 F200
M106 S0
M106 S255
G1 X7.456 Y32.293 F200
M106 S0
M106 S255
G1 X7.538 Y32.294 F200
M106 S0
M106 S255
G1 X7.621 Y32.293 F200
M106 S0
M106 S255
G1 X7.704 Y32.291 F200
M106 S0
M106 S255
G1 X7.786 Y32.286 F200
M106 S0
M106 S255
G1 X7.868 Y32.278 F200
M106 S0
M106 S255
G1 X7.95 Y32.267 F200
M106 S0
M106 S255
G1 X8.031 Y32.253 F200
M106 S0
M106 S255
G1 X8.112 Y32.236 F200
M106 S0
M106 S255
G1 X8.193 Y32.216 F200
M106 S0
M106 S255
G1 X8.273 Y32.193 F200
M106 S0
M106 S255
G1 X8.352 Y32.168 F200
M106 S0
M106 S255
G1 X8.43 Y32.14 F200
M106 S0
M106 S255
G1 X8.507 Y32.11 F200
M106 S0
M106 S255
G1 X8.583 Y32.076 F200
M106 S0
M106 S255
G1 X8.657 Y32.04 F200
M106 S0
M106 S255
G1 X8.73 Y32.001 F200
M106 S0
M106 S255
G1 X8.801 Y31.958 F200
M106 S0
M106 S255
G1 X8.871 Y31.913 F200
M106 S0
M106 S255
G1 X8.938 Y31.864 F200
M106 S0
M106 S255
G1 X9.003 Y31.812 F200
M106 S0
M106 S255
G1 X9.065 Y31.757 F200
M106 S0
M106 S255
G1 X9.125 Y31.699 F200
M106 S0
M106 S255
G1 X9.181 Y31.638 F200
M106 S0
M106 S255
G1 X9.234 Y31.574 F200
M106 S0
M106 S255
G1 X9.284 Y31.507 F200
M106 S0
M106 S255
G1 X9.33 Y31.438 F200
M106 S0
M106 S255
G1 X9.373 Y31.366 F200
M106 S0
M106 S255
G1 X9.413 Y31.293 F200
M106 S0
M106 S255
G1 X9.45 Y31.217 F200
M106 S0
M106 S255
G1 X9.483 Y31.14 F200
M106 S0
M106 S255
G1 X9.512 Y31.061 F200
M106 S0
M106 S255
G1 X9.539 Y30.982 F200
M106 S0
M106 S255
G1 X9.562 Y30.902 F200
M106 S0
M106 S255
G1 X9.581 Y30.821 F200
M106 S0
M106 S255
G1 X9.597 Y30.739 F200
M106 S0
M106 S255
G1 X9.61 Y30.658 F200
M106 S0
M106 S255
G1 X9.62 Y30.576 F200
M106 S0
M106 S255
G1 X9.628 Y30.493 F200
M106 S0
M106 S255
G1 X9.632 Y30.411 F200
M106 S0
M106 S255
G1 X9.635 Y30.328 F200
M106 S0
M106 S255
G1 X9.636 Y30.244 F200
M106 S0
M106 S255
G1 X9.634 Y30.161 F200
M106 S0
M106 S255
G1 X9.631 Y30.077 F200
M106 S0
M106 S255
G1 X9.624 Y29.994 F200
M106 S0
M106 S255
G1 X9.614 Y29.912 F200
M106 S0
M106 S255
G1 X9.6 Y29.831 F200
M106 S0
M106 S255
G1 X9.582 Y29.75 F200
M106 S0
M106 S255
G1 X9.56 Y29.671 F200
M106 S0
M106 S255
G1 X9.532 Y29.594 F200
M106 S0
M106 S255
G1 X9.501 Y29.517 F200
M106 S0
M106 S255
G1 X9.467 Y29.442 F200
M106 S0
M106 S255
G1 X9.431 Y29.367 F200
M106 S0
M106 S255
G1 X9.392 Y29.293 F200
M106 S0
M106 S255
G1 X9.354 Y29.219 F200
M106 S0
M106 S255
G1 X9.727 Y29.219 F200
M106 S0
M106 S255
G1 X9.785 Y29.202 F200
M106 S0
M106 S255
G1 X9.843 Y29.185 F200
M106 S0
M106 S255
G1 X9.9 Y29.165 F200
M106 S0
M106 S255
G1 X9.957 Y29.143 F200
M106 S0
M106 S255
G1 X10.012 Y29.118 F200
M106 S0
M106 S255
G1 X10.065 Y29.09 F200
M106 S0
M106 S255
G1 X10.117 Y29.058 F200
M106 S0
M106 S255
G1 X10.168 Y29.024 F200
M106 S0
M106 S255
G1 X10.216 Y28.987 F200
M106 S0
M106 S255
G1 X10.273 Y28.937 F200
M106 S0
M106 S255
G1 X10.307 Y28.904 F200
M106 S0
M106 S255
G1 X10.35 Y28.859 F200
M106 S0
M106 S255
G1 X10.39 Y28.812 F200
M106 S0
M106 S255
G1 X10.428 Y28.763 F200
M106 S0
M106 S255
G1 X10.463 Y28.712 F200
M106 S0
M106 S255
G1 X10.494 Y28.659 F200
M106 S0
M106 S255
G1 X10.522 Y28.604 F200
M106 S0
M106 S255
G1 X10.547 Y28.549 F200
M106 S0
M106 S255
G1 X10.568 Y28.492 F200
M106 S0
M106 S255
G1 X10.585 Y28.433 F200
M106 S0
M106 S255
G1 X10.598 Y28.374 F200
M106 S0
M106 S255
G1 X10.607 Y28.315 F200
M106 S0
M106 S255
G1 X10.613 Y28.254 F200
M106 S0
M106 S255
G1 X10.617 Y28.193 F200
M106 S0
M106 S255
G1 X10.618 Y28.132 F200
M106 S0
M106 S255
G1 X10.618 Y28.071 F200
M106 S0
M106 S255
G1 X10.617 Y28.01 F200
M106 S0
M106 S255
G1 X10.614 Y27.949 F200
M106 S0
M106 S255
G1 X10.609 Y27.888 F200
M106 S0
M106 S255
G1 X10.6 Y27.829 F200
M106 S0
M106 S255
G1 X10.588 Y27.772 F200
M106 S0
M106 S255
G1 X10.57 Y27.712 F200
M106 S0
M106 S255
G1 X10.547 Y27.655 F200
M106 S0
M106 S255
G1 X10.521 Y27.6 F200
M106 S0
M106 S255
G1 X10.49 Y27.546 F200
M106 S0
M106 S255
G1 X10.456 Y27.495 F200
M106 S0
M106 S255
G1 X10.419 Y27.445 F200
M106 S0
M106 S255
G1 X10.378 Y27.398 F200
M106 S0
M106 S255
G1 X10.336 Y27.354 F200
M106 S0
M106 S255
G1 X10.311 Y27.331 F200
M106 S0
M106 S255
G1 X10.243 Y27.274 F200
M106 S0
M106 S255
G1 X10.195 Y27.238 F200
M106 S0
M106 S255
G1 X10.145 Y27.204 F200
M106 S0
M106 S255
G1 X10.093 Y27.171 F200
M106 S0
M106 S255
G1 X10.041 Y27.14 F200
M106 S0
M106 S255
G1 X9.989 Y27.109 F200
M106 S0
M106 S255
G1 X9.936 Y27.079 F200
M106 S0
M106 S255
G1 X9.371 Y27.079 F200
M106 S0
M106 S255
G1 X9.371 Y27.02 F200
M106 S0
M106 S255
G1 X9.371 Y26.961 F200
M106 S0
M106 S255
G1 X9.37 Y26.903 F200
M106 S0
M106 S255
G1 X9.368 Y26.844 F200
M106 S0
M106 S255
G1 X9.364 Y26.786 F200
M106 S0
M106 S255
G1 X9.357 Y26.728 F200
M106 S0
M106 S255
G1 X9.348 Y26.67 F200
M106 S0
M106 S255
G1 X9.335 Y26.612 F200
M106 S0
M106 S255
G1 X9.319 Y26.555 F200
M106 S0
M106 S255
G1 X9.298 Y26.499 F200
M106 S0
M106 S255
G1 X9.274 Y26.444 F200
M106 S0
M106 S255
G1 X9.246 Y26.391 F200
M106 S0
M106 S255
G1 X9.214 Y26.34 F200
M106 S0
M106 S255
G1 X9.179 Y26.293 F200
M106 S0
M106 S255
G1 X9.14 Y26.249 F200
M106 S0
M106 S255
G1 X9.097 Y26.21 F200
M106 S0
M106 S255
G1 X9.051 Y26.176 F200
M106 S0
M106 S255
G1 X9.002 Y26.146 F200
M106 S0
M106 S255
G1 X8.95 Y26.119 F200
M106 S0
M106 S255
G1 X8.896 Y26.095 F200
M106 S0
M106 S255
G1 X8.841 Y26.073 F200
M106 S0
M106 S255
G1 X8.785 Y26.052 F200
M106 S0
M106 S255
G1 X8.728 Y26.033 F200
M106 S0
M106 S255
G1 X8.725 Y25.909 F200
M106 S0
M106 S255
G1 X8.722 Y25.786 F200
M106 S0
M106 S255
G1 X8.72 Y25.663 F200
M106 S0
M106 S255
G1 X8.718 Y25.54 F200
M106 S0
M106 S255
G1 X8.717 Y25.417 F200
M106 S0
M106 S255
G1 X8.716 Y25.294 F200
M106 S0
M106 S255
G1 X8.717 Y25.17 F200
M106 S0
M106 S255
G1 X8.718 Y25.047 F200
M106 S0
M106 S255
G1 X8.721 Y24.923 F200
M106 S0
M106 S255
G1 X8.725 Y24.8 F200
M106 S0
M106 S255
G1 X8.728 Y24.737 F200
M106 S0
M106 S255
G1 X8.738 Y24.552 F200
M106 S0
M106 S255
G1 X8.748 Y24.428 F200
M106 S0
M106 S255
G1 X8.761 Y24.305 F200
M106 S0
M106 S255
G1 X8.777 Y24.182 F200
M106 S0
M106 S255
G1 X8.796 Y24.06 F200
M106 S0
M106 S255
G1 X8.82 Y23.94 F200
M106 S0
M106 S255
G1 X8.848 Y23.82 F200
M106 S0
M106 S255
G1 X8.869 Y23.742 F200
M106 S0
M106 S255
G1 X8.919 Y23.584 F200
M106 S0
M106 S255
G1 X8.961 Y23.468 F200
M106 S0
M106 S255
G1 X9.007 Y23.353 F200
M106 S0
M106 S255
G1 X9.055 Y23.24 F200
M106 S0
M106 S255
G1 X9.125 Y23.081 F200
M106 S0
M106 S255
G1 X9.155 Y23.014 F200
M106 S0
M106 S255
G1 X9.206 Y22.901 F200
M106 S0
M106 S255
G1 X9.258 Y22.789 F200
M106 S0
M106 S255
G1 X9.309 Y22.677 F200
M106 S0
M106 S255
G1 X9.361 Y22.566 F200
M106 S0
M106 S255
G1 X9.73 Y22.566 F200
M106 S0
M106 S255
G1 X10.392 Y22.015 F200
M106 S0
M106 S255
G1 X10.392 Y21.54 F200
M106 S0
G0 X9.635 Y40.579 F6000
M106 S255
G1 X9.635 Y40.579 F200
M106 S0
M106 S255
G1 X9.73 Y40.577 F200
M106 S0
M106 S255
G1 X9.825 Y40.573 F200
M106 S0
M106 S255
G1 X9.92 Y40.565 F200
M106 S0
M106 S255
G1 X10.016 Y40.554 F200
M106 S0
M106 S255
G1 X10.111 Y40.539 F200
M106 S0
M106 S255
G1 X10.205 Y40.52 F200
M106 S0
M106 S255
G1 X10.298 Y40.495 F200
M106 S0
M106 S255
G1 X10.389 Y40.467 F200
M106 S0
M106 S255
G1 X10.478 Y40.432 F200
M106 S0
M106 S255
G1 X10.566 Y40.393 F200
M106 S0
M106 S255
G1 X10.65 Y40.348 F200
M106 S0
M106 S255
G1 X10.731 Y40.297 F200
M106 S0
M106 S255
G1 X10.809 Y40.241 F200
M106 S0
M106 S255
G1 X10.884 Y40.179 F200
M106 S0
M106 S255
G1 X10.954 Y40.113 F200
M106 S0
M106 S255
G1 X11.019 Y40.043 F200
M106 S0
M106 S255
G1 X11.08 Y39.968 F200
M106 S0
M106 S255
G1 X11.135 Y39.89 F200
M106 S0
M106 S255
G1 X11.185 Y39.808 F200
M106 S0
M106 S255
G1 X11.229 Y39.723 F200
M106 S0
M106 S255
G1 X11.269 Y39.635 F200
M106 S0
M106 S255
G1 X11.303 Y39.545 F200
M106 S0
M106 S255
G1 X11.332 Y39.453 F200
M106 S0
M106 S255
G1 X11.357 Y39.36 F200
M106 S0
M106 S255
G1 X11.377 Y39.266 F200
M106 S0
M106 S255
G1 X11.393 Y39.171 F200
M106 S0
M106 S255
G1 X11.404 Y39.076 F200
M106 S0
M106 S255
G1 X11.411 Y38.981 F200
M106 S0
M106 S255
G1 X11.415 Y38.886 F200
M106 S0
M106 S255
G1 X11.415 Y38.791 F200
M106 S0
M106 S255
G1 X11.414 Y38.695 F200
M106 S0
M106 S255
G1 X11.41 Y38.6 F200
M106 S0
M106 S255
G1 X11.405 Y38.505 F200
M106 S0
M106 S255
G1 X11.399 Y38.409 F200
M106 S0
M106 S255
G1 X11.392 Y38.314 F200
M106 S0
M106 S255
G1 X6.781 Y38.314 F200
M106 S0
M106 S255
G1 X2.17 Y38.314 F200
M106 S0
M106 S255
G1 X2.163 Y38.409 F200
M106 S0
M106 S255
G1 X2.157 Y38.505 F200
M106 S0
M106 S255
G1 X2.152 Y38.6 F200
M106 S0
M106 S255
G1 X2.149 Y38.695 F200
M106 S0
M106 S255
G1 X2.147 Y38.791 F200
M106 S0
M106 S255
G1 X2.148 Y38.886 F200
M106 S0
M106 S255
G1 X2.152 Y38.981 F200
M106 S0
M106 S255
G1 X2.159 Y39.076 F200
M106 S0
M106 S255
G1 X2.17 Y39.171 F200
M106 S0
M106 S255
G1 X2.185 Y39.266 F200
M106 S0
M106 S255
G1 X2.205 Y39.36 F200
M106 S0
M106 S255
G1 X2.23 Y39.453 F200
M106 S0
M106 S255
G1 X2.259 Y39.545 F200
M106 S0
M106 S255
G1 X2.294 Y39.635 F200
M106 S0
M106 S255
G1 X2.333 Y39.723 F200
M106 S0
M106 S255
G1 X2.378 Y39.808 F200
M106 S0
M106 S255
G1 X2.427 Y39.89 F200
M106 S0
M106 S255
G1 X2.483 Y39.968 F200
M106 S0
M106 S255
G1 X2.543 Y40.043 F200
M106 S0
M106 S255
G1 X2.609 Y40.113 F200
M106 S0
M106 S255
G1 X2.679 Y40.179 F200
M106 S0
M106 S255
G1 X2.753 Y40.241 F200
M106 S0
M106 S255
G1 X2.831 Y40.297 F200
M106 S0
M106 S255
G1 X2.912 Y40.348 F200
M106 S0
M106 S255
G1 X2.997 Y40.393 F200
M106 S0
M106 S255
G1 X3.084 Y40.432 F200
M106 S0
M106 S255
G1 X3.173 Y40.467 F200
M106 S0
M106 S255
G1 X3.265 Y40.495 F200
M106 S0
M106 S255
G1 X3.358 Y40.52 F200
M106 S0
M106 S255
G1 X3.452 Y40.539 F200
M106 S0
M106 S255
G1 X3.547 Y40.554 F200
M106 S0
M106 S255
G1 X3.642 Y40.565 F200
M106 S0
M106 S255
G1 X3.737 Y40.573 F200
M106 S0
M106 S255
G1 X3.832 Y40.577 F200
M106 S0
M106 S255
G1 X3.928 Y40.579 F200
M106 S0
M106 S255
G1 X3.928 Y41.053 F200
M106 S0
M106 S255
G1 X4.958 Y41.604 F200
M106 S0
M106 S255
G1 X5.01 Y41.716 F200
M106 S0
M106 S255
G1 X5.062 Y41.827 F200
M106 S0
M106 S255
G1 X5.113 Y41.939 F200
M106 S0
M106 S255
G1 X5.164 Y42.052 F200
M106 S0
M106 S255
G1 X5.195 Y42.119 F200
M106 S0
M106 S255
G1 X5.265 Y42.278 F200
M106 S0
M106 S255
G1 X5.313 Y42.392 F200
M106 S0
M106 S255
G1 X5.358 Y42.506 F200
M106 S0
M106 S255
G1 X5.401 Y42.622 F200
M106 S0
M106 S255
G1 X5.451 Y42.78 F200
M106 S0
M106 S255
G1 X5.472 Y42.858 F200
M106 S0
M106 S255
G1 X5.5 Y42.978 F200
M106 S0
M106 S255
G1 X5.523 Y43.099 F200
M106 S0
M106 S255
G1 X5.543 Y43.221 F200
M106 S0
M106 S255
G1 X5.559 Y43.343 F200
M106 S0
M106 S255
G1 X5.571 Y43.467 F200
M106 S0
M106 S255
G1 X5.581 Y43.59 F200
M106 S0
M106 S255
G1 X5.592 Y43.776 F200
M106 S0
M106 S255
G1 X5.594 Y43.838 F200
M106 S0
M106 S255
G1 X5.598 Y43.961 F200
M106 S0
M106 S255
G1 X5.601 Y44.085 F200
M106 S0
M106 S255
G1 X5.603 Y44.208 F200
M106 S0
M106 S255
G1 X5.603 Y44.332 F200
M106 S0
M106 S255
G1 X5.603 Y44.455 F200
M106 S0
M106 S255
G1 X5.601 Y44.578 F200
M106 S0
M106 S255
G1 X5.599 Y44.701 F200
M106 S0
M106 S255
G1 X5.597 Y44.825 F200
M106 S0
M106 S255
G1 X5.594 Y44.948 F200
M106 S0
M106 S255
G1 X5.592 Y45.071 F200
M106 S0
M106 S255
G1 X5.535 Y45.091 F200
M106 S0
M106 S255
G1 X5.479 Y45.111 F200
M106 S0
M106 S255
G1 X5.423 Y45.133 F200
M106 S0
M106 S255
G1 X5.37 Y45.157 F200
M106 S0
M106 S255
G1 X5.318 Y45.184 F200
M106 S0
M106 S255
G1 X5.269 Y45.214 F200
M106 S0
M106 S255
G1 X5.222 Y45.248 F200
M106 S0
M106 S255
G1 X5.18 Y45.288 F200
M106 S0
M106 S255
G1 X5.141 Y45.331 F200
M106 S0
M106 S255
G1 X5.105 Y45.378 F200
M106 S0
M106 S255
G1 X5.073 Y45.429 F200
M106 S0
M106 S255
G1 X5.045 Y45.482 F200
M106 S0
M106 S255
G1 X5.021 Y45.537 F200
M106 S0
M106 S255
G1 X5.001 Y45.593 F200
M106 S0
M106 S255
G1 X4.984 Y45.65 F200
M106 S0
M106 S255
G1 X4.972 Y45.708 F200
M106 S0
M106 S255
G1 X4.962 Y45.766 F200
M106 S0
M106 S255
G1 X4.956 Y45.824 F200
M106 S0
M106 S255
G1 X4.951 Y45.882 F200
M106 S0
M106 S255
G1 X4.949 Y45.941 F200
M106 S0
M106 S255
G1 X4.948 Y46.0 F200
M106 S0
M106 S255
G1 X4.948 Y46.058 F200
M106 S0
M106 S255
G1 X4.949 Y46.117 F200
M106 S0
M106 S255
G1 X4.383 Y46.117 F200
M106 S0
M106 S255
G1 X4.331 Y46.147 F200
M106 S0
M106 S255
G1 X4.278 Y46.178 F200
M106 S0
M106 S255
G1 X4.226 Y46.209 F200
M106 S0
M106 S255
G1 X4.175 Y46.242 F200
M106 S0
M106 S255
G1 X4.125 Y46.276 F200
M106 S0
M106 S255
G1 X4.076 Y46.312 F200
M106 S0
M106 S255
G1 X4.008 Y46.369 F200
M106 S0
M106 S255
G1 X3.984 Y46.392 F200
M106 S0
M106 S255
G1 X3.941 Y46.436 F200
M106 S0
M106 S255
G1 X3.901 Y46.483 F200
M106 S0
M106 S255
G1 X3.863 Y46.533 F200
M106 S0
M106 S255
G1 X3.829 Y46.584 F200
M106 S0
M106 S255
G1 X3.799 Y46.638 F200
M106 S0
M106 S255
G1 X3.772 Y46.693 F200
M106 S0
M106 S255
G1 X3.75 Y46.75 F200
M106 S0
M106 S255
G1 X3.732 Y46.81 F200
M106 S0
M106 S255
G1 X3.719 Y46.867 F200
M106 S0
M106 S255
G1 X3.711 Y46.927 F200
M106 S0
M106 S255
G1 X3.705 Y46.987 F200
M106 S0
M106 S255
G1 X3.702 Y47.048 F200
M106 S0
M106 S255
G1 X3.701 Y47.11 F200
M106 S0
M106 S255
G1 X3.701 Y47.171 F200
M106 S0
M106 S255
G1 X3.703 Y47.232 F200
M106 S0
M106 S255
G1 X3.706 Y47.292 F200
M106 S0
M106 S255
G1 X3.712 Y47.353 F200
M106 S0
M106 S255
G1 X3.721 Y47.413 F200
M106 S0
M106 S255
G1 X3.734 Y47.472 F200
M106 S0
M106 S255
G1 X3.751 Y47.53 F200
M106 S0
M106 S255
G1 X3.772 Y47.587 F200
M106 S0
M106 S255
G1 X3.797 Y47.643 F200
M106 S0
M106 S255
G1 X3.825 Y47.697 F200
M106 S0
M106 S255
G1 X3.857 Y47.75 F200
M106 S0
M106 S255
G1 X3.892 Y47.801 F200
M106 S0
M106 S255
G1 X3.929 Y47.85 F200
M106 S0
M106 S255
G1 X3.969 Y47.897 F200
M106 S0
M106 S255
G1 X4.012 Y47.942 F200
M106 S0
M106 S255
G1 X4.046 Y47.975 F200
M106 S0
M106 S255
G1 X4.103 Y48.025 F200
M106 S0
M106 S255
G1 X4.152 Y48.062 F200
M106 S0
M106 S255
G1 X4.202 Y48.097 F200
M106 S0
M106 S255
G1 X4.254 Y48.128 F200
M106 S0
M106 S255
G1 X4.308 Y48.156 F200
M106 S0
M106 S255
G1 X4.362 Y48.181 F200
M106 S0
M106 S255
G1 X4.419 Y48.203 F200
M106 S0
M106 S255
G1 X4.476 Y48.223 F200
M106 S0
M106 S255
G1 X4.535 Y48.241 F200
M106 S0
M106 S255
G1 X4.593 Y48.258 F200
M106 S0
M106 S255
G1 X4.966 Y48.258 F200
M106 S0
M106 S255
G1 X4.927 Y48.331 F200
M106 S0
M106 S255
G1 X4.889 Y48.405 F200
M106 S0
M106 S255
G1 X4.852 Y48.48 F200
M106 S0
M106 S255
G1 X4.818 Y48.555 F200
M106 S0
M106 S255
G1 X4.787 Y48.632 F200
M106 S0
M106 S255
G1 X4.76 Y48.709 F200
M106 S0
M106 S255
G1 X4.737 Y48.788 F200
M106 S0
M106 S255
G1 X4.719 Y48.869 F200
M106 S0
M106 S255
G1 X4.706 Y48.95 F200
M106 S0
M106 S255
G1 X4.696 Y49.033 F200
M106 S0
M106 S255
G1 X4.689 Y49.116 F200
M106 S0
M106 S255
G1 X4.685 Y49.199 F200
M106 S0
M106 S255
G1 X4.684 Y49.282 F200
M106 S0
M106 S255
G1 X4.684 Y49.366 F200
M106 S0
M106 S255
G1 X4.687 Y49.449 F200
M106 S0
M106 S255
G1 X4.692 Y49.531 F200
M106 S0
M106 S255
G1 X4.699 Y49.614 F200
M106 S0
M106 S255
G1 X4.709 Y49.696 F200
M106 S0
M106 S255
G1 X4.722 Y49.778 F200
M106 S0
M106 S255
G1 X4.738 Y49.859 F200
M106 S0
M106 S255
G1 X4.758 Y49.94 F200
M106 S0
M106 S255
G1 X4.781 Y50.02 F200
M106 S0
M106 S255
G1 X4.807 Y50.1 F200
M106 S0
M106 S255
G1 X4.837 Y50.178 F200
M106 S0
M106 S255
G1 X4.87 Y50.255 F200
M106 S0
M106 S255
G1 X4.906 Y50.331 F200
M106 S0
M106 S255
G1 X4.946 Y50.405 F200
M106 S0
M106 S255
G1 X4.989 Y50.476 F200
M106 S0
M106 S255
G1 X5.036 Y50.546 F200
M106 S0
M106 S255
G1 X5.085 Y50.612 F200
M106 S0
M106 S255
G1 X5.138 Y50.677 F200
M106 S0
M106 S255
G1 X5.195 Y50.738 F200
M106 S0
M106 S255
G1 X5.254 Y50.796 F200
M106 S0
M106 S255
G1 X5.316 Y50.85 F200
M106 S0
M106 S255
G1 X5.381 Y50.902 F200
M106 S0
M106 S255
G1 X5.449 Y50.951 F200
M106 S0
M106 S255
G1 X5.518 Y50.997 F200
M106 S0
M106 S255
G1 X5.589 Y51.039 F200
M106 S0
M106 S255
G1 X5.662 Y51.078 F200
M106 S0
M106 S255
G1 X5.737 Y51.115 F200
M106 S0
M106 S255
G1 X5.813 Y51.148 F200
M106 S0
M106 S255
G1 X5.89 Y51.179 F200
M106 S0
M106 S255
G1 X5.968 Y51.206 F200
M106 S0
M106 S255
G1 X6.047 Y51.232 F200
M106 S0
M106 S255
G1 X6.127 Y51.254 F200
M106 S0
M106 S255
G1 X6.207 Y51.274 F200
M106 S0
M106 S255
G1 X6.288 Y51.291 F200
M106 S0
M106 S255
G1 X6.37 Y51.306 F200
M106 S0
M106 S255
G1 X6.451 Y51.317 F200
M106 S0
M106 S255
G1 X6.534 Y51.325 F200
M106 S0
M106 S255
G1 X6.616 Y51.329 F200
M106 S0
M106 S255
G1 X6.698 Y51.332 F200
M106 S0
M106 S255
G1 X6.781 Y51.332 F200
M106 S0
M106 S255
G1 X6.864 Y51.332 F200
M106 S0
M106 S255
G1 X6.946 Y51.329 F200
M106 S0
M106 S255
G1 X7.029 Y51.325 F200
M106 S0
M106 S255
G1 X7.111 Y51.317 F200
M106 S0
M106 S255
G1 X7.193 Y51.306 F200
M106 S0
M106 S255
G1 X7.274 Y51.291 F200
M106 S0
M106 S255
G1 X7.355 Y51.274 F200
M106 S0
M106 S255
G1 X7.436 Y51.254 F200
M106 S0
M106 S255
G1 X7.516 Y51.232 F200
M106 S0
M106 S255
G1 X7.595 Y51.206 F200
M106 S0
M106 S255
G1 X7.673 Y51.179 F200
M106 S0
M106 S255
G1 X7.75 Y51.148 F200
M106 S0
M106 S255
G1 X7.826 Y51.115 F200
M106 S0
M106 S255
G1 X7.9 Y51.078 F200
M106 S0
M106 S255
G1 X7.973 Y51.039 F200
M106 S0
M106 S255
G1 X8.044 Y50.997 F200
M106 S0
M106 S255
G1 X8.114 Y50.951 F200
M106 S0
M106 S255
G1 X8.181 Y50.902 F200
M106 S0
M106 S255
G1 X8.246 Y50.85 F200
M106 S0
M106 S255
G1 X8.308 Y50.796 F200
M106 S0
M106 S255
G1 X8.368 Y50.738 F200
M106 S0
M106 S255
G1 X8.424 Y50.677 F200
M106 S0
M106 S255
G1 X8.477 Y50.612 F200
M106 S0
M106 S255
G1 X8.527 Y50.546 F200
M106 S0
M106 S255
G1 X8.573 Y50.476 F200
M106 S0
M106 S255
G1 X8.616 Y50.405 F200
M106 S0
M106 S255
G1 X8.656 Y50.331 F200
M106 S0
M106 S255
G1 X8.692 Y50.255 F200
M106 S0
M106 S255
G1 X8.725 Y50.178 F200
M106 S0
M106 S255
G1 X8.755 Y50.1 F200
M106 S0
M106 S255
G1 X8.781 Y50.02 F200
M106 S0
M106 S255
G1 X8.804 Y49.94 F200
M106 S0
M106 S255
G1 X8.824 Y49.859 F200
M106 S0
M106 S255
G1 X8.84 Y49.778 F200
M106 S0
M106 S255
G1 X8.853 Y49.696 F200
M106 S0
M106 S255
G1 X8.863 Y49.614 F200
M106 S0
M106 S255
G1 X8.87 Y49.531 F200
M106 S0
M106 S255
G1 X8.875 Y49.449 F200
M106 S0
M106 S255
G1 X8.878 Y49.366 F200
M106 S0
M106 S255
G1 X8.879 Y49.282 F200
M106 S0
M106 S255
G1 X8.877 Y49.199 F200
M106 S0
M106 S255
G1 X8.873 Y49.116 F200
M106 S0
M106 S255
G1 X8.867 Y49.033 F200
M106 S0
M106 S255
G1 X8.857 Y48.95 F200
M106 S0
M106 S255
G1 X8.843 Y48.869 F200
M106 S0
M106 S255
G1 X8.825 Y48.788 F200
M106 S0
M106 S255
G1 X8.802 Y48.709 F200
M106 S0
M106 S255
G1 X8.775 Y48.632 F200
M106 S0
M106 S255
G1 X8.744 Y48.555 F200
M106 S0
M106 S255
G1 X8.71 Y48.48 F200
M106 S0
M106 S255
G1 X8.673 Y48.405 F200
M106 S0
M106 S255
G1 X8.635 Y48.331 F200
M106 S0
M106 S255
G1 X8.596 Y48.258 F200
M106 S0
M106 S255
G1 X8.969 Y48.258 F200
M106 S0
M106 S255
G1 X9.028 Y48.241 F200
M106 S0
M106 S255
G1 X9.086 Y48.223 F200
M106 S0
M106 S255
G1 X9.143 Y48.203 F200
M106 S0
M106 S255
G1 X9.2 Y48.181 F200
M106 S0
M106 S255
G1 X9.255 Y48.156 F200
M106 S0
M106 S255
G1 X9.308 Y48.128 F200
M106 S0
M106 S255
G1 X9.36 Y48.097 F200
M106 S0
M106 S255
G1 X9.41 Y48.062 F200
M106 S0
M106 S255
G1 X9.459 Y48.025 F200
M106 S0
M106 S255
G1 X9.516 Y47.975 F200
M106 S0
M106 S255
G1 X9.55 Y47.942 F200
M106 S0
M106 S255
G1 X9.593 Y47.897 F200
M106 S0
M106 S255
G1 X9.633 Y47.85 F200
M106 S0
M106 S255
G1 X9.671 Y47.801 F200
M106 S0
M106 S255
G1 X9.705 Y47.75 F200
M106 S0
M106 S255
G1 X9.737 Y47.697 F200
M106 S0
M106 S255
G1 X9.765 Y47.643 F200
M106 S0
M106 S255
G1 X9.79 Y47.587 F200
M106 S0
M106 S255
G1 X9.811 Y47.53 F200
M106 S0
M106 S255
G1 X9.828 Y47.472 F200
M106 S0
M106 S255
G1 X9.841 Y47.413 F200
M106 S0
M106 S255
G1 X9.85 Y47.353 F200
M106 S0
M106 S255
G1 X9.856 Y47.292 F200
M106 S0
M106 S255
G1 X9.86 Y47.232 F200
M106 S0
M106 S255
G1 X9.861 Y47.171 F200
M106 S0
M106 S255
G1 X9.861 Y47.11 F200
M106 S0
M106 S255
G1 X9.86 Y47.048 F200
M106 S0
M106 S255
G1 X9.857 Y46.987 F200
M106 S0
M106 S255
G1 X9.852 Y46.927 F200
M106 S0
M106 S255
G1 X9.843 Y46.867 F200
M106 S0
M106 S255
G1 X9.831 Y46.81 F200
M106 S0
M106 S255
G1 X9.813 Y46.75 F200
M106 S0
M106 S255
G1 X9.79 Y46.693 F200
M106 S0
M106 S255
G1 X9.764 Y46.638 F200
M106 S0
M106 S255
G1 X9.733 Y46.584 F200
M106 S0
M106 S255
G1 X9.699 Y46.533 F200
M106 S0
M106 S255
G1 X9.662 Y46.483 F200
M106 S0
M106 S255
G1 X9.621 Y46.436 F200
M106 S0
M106 S255
G1 X9.578 Y46.392 F200
M106 S0
M106 S255
G1 X9.554 Y46.369 F200
M106 S0
M106 S255
G1 X9.486 Y46.312 F200
M106 S0
M106 S255
G1 X9.438 Y46.276 F200
M106 S0
M106 S255
G1 X9.387 Y46.242 F200
M106 S0
M106 S255
G1 X9.336 Y46.209 F200
M106 S0
M106 S255
G1 X9.284 Y46.178 F200
M106 S0
M106 S255
G1 X9.232 Y46.147 F200
M106 S0
M106 S255
G1 X9.179 Y46.117 F200
M106 S0
M106 S255
G1 X8.614 Y46.117 F200
M106 S0
M106 S255
G1 X8.614 Y46.058 F200
M106 S0
M106 S255
G1 X8.614 Y46.0 F200
M106 S0
M106 S255
G1 X8.613 Y45.941 F200
M106 S0
M106 S255
G1 X8.611 Y45.882 F200
M106 S0
M106 S255
G1 X8.607 Y45.824 F200
M106 S0
M106 S255
G1 X8.6 Y45.766 F200
M106 S0
M106 S255
G1 X8.591 Y45.708 F200
M106 S0
M106 S255
G1 X8.578 Y45.65 F200
M106 S0
M106 S255
G1 X8.562 Y45.593 F200
M106 S0
M106 S255
G1 X8.541 Y45.537 F200
M106 S0
M106 S255
G1 X8.517 Y45.482 F200
M106 S0
M106 S255
G1 X8.489 Y45.429 F200
M106 S0
M106 S255
G1 X8.457 Y45.378 F200
M106 S0
M106 S255
G1 X8.422 Y45.331 F200
M106 S0
M106 S255
G1 X8.383 Y45.288 F200
M106 S0
M106 S255
G1 X8.34 Y45.248 F200
M106 S0
M106 S255
G1 X8.294 Y45.214 F200
M106 S0
M106 S255
G1 X8.245 Y45.184 F200
M106 S0
M106 S255
G1 X8.193 Y45.157 F200
M106 S0
M106 S255
G1 X8.139 Y45.133 F200
M106 S0
M106 S255
G1 X8.084 Y45.111 F200
M106 S0
M106 S255
G1 X8.027 Y45.091 F200
M106 S0
M106 S255
G1 X7.971 Y45.071 F200
M106 S0
M106 S255
G1 X7.968 Y44.948 F200
M106 S0
M106 S255
G1 X7.965 Y44.825 F200
M106 S0
M106 S255
G1 X7.963 Y44.701 F200
M106 S0
M106 S255
G1 X7.961 Y44.578 F200
M106 S0
M106 S255
G1 X7.96 Y44.455 F200
M106 S0
M106 S255
G1 X7.959 Y44.332 F200
M106 S0
M106 S255
G1 X7.96 Y44.208 F200
M106 S0
M106 S255
G1 X7.961 Y44.085 F200
M106 S0
M106 S255
G1 X7.964 Y43.961 F200
M106 S0
M106 S255
G1 X7.968 Y43.838 F200
M106 S0
M106 S255
G1 X7.971 Y43.776 F200
M106 S0
M106 S255
G1 X7.981 Y43.59 F200
M106 S0
M106 S255
G1 X7.991 Y43.467 F200
M106 S0
M106 S255
G1 X8.004 Y43.343 F200
M106 S0
M106 S255
G1 X8.02 Y43.221 F200
M106 S0
M106 S255
G1 X8.039 Y43.099 F200
M106 S0
M106 S255
G1 X8.063 Y42.978 F200
M106 S0
M106 S255
G1 X8.091 Y42.858 F200
M106 S0
M106 S255
G1 X8.112 Y42.78 F200
M106 S0
M106 S255
G1 X8.162 Y42.622 F200
M106 S0
M106 S255
G1 X8.204 Y42.506 F200
M106 S0
M106 S255
G1 X8.249 Y42.392 F200
M106 S0
M106 S255
G1 X8.297 Y42.278 F200
M106 S0
M106 S255
G1 X8.367 Y42.119 F200
M106 S0
M106 S255
G1 X8.398 Y42.052 F200
M106 S0
M106 S255
G1 X8.449 Y41.939 F200
M106 S0
M106 S255
G1 X8.5 Y41.827 F200
M106 S0
M106 S255
G1 X8.552 Y41.716 F200
M106 S0
M106 S255
G1 X8.604 Y41.604 F200
M106 S0
M106 S255
G1 X9.635 Y41.053 F200
M106 S0
M106 S255
G1 X9.635 Y40.579 F200
M106 S0
G0 X9.633 Y40.479 F6000
M106 S255
G1 X9.633 Y40.479 F200
M106 S0
M106 S255
G1 X9.727 Y40.477 F200
M106 S0
M106 S255
G1 X9.727 Y40.477 F200
M106 S0
M106 S255
G1 X9.819 Y40.473 F200
M106 S0
M106 S255
G1 X9.819 Y40.473 F200
M106 S0
M106 S255
G1 X9.911 Y40.466 F200
M106 S0
M106 S255
G1 X9.911 Y40.466 F200
M106 S0
M106 S255
G1 X10.003 Y40.455 F200
M106 S0
M106 S255
G1 X10.003 Y40.455 F200
M106 S0
M106 S255
G1 X10.092 Y40.441 F200
M106 S0
M106 S255
G1 X10.092 Y40.441 F200
M106 S0
M106 S255
G1 X10.182 Y40.422 F200
M106 S0
M106 S255
G1 X10.182 Y40.422 F200
M106 S0
M106 S255
G1 X10.27 Y40.399 F200
M106 S0
M106 S255
G1 X10.27 Y40.399 F200
M106 S0
M106 S255
G1 X10.355 Y40.372 F200
M106 S0
M106 S255
G1 X10.355 Y40.372 F200
M106 S0
M106 S255
G1 X10.44 Y40.34 F200
M106 S0
M106 S255
G1 X10.44 Y40.34 F200
M106 S0
M106 S255
G1 X10.521 Y40.303 F200
M106 S0
M106 S255
G1 X10.521 Y40.303 F200
M106 S0
M106 S255
G1 X10.6 Y40.261 F200
M106 S0
M106 S255
G1 X10.6 Y40.261 F200
M106 S0
M106 S255
G1 X10.676 Y40.214 F200
M106 S0
M106 S255
G1 X10.676 Y40.214 F200
M106 S0
M106 S255
G1 X10.748 Y40.162 F200
M106 S0
M106 S255
G1 X10.748 Y40.162 F200
M106 S0
M106 S255
G1 X10.818 Y40.104 F200
M106 S0
M106 S255
G1 X10.818 Y40.104 F200
M106 S0
M106 S255
G1 X10.882 Y40.043 F200
M106 S0
M106 S255
G1 X10.882 Y40.043 F200
M106 S0
M106 S255
G1 X10.943 Y39.978 F200
M106 S0
M106 S255
G1 X10.943 Y39.978 F200
M106 S0
M106 S255
G1 X11.0 Y39.907 F200
M106 S0
M106 S255
G1 X11.0 Y39.907 F200
M106 S0
M106 S255
G1 X11.051 Y39.835 F200
M106 S0
M106 S255
G1 X11.051 Y39.835 F200
M106 S0
M106 S255
G1 X11.098 Y39.758 F200
M106 S0
M106 S255
G1 X11.098 Y39.758 F200
M106 S0
M106 S255
G1 X11.139 Y39.679 F200
M106 S0
M106 S255
G1 X11.139 Y39.679 F200
M106 S0
M106 S255
G1 X11.176 Y39.597 F200
M106 S0
M106 S255
G1 X11.176 Y39.597 F200
M106 S0
M106 S255
G1 X11.209 Y39.511 F200
M106 S0
M106 S255
G1 X11.209 Y39.511 F200
M106 S0
M106 S255
G1 X11.236 Y39.426 F200
M106 S0
M106 S255
G1 X11.236 Y39.426 F200
M106 S0
M106 S255
G1 X11.26 Y39.336 F200
M106 S0
M106 S255
G1 X11.26 Y39.336 F200
M106 S0
M106 S255
G1 X11.279 Y39.248 F200
M106 S0
M106 S255
G1 X11.279 Y39.248 F200
M106 S0
M106 S255
G1 X11.294 Y39.157 F200
M106 S0
M106 S255
G1 X11.294 Y39.157 F200
M106 S0
M106 S255
G1 X11.304 Y39.067 F200
M106 S0
M106 S255
G1 X11.304 Y39.067 F200
M106 S0
M106 S255
G1 X11.311 Y38.975 F200
M106 S0
M106 S255
G1 X11.311 Y38.975 F200
M106 S0
M106 S255
G1 X11.315 Y38.884 F200
M106 S0
M106 S255
G1 X11.315 Y38.884 F200
M106 S0
M106 S255
G1 X11.315 Y38.792 F200
M106 S0
M106 S255
G1 X11.315 Y38.792 F200
M106 S0
M106 S255
G1 X11.314 Y38.696 F200
M106 S0
M106 S255
G1 X11.314 Y38.696 F200
M106 S0
M106 S255
G1 X11.31 Y38.609 F200
M106 S0
M106 S255
G1 X11.31 Y38.609 F200
M106 S0
M106 S255
G1 X11.305 Y38.506 F200
M106 S0
M106 S255
G1 X11.305 Y38.506 F200
M106 S0
M106 S255
G1 X11.3 Y38.423 F200
M106 S0
M106 S255
G1 X11.3 Y38.423 F200
M106 S0
M106 S255
G1 X11.299 Y38.414 F200
M106 S0
M106 S255
G1 X11.299 Y38.414 F200
M106 S0
M106 S255
G1 X6.94 Y38.414 F200
M106 S0
M106 S255
G1 X6.94 Y38.414 F200
M106 S0
M106 S255
G1 X2.263 Y38.414 F200
M106 S0
M106 S255
G1 X2.263 Y38.414 F200
M106 S0
M106 S255
G1 X2.263 Y38.423 F200
M106 S0
M106 S255
G1 X2.263 Y38.423 F200
M106 S0
M106 S255
G1 X2.257 Y38.506 F200
M106 S0
M106 S255
G1 X2.257 Y38.506 F200
M106 S0
M106 S255
G1 X2.252 Y38.609 F200
M106 S0
M106 S255
G1 X2.252 Y38.609 F200
M106 S0
M106 S255
G1 X2.249 Y38.696 F200
M106 S0
M106 S255
G1 X2.249 Y38.696 F200
M106 S0
M106 S255
G1 X2.247 Y38.792 F200
M106 S0
M106 S255
G1 X2.247 Y38.792 F200
M106 S0
M106 S255
G1 X2.248 Y38.884 F200
M106 S0
M106 S255
G1 X2.248 Y38.884 F200
M106 S0
M106 S255
G1 X2.251 Y38.975 F200
M106 S0
M106 S255
G1 X2.251 Y38.975 F200
M106 S0
M106 S255
G1 X2.258 Y39.067 F200
M106 S0
M106 S255
G1 X2.258 Y39.067 F200
M106 S0
M106 S255
G1 X2.269 Y39.157 F200
M106 S0
M106 S255
G1 X2.269 Y39.157 F200
M106 S0
M106 S255
G1 X2.284 Y39.248 F200
M106 S0
M106 S255
G1 X2.284 Y39.248 F200
M106 S0
M106 S255
G1 X2.302 Y39.336 F200
M106 S0
M106 S255
G1 X2.302 Y39.336 F200
M106 S0
M106 S255
G1 X2.326 Y39.426 F200
M106 S0
M106 S255
G1 X2.326 Y39.426 F200
M106 S0
M106 S255
G1 X2.353 Y39.511 F200
M106 S0
M106 S255
G1 X2.353 Y39.511 F200
M106 S0
M106 S255
G1 X2.386 Y39.597 F200
M106 S0
M106 S255
G1 X2.386 Y39.597 F200
M106 S0
M106 S255
G1 X2.423 Y39.679 F200
M106 S0
M106 S255
G1 X2.423 Y39.679 F200
M106 S0
M106 S255
G1 X2.465 Y39.758 F200
M106 S0
M106 S255
G1 X2.465 Y39.758 F200
M106 S0
M106 S255
G1 X2.511 Y39.835 F200
M106 S0
M106 S255
G1 X2.511 Y39.835 F200
M106 S0
M106 S255
G1 X2.562 Y39.907 F200
M106 S0
M106 S255
G1 X2.562 Y39.907 F200
M106 S0
M106 S255
G1 X2.619 Y39.978 F200
M106 S0
M106 S255
G1 X2.619 Y39.978 F200
M106 S0
M106 S255
G1 X2.68 Y40.043 F200
M106 S0
M106 S255
G1 X2.68 Y40.043 F200
M106 S0
M106 S255
G1 X2.744 Y40.104 F200
M106 S0
M106 S255
G1 X2.744 Y40.104 F200
M106 S0
M106 S255
G1 X2.814 Y40.162 F200
M106 S0
M106 S255
G1 X2.814 Y40.162 F200
M106 S0
M106 S255
G1 X2.887 Y40.214 F200
M106 S0
M106 S255
G1 X2.887 Y40.214 F200
M106 S0
M106 S255
G1 X2.962 Y40.261 F200
M106 S0
M106 S255
G1 X2.962 Y40.261 F200
M106 S0
M106 S255
G1 X3.041 Y40.303 F200
M106 S0
M106 S255
G1 X3.041 Y40.303 F200
M106 S0
M106 S255
G1 X3.122 Y40.34 F200
M106 S0
M106 S255
G1 X3.122 Y40.34 F200
M106 S0
M106 S255
G1 X3.208 Y40.372 F200
M106 S0
M106 S255
G1 X3.208 Y40.372 F200
M106 S0
M106 S255
G1 X3.292 Y40.399 F200
M106 S0
M106 S255
G1 X3.292 Y40.399 F200
M106 S0
M106 S255
G1 X3.381 Y40.422 F200
M106 S0
M106 S255
G1 X3.381 Y40.422 F200
M106 S0
M106 S255
G1 X3.47 Y40.441 F200
M106 S0
M106 S255
G1 X3.47 Y40.441 F200
M106 S0
M106 S255
G1 X3.56 Y40.455 F200
M106 S0
M106 S255
G1 X3.56 Y40.455 F200
M106 S0
M106 S255
G1 X3.651 Y40.466 F200
M106 S0
M106 S255
G1 X3.651 Y40.466 F200
M106 S0
M106 S255
G1 X3.743 Y40.473 F200
M106 S0
M106 S255
G1 X3.743 Y40.473 F200
M106 S0
M106 S255
G1 X3.835 Y40.477 F200
M106 S0
M106 S255
G1 X3.835 Y40.477 F200
M106 S0
M106 S255
G1 X4.028 Y40.48 F200
M106 S0
M106 S255
G1 X4.028 Y40.48 F200
M106 S0
M106 S255
G1 X4.028 Y40.993 F200
M106 S0
M106 S255
G1 X4.028 Y40.993 F200
M106 S0
M106 S255
G1 X5.035 Y41.531 F200
M106 S0
M106 S255
G1 X5.035 Y41.531 F200
M106 S0
M106 S255
G1 X5.118 Y41.71 F200
M106 S0
M106 S255
G1 X5.118 Y41.71 F200
M106 S0
M106 S255
G1 X5.154 Y41.788 F200
M106 S0
M106 S255
G1 X5.154 Y41.788 F200
M106 S0
M106 S255
G1 X5.196 Y41.879 F200
M106 S0
M106 S255
G1 X5.196 Y41.879 F200
M106 S0
M106 S255
G1 X5.262 Y42.025 F200
M106 S0
M106 S255
G1 X5.262 Y42.025 F200
M106 S0
M106 S255
G1 X5.286 Y42.077 F200
M106 S0
M106 S255
G1 X5.286 Y42.077 F200
M106 S0
M106 S255
G1 X5.356 Y42.236 F200
M106 S0
M106 S255
G1 X5.356 Y42.236 F200
M106 S0
M106 S255
G1 X5.407 Y42.357 F200
M106 S0
M106 S255
G1 X5.407 Y42.357 F200
M106 S0
M106 S255
G1 X5.452 Y42.47 F200
M106 S0
M106 S255
G1 X5.452 Y42.47 F200
M106 S0
M106 S255
G1 X5.495 Y42.589 F200
M106 S0
M106 S255
G1 X5.495 Y42.589 F200
M106 S0
M106 S255
G1 X5.546 Y42.752 F200
M106 S0
M106 S255
G1 X5.546 Y42.752 F200
M106 S0
M106 S255
G1 X5.569 Y42.835 F200
M106 S0
M106 S255
G1 X5.569 Y42.835 F200
M106 S0
M106 S255
G1 X5.598 Y42.957 F200
M106 S0
M106 S255
G1 X5.598 Y42.957 F200
M106 S0
M106 S255
G1 X5.622 Y43.082 F200
M106 S0
M106 S255
G1 X5.622 Y43.082 F200
M106 S0
M106 S255
G1 X5.642 Y43.205 F200
M106 S0
M106 S255
G1 X5.642 Y43.205 F200
M106 S0
M106 S255
G1 X5.658 Y43.332 F200
M106 S0
M106 S255
G1 X5.658 Y43.332 F200
M106 S0
M106 S255
G1 X5.671 Y43.457 F200
M106 S0
M106 S255
G1 X5.671 Y43.457 F200
M106 S0
M106 S255
G1 X5.681 Y43.581 F200
M106 S0
M106 S255
G1 X5.681 Y43.581 F200
M106 S0
M106 S255
G1 X5.692 Y43.773 F200
M106 S0
M106 S255
G1 X5.692 Y43.773 F200
M106 S0
M106 S255
G1 X5.694 Y43.83 F200
M106 S0
M106 S255
G1 X5.694 Y43.83 F200
M106 S0
M106 S255
G1 X5.699 Y43.965 F200
M106 S0
M106 S255
G1 X5.699 Y43.965 F200
M106 S0
M106 S255
G1 X5.701 Y44.082 F200
M106 S0
M106 S255
G1 X5.701 Y44.082 F200
M106 S0
M106 S255
G1 X5.703 Y44.207 F200
M106 S0
M106 S255
G1 X5.703 Y44.207 F200
M106 S0
M106 S255
G1 X5.703 Y44.332 F200
M106 S0
M106 S255
G1 X5.703 Y44.332 F200
M106 S0
M106 S255
G1 X5.703 Y44.456 F200
M106 S0
M106 S255
G1 X5.703 Y44.456 F200
M106 S0
M106 S255
G1 X5.701 Y44.581 F200
M106 S0
M106 S255
G1 X5.701 Y44.581 F200
M106 S0
M106 S255
G1 X5.699 Y44.705 F200
M106 S0
M106 S255
G1 X5.699 Y44.705 F200
M106 S0
M106 S255
G1 X5.697 Y44.829 F200
M106 S0
M106 S255
G1 X5.697 Y44.829 F200
M106 S0
M106 S255
G1 X5.694 Y44.952 F200
M106 S0
M106 S255
G1 X5.694 Y44.952 F200
M106 S0
M106 S255
G1 X5.69 Y45.142 F200
M106 S0
M106 S255
G1 X5.69 Y45.142 F200
M106 S0
M106 S255
G1 X5.57 Y45.184 F200
M106 S0
M106 S255
G1 X5.57 Y45.184 F200
M106 S0
M106 S255
G1 X5.514 Y45.205 F200
M106 S0
M106 S255
G1 X5.514 Y45.205 F200
M106 S0
M106 S255
G1 X5.462 Y45.225 F200
M106 S0
M106 S255
G1 X5.462 Y45.225 F200
M106 S0
M106 S255
G1 X5.413 Y45.247 F200
M106 S0
M106 S255
G1 X5.413 Y45.247 F200
M106 S0
M106 S255
G1 X5.367 Y45.271 F200
M106 S0
M106 S255
G1 X5.367 Y45.271 F200
M106 S0
M106 S255
G1 X5.324 Y45.297 F200
M106 S0
M106 S255
G1 X5.324 Y45.297 F200
M106 S0
M106 S255
G1 X5.286 Y45.325 F200
M106 S0
M106 S255
G1 X5.286 Y45.325 F200
M106 S0
M106 S255
G1 X5.251 Y45.358 F200
M106 S0
M106 S255
G1 X5.251 Y45.358 F200
M106 S0
M106 S255
G1 X5.217 Y45.395 F200
M106 S0
M106 S255
G1 X5.217 Y45.395 F200
M106 S0
M106 S255
G1 X5.187 Y45.435 F200
M106 S0
M106 S255
G1 X5.187 Y45.435 F200
M106 S0
M106 S255
G1 X5.16 Y45.479 F200
M106 S0
M106 S255
G1 X5.16 Y45.479 F200
M106 S0
M106 S255
G1 X5.135 Y45.526 F200
M106 S0
M106 S255
G1 X5.135 Y45.526 F200
M106 S0
M106 S255
G1 X5.114 Y45.573 F200
M106 S0
M106 S255
G1 X5.114 Y45.573 F200
M106 S0
M106 S255
G1 X5.096 Y45.625 F200
M106 S0
M106 S255
G1 X5.096 Y45.625 F200
M106 S0
M106 S255
G1 X5.082 Y45.674 F200
M106 S0
M106 S255
G1 X5.082 Y45.674 F200
M106 S0
M106 S255
G1 X5.07 Y45.728 F200
M106 S0
M106 S255
G1 X5.07 Y45.728 F200
M106 S0
M106 S255
G1 X5.062 Y45.778 F200
M106 S0
M106 S255
G1 X5.062 Y45.778 F200
M106 S0
M106 S255
G1 X5.055 Y45.835 F200
M106 S0
M106 S255
G1 X5.055 Y45.835 F200
M106 S0
M106 S255
G1 X5.051 Y45.887 F200
M106 S0
M106 S255
G1 X5.051 Y45.887 F200
M106 S0
M106 S255
G1 X5.049 Y45.942 F200
M106 S0
M106 S255
G1 X5.049 Y45.942 F200
M106 S0
M106 S255
G1 X5.048 Y46.001 F200
M106 S0
M106 S255
G1 X5.048 Y46.001 F200
M106 S0
M106 S255
G1 X5.048 Y46.057 F200
M106 S0
M106 S255
G1 X5.048 Y46.057 F200
M106 S0
M106 S255
G1 X5.05 Y46.217 F200
M106 S0
M106 S255
G1 X5.05 Y46.217 F200
M106 S0
M106 S255
G1 X4.41 Y46.217 F200
M106 S0
M106 S255
G1 X4.41 Y46.217 F200
M106 S0
M106 S255
G1 X4.381 Y46.234 F200
M106 S0
M106 S255
G1 X4.381 Y46.234 F200
M106 S0
M106 S255
G1 X4.323 Y46.267 F200
M106 S0
M106 S255
G1 X4.323 Y46.267 F200
M106 S0
M106 S255
G1 X4.282 Y46.292 F200
M106 S0
M106 S255
G1 X4.282 Y46.292 F200
M106 S0
M106 S255
G1 X4.229 Y46.326 F200
M106 S0
M106 S255
G1 X4.229 Y46.326 F200
M106 S0
M106 S255
G1 X4.182 Y46.358 F200
M106 S0
M106 S255
G1 X4.182 Y46.358 F200
M106 S0
M106 S255
G1 X4.138 Y46.391 F200
M106 S0
M106 S255
G1 X4.138 Y46.391 F200
M106 S0
M106 S255
G1 X4.075 Y46.444 F200
M106 S0
M106 S255
G1 X4.075 Y46.444 F200
M106 S0
M106 S255
G1 X4.054 Y46.464 F200
M106 S0
M106 S255
G1 X4.054 Y46.464 F200
M106 S0
M106 S255
G1 X4.015 Y46.504 F200
M106 S0
M106 S255
G1 X4.015 Y46.504 F200
M106 S0
M106 S255
G1 X3.979 Y46.546 F200
M106 S0
M106 S255
G1 X3.979 Y46.546 F200
M106 S0
M106 S255
G1 X3.945 Y46.59 F200
M106 S0
M106 S255
G1 X3.945 Y46.59 F200
M106 S0
M106 S255
G1 X3.915 Y46.636 F200
M106 S0
M106 S255
G1 X3.915 Y46.636 F200
M106 S0
M106 S255
G1 X3.887 Y46.685 F200
M106 S0
M106 S255
G1 X3.887 Y46.685 F200
M106 S0
M106 S255
G1 X3.864 Y46.733 F200
M106 S0
M106 S255
G1 X3.864 Y46.733 F200
M106 S0
M106 S255
G1 X3.844 Y46.783 F200
M106 S0
M106 S255
G1 X3.844 Y46.783 F200
M106 S0
M106 S255
G1 X3.828 Y46.836 F200
M106 S0
M106 S255
G1 X3.828 Y46.836 F200
M106 S0
M106 S255
G1 X3.818 Y46.884 F200
M106 S0
M106 S255
G1 X3.818 Y46.884 F200
M106 S0
M106 S255
G1 X3.81 Y46.939 F200
M106 S0
M106 S255
G1 X3.81 Y46.939 F200
M106 S0
M106 S255
G1 X3.805 Y46.993 F200
M106 S0
M106 S255
G1 X3.805 Y46.993 F200
M106 S0
M106 S255
G1 X3.802 Y47.051 F200
M106 S0
M106 S255
G1 X3.802 Y47.051 F200
M106 S0
M106 S255
G1 X3.801 Y47.111 F200
M106 S0
M106 S255
G1 X3.801 Y47.111 F200
M106 S0
M106 S255
G1 X3.801 Y47.168 F200
M106 S0
M106 S255
G1 X3.801 Y47.168 F200
M106 S0
M106 S255
G1 X3.803 Y47.23 F200
M106 S0
M106 S255
G1 X3.803 Y47.23 F200
M106 S0
M106 S255
G1 X3.806 Y47.284 F200
M106 S0
M106 S255
G1 X3.806 Y47.284 F200
M106 S0
M106 S255
G1 X3.812 Y47.341 F200
M106 S0
M106 S255
G1 X3.812 Y47.341 F200
M106 S0
M106 S255
G1 X3.82 Y47.394 F200
M106 S0
M106 S255
G1 X3.82 Y47.394 F200
M106 S0
M106 S255
G1 X3.831 Y47.447 F200
M106 S0
M106 S255
G1 X3.831 Y47.447 F200
M106 S0
M106 S255
G1 X3.846 Y47.498 F200
M106 S0
M106 S255
G1 X3.846 Y47.498 F200
M106 S0
M106 S255
G1 X3.865 Y47.55 F200
M106 S0
M106 S255
G1 X3.865 Y47.55 F200
M106 S0
M106 S255
G1 X3.887 Y47.599 F200
M106 S0
M106 S255
G1 X3.887 Y47.599 F200
M106 S0
M106 S255
G1 X3.913 Y47.648 F200
M106 S0
M106 S255
G1 X3.913 Y47.648 F200
M106 S0
M106 S255
G1 X3.942 Y47.696 F200
M106 S0
M106 S255
G1 X3.942 Y47.696 F200
M106 S0
M106 S255
G1 X3.972 Y47.742 F200
M106 S0
M106 S255
G1 X3.972 Y47.742 F200
M106 S0
M106 S255
G1 X4.007 Y47.787 F200
M106 S0
M106 S255
G1 X4.007 Y47.787 F200
M106 S0
M106 S255
G1 X4.044 Y47.83 F200
M106 S0
M106 S255
G1 X4.044 Y47.83 F200
M106 S0
M106 S255
G1 X4.083 Y47.872 F200
M106 S0
M106 S255
G1 X4.083 Y47.872 F200
M106 S0
M106 S255
G1 X4.114 Y47.902 F200
M106 S0
M106 S255
G1 X4.114 Y47.902 F200
M106 S0
M106 S255
G1 X4.166 Y47.947 F200
M106 S0
M106 S255
G1 X4.166 Y47.947 F200
M106 S0
M106 S255
G1 X4.211 Y47.981 F200
M106 S0
M106 S255
G1 X4.211 Y47.981 F200
M106 S0
M106 S255
G1 X4.257 Y48.013 F200
M106 S0
M106 S255
G1 X4.257 Y48.013 F200
M106 S0
M106 S255
G1 X4.303 Y48.041 F200
M106 S0
M106 S255
G1 X4.303 Y48.041 F200
M106 S0
M106 S255
G1 X4.352 Y48.067 F200
M106 S0
M106 S255
G1 X4.352 Y48.067 F200
M106 S0
M106 S255
G1 X4.4 Y48.089 F200
M106 S0
M106 S255
G1 X4.4 Y48.089 F200
M106 S0
M106 S255
G1 X4.454 Y48.11 F200
M106 S0
M106 S255
G1 X4.454 Y48.11 F200
M106 S0
M106 S255
G1 X4.504 Y48.127 F200
M106 S0
M106 S255
G1 X4.504 Y48.127 F200
M106 S0
M106 S255
G1 X4.566 Y48.146 F200
M106 S0
M106 S255
G1 X4.566 Y48.146 F200
M106 S0
M106 S255
G1 X4.607 Y48.158 F200
M106 S0
M106 S255
G1 X4.607 Y48.158 F200
M106 S0
M106 S255
G1 X5.132 Y48.158 F200
M106 S0
M106 S255
G1 X5.132 Y48.158 F200
M106 S0
M106 S255
G1 X5.013 Y48.383 F200
M106 S0
M106 S255
G1 X5.013 Y48.383 F200
M106 S0
M106 S255
G1 X4.979 Y48.448 F200
M106 S0
M106 S255
G1 X4.979 Y48.448 F200
M106 S0
M106 S255
G1 X4.943 Y48.522 F200
M106 S0
M106 S255
G1 X4.943 Y48.522 F200
M106 S0
M106 S255
G1 X4.91 Y48.596 F200
M106 S0
M106 S255
G1 X4.91 Y48.596 F200
M106 S0
M106 S255
G1 X4.881 Y48.666 F200
M106 S0
M106 S255
G1 X4.881 Y48.666 F200
M106 S0
M106 S255
G1 X4.855 Y48.741 F200
M106 S0
M106 S255
G1 X4.855 Y48.741 F200
M106 S0
M106 S255
G1 X4.834 Y48.812 F200
M106 S0
M106 S255
G1 X4.834 Y48.812 F200
M106 S0
M106 S255
G1 X4.817 Y48.888 F200
M106 S0
M106 S255
G1 X4.817 Y48.888 F200
M106 S0
M106 S255
G1 X4.805 Y48.964 F200
M106 S0
M106 S255
G1 X4.805 Y48.964 F200
M106 S0
M106 S255
G1 X4.795 Y49.043 F200
M106 S0
M106 S255
G1 X4.795 Y49.043 F200
M106 S0
M106 S255
G1 X4.789 Y49.123 F200
M106 S0
M106 S255
G1 X4.789 Y49.123 F200
M106 S0
M106 S255
G1 X4.785 Y49.202 F200
M106 S0
M106 S255
G1 X4.785 Y49.202 F200
M106 S0
M106 S255
G1 X4.784 Y49.283 F200
M106 S0
M106 S255
G1 X4.784 Y49.283 F200
M106 S0
M106 S255
G1 X4.784 Y49.366 F200
M106 S0
M106 S255
G1 X4.784 Y49.366 F200
M106 S0
M106 S255
G1 X4.787 Y49.443 F200
M106 S0
M106 S255
G1 X4.787 Y49.443 F200
M106 S0
M106 S255
G1 X4.792 Y49.523 F200
M106 S0
M106 S255
G1 X4.792 Y49.523 F200
M106 S0
M106 S255
G1 X4.799 Y49.602 F200
M106 S0
M106 S255
G1 X4.799 Y49.602 F200
M106 S0
M106 S255
G1 X4.808 Y49.682 F200
M106 S0
M106 S255
G1 X4.808 Y49.682 F200
M106 S0
M106 S255
G1 X4.821 Y49.76 F200
M106 S0
M106 S255
G1 X4.821 Y49.76 F200
M106 S0
M106 S255
G1 X4.836 Y49.838 F200
M106 S0
M106 S255
G1 X4.836 Y49.838 F200
M106 S0
M106 S255
G1 X4.854 Y49.913 F200
M106 S0
M106 S255
G1 X4.854 Y49.913 F200
M106 S0
M106 S255
G1 X4.877 Y49.992 F200
M106 S0
M106 S255
G1 X4.877 Y49.992 F200
M106 S0
M106 S255
G1 X4.901 Y50.066 F200
M106 S0
M106 S255
G1 X4.901 Y50.066 F200
M106 S0
M106 S255
G1 X4.929 Y50.14 F200
M106 S0
M106 S255
G1 X4.929 Y50.14 F200
M106 S0
M106 S255
G1 X4.961 Y50.213 F200
M106 S0
M106 S255
G1 X4.961 Y50.213 F200
M106 S0
M106 S255
G1 X4.995 Y50.285 F200
M106 S0
M106 S255
G1 X4.995 Y50.285 F200
M106 S0
M106 S255
G1 X5.033 Y50.355 F200
M106 S0
M106 S255
G1 X5.033 Y50.355 F200
M106 S0
M106 S255
G1 X5.074 Y50.423 F200
M106 S0
M106 S255
G1 X5.074 Y50.423 F200
M106 S0
M106 S255
G1 X5.117 Y50.488 F200
M106 S0
M106 S255
G1 X5.117 Y50.488 F200
M106 S0
M106 S255
G1 X5.164 Y50.55 F200
M106 S0
M106 S255
G1 X5.164 Y50.55 F200
M106 S0
M106 S255
G1 X5.214 Y50.611 F200
M106 S0
M106 S255
G1 X5.214 Y50.611 F200
M106 S0
M106 S255
G1 X5.267 Y50.668 F200
M106 S0
M106 S255
G1 X5.267 Y50.668 F200
M106 S0
M106 S255
G1 X5.323 Y50.723 F200
M106 S0
M106 S255
G1 X5.323 Y50.723 F200
M106 S0
M106 S255
G1 X5.38 Y50.773 F200
M106 S0
M106 S255
G1 X5.38 Y50.773 F200
M106 S0
M106 S255
G1 X5.443 Y50.824 F200
M106 S0
M106 S255
G1 X5.443 Y50.824 F200
M106 S0
M106 S255
G1 X5.505 Y50.868 F200
M106 S0
M106 S255
G1 X5.505 Y50.868 F200
M106 S0
M106 S255
G1 X5.571 Y50.912 F200
M106 S0
M106 S255
G1 X5.571 Y50.912 F200
M106 S0
M106 S255
G1 X5.639 Y50.952 F200
M106 S0
M106 S255
G1 X5.639 Y50.952 F200
M106 S0
M106 S255
G1 X5.708 Y50.989 F200
M106 S0
M106 S255
G1 X5.708 Y50.989 F200
M106 S0
M106 S255
G1 X5.779 Y51.024 F200
M106 S0
M106 S255
G1 X5.779 Y51.024 F200
M106 S0
M106 S255
G1 X5.849 Y51.055 F200
M106 S0
M106 S255
G1 X5.849 Y51.055 F200
M106 S0
M106 S255
G1 X5.926 Y51.085 F200
M106 S0
M106 S255
G1 X5.926 Y51.085 F200
M106 S0
M106 S255
G1 X5.999 Y51.111 F200
M106 S0
M106 S255
G1 X5.999 Y51.111 F200
M106 S0
M106 S255
G1 X6.077 Y51.136 F200
M106 S0
M106 S255
G1 X6.077 Y51.136 F200
M106 S0
M106 S255
G1 X6.151 Y51.157 F200
M106 S0
M106 S255
G1 X6.151 Y51.157 F200
M106 S0
M106 S255
G1 X6.232 Y51.177 F200
M106 S0
M106 S255
G1 X6.232 Y51.177 F200
M106 S0
M106 S255
G1 X6.306 Y51.193 F200
M106 S0
M106 S255
G1 X6.306 Y51.193 F200
M106 S0
M106 S255
G1 X6.385 Y51.207 F200
M106 S0
M106 S255
G1 X6.385 Y51.207 F200
M106 S0
M106 S255
G1 X6.464 Y51.217 F200
M106 S0
M106 S255
G1 X6.464 Y51.217 F200
M106 S0
M106 S255
G1 X6.541 Y51.225 F200
M106 S0
M106 S255
G1 X6.541 Y51.225 F200
M106 S0
M106 S255
G1 X6.618 Y51.229 F200
M106 S0
M106 S255
G1 X6.618 Y51.229 F200
M106 S0
M106 S255
G1 X6.701 Y51.232 F200
M106 S0
M106 S255
G1 X6.701 Y51.232 F200
M106 S0
M106 S255
G1 X6.781 Y51.232 F200
M106 S0
M106 S255
G1 X6.781 Y51.232 F200
M106 S0
M106 S255
G1 X6.861 Y51.232 F200
M106 S0
M106 S255
G1 X6.861 Y51.232 F200
M106 S0
M106 S255
G1 X6.944 Y51.229 F200
M106 S0
M106 S255
G1 X6.944 Y51.229 F200
M106 S0
M106 S255
G1 X7.022 Y51.225 F200
M106 S0
M106 S255
G1 X7.022 Y51.225 F200
M106 S0
M106 S255
G1 X7.098 Y51.217 F200
M106 S0
M106 S255
G1 X7.098 Y51.217 F200
M106 S0
M106 S255
G1 X7.178 Y51.207 F200
M106 S0
M106 S255
G1 X7.178 Y51.207 F200
M106 S0
M106 S255
G1 X7.256 Y51.193 F200
M106 S0
M106 S255
G1 X7.256 Y51.193 F200
M106 S0
M106 S255
G1 X7.331 Y51.177 F200
M106 S0
M106 S255
G1 X7.331 Y51.177 F200
M106 S0
M106 S255
G1 X7.411 Y51.157 F200
M106 S0
M106 S255
G1 X7.411 Y51.157 F200
M106 S0
M106 S255
G1 X7.486 Y51.136 F200
M106 S0
M106 S255
G1 X7.486 Y51.136 F200
M106 S0
M106 S255
G1 X7.563 Y51.111 F200
M106 S0
M106 S255
G1 X7.563 Y51.111 F200
M106 S0
M106 S255
G1 X7.636 Y51.085 F200
M106 S0
M106 S255
G1 X7.636 Y51.085 F200
M106 S0
M106 S255
G1 X7.713 Y51.055 F200
M106 S0
M106 S255
G1 X7.713 Y51.055 F200
M106 S0
M106 S255
G1 X7.783 Y51.024 F200
M106 S0
M106 S255
G1 X7.783 Y51.024 F200
M106 S0
M106 S255
G1 X7.854 Y50.989 F200
M106 S0
M106 S255
G1 X7.854 Y50.989 F200
M106 S0
M106 S255
G1 X7.924 Y50.952 F200
M106 S0
M106 S255
G1 X7.924 Y50.952 F200
M106 S0
M106 S255
G1 X7.991 Y50.912 F200
M106 S0
M106 S255
G1 X7.991 Y50.912 F200
M106 S0
M106 S255
G1 X8.058 Y50.868 F200
M106 S0
M106 S255
G1 X8.058 Y50.868 F200
M106 S0
M106 S255
G1 X8.119 Y50.824 F200
M106 S0
M106 S255
G1 X8.119 Y50.824 F200
M106 S0
M106 S255
G1 X8.183 Y50.773 F200
M106 S0
M106 S255
G1 X8.183 Y50.773 F200
M106 S0
M106 S255
G1 X8.24 Y50.723 F200
M106 S0
M106 S255
G1 X8.24 Y50.723 F200
M106 S0
M106 S255
G1 X8.296 Y50.668 F200
M106 S0
M106 S255
G1 X8.296 Y50.668 F200
M106 S0
M106 S255
G1 X8.349 Y50.611 F200
M106 S0
M106 S255
G1 X8.349 Y50.611 F200
M106 S0
M106 S255
G1 X8.398 Y50.55 F200
M106 S0
M106 S255
G1 X8.398 Y50.55 F200
M106 S0
M106 S255
G1 X8.445 Y50.488 F200
M106 S0
M106 S255
G1 X8.445 Y50.488 F200
M106 S0
M106 S255
G1 X8.489 Y50.423 F200
M106 S0
M106 S255
G1 X8.489 Y50.423 F200
M106 S0
M106 S255
G1 X8.529 Y50.355 F200
M106 S0
M106 S255
G1 X8.529 Y50.355 F200
M106 S0
M106 S255
G1 X8.567 Y50.285 F200
M106 S0
M106 S255
G1 X8.567 Y50.285 F200
M106 S0
M106 S255
G1 X8.602 Y50.213 F200
M106 S0
M106 S255
G1 X8.602 Y50.213 F200
M106 S0
M106 S255
G1 X8.633 Y50.14 F200
M106 S0
M106 S255
G1 X8.633 Y50.14 F200
M106 S0
M106 S255
G1 X8.661 Y50.066 F200
M106 S0
M106 S255
G1 X8.661 Y50.066 F200
M106 S0
M106 S255
G1 X8.685 Y49.992 F200
M106 S0
M106 S255
G1 X8.685 Y49.992 F200
M106 S0
M106 S255
G1 X8.708 Y49.913 F200
M106 S0
M106 S255
G1 X8.708 Y49.913 F200
M106 S0
M106 S255
G1 X8.726 Y49.838 F200
M106 S0
M106 S255
G1 X8.726 Y49.838 F200
M106 S0
M106 S255
G1 X8.741 Y49.76 F200
M106 S0
M106 S255
G1 X8.741 Y49.76 F200
M106 S0
M106 S255
G1 X8.754 Y49.682 F200
M106 S0
M106 S255
G1 X8.754 Y49.682 F200
M106 S0
M106 S255
G1 X8.764 Y49.602 F200
M106 S0
M106 S255
G1 X8.764 Y49.602 F200
M106 S0
M106 S255
G1 X8.771 Y49.523 F200
M106 S0
M106 S255
G1 X8.771 Y49.523 F200
M106 S0
M106 S255
G1 X8.775 Y49.443 F200
M106 S0
M106 S255
G1 X8.775 Y49.443 F200
M106 S0
M106 S255
G1 X8.778 Y49.366 F200
M106 S0
M106 S255
G1 X8.778 Y49.366 F200
M106 S0
M106 S255
G1 X8.779 Y49.283 F200
M106 S0
M106 S255
G1 X8.779 Y49.283 F200
M106 S0
M106 S255
G1 X8.777 Y49.202 F200
M106 S0
M106 S255
G1 X8.777 Y49.202 F200
M106 S0
M106 S255
G1 X8.774 Y49.123 F200
M106 S0
M106 S255
G1 X8.774 Y49.123 F200
M106 S0
M106 S255
G1 X8.767 Y49.043 F200
M106 S0
M106 S255
G1 X8.767 Y49.043 F200
M106 S0
M106 S255
G1 X8.758 Y48.964 F200
M106 S0
M106 S255
G1 X8.758 Y48.964 F200
M106 S0
M106 S255
G1 X8.745 Y48.888 F200
M106 S0
M106 S255
G1 X8.745 Y48.888 F200
M106 S0
M106 S255
G1 X8.728 Y48.812 F200
M106 S0
M106 S255
G1 X8.728 Y48.812 F200
M106 S0
M106 S255
G1 X8.708 Y48.741 F200
M106 S0
M106 S255
G1 X8.708 Y48.741 F200
M106 S0
M106 S255
G1 X8.681 Y48.666 F200
M106 S0
M106 S255
G1 X8.681 Y48.666 F200
M106 S0
M106 S255
G1 X8.653 Y48.596 F200
M106 S0
M106 S255
G1 X8.653 Y48.596 F200
M106 S0
M106 S255
G1 X8.619 Y48.522 F200
M106 S0
M106 S255
G1 X8.619 Y48.522 F200
M106 S0
M106 S255
G1 X8.583 Y48.448 F200
M106 S0
M106 S255
G1 X8.583 Y48.448 F200
M106 S0
M106 S255
G1 X8.549 Y48.383 F200
M106 S0
M106 S255
G1 X8.549 Y48.383 F200
M106 S0
M106 S255
G1 X8.431 Y48.158 F200
M106 S0
M106 S255
G1 X8.431 Y48.158 F200
M106 S0
M106 S255
G1 X8.955 Y48.158 F200
M106 S0
M106 S255
G1 X8.955 Y48.158 F200
M106 S0
M106 S255
G1 X8.997 Y48.146 F200
M106 S0
M106 S255
G1 X8.997 Y48.146 F200
M106 S0
M106 S255
G1 X9.058 Y48.127 F200
M106 S0
M106 S255
G1 X9.058 Y48.127 F200
M106 S0
M106 S255
G1 X9.108 Y48.11 F200
M106 S0
M106 S255
G1 X9.108 Y48.11 F200
M106 S0
M106 S255
G1 X9.162 Y48.089 F200
M106 S0
M106 S255
G1 X9.162 Y48.089 F200
M106 S0
M106 S255
G1 X9.21 Y48.067 F200
M106 S0
M106 S255
G1 X9.21 Y48.067 F200
M106 S0
M106 S255
G1 X9.259 Y48.041 F200
M106 S0
M106 S255
G1 X9.259 Y48.041 F200
M106 S0
M106 S255
G1 X9.306 Y48.013 F200
M106 S0
M106 S255
G1 X9.306 Y48.013 F200
M106 S0
M106 S255
G1 X9.352 Y47.981 F200
M106 S0
M106 S255
G1 X9.352 Y47.981 F200
M106 S0
M106 S255
G1 X9.396 Y47.947 F200
M106 S0
M106 S255
G1 X9.396 Y47.947 F200
M106 S0
M106 S255
G1 X9.448 Y47.902 F200
M106 S0
M106 S255
G1 X9.448 Y47.902 F200
M106 S0
M106 S255
G1 X9.479 Y47.872 F200
M106 S0
M106 S255
G1 X9.479 Y47.872 F200
M106 S0
M106 S255
G1 X9.519 Y47.83 F200
M106 S0
M106 S255
G1 X9.519 Y47.83 F200
M106 S0
M106 S255
G1 X9.555 Y47.787 F200
M106 S0
M106 S255
G1 X9.555 Y47.787 F200
M106 S0
M106 S255
G1 X9.59 Y47.742 F200
M106 S0
M106 S255
G1 X9.59 Y47.742 F200
M106 S0
M106 S255
G1 X9.621 Y47.696 F200
M106 S0
M106 S255
G1 X9.621 Y47.696 F200
M106 S0
M106 S255
G1 X9.65 Y47.648 F200
M106 S0
M106 S255
G1 X9.65 Y47.648 F200
M106 S0
M106 S255
G1 X9.675 Y47.599 F200
M106 S0
M106 S255
G1 X9.675 Y47.599 F200
M106 S0
M106 S255
G1 X9.697 Y47.55 F200
M106 S0
M106 S255
G1 X9.697 Y47.55 F200
M106 S0
M106 S255
G1 X9.716 Y47.498 F200
M106 S0
M106 S255
G1 X9.716 Y47.498 F200
M106 S0
M106 S255
G1 X9.731 Y47.447 F200
M106 S0
M106 S255
G1 X9.731 Y47.447 F200
M106 S0
M106 S255
G1 X9.743 Y47.394 F200
M106 S0
M106 S255
G1 X9.743 Y47.394 F200
M106 S0
M106 S255
G1 X9.751 Y47.341 F200
M106 S0
M106 S255
G1 X9.751 Y47.341 F200
M106 S0
M106 S255
G1 X9.756 Y47.284 F200
M106 S0
M106 S255
G1 X9.756 Y47.284 F200
M106 S0
M106 S255
G1 X9.759 Y47.23 F200
M106 S0
M106 S255
G1 X9.759 Y47.23 F200
M106 S0
M106 S255
G1 X9.761 Y47.168 F200
M106 S0
M106 S255
G1 X9.761 Y47.168 F200
M106 S0
M106 S255
G1 X9.761 Y47.111 F200
M106 S0
M106 S255
G1 X9.761 Y47.111 F200
M106 S0
M106 S255
G1 X9.76 Y47.051 F200
M106 S0
M106 S255
G1 X9.76 Y47.051 F200
M106 S0
M106 S255
G1 X9.757 Y46.993 F200
M106 S0
M106 S255
G1 X9.757 Y46.993 F200
M106 S0
M106 S255
G1 X9.752 Y46.939 F200
M106 S0
M106 S255
G1 X9.752 Y46.939 F200
M106 S0
M106 S255
G1 X9.744 Y46.884 F200
M106 S0
M106 S255
G1 X9.744 Y46.884 F200
M106 S0
M106 S255
G1 X9.734 Y46.836 F200
M106 S0
M106 S255
G1 X9.734 Y46.836 F200
M106 S0
M106 S255
G1 X9.718 Y46.783 F200
M106 S0
M106 S255
G1 X9.718 Y46.783 F200
M106 S0
M106 S255
G1 X9.698 Y46.733 F200
M106 S0
M106 S255
G1 X9.698 Y46.733 F200
M106 S0
M106 S255
G1 X9.675 Y46.685 F200
M106 S0
M106 S255
G1 X9.675 Y46.685 F200
M106 S0
M106 S255
G1 X9.648 Y46.636 F200
M106 S0
M106 S255
G1 X9.648 Y46.636 F200
M106 S0
M106 S255
G1 X9.617 Y46.59 F200
M106 S0
M106 S255
G1 X9.617 Y46.59 F200
M106 S0
M106 S255
G1 X9.584 Y46.546 F200
M106 S0
M106 S255
G1 X9.584 Y46.546 F200
M106 S0
M106 S255
G1 X9.547 Y46.504 F200
M106 S0
M106 S255
G1 X9.547 Y46.504 F200
M106 S0
M106 S255
G1 X9.509 Y46.464 F200
M106 S0
M106 S255
G1 X9.509 Y46.464 F200
M106 S0
M106 S255
G1 X9.487 Y46.444 F200
M106 S0
M106 S255
G1 X9.487 Y46.444 F200
M106 S0
M106 S255
G1 X9.424 Y46.391 F200
M106 S0
M106 S255
G1 X9.424 Y46.391 F200
M106 S0
M106 S255
G1 X9.38 Y46.358 F200
M106 S0
M106 S255
G1 X9.38 Y46.358 F200
M106 S0
M106 S255
G1 X9.333 Y46.326 F200
M106 S0
M106 S255
G1 X9.333 Y46.326 F200
M106 S0
M106 S255
G1 X9.281 Y46.292 F200
M106 S0
M106 S255
G1 X9.281 Y46.292 F200
M106 S0
M106 S255
G1 X9.239 Y46.267 F200
M106 S0
M106 S255
G1 X9.239 Y46.267 F200
M106 S0
M106 S255
G1 X9.181 Y46.234 F200
M106 S0
M106 S255
G1 X9.181 Y46.234 F200
M106 S0
M106 S255
G1 X9.152 Y46.217 F200
M106 S0
M106 S255
G1 X9.152 Y46.217 F200
M106 S0
M106 S255
G1 X8.513 Y46.217 F200
M106 S0
M106 S255
G1 X8.513 Y46.217 F200
M106 S0
M106 S255
G1 X8.514 Y46.057 F200
M106 S0
M106 S255
G1 X8.514 Y46.057 F200
M106 S0
M106 S255
G1 X8.514 Y46.001 F200
M106 S0
M106 S255
G1 X8.514 Y46.001 F200
M106 S0
M106 S255
G1 X8.513 Y45.942 F200
M106 S0
M106 S255
G1 X8.513 Y45.942 F200
M106 S0
M106 S255
G1 X8.511 Y45.887 F200
M106 S0
M106 S255
G1 X8.511 Y45.887 F200
M106 S0
M106 S255
G1 X8.507 Y45.835 F200
M106 S0
M106 S255
G1 X8.507 Y45.835 F200
M106 S0
M106 S255
G1 X8.501 Y45.778 F200
M106 S0
M106 S255
G1 X8.501 Y45.778 F200
M106 S0
M106 S255
G1 X8.493 Y45.728 F200
M106 S0
M106 S255
G1 X8.493 Y45.728 F200
M106 S0
M106 S255
G1 X8.481 Y45.674 F200
M106 S0
M106 S255
G1 X8.481 Y45.674 F200
M106 S0
M106 S255
G1 X8.466 Y45.625 F200
M106 S0
M106 S255
G1 X8.466 Y45.625 F200
M106 S0
M106 S255
G1 X8.448 Y45.573 F200
M106 S0
M106 S255
G1 X8.448 Y45.573 F200
M106 S0
M106 S255
G1 X8.427 Y45.526 F200
M106 S0
M106 S255
G1 X8.427 Y45.526 F200
M106 S0
M106 S255
G1 X8.402 Y45.479 F200
M106 S0
M106 S255
G1 X8.402 Y45.479 F200
M106 S0
M106 S255
G1 X8.375 Y45.435 F200
M106 S0
M106 S255
G1 X8.375 Y45.435 F200
M106 S0
M106 S255
G1 X8.345 Y45.395 F200
M106 S0
M106 S255
G1 X8.345 Y45.395 F200
M106 S0
M106 S255
G1 X8.311 Y45.358 F200
M106 S0
M106 S255
G1 X8.311 Y45.358 F200
M106 S0
M106 S255
G1 X8.276 Y45.325 F200
M106 S0
M106 S255
G1 X8.276 Y45.325 F200
M106 S0
M106 S255
G1 X8.238 Y45.297 F200
M106 S0
M106 S255
G1 X8.238 Y45.297 F200
M106 S0
M106 S255
G1 X8.195 Y45.271 F200
M106 S0
M106 S255
G1 X8.195 Y45.271 F200
M106 S0
M106 S255
G1 X8.149 Y45.247 F200
M106 S0
M106 S255
G1 X8.149 Y45.247 F200
M106 S0
M106 S255
G1 X8.101 Y45.225 F200
M106 S0
M106 S255
G1 X8.101 Y45.225 F200
M106 S0
M106 S255
G1 X8.049 Y45.205 F200
M106 S0
M106 S255
G1 X8.049 Y45.205 F200
M106 S0
M106 S255
G1 X7.992 Y45.184 F200
M106 S0
M106 S255
G1 X7.992 Y45.184 F200
M106 S0
M106 S255
G1 X7.872 Y45.142 F200
M106 S0
M106 S255
G1 X7.872 Y45.142 F200
M106 S0
M106 S255
G1 X7.868 Y44.952 F200
M106 S0
M106 S255
G1 X7.868 Y44.952 F200
M106 S0
M106 S255
G1 X7.865 Y44.829 F200
M106 S0
M106 S255
G1 X7.865 Y44.829 F200
M106 S0
M106 S255
G1 X7.863 Y44.705 F200
M106 S0
M106 S255
G1 X7.863 Y44.705 F200
M106 S0
M106 S255
G1 X7.861 Y44.581 F200
M106 S0
M106 S255
G1 X7.861 Y44.581 F200
M106 S0
M106 S255
G1 X7.86 Y44.456 F200
M106 S0
M106 S255
G1 X7.86 Y44.456 F200
M106 S0
M106 S255
G1 X7.859 Y44.332 F200
M106 S0
M106 S255
G1 X7.859 Y44.332 F200
M106 S0
M106 S255
G1 X7.86 Y44.207 F200
M106 S0
M106 S255
G1 X7.86 Y44.207 F200
M106 S0
M106 S255
G1 X7.861 Y44.082 F200
M106 S0
M106 S255
G1 X7.861 Y44.082 F200
M106 S0
M106 S255
G1 X7.864 Y43.965 F200
M106 S0
M106 S255
G1 X7.864 Y43.965 F200
M106 S0
M106 S255
G1 X7.868 Y43.83 F200
M106 S0
M106 S255
G1 X7.868 Y43.83 F200
M106 S0
M106 S255
G1 X7.871 Y43.773 F200
M106 S0
M106 S255
G1 X7.871 Y43.773 F200
M106 S0
M106 S255
G1 X7.882 Y43.581 F200
M106 S0
M106 S255
G1 X7.882 Y43.581 F200
M106 S0
M106 S255
G1 X7.892 Y43.457 F200
M106 S0
M106 S255
G1 X7.892 Y43.457 F200
M106 S0
M106 S255
G1 X7.904 Y43.332 F200
M106 S0
M106 S255
G1 X7.904 Y43.332 F200
M106 S0
M106 S255
G1 X7.921 Y43.205 F200
M106 S0
M106 S255
G1 X7.921 Y43.205 F200
M106 S0
M106 S255
G1 X7.94 Y43.082 F200
M106 S0
M106 S255
G1 X7.94 Y43.082 F200
M106 S0
M106 S255
G1 X7.965 Y42.957 F200
M106 S0
M106 S255
G1 X7.965 Y42.957 F200
M106 S0
M106 S255
G1 X7.993 Y42.835 F200
M106 S0
M106 S255
G1 X7.993 Y42.835 F200
M106 S0
M106 S255
G1 X8.016 Y42.752 F200
M106 S0
M106 S255
G1 X8.016 Y42.752 F200
M106 S0
M106 S255
G1 X8.067 Y42.589 F200
M106 S0
M106 S255
G1 X8.067 Y42.589 F200
M106 S0
M106 S255
G1 X8.111 Y42.47 F200
M106 S0
M106 S255
G1 X8.111 Y42.47 F200
M106 S0
M106 S255
G1 X8.156 Y42.357 F200
M106 S0
M106 S255
G1 X8.156 Y42.357 F200
M106 S0
M106 S255
G1 X8.207 Y42.236 F200
M106 S0
M106 S255
G1 X8.207 Y42.236 F200
M106 S0
M106 S255
G1 X8.277 Y42.077 F200
M106 S0
M106 S255
G1 X8.277 Y42.077 F200
M106 S0
M106 S255
G1 X8.3 Y42.025 F200
M106 S0
M106 S255
G1 X8.3 Y42.025 F200
M106 S0
M106 S255
G1 X8.367 Y41.879 F200
M106 S0
M106 S255
G1 X8.367 Y41.879 F200
M106 S0
M106 S255
G1 X8.408 Y41.788 F200
M106 S0
M106 S255
G1 X8.408 Y41.788 F200
M106 S0
M106 S255
G1 X8.444 Y41.71 F200
M106 S0
M106 S255
G1 X8.444 Y41.71 F200
M106 S0
M106 S255
G1 X8.527 Y41.531 F200
M106 S0
M106 S255
G1 X8.527 Y41.531 F200
M106 S0
M106 S255
G1 X9.535 Y40.993 F200
M106 S0
M106 S255
G1 X9.535 Y40.993 F200
M106 S0
M106 S255
G1 X9.535 Y40.579 F200
M106 S0
G0 X9.636 Y40.679 F6000
M106 S255
G1 X9.636 Y40.679 F200
M106 S0
M106 S255
G1 X9.732 Y40.677 F200
M106 S0
M106 S255
G1 X9.732 Y40.677 F200
M106 S0
M106 S255
G1 X9.831 Y40.673 F200
M106 S0
M106 S255
G1 X9.831 Y40.673 F200
M106 S0
M106 S255
G1 X9.93 Y40.665 F200
M106 S0
M106 S255
G1 X9.93 Y40.665 F200
M106 S0
M106 S255
G1 X10.029 Y40.653 F200
M106 S0
M106 S255
G1 X10.029 Y40.653 F200
M106 S0
M106 S255
G1 X10.129 Y40.637 F200
M106 S0
M106 S255
G1 X10.129 Y40.637 F200
M106 S0
M106 S255
G1 X10.228 Y40.617 F200
M106 S0
M106 S255
G1 X10.228 Y40.617 F200
M106 S0
M106 S255
G1 X10.325 Y40.592 F200
M106 S0
M106 S255
G1 X10.325 Y40.592 F200
M106 S0
M106 S255
G1 X10.423 Y40.561 F200
M106 S0
M106 S255
G1 X10.423 Y40.561 F200
M106 S0
M106 S255
G1 X10.516 Y40.525 F200
M106 S0
M106 S255
G1 X10.516 Y40.525 F200
M106 S0
M106 S255
G1 X10.61 Y40.483 F200
M106 S0
M106 S255
G1 X10.61 Y40.483 F200
M106 S0
M106 S255
G1 X10.7 Y40.435 F200
M106 S0
M106 S255
G1 X10.7 Y40.435 F200
M106 S0
M106 S255
G1 X10.787 Y40.38 F200
M106 S0
M106 S255
G1 X10.787 Y40.38 F200
M106 S0
M106 S255
G1 X10.871 Y40.32 F200
M106 S0
M106 S255
G1 X10.871 Y40.32 F200
M106 S0
M106 S255
G1 X10.949 Y40.255 F200
M106 S0
M106 S255
G1 X10.949 Y40.255 F200
M106 S0
M106 S255
G1 X11.025 Y40.184 F200
M106 S0
M106 S255
G1 X11.025 Y40.184 F200
M106 S0
M106 S255
G1 X11.095 Y40.108 F200
M106 S0
M106 S255
G1 X11.095 Y40.108 F200
M106 S0
M106 S255
G1 X11.159 Y40.029 F200
M106 S0
M106 S255
G1 X11.159 Y40.029 F200
M106 S0
M106 S255
G1 X11.219 Y39.944 F200
M106 S0
M106 S255
G1 X11.219 Y39.944 F200
M106 S0
M106 S255
G1 X11.272 Y39.857 F200
M106 S0
M106 S255
G1 X11.272 Y39.857 F200
M106 S0
M106 S255
G1 X11.319 Y39.767 F200
M106 S0
M106 S255
G1 X11.319 Y39.767 F200
M106 S0
M106 S255
G1 X11.361 Y39.673 F200
M106 S0
M106 S255
G1 X11.361 Y39.673 F200
M106 S0
M106 S255
G1 X11.397 Y39.578 F200
M106 S0
M106 S255
G1 X11.397 Y39.578 F200
M106 S0
M106 S255
G1 X11.429 Y39.48 F200
M106 S0
M106 S255
G1 X11.429 Y39.48 F200
M106 S0
M106 S255
G1 X11.454 Y39.384 F200
M106 S0
M106 S255
G1 X11.454 Y39.384 F200
M106 S0
M106 S255
G1 X11.475 Y39.284 F200
M106 S0
M106 S255
G1 X11.475 Y39.284 F200
M106 S0
M106 S255
G1 X11.492 Y39.186 F200
M106 S0
M106 S255
G1 X11.492 Y39.186 F200
M106 S0
M106 S255
G1 X11.503 Y39.086 F200
M106 S0
M106 S255
G1 X11.503 Y39.086 F200
M106 S0
M106 S255
G1 X11.511 Y38.987 F200
M106 S0
M106 S255
G1 X11.511 Y38.987 F200
M106 S0
M106 S255
G1 X11.515 Y38.887 F200
M106 S0
M106 S255
G1 X11.515 Y38.887 F200
M106 S0
M106 S255
G1 X11.515 Y38.79 F200
M106 S0
M106 S255
G1 X11.515 Y38.79 F200
M106 S0
M106 S255
G1 X11.514 Y38.695 F200
M106 S0
M106 S255
G1 X11.514 Y38.695 F200
M106 S0
M106 S255
G1 X11.51 Y38.591 F200
M106 S0
M106 S255
G1 X11.51 Y38.591 F200
M106 S0
M106 S255
G1 X11.505 Y38.503 F200
M106 S0
M106 S255
G1 X11.505 Y38.503 F200
M106 S0
M106 S255
G1 X11.498 Y38.395 F200
M106 S0
M106 S255
G1 X11.498 Y38.395 F200
M106 S0
M106 S255
G1 X11.486 Y38.214 F200
M106 S0
M106 S255
G1 X11.486 Y38.214 F200
M106 S0
M106 S255
G1 X2.077 Y38.214 F200
M106 S0
M106 S255
G1 X2.077 Y38.214 F200
M106 S0
M106 S255
G1 X2.064 Y38.395 F200
M106 S0
M106 S255
G1 X2.064 Y38.395 F200
M106 S0
M106 S255
G1 X2.057 Y38.503 F200
M106 S0
M106 S255
G1 X2.057 Y38.503 F200
M106 S0
M106 S255
G1 X2.053 Y38.591 F200
M106 S0
M106 S255
G1 X2.053 Y38.591 F200
M106 S0
M106 S255
G1 X2.049 Y38.695 F200
M106 S0
M106 S255
G1 X2.049 Y38.695 F200
M106 S0
M106 S255
G1 X2.047 Y38.79 F200
M106 S0
M106 S255
G1 X2.047 Y38.79 F200
M106 S0
M106 S255
G1 X2.048 Y38.887 F200
M106 S0
M106 S255
G1 X2.048 Y38.887 F200
M106 S0
M106 S255
G1 X2.052 Y38.987 F200
M106 S0
M106 S255
G1 X2.052 Y38.987 F200
M106 S0
M106 S255
G1 X2.059 Y39.086 F200
M106 S0
M106 S255
G1 X2.059 Y39.086 F200
M106 S0
M106 S255
G1 X2.071 Y39.186 F200
M106 S0
M106 S255
G1 X2.071 Y39.186 F200
M106 S0
M106 S255
G1 X2.087 Y39.284 F200
M106 S0
M106 S255
G1 X2.087 Y39.284 F200
M106 S0
M106 S255
G1 X2.108 Y39.384 F200
M106 S0
M106 S255
G1 X2.108 Y39.384 F200
M106 S0
M106 S255
G1 X2.133 Y39.48 F200
M106 S0
M106 S255
G1 X2.133 Y39.48 F200
M106 S0
M106 S255
G1 X2.165 Y39.578 F200
M106 S0
M106 S255
G1 X2.165 Y39.578 F200
M106 S0
M106 S255
G1 X2.201 Y39.673 F200
M106 S0
M106 S255
G1 X2.201 Y39.673 F200
M106 S0
M106 S255
G1 X2.243 Y39.767 F200
M106 S0
M106 S255
G1 X2.243 Y39.767 F200
M106 S0
M106 S255
G1 X2.29 Y39.857 F200
M106 S0
M106 S255
G1 X2.29 Y39.857 F200
M106 S0
M106 S255
G1 X2.343 Y39.944 F200
M106 S0
M106 S255
G1 X2.343 Y39.944 F200
M106 S0
M106 S255
G1 X2.403 Y40.029 F200
M106 S0
M106 S255
G1 X2.403 Y40.029 F200
M106 S0
M106 S255
G1 X2.467 Y40.108 F200
M106 S0
M106 S255
G1 X2.467 Y40.108 F200
M106 S0
M106 S255
G1 X2.537 Y40.184 F200
M106 S0
M106 S255
G1 X2.537 Y40.184 F200
M106 S0
M106 S255
G1 X2.613 Y40.255 F200
M106 S0
M106 S255
G1 X2.613 Y40.255 F200
M106 S0
M106 S255
G1 X2.692 Y40.32 F200
M106 S0
M106 S255
G1 X2.692 Y40.32 F200
M106 S0
M106 S255
G1 X2.775 Y40.38 F200
M106 S0
M106 S255
G1 X2.775 Y40.38 F200
M106 S0
M106 S255
G1 X2.863 Y40.435 F200
M106 S0
M106 S255
G1 X2.863 Y40.435 F200
M106 S0
M106 S255
G1 X2.952 Y40.483 F200
M106 S0
M106 S255
G1 X2.952 Y40.483 F200
M106 S0
M106 S255
G1 X3.046 Y40.525 F200
M106 S0
M106 S255
G1 X3.046 Y40.525 F200
M106 S0
M106 S255
G1 X3.139 Y40.561 F200
M106 S0
M106 S255
G1 X3.139 Y40.561 F200
M106 S0
M106 S255
G1 X3.238 Y40.592 F200
M106 S0
M106 S255
G1 X3.238 Y40.592 F200
M106 S0
M106 S255
G1 X3.335 Y40.617 F200
M106 S0
M106 S255
G1 X3.335 Y40.617 F200
M106 S0
M106 S255
G1 X3.433 Y40.637 F200
M106 S0
M106 S255
G1 X3.433 Y40.637 F200
M106 S0
M106 S255
G1 X3.534 Y40.653 F200
M106 S0
M106 S255
G1 X3.534 Y40.653 F200
M106 S0
M106 S255
G1 X3.633 Y40.665 F200
M106 S0
M106 S255
G1 X3.633 Y40.665 F200
M106 S0
M106 S255
G1 X3.731 Y40.673 F200
M106 S0
M106 S255
G1 X3.731 Y40.673 F200
M106 S0
M106 S255
G1 X3.83 Y40.677 F200
M106 S0
M106 S255
G1 X3.83 Y40.677 F200
M106 S0
M106 S255
G1 X3.828 Y40.677 F200
M106 S0
M106 S255
G1 X3.828 Y40.677 F200
M106 S0
M106 S255
G1 X3.828 Y41.113 F200
M106 S0
M106 S255
G1 X3.828 Y41.113 F200
M106 S0
M106 S255
G1 X4.882 Y41.676 F200
M106 S0
M106 S255
G1 X4.882 Y41.676 F200
M106 S0
M106 S255
G1 X4.902 Y41.721 F200
M106 S0
M106 S255
G1 X4.902 Y41.721 F200
M106 S0
M106 S255
G1 X4.97 Y41.867 F200
M106 S0
M106 S255
G1 X4.97 Y41.867 F200
M106 S0
M106 S255
G1 X5.031 Y42.0 F200
M106 S0
M106 S255
G1 X5.031 Y42.0 F200
M106 S0
M106 S255
G1 X5.067 Y42.079 F200
M106 S0
M106 S255
G1 X5.067 Y42.079 F200
M106 S0
M106 S255
G1 X5.104 Y42.161 F200
M106 S0
M106 S255
G1 X5.104 Y42.161 F200
M106 S0
M106 S255
G1 X5.174 Y42.32 F200
M106 S0
M106 S255
G1 X5.174 Y42.32 F200
M106 S0
M106 S255
G1 X5.219 Y42.426 F200
M106 S0
M106 S255
G1 X5.219 Y42.426 F200
M106 S0
M106 S255
G1 X5.265 Y42.543 F200
M106 S0
M106 S255
G1 X5.265 Y42.543 F200
M106 S0
M106 S255
G1 X5.306 Y42.656 F200
M106 S0
M106 S255
G1 X5.306 Y42.656 F200
M106 S0
M106 S255
G1 X5.355 Y42.808 F200
M106 S0
M106 S255
G1 X5.355 Y42.808 F200
M106 S0
M106 S255
G1 X5.374 Y42.881 F200
M106 S0
M106 S255
G1 X5.374 Y42.881 F200
M106 S0
M106 S255
G1 X5.402 Y42.999 F200
M106 S0
M106 S255
G1 X5.402 Y42.999 F200
M106 S0
M106 S255
G1 X5.425 Y43.116 F200
M106 S0
M106 S255
G1 X5.425 Y43.116 F200
M106 S0
M106 S255
G1 X5.444 Y43.236 F200
M106 S0
M106 S255
G1 X5.444 Y43.236 F200
M106 S0
M106 S255
G1 X5.459 Y43.355 F200
M106 S0
M106 S255
G1 X5.459 Y43.355 F200
M106 S0
M106 S255
G1 X5.472 Y43.476 F200
M106 S0
M106 S255
G1 X5.472 Y43.476 F200
M106 S0
M106 S255
G1 X5.481 Y43.6 F200
M106 S0
M106 S255
G1 X5.481 Y43.6 F200
M106 S0
M106 S255
G1 X5.492 Y43.779 F200
M106 S0
M106 S255
G1 X5.492 Y43.779 F200
M106 S0
M106 S255
G1 X5.495 Y43.845 F200
M106 S0
M106 S255
G1 X5.495 Y43.845 F200
M106 S0
M106 S255
G1 X5.498 Y43.958 F200
M106 S0
M106 S255
G1 X5.498 Y43.958 F200
M106 S0
M106 S255
G1 X5.501 Y44.088 F200
M106 S0
M106 S255
G1 X5.501 Y44.088 F200
M106 S0
M106 S255
G1 X5.503 Y44.21 F200
M106 S0
M106 S255
G1 X5.503 Y44.21 F200
M106 S0
M106 S255
G1 X5.503 Y44.332 F200
M106 S0
M106 S255
G1 X5.503 Y44.332 F200
M106 S0
M106 S255
G1 X5.503 Y44.454 F200
M106 S0
M106 S255
G1 X5.503 Y44.454 F200
M106 S0
M106 S255
G1 X5.501 Y44.576 F200
M106 S0
M106 S255
G1 X5.501 Y44.576 F200
M106 S0
M106 S255
G1 X5.5 Y44.698 F200
M106 S0
M106 S255
G1 X5.5 Y44.698 F200
M106 S0
M106 S255
G1 X5.497 Y44.82 F200
M106 S0
M106 S255
G1 X5.497 Y44.82 F200
M106 S0
M106 S255
G1 X5.494 Y44.944 F200
M106 S0
M106 S255
G1 X5.494 Y44.944 F200
M106 S0
M106 S255
G1 X5.493 Y44.999 F200
M106 S0
M106 S255
G1 X5.493 Y44.999 F200
M106 S0
M106 S255
G1 X5.499 Y44.997 F200
M106 S0
M106 S255
G1 X5.499 Y44.997 F200
M106 S0
M106 S255
G1 X5.443 Y45.017 F200
M106 S0
M106 S255
G1 X5.443 Y45.017 F200
M106 S0
M106 S255
G1 X5.385 Y45.041 F200
M106 S0
M106 S255
G1 X5.385 Y45.041 F200
M106 S0
M106 S255
G1 X5.326 Y45.067 F200
M106 S0
M106 S255
G1 X5.326 Y45.067 F200
M106 S0
M106 S255
G1 X5.268 Y45.097 F200
M106 S0
M106 S255
G1 X5.268 Y45.097 F200
M106 S0
M106 S255
G1 X5.213 Y45.131 F200
M106 S0
M106 S255
G1 X5.213 Y45.131 F200
M106 S0
M106 S255
G1 X5.158 Y45.171 F200
M106 S0
M106 S255
G1 X5.158 Y45.171 F200
M106 S0
M106 S255
G1 X5.108 Y45.217 F200
M106 S0
M106 S255
G1 X5.108 Y45.217 F200
M106 S0
M106 S255
G1 X5.064 Y45.267 F200
M106 S0
M106 S255
G1 X5.064 Y45.267 F200
M106 S0
M106 S255
G1 X5.023 Y45.322 F200
M106 S0
M106 S255
G1 X5.023 Y45.322 F200
M106 S0
M106 S255
G1 X4.987 Y45.379 F200
M106 S0
M106 S255
G1 X4.987 Y45.379 F200
M106 S0
M106 S255
G1 X4.955 Y45.438 F200
M106 S0
M106 S255
G1 X4.955 Y45.438 F200
M106 S0
M106 S255
G1 X4.928 Y45.501 F200
M106 S0
M106 S255
G1 X4.928 Y45.501 F200
M106 S0
M106 S255
G1 X4.906 Y45.562 F200
M106 S0
M106 S255
G1 X4.906 Y45.562 F200
M106 S0
M106 S255
G1 X4.887 Y45.627 F200
M106 S0
M106 S255
G1 X4.887 Y45.627 F200
M106 S0
M106 S255
G1 X4.874 Y45.688 F200
M106 S0
M106 S255
G1 X4.874 Y45.688 F200
M106 S0
M106 S255
G1 X4.863 Y45.753 F200
M106 S0
M106 S255
G1 X4.863 Y45.753 F200
M106 S0
M106 S255
G1 X4.856 Y45.813 F200
M106 S0
M106 S255
G1 X4.856 Y45.813 F200
M106 S0
M106 S255
G1 X4.852 Y45.877 F200
M106 S0
M106 S255
G1 X4.852 Y45.877 F200
M106 S0
M106 S255
G1 X4.849 Y45.939 F200
M106 S0
M106 S255
G1 X4.849 Y45.939 F200
M106 S0
M106 S255
G1 X4.848 Y45.998 F200
M106 S0
M106 S255
G1 X4.848 Y45.998 F200
M106 S0
M106 S255
G1 X4.848 Y46.059 F200
M106 S0
M106 S255
G1 X4.848 Y46.059 F200
M106 S0
M106 S255
G1 X4.848 Y46.017 F200
M106 S0
M106 S255
G1 X4.848 Y46.017 F200
M106 S0
M106 S255
G1 X4.357 Y46.017 F200
M106 S0
M106 S255
G1 X4.357 Y46.017 F200
M106 S0
M106 S255
G1 X4.28 Y46.061 F200
M106 S0
M106 S255
G1 X4.28 Y46.061 F200
M106 S0
M106 S255
G1 X4.233 Y46.088 F200
M106 S0
M106 S255
G1 X4.233 Y46.088 F200
M106 S0
M106 S255
G1 X4.17 Y46.126 F200
M106 S0
M106 S255
G1 X4.17 Y46.126 F200
M106 S0
M106 S255
G1 X4.12 Y46.158 F200
M106 S0
M106 S255
G1 X4.12 Y46.158 F200
M106 S0
M106 S255
G1 X4.067 Y46.194 F200
M106 S0
M106 S255
G1 X4.067 Y46.194 F200
M106 S0
M106 S255
G1 X4.014 Y46.234 F200
M106 S0
M106 S255
G1 X4.014 Y46.234 F200
M106 S0
M106 S255
G1 X3.941 Y46.295 F200
M106 S0
M106 S255
G1 X3.941 Y46.295 F200
M106 S0
M106 S255
G1 X3.914 Y46.32 F200
M106 S0
M106 S255
G1 X3.914 Y46.32 F200
M106 S0
M106 S255
G1 X3.867 Y46.369 F200
M106 S0
M106 S255
G1 X3.867 Y46.369 F200
M106 S0
M106 S255
G1 X3.823 Y46.421 F200
M106 S0
M106 S255
G1 X3.823 Y46.421 F200
M106 S0
M106 S255
G1 X3.782 Y46.475 F200
M106 S0
M106 S255
G1 X3.782 Y46.475 F200
M106 S0
M106 S255
G1 X3.744 Y46.532 F200
M106 S0
M106 S255
G1 X3.744 Y46.532 F200
M106 S0
M106 S255
G1 X3.71 Y46.591 F200
M106 S0
M106 S255
G1 X3.71 Y46.591 F200
M106 S0
M106 S255
G1 X3.68 Y46.653 F200
M106 S0
M106 S255
G1 X3.68 Y46.653 F200
M106 S0
M106 S255
G1 X3.655 Y46.716 F200
M106 S0
M106 S255
G1 X3.655 Y46.716 F200
M106 S0
M106 S255
G1 X3.635 Y46.785 F200
M106 S0
M106 S255
G1 X3.635 Y46.785 F200
M106 S0
M106 S255
G1 X3.621 Y46.85 F200
M106 S0
M106 S255
G1 X3.621 Y46.85 F200
M106 S0
M106 S255
G1 X3.611 Y46.914 F200
M106 S0
M106 S255
G1 X3.611 Y46.914 F200
M106 S0
M106 S255
G1 X3.605 Y46.981 F200
M106 S0
M106 S255
G1 X3.605 Y46.981 F200
M106 S0
M106 S255
G1 X3.602 Y47.045 F200
M106 S0
M106 S255
G1 X3.602 Y47.045 F200
M106 S0
M106 S255
G1 X3.601 Y47.108 F200
M106 S0
M106 S255
G1 X3.601 Y47.108 F200
M106 S0
M106 S255
G1 X3.601 Y47.173 F200
M106 S0
M106 S255
G1 X3.601 Y47.173 F200
M106 S0
M106 S255
G1 X3.603 Y47.234 F200
M106 S0
M106 S255
G1 X3.603 Y47.234 F200
M106 S0
M106 S255
G1 X3.607 Y47.301 F200
M106 S0
M106 S255
G1 X3.607 Y47.301 F200
M106 S0
M106 S255
G1 X3.613 Y47.365 F200
M106 S0
M106 S255
G1 X3.613 Y47.365 F200
M106 S0
M106 S255
G1 X3.623 Y47.432 F200
M106 S0
M106 S255
G1 X3.623 Y47.432 F200
M106 S0
M106 S255
G1 X3.637 Y47.496 F200
M106 S0
M106 S255
G1 X3.637 Y47.496 F200
M106 S0
M106 S255
G1 X3.656 Y47.562 F200
M106 S0
M106 S255
G1 X3.656 Y47.562 F200
M106 S0
M106 S255
G1 X3.679 Y47.624 F200
M106 S0
M106 S255
G1 X3.679 Y47.624 F200
M106 S0
M106 S255
G1 X3.707 Y47.686 F200
M106 S0
M106 S255
G1 X3.707 Y47.686 F200
M106 S0
M106 S255
G1 X3.738 Y47.746 F200
M106 S0
M106 S255
G1 X3.738 Y47.746 F200
M106 S0
M106 S255
G1 X3.772 Y47.803 F200
M106 S0
M106 S255
G1 X3.772 Y47.803 F200
M106 S0
M106 S255
G1 X3.811 Y47.86 F200
M106 S0
M106 S255
G1 X3.811 Y47.86 F200
M106 S0
M106 S255
G1 X3.851 Y47.913 F200
M106 S0
M106 S255
G1 X3.851 Y47.913 F200
M106 S0
M106 S255
G1 X3.895 Y47.964 F200
M106 S0
M106 S255
G1 X3.895 Y47.964 F200
M106 S0
M106 S255
G1 X3.941 Y48.012 F200
M106 S0
M106 S255
G1 X3.941 Y48.012 F200
M106 S0
M106 S255
G1 X3.978 Y48.048 F200
M106 S0
M106 S255
G1 X3.978 Y48.048 F200
M106 S0
M106 S255
G1 X4.041 Y48.103 F200
M106 S0
M106 S255
G1 X4.041 Y48.103 F200
M106 S0
M106 S255
G1 X4.093 Y48.143 F200
M106 S0
M106 S255
G1 X4.093 Y48.143 F200
M106 S0
M106 S255
G1 X4.148 Y48.18 F200
M106 S0
M106 S255
G1 X4.148 Y48.18 F200
M106 S0
M106 S255
G1 X4.205 Y48.215 F200
M106 S0
M106 S255
G1 X4.205 Y48.215 F200
M106 S0
M106 S255
G1 X4.263 Y48.246 F200
M106 S0
M106 S255
G1 X4.263 Y48.246 F200
M106 S0
M106 S255
G1 X4.324 Y48.274 F200
M106 S0
M106 S255
G1 X4.324 Y48.274 F200
M106 S0
M106 S255
G1 X4.384 Y48.297 F200
M106 S0
M106 S255
G1 X4.384 Y48.297 F200
M106 S0
M106 S255
G1 X4.449 Y48.319 F200
M106 S0
M106 S255
G1 X4.449 Y48.319 F200
M106 S0
M106 S255
G1 X4.503 Y48.336 F200
M106 S0
M106 S255
G1 X4.503 Y48.336 F200
M106 S0
M106 S255
G1 X4.579 Y48.358 F200
M106 S0
M106 S255
G1 X4.579 Y48.358 F200
M106 S0
M106 S255
G1 X4.8 Y48.358 F200
M106 S0
M106 S255
G1 X4.8 Y48.358 F200
M106 S0
M106 S255
G1 X4.841 Y48.28 F200
M106 S0
M106 S255
G1 X4.841 Y48.28 F200
M106 S0
M106 S255
G1 X4.799 Y48.363 F200
M106 S0
M106 S255
G1 X4.799 Y48.363 F200
M106 S0
M106 S255
G1 X4.762 Y48.438 F200
M106 S0
M106 S255
G1 X4.762 Y48.438 F200
M106 S0
M106 S255
G1 X4.727 Y48.515 F200
M106 S0
M106 S255
G1 X4.727 Y48.515 F200
M106 S0
M106 S255
G1 X4.693 Y48.597 F200
M106 S0
M106 S255
G1 X4.693 Y48.597 F200
M106 S0
M106 S255
G1 X4.665 Y48.678 F200
M106 S0
M106 S255
G1 X4.665 Y48.678 F200
M106 S0
M106 S255
G1 X4.64 Y48.764 F200
M106 S0
M106 S255
G1 X4.64 Y48.764 F200
M106 S0
M106 S255
G1 X4.621 Y48.849 F200
M106 S0
M106 S255
G1 X4.621 Y48.849 F200
M106 S0
M106 S255
G1 X4.606 Y48.937 F200
M106 S0
M106 S255
G1 X4.606 Y48.937 F200
M106 S0
M106 S255
G1 X4.596 Y49.023 F200
M106 S0
M106 S255
G1 X4.596 Y49.023 F200
M106 S0
M106 S255
G1 X4.589 Y49.109 F200
M106 S0
M106 S255
G1 X4.589 Y49.109 F200
M106 S0
M106 S255
G1 X4.585 Y49.196 F200
M106 S0
M106 S255
G1 X4.585 Y49.196 F200
M106 S0
M106 S255
G1 X4.584 Y49.282 F200
M106 S0
M106 S255
G1 X4.584 Y49.282 F200
M106 S0
M106 S255
G1 X4.584 Y49.366 F200
M106 S0
M106 S255
G1 X4.584 Y49.366 F200
M106 S0
M106 S255
G1 X4.587 Y49.454 F200
M106 S0
M106 S255
G1 X4.587 Y49.454 F200
M106 S0
M106 S255
G1 X4.592 Y49.54 F200
M106 S0
M106 S255
G1 X4.592 Y49.54 F200
M106 S0
M106 S255
G1 X4.6 Y49.625 F200
M106 S0
M106 S255
G1 X4.6 Y49.625 F200
M106 S0
M106 S255
G1 X4.61 Y49.71 F200
M106 S0
M106 S255
G1 X4.61 Y49.71 F200
M106 S0
M106 S255
G1 X4.624 Y49.795 F200
M106 S0
M106 S255
G1 X4.624 Y49.795 F200
M106 S0
M106 S255
G1 X4.64 Y49.879 F200
M106 S0
M106 S255
G1 X4.64 Y49.879 F200
M106 S0
M106 S255
G1 X4.661 Y49.966 F200
M106 S0
M106 S255
G1 X4.661 Y49.966 F200
M106 S0
M106 S255
G1 X4.685 Y50.048 F200
M106 S0
M106 S255
G1 X4.685 Y50.048 F200
M106 S0
M106 S255
G1 X4.713 Y50.133 F200
M106 S0
M106 S255
G1 X4.713 Y50.133 F200
M106 S0
M106 S255
G1 X4.744 Y50.216 F200
M106 S0
M106 S255
G1 X4.744 Y50.216 F200
M106 S0
M106 S255
G1 X4.779 Y50.297 F200
M106 S0
M106 S255
G1 X4.779 Y50.297 F200
M106 S0
M106 S255
G1 X4.817 Y50.376 F200
M106 S0
M106 S255
G1 X4.817 Y50.376 F200
M106 S0
M106 S255
G1 X4.859 Y50.454 F200
M106 S0
M106 S255
G1 X4.859 Y50.454 F200
M106 S0
M106 S255
G1 X4.905 Y50.53 F200
M106 S0
M106 S255
G1 X4.905 Y50.53 F200
M106 S0
M106 S255
G1 X4.954 Y50.603 F200
M106 S0
M106 S255
G1 X4.954 Y50.603 F200
M106 S0
M106 S255
G1 X5.007 Y50.674 F200
M106 S0
M106 S255
G1 X5.007 Y50.674 F200
M106 S0
M106 S255
G1 X5.063 Y50.742 F200
M106 S0
M106 S255
G1 X5.063 Y50.742 F200
M106 S0
M106 S255
G1 X5.123 Y50.807 F200
M106 S0
M106 S255
G1 X5.123 Y50.807 F200
M106 S0
M106 S255
G1 X5.186 Y50.869 F200
M106 S0
M106 S255
G1 X5.186 Y50.869 F200
M106 S0
M106 S255
G1 X5.253 Y50.928 F200
M106 S0
M106 S255
G1 X5.253 Y50.928 F200
M106 S0
M106 S255
G1 X5.32 Y50.981 F200
M106 S0
M106 S255
G1 X5.32 Y50.981 F200
M106 S0
M106 S255
G1 X5.393 Y51.034 F200
M106 S0
M106 S255
G1 X5.393 Y51.034 F200
M106 S0
M106 S255
G1 X5.465 Y51.081 F200
M106 S0
M106 S255
G1 X5.465 Y51.081 F200
M106 S0
M106 S255
G1 X5.54 Y51.126 F200
M106 S0
M106 S255
G1 X5.54 Y51.126 F200
M106 S0
M106 S255
G1 X5.617 Y51.167 F200
M106 S0
M106 S255
G1 X5.617 Y51.167 F200
M106 S0
M106 S255
G1 X5.694 Y51.205 F200
M106 S0
M106 S255
G1 X5.694 Y51.205 F200
M106 S0
M106 S255
G1 X5.776 Y51.241 F200
M106 S0
M106 S255
G1 X5.776 Y51.241 F200
M106 S0
M106 S255
G1 X5.853 Y51.272 F200
M106 S0
M106 S255
G1 X5.853 Y51.272 F200
M106 S0
M106 S255
G1 X5.936 Y51.301 F200
M106 S0
M106 S255
G1 X5.936 Y51.301 F200
M106 S0
M106 S255
G1 X6.017 Y51.327 F200
M106 S0
M106 S255
G1 X6.017 Y51.327 F200
M106 S0
M106 S255
G1 X6.102 Y51.351 F200
M106 S0
M106 S255
G1 X6.102 Y51.351 F200
M106 S0
M106 S255
G1 X6.182 Y51.371 F200
M106 S0
M106 S255
G1 X6.182 Y51.371 F200
M106 S0
M106 S255
G1 X6.27 Y51.39 F200
M106 S0
M106 S255
G1 X6.27 Y51.39 F200
M106 S0
M106 S255
G1 X6.355 Y51.404 F200
M106 S0
M106 S255
G1 X6.355 Y51.404 F200
M106 S0
M106 S255
G1 X6.439 Y51.416 F200
M106 S0
M106 S255
G1 X6.439 Y51.416 F200
M106 S0
M106 S255
G1 X6.526 Y51.424 F200
M106 S0
M106 S255
G1 X6.526 Y51.424 F200
M106 S0
M106 S255
G1 X6.614 Y51.429 F200
M106 S0
M106 S255
G1 X6.614 Y51.429 F200
M106 S0
M106 S255
G1 X6.695 Y51.432 F200
M106 S0
M106 S255
G1 X6.695 Y51.432 F200
M106 S0
M106 S255
G1 X6.781 Y51.432 F200
M106 S0
M106 S255
G1 X6.781 Y51.432 F200
M106 S0
M106 S255
G1 X6.867 Y51.432 F200
M106 S0
M106 S255
G1 X6.867 Y51.432 F200
M106 S0
M106 S255
G1 X6.949 Y51.429 F200
M106 S0
M106 S255
G1 X6.949 Y51.429 F200
M106 S0
M106 S255
G1 X7.036 Y51.424 F200
M106 S0
M106 S255
G1 X7.036 Y51.424 F200
M106 S0
M106 S255
G1 X7.124 Y51.416 F200
M106 S0
M106 S255
G1 X7.124 Y51.416 F200
M106 S0
M106 S255
G1 X7.208 Y51.404 F200
M106 S0
M106 S255
G1 X7.208 Y51.404 F200
M106 S0
M106 S255
G1 X7.293 Y51.39 F200
M106 S0
M106 S255
G1 X7.293 Y51.39 F200
M106 S0
M106 S255
G1 X7.38 Y51.371 F200
M106 S0
M106 S255
G1 X7.38 Y51.371 F200
M106 S0
M106 S255
G1 X7.46 Y51.351 F200
M106 S0
M106 S255
G1 X7.46 Y51.351 F200
M106 S0
M106 S255
G1 X7.545 Y51.327 F200
M106 S0
M106 S255
G1 X7.545 Y51.327 F200
M106 S0
M106 S255
G1 X7.626 Y51.301 F200
M106 S0
M106 S255
G1 X7.626 Y51.301 F200
M106 S0
M106 S255
G1 X7.709 Y51.272 F200
M106 S0
M106 S255
G1 X7.709 Y51.272 F200
M106 S0
M106 S255
G1 X7.787 Y51.241 F200
M106 S0
M106 S255
G1 X7.787 Y51.241 F200
M106 S0
M106 S255
G1 X7.868 Y51.205 F200
M106 S0
M106 S255
G1 X7.868 Y51.205 F200
M106 S0
M106 S255
G1 X7.946 Y51.167 F200
M106 S0
M106 S255
G1 X7.946 Y51.167 F200
M106 S0
M106 S255
G1 X8.022 Y51.126 F200
M106 S0
M106 S255
G1 X8.022 Y51.126 F200
M106 S0
M106 S255
G1 X8.098 Y51.081 F200
M106 S0
M106 S255
G1 X8.098 Y51.081 F200
M106 S0
M106 S255
G1 X8.17 Y51.034 F200
M106 S0
M106 S255
G1 X8.17 Y51.034 F200
M106 S0
M106 S255
G1 X8.243 Y50.981 F200
M106 S0
M106 S255
G1 X8.243 Y50.981 F200
M106 S0
M106 S255
G1 X8.309 Y50.928 F200
M106 S0
M106 S255
G1 X8.309 Y50.928 F200
M106 S0
M106 S255
G1 X8.376 Y50.869 F200
M106 S0
M106 S255
G1 X8.376 Y50.869 F200
M106 S0
M106 S255
G1 X8.439 Y50.807 F200
M106 S0
M106 S255
G1 X8.439 Y50.807 F200
M106 S0
M106 S255
G1 X8.499 Y50.742 F200
M106 S0
M106 S255
G1 X8.499 Y50.742 F200
M106 S0
M106 S255
G1 X8.555 Y50.674 F200
M106 S0
M106 S255
G1 X8.555 Y50.674 F200
M106 S0
M106 S255
G1 X8.608 Y50.603 F200
M106 S0
M106 S255
G1 X8.608 Y50.603 F200
M106 S0
M106 S255
G1 X8.658 Y50.53 F200
M106 S0
M106 S255
G1 X8.658 Y50.53 F200
M106 S0
M106 S255
G1 X8.703 Y50.454 F200
M106 S0
M106 S255
G1 X8.703 Y50.454 F200
M106 S0
M106 S255
G1 X8.745 Y50.376 F200
M106 S0
M106 S255
G1 X8.745 Y50.376 F200
M106 S0
M106 S255
G1 X8.783 Y50.297 F200
M106 S0
M106 S255
G1 X8.783 Y50.297 F200
M106 S0
M106 S255
G1 X8.818 Y50.216 F200
M106 S0
M106 S255
G1 X8.818 Y50.216 F200
M106 S0
M106 S255
G1 X8.849 Y50.133 F200
M106 S0
M106 S255
G1 X8.849 Y50.133 F200
M106 S0
M106 S255
G1 X8.878 Y50.048 F200
M106 S0
M106 S255
G1 X8.878 Y50.048 F200
M106 S0
M106 S255
G1 X8.901 Y49.966 F200
M106 S0
M106 S255
G1 X8.901 Y49.966 F200
M106 S0
M106 S255
G1 X8.922 Y49.879 F200
M106 S0
M106 S255
G1 X8.922 Y49.879 F200
M106 S0
M106 S255
G1 X8.939 Y49.795 F200
M106 S0
M106 S255
G1 X8.939 Y49.795 F200
M106 S0
M106 S255
G1 X8.952 Y49.71 F200
M106 S0
M106 S255
G1 X8.952 Y49.71 F200
M106 S0
M106 S255
G1 X8.962 Y49.625 F200
M106 S0
M106 S255
G1 X8.962 Y49.625 F200
M106 S0
M106 S255
G1 X8.97 Y49.54 F200
M106 S0
M106 S255
G1 X8.97 Y49.54 F200
M106 S0
M106 S255
G1 X8.975 Y49.454 F200
M106 S0
M106 S255
G1 X8.975 Y49.454 F200
M106 S0
M106 S255
G1 X8.978 Y49.366 F200
M106 S0
M106 S255
G1 X8.978 Y49.366 F200
M106 S0
M106 S255
G1 X8.979 Y49.282 F200
M106 S0
M106 S255
G1 X8.979 Y49.282 F200
M106 S0
M106 S255
G1 X8.977 Y49.196 F200
M106 S0
M106 S255
G1 X8.977 Y49.196 F200
M106 S0
M106 S255
G1 X8.973 Y49.109 F200
M106 S0
M106 S255
G1 X8.973 Y49.109 F200
M106 S0
M106 S255
G1 X8.966 Y49.023 F200
M106 S0
M106 S255
G1 X8.966 Y49.023 F200
M106 S0
M106 S255
G1 X8.956 Y48.937 F200
M106 S0
M106 S255
G1 X8.956 Y48.937 F200
M106 S0
M106 S255
G1 X8.941 Y48.849 F200
M106 S0
M106 S255
G1 X8.941 Y48.849 F200
M106 S0
M106 S255
G1 X8.922 Y48.764 F200
M106 S0
M106 S255
G1 X8.922 Y48.764 F200
M106 S0
M106 S255
G1 X8.897 Y48.678 F200
M106 S0
M106 S255
G1 X8.897 Y48.678 F200
M106 S0
M106 S255
G1 X8.869 Y48.597 F200
M106 S0
M106 S255
G1 X8.869 Y48.597 F200
M106 S0
M106 S255
G1 X8.836 Y48.515 F200
M106 S0
M106 S255
G1 X8.836 Y48.515 F200
M106 S0
M106 S255
G1 X8.801 Y48.438 F200
M106 S0
M106 S255
G1 X8.801 Y48.438 F200
M106 S0
M106 S255
G1 X8.764 Y48.363 F200
M106 S0
M106 S255
G1 X8.764 Y48.363 F200
M106 S0
M106 S255
G1 X8.721 Y48.28 F200
M106 S0
M106 S255
G1 X8.721 Y48.28 F200
M106 S0
M106 S255
G1 X8.762 Y48.358 F200
M106 S0
M106 S255
G1 X8.762 Y48.358 F200
M106 S0
M106 S255
G1 X8.984 Y48.358 F200
M106 S0
M106 S255
G1 X8.984 Y48.358 F200
M106 S0
M106 S255
G1 X9.059 Y48.336 F200
M106 S0
M106 S255
G1 X9.059 Y48.336 F200
M106 S0
M106 S255
G1 X9.113 Y48.319 F200
M106 S0
M106 S255
G1 X9.113 Y48.319 F200
M106 S0
M106 S255
G1 X9.179 Y48.297 F200
M106 S0
M106 S255
G1 X9.179 Y48.297 F200
M106 S0
M106 S255
G1 X9.238 Y48.274 F200
M106 S0
M106 S255
G1 X9.238 Y48.274 F200
M106 S0
M106 S255
G1 X9.299 Y48.246 F200
M106 S0
M106 S255
G1 X9.299 Y48.246 F200
M106 S0
M106 S255
G1 X9.357 Y48.215 F200
M106 S0
M106 S255
G1 X9.357 Y48.215 F200
M106 S0
M106 S255
G1 X9.415 Y48.18 F200
M106 S0
M106 S255
G1 X9.415 Y48.18 F200
M106 S0
M106 S255
G1 X9.469 Y48.143 F200
M106 S0
M106 S255
G1 X9.469 Y48.143 F200
M106 S0
M106 S255
G1 X9.522 Y48.103 F200
M106 S0
M106 S255
G1 X9.522 Y48.103 F200
M106 S0
M106 S255
G1 X9.584 Y48.048 F200
M106 S0
M106 S255
G1 X9.584 Y48.048 F200
M106 S0
M106 S255
G1 X9.622 Y48.012 F200
M106 S0
M106 S255
G1 X9.622 Y48.012 F200
M106 S0
M106 S255
G1 X9.667 Y47.964 F200
M106 S0
M106 S255
G1 X9.667 Y47.964 F200
M106 S0
M106 S255
G1 X9.711 Y47.913 F200
M106 S0
M106 S255
G1 X9.711 Y47.913 F200
M106 S0
M106 S255
G1 X9.751 Y47.86 F200
M106 S0
M106 S255
G1 X9.751 Y47.86 F200
M106 S0
M106 S255
G1 X9.79 Y47.803 F200
M106 S0
M106 S255
G1 X9.79 Y47.803 F200
M106 S0
M106 S255
G1 X9.824 Y47.746 F200
M106 S0
M106 S255
G1 X9.824 Y47.746 F200
M106 S0
M106 S255
G1 X9.855 Y47.686 F200
M106 S0
M106 S255
G1 X9.855 Y47.686 F200
M106 S0
M106 S255
G1 X9.883 Y47.624 F200
M106 S0
M106 S255
G1 X9.883 Y47.624 F200
M106 S0
M106 S255
G1 X9.906 Y47.562 F200
M106 S0
M106 S255
G1 X9.906 Y47.562 F200
M106 S0
M106 S255
G1 X9.925 Y47.496 F200
M106 S0
M106 S255
G1 X9.925 Y47.496 F200
M106 S0
M106 S255
G1 X9.939 Y47.432 F200
M106 S0
M106 S255
G1 X9.939 Y47.432 F200
M106 S0
M106 S255
G1 X9.949 Y47.365 F200
M106 S0
M106 S255
G1 X9.949 Y47.365 F200
M106 S0
M106 S255
G1 X9.956 Y47.301 F200
M106 S0
M106 S255
G1 X9.956 Y47.301 F200
M106 S0
M106 S255
G1 X9.96 Y47.234 F200
M106 S0
M106 S255
G1 X9.96 Y47.234 F200
M106 S0
M106 S255
G1 X9.961 Y47.173 F200
M106 S0
