;GCode generated by Numa's program v0.0
G0 X3.61 Y23.786 F6000
M106 S255
G1 X3.61 Y23.786 F380
M106 S0
M106 S255
G1 X3.61 Y24.563 F380
M106 S0
M106 S255
G1 X8.307 Y24.563 F380
M106 S0
M106 S255
G1 X13.003 Y24.563 F380
M106 S0
M106 S255
G1 X13.003 Y23.786 F380
M106 S0
M106 S255
G1 X8.307 Y23.786 F380
M106 S0
M106 S255
G1 X3.61 Y23.786 F380
M106 S0
G0 X9.128 Y26.948 F6000
M106 S255
G1 X9.128 Y26.948 F380
M106 S0
M106 S255
G1 X9.204 Y26.93 F380
M106 S0
M106 S255
G1 X9.328 Y26.902 F380
M106 S0
M106 S255
G1 X9.452 Y26.875 F380
M106 S0
M106 S255
G1 X9.576 Y26.851 F380
M106 S0
M106 S255
G1 X9.701 Y26.829 F380
M106 S0
M106 S255
G1 X9.825 Y26.811 F380
M106 S0
M106 S255
G1 X9.95 Y26.797 F380
M106 S0
M106 S255
G1 X10.025 Y26.792 F380
M106 S0
M106 S255
G1 X10.202 Y26.787 F380
M106 S0
M106 S255
G1 X10.328 Y26.79 F380
M106 S0
M106 S255
G1 X10.454 Y26.798 F380
M106 S0
M106 S255
G1 X10.58 Y26.812 F380
M106 S0
M106 S255
G1 X10.706 Y26.83 F380
M106 S0
M106 S255
G1 X10.831 Y26.853 F380
M106 S0
M106 S255
G1 X10.956 Y26.88 F380
M106 S0
M106 S255
G1 X11.08 Y26.911 F380
M106 S0
M106 S255
G1 X11.192 Y26.943 F380
M106 S0
M106 S255
G1 X11.325 Y26.984 F380
M106 S0
M106 S255
G1 X11.446 Y27.027 F380
M106 S0
M106 S255
G1 X11.565 Y27.072 F380
M106 S0
M106 S255
G1 X11.683 Y27.122 F380
M106 S0
M106 S255
G1 X11.8 Y27.175 F380
M106 S0
M106 S255
G1 X11.915 Y27.231 F380
M106 S0
M106 S255
G1 X12.028 Y27.291 F380
M106 S0
M106 S255
G1 X12.138 Y27.354 F380
M106 S0
M106 S255
G1 X12.247 Y27.421 F380
M106 S0
M106 S255
G1 X12.353 Y27.491 F380
M106 S0
M106 S255
G1 X12.457 Y27.565 F380
M106 S0
M106 S255
G1 X12.558 Y27.642 F380
M106 S0
M106 S255
G1 X12.657 Y27.723 F380
M106 S0
M106 S255
G1 X12.753 Y27.807 F380
M106 S0
M106 S255
G1 X12.845 Y27.894 F380
M106 S0
M106 S255
G1 X12.897 Y27.946 F380
M106 S0
M106 S255
G1 X13.021 Y28.079 F380
M106 S0
M106 S255
G1 X13.104 Y28.176 F380
M106 S0
M106 S255
G1 X13.183 Y28.276 F380
M106 S0
M106 S255
G1 X13.258 Y28.379 F380
M106 S0
M106 S255
G1 X13.33 Y28.485 F380
M106 S0
M106 S255
G1 X13.398 Y28.593 F380
M106 S0
M106 S255
G1 X13.462 Y28.703 F380
M106 S0
M106 S255
G1 X13.521 Y28.816 F380
M106 S0
M106 S255
G1 X13.577 Y28.93 F380
M106 S0
M106 S255
G1 X13.628 Y29.047 F380
M106 S0
M106 S255
G1 X13.674 Y29.165 F380
M106 S0
M106 S255
G1 X13.714 Y29.277 F380
M106 S0
M106 S255
G1 X13.753 Y29.405 F380
M106 S0
M106 S255
G1 X13.786 Y29.528 F380
M106 S0
M106 S255
G1 X13.814 Y29.651 F380
M106 S0
M106 S255
G1 X13.837 Y29.775 F380
M106 S0
M106 S255
G1 X13.852 Y29.87 F380
M106 S0
M106 S255
G1 X13.871 Y30.026 F380
M106 S0
M106 S255
G1 X13.88 Y30.152 F380
M106 S0
M106 S255
G1 X13.885 Y30.279 F380
M106 S0
M106 S255
G1 X13.884 Y30.406 F380
M106 S0
M106 S255
G1 X13.877 Y30.532 F380
M106 S0
M106 S255
G1 X13.865 Y30.659 F380
M106 S0
M106 S255
G1 X13.852 Y30.748 F380
M106 S0
M106 S255
G1 X13.82 Y30.909 F380
M106 S0
M106 S255
G1 X13.787 Y31.033 F380
M106 S0
M106 S255
G1 X13.747 Y31.154 F380
M106 S0
M106 S255
G1 X13.699 Y31.271 F380
M106 S0
M106 S255
G1 X13.644 Y31.386 F380
M106 S0
M106 S255
G1 X13.557 Y31.531 F380
M106 S0
M106 S255
G1 X13.507 Y31.6 F380
M106 S0
M106 S255
G1 X13.426 Y31.698 F380
M106 S0
M106 S255
G1 X13.337 Y31.79 F380
M106 S0
M106 S255
G1 X13.242 Y31.874 F380
M106 S0
M106 S255
G1 X13.139 Y31.949 F380
M106 S0
M106 S255
G1 X13.048 Y32.006 F380
M106 S0
M106 S255
G1 X12.917 Y32.072 F380
M106 S0
M106 S255
G1 X12.799 Y32.12 F380
M106 S0
M106 S255
G1 X12.678 Y32.157 F380
M106 S0
M106 S255
G1 X12.554 Y32.186 F380
M106 S0
M106 S255
G1 X12.437 Y32.205 F380
M106 S0
M106 S255
G1 X12.302 Y32.218 F380
M106 S0
M106 S255
G1 X12.176 Y32.221 F380
M106 S0
M106 S255
G1 X12.049 Y32.217 F380
M106 S0
M106 S255
G1 X11.915 Y32.205 F380
M106 S0
M106 S255
G1 X11.797 Y32.189 F380
M106 S0
M106 S255
G1 X11.673 Y32.164 F380
M106 S0
M106 S255
G1 X11.55 Y32.132 F380
M106 S0
M106 S255
G1 X11.427 Y32.088 F380
M106 S0
M106 S255
G1 X11.316 Y32.039 F380
M106 S0
M106 S255
G1 X11.205 Y31.979 F380
M106 S0
M106 S255
G1 X11.099 Y31.911 F380
M106 S0
M106 S255
G1 X10.996 Y31.835 F380
M106 S0
M106 S255
G1 X10.897 Y31.754 F380
M106 S0
M106 S255
G1 X10.802 Y31.668 F380
M106 S0
M106 S255
G1 X10.685 Y31.553 F380
M106 S0
M106 S255
G1 X10.622 Y31.486 F380
M106 S0
M106 S255
G1 X10.538 Y31.391 F380
M106 S0
M106 S255
G1 X10.457 Y31.293 F380
M106 S0
M106 S255
G1 X10.379 Y31.193 F380
M106 S0
M106 S255
G1 X10.304 Y31.092 F380
M106 S0
M106 S255
G1 X10.233 Y30.988 F380
M106 S0
M106 S255
G1 X10.164 Y30.882 F380
M106 S0
M106 S255
G1 X10.115 Y30.805 F380
M106 S0
M106 S255
G1 X10.033 Y30.667 F380
M106 S0
M106 S255
G1 X9.972 Y30.557 F380
M106 S0
M106 S255
G1 X9.913 Y30.445 F380
M106 S0
M106 S255
G1 X9.856 Y30.332 F380
M106 S0
M106 S255
G1 X9.801 Y30.218 F380
M106 S0
M106 S255
G1 X9.724 Y30.05 F380
M106 S0
M106 S255
G1 X9.696 Y29.987 F380
M106 S0
M106 S255
G1 X9.646 Y29.869 F380
M106 S0
M106 S255
G1 X9.598 Y29.751 F380
M106 S0
M106 S255
G1 X9.553 Y29.633 F380
M106 S0
M106 S255
G1 X9.509 Y29.514 F380
M106 S0
M106 S255
G1 X9.469 Y29.395 F380
M106 S0
M106 S255
G1 X9.421 Y29.245 F380
M106 S0
M106 S255
G1 X9.396 Y29.158 F380
M106 S0
M106 S255
G1 X9.364 Y29.04 F380
M106 S0
M106 S255
G1 X9.335 Y28.921 F380
M106 S0
M106 S255
G1 X9.308 Y28.801 F380
M106 S0
M106 S255
G1 X9.282 Y28.678 F380
M106 S0
M106 S255
G1 X9.259 Y28.553 F380
M106 S0
M106 S255
G1 X9.236 Y28.425 F380
M106 S0
M106 S255
G1 X9.208 Y28.25 F380
M106 S0
M106 S255
G1 X9.194 Y28.157 F380
M106 S0
M106 S255
G1 X9.174 Y28.018 F380
M106 S0
M106 S255
G1 X9.155 Y27.879 F380
M106 S0
M106 S255
G1 X9.137 Y27.742 F380
M106 S0
M106 S255
G1 X9.121 Y27.61 F380
M106 S0
M106 S255
G1 X9.108 Y27.486 F380
M106 S0
M106 S255
G1 X9.096 Y27.373 F380
M106 S0
M106 S255
G1 X9.085 Y27.234 F380
M106 S0
M106 S255
G1 X9.082 Y27.187 F380
M106 S0
M106 S255
G1 X9.079 Y27.117 F380
M106 S0
M106 S255
G1 X9.078 Y27.058 F380
M106 S0
M106 S255
G1 X9.079 Y27.007 F380
M106 S0
M106 S255
G1 X9.128 Y26.948 F380
M106 S0
G0 X8.307 Y23.264 F6000
M106 S255
G1 X8.307 Y23.264 F380
M106 S0
M106 S255
G1 X3.61 Y23.264 F380
M106 S0
M106 S255
G1 X3.61 Y22.429 F380
M106 S0
M106 S255
G1 X3.814 Y22.407 F380
M106 S0
M106 S255
G1 X4.018 Y22.386 F380
M106 S0
M106 S255
G1 X4.221 Y22.364 F380
M106 S0
M106 S255
G1 X4.425 Y22.343 F380
M106 S0
M106 S255
G1 X4.628 Y22.321 F380
M106 S0
M106 S255
G1 X4.832 Y22.3 F380
M106 S0
M106 S255
G1 X5.036 Y22.278 F380
M106 S0
M106 S255
G1 X5.24 Y22.257 F380
M106 S0
M106 S255
G1 X5.444 Y22.237 F380
M106 S0
M106 S255
G1 X5.648 Y22.218 F380
M106 S0
M106 S255
G1 X5.852 Y22.2 F380
M106 S0
M106 S255
G1 X6.056 Y22.184 F380
M106 S0
M106 S255
G1 X6.26 Y22.17 F380
M106 S0
M106 S255
G1 X6.464 Y22.158 F380
M106 S0
M106 S255
G1 X6.669 Y22.149 F380
M106 S0
M106 S255
G1 X6.873 Y22.143 F380
M106 S0
M106 S255
G1 X7.078 Y22.14 F380
M106 S0
M106 S255
G1 X7.282 Y22.139 F380
M106 S0
M106 S255
G1 X7.487 Y22.139 F380
M106 S0
M106 S255
G1 X7.692 Y22.141 F380
M106 S0
M106 S255
G1 X7.897 Y22.144 F380
M106 S0
M106 S255
G1 X8.102 Y22.148 F380
M106 S0
M106 S255
G1 X8.307 Y22.152 F380
M106 S0
M106 S255
G1 X8.512 Y22.148 F380
M106 S0
M106 S255
G1 X8.717 Y22.144 F380
M106 S0
M106 S255
G1 X8.921 Y22.141 F380
M106 S0
M106 S255
G1 X9.126 Y22.139 F380
M106 S0
M106 S255
G1 X9.331 Y22.139 F380
M106 S0
M106 S255
G1 X9.536 Y22.14 F380
M106 S0
M106 S255
G1 X9.74 Y22.143 F380
M106 S0
M106 S255
G1 X9.945 Y22.149 F380
M106 S0
M106 S255
G1 X10.149 Y22.158 F380
M106 S0
M106 S255
G1 X10.354 Y22.17 F380
M106 S0
M106 S255
G1 X10.558 Y22.184 F380
M106 S0
M106 S255
G1 X10.762 Y22.2 F380
M106 S0
M106 S255
G1 X10.966 Y22.218 F380
M106 S0
M106 S255
G1 X11.17 Y22.237 F380
M106 S0
M106 S255
G1 X11.374 Y22.257 F380
M106 S0
M106 S255
G1 X11.578 Y22.278 F380
M106 S0
M106 S255
G1 X11.781 Y22.3 F380
M106 S0
M106 S255
G1 X11.985 Y22.321 F380
M106 S0
M106 S255
G1 X12.189 Y22.343 F380
M106 S0
M106 S255
G1 X12.392 Y22.364 F380
M106 S0
M106 S255
G1 X12.596 Y22.386 F380
M106 S0
M106 S255
G1 X12.799 Y22.407 F380
M106 S0
M106 S255
G1 X13.003 Y22.429 F380
M106 S0
M106 S255
G1 X13.003 Y23.264 F380
M106 S0
M106 S255
G1 X8.307 Y23.264 F380
M106 S0
G0 X8.307 Y25.109 F6000
M106 S255
G1 X8.307 Y25.109 F380
M106 S0
M106 S255
G1 X13.003 Y25.109 F380
M106 S0
M106 S255
G1 X13.003 Y26.064 F380
M106 S0
M106 S255
G1 X12.727 Y26.073 F380
M106 S0
M106 S255
G1 X12.45 Y26.082 F380
M106 S0
M106 S255
G1 X12.174 Y26.09 F380
M106 S0
M106 S255
G1 X11.898 Y26.099 F380
M106 S0
M106 S255
G1 X11.622 Y26.108 F380
M106 S0
M106 S255
G1 X11.346 Y26.116 F380
M106 S0
M106 S255
G1 X11.069 Y26.125 F380
M106 S0
M106 S255
G1 X10.793 Y26.133 F380
M106 S0
M106 S255
G1 X10.517 Y26.142 F380
M106 S0
M106 S255
G1 X10.241 Y26.15 F380
M106 S0
M106 S255
G1 X9.964 Y26.158 F380
M106 S0
M106 S255
G1 X9.688 Y26.166 F380
M106 S0
M106 S255
G1 X9.412 Y26.174 F380
M106 S0
M106 S255
G1 X9.136 Y26.182 F380
M106 S0
M106 S255
G1 X8.859 Y26.19 F380
M106 S0
M106 S255
G1 X8.583 Y26.198 F380
M106 S0
M106 S255
G1 X8.307 Y26.206 F380
M106 S0
M106 S255
G1 X8.03 Y26.198 F380
M106 S0
M106 S255
G1 X7.754 Y26.19 F380
M106 S0
M106 S255
G1 X7.478 Y26.182 F380
M106 S0
M106 S255
G1 X7.202 Y26.174 F380
M106 S0
M106 S255
G1 X6.925 Y26.166 F380
M106 S0
M106 S255
G1 X6.649 Y26.158 F380
M106 S0
M106 S255
G1 X6.373 Y26.15 F380
M106 S0
M106 S255
G1 X6.097 Y26.142 F380
M106 S0
M106 S255
G1 X5.82 Y26.133 F380
M106 S0
M106 S255
G1 X5.544 Y26.125 F380
M106 S0
M106 S255
G1 X5.268 Y26.116 F380
M106 S0
M106 S255
G1 X4.992 Y26.108 F380
M106 S0
M106 S255
G1 X4.715 Y26.099 F380
M106 S0
M106 S255
G1 X4.439 Y26.09 F380
M106 S0
M106 S255
G1 X4.163 Y26.082 F380
M106 S0
M106 S255
G1 X3.887 Y26.073 F380
M106 S0
M106 S255
G1 X3.61 Y26.064 F380
M106 S0
M106 S255
G1 X3.61 Y25.109 F380
M106 S0
M106 S255
G1 X8.307 Y25.109 F380
M106 S0
G0 X8.307 Y27.321 F6000
M106 S255
G1 X8.307 Y27.321 F380
M106 S0
M106 S255
G1 X8.338 Y27.431 F380
M106 S0
M106 S255
G1 X8.367 Y27.542 F380
M106 S0
M106 S255
G1 X8.394 Y27.653 F380
M106 S0
M106 S255
G1 X8.419 Y27.764 F380
M106 S0
M106 S255
G1 X8.442 Y27.876 F380
M106 S0
M106 S255
G1 X8.464 Y27.989 F380
M106 S0
M106 S255
G1 X8.485 Y28.101 F380
M106 S0
M106 S255
G1 X8.504 Y28.214 F380
M106 S0
M106 S255
G1 X8.524 Y28.327 F380
M106 S0
M106 S255
G1 X8.544 Y28.44 F380
M106 S0
M106 S255
G1 X8.564 Y28.553 F380
M106 S0
M106 S255
G1 X8.585 Y28.665 F380
M106 S0
M106 S255
G1 X8.607 Y28.777 F380
M106 S0
M106 S255
G1 X8.63 Y28.89 F380
M106 S0
M106 S255
G1 X8.653 Y29.002 F380
M106 S0
M106 S255
G1 X8.677 Y29.114 F380
M106 S0
M106 S255
G1 X8.701 Y29.226 F380
M106 S0
M106 S255
G1 X8.724 Y29.338 F380
M106 S0
M106 S255
G1 X8.747 Y29.45 F380
M106 S0
M106 S255
G1 X8.769 Y29.562 F380
M106 S0
M106 S255
G1 X8.79 Y29.674 F380
M106 S0
M106 S255
G1 X8.81 Y29.787 F380
M106 S0
M106 S255
G1 X8.83 Y29.899 F380
M106 S0
M106 S255
G1 X8.847 Y30.012 F380
M106 S0
M106 S255
G1 X8.864 Y30.126 F380
M106 S0
M106 S255
G1 X8.879 Y30.239 F380
M106 S0
M106 S255
G1 X8.893 Y30.353 F380
M106 S0
M106 S255
G1 X8.905 Y30.467 F380
M106 S0
M106 S255
G1 X8.916 Y30.582 F380
M106 S0
M106 S255
G1 X8.925 Y30.696 F380
M106 S0
M106 S255
G1 X8.931 Y30.811 F380
M106 S0
M106 S255
G1 X8.936 Y30.926 F380
M106 S0
M106 S255
G1 X8.939 Y31.041 F380
M106 S0
M106 S255
G1 X8.94 Y31.156 F380
M106 S0
M106 S255
G1 X8.938 Y31.271 F380
M106 S0
M106 S255
G1 X8.935 Y31.385 F380
M106 S0
M106 S255
G1 X8.928 Y31.499 F380
M106 S0
M106 S255
G1 X8.919 Y31.613 F380
M106 S0
M106 S255
G1 X8.908 Y31.727 F380
M106 S0
M106 S255
G1 X8.893 Y31.84 F380
M106 S0
M106 S255
G1 X8.876 Y31.953 F380
M106 S0
M106 S255
G1 X8.857 Y32.065 F380
M106 S0
M106 S255
G1 X8.836 Y32.178 F380
M106 S0
M106 S255
G1 X8.813 Y32.29 F380
M106 S0
M106 S255
G1 X8.79 Y32.403 F380
M106 S0
M106 S255
G1 X8.766 Y32.516 F380
M106 S0
M106 S255
G1 X8.741 Y32.629 F380
M106 S0
M106 S255
G1 X8.714 Y32.742 F380
M106 S0
M106 S255
G1 X8.685 Y32.853 F380
M106 S0
M106 S255
G1 X8.652 Y32.964 F380
M106 S0
M106 S255
G1 X8.615 Y33.072 F380
M106 S0
M106 S255
G1 X8.573 Y33.177 F380
M106 S0
M106 S255
G1 X8.524 Y33.28 F380
M106 S0
M106 S255
G1 X8.469 Y33.379 F380
M106 S0
M106 S255
G1 X8.408 Y33.475 F380
M106 S0
M106 S255
G1 X8.341 Y33.568 F380
M106 S0
M106 S255
G1 X8.272 Y33.568 F380
M106 S0
M106 S255
G1 X8.206 Y33.475 F380
M106 S0
M106 S255
G1 X8.144 Y33.379 F380
M106 S0
M106 S255
G1 X8.089 Y33.28 F380
M106 S0
M106 S255
G1 X8.041 Y33.177 F380
M106 S0
M106 S255
G1 X7.998 Y33.072 F380
M106 S0
M106 S255
G1 X7.961 Y32.964 F380
M106 S0
M106 S255
G1 X7.928 Y32.853 F380
M106 S0
M106 S255
G1 X7.899 Y32.742 F380
M106 S0
M106 S255
G1 X7.872 Y32.629 F380
M106 S0
M106 S255
G1 X7.848 Y32.516 F380
M106 S0
M106 S255
G1 X7.824 Y32.403 F380
M106 S0
M106 S255
G1 X7.8 Y32.29 F380
M106 S0
M106 S255
G1 X7.778 Y32.178 F380
M106 S0
M106 S255
G1 X7.757 Y32.065 F380
M106 S0
M106 S255
G1 X7.737 Y31.953 F380
M106 S0
M106 S255
G1 X7.72 Y31.84 F380
M106 S0
M106 S255
G1 X7.706 Y31.727 F380
M106 S0
M106 S255
G1 X7.694 Y31.613 F380
M106 S0
M106 S255
G1 X7.685 Y31.499 F380
M106 S0
M106 S255
G1 X7.679 Y31.385 F380
M106 S0
M106 S255
G1 X7.675 Y31.271 F380
M106 S0
M106 S255
G1 X7.673 Y31.156 F380
M106 S0
M106 S255
G1 X7.674 Y31.041 F380
M106 S0
M106 S255
G1 X7.677 Y30.926 F380
M106 S0
M106 S255
G1 X7.682 Y30.811 F380
M106 S0
M106 S255
G1 X7.689 Y30.696 F380
M106 S0
M106 S255
G1 X7.698 Y30.582 F380
M106 S0
M106 S255
G1 X7.708 Y30.467 F380
M106 S0
M106 S255
G1 X7.72 Y30.353 F380
M106 S0
M106 S255
G1 X7.734 Y30.239 F380
M106 S0
M106 S255
G1 X7.749 Y30.126 F380
M106 S0
M106 S255
G1 X7.766 Y30.012 F380
M106 S0
M106 S255
G1 X7.784 Y29.899 F380
M106 S0
M106 S255
G1 X7.803 Y29.787 F380
M106 S0
M106 S255
G1 X7.823 Y29.674 F380
M106 S0
M106 S255
G1 X7.844 Y29.562 F380
M106 S0
M106 S255
G1 X7.867 Y29.45 F380
M106 S0
M106 S255
G1 X7.889 Y29.338 F380
M106 S0
M106 S255
G1 X7.913 Y29.226 F380
M106 S0
M106 S255
G1 X7.936 Y29.114 F380
M106 S0
M106 S255
G1 X7.96 Y29.002 F380
M106 S0
M106 S255
G1 X7.983 Y28.89 F380
M106 S0
M106 S255
G1 X8.006 Y28.777 F380
M106 S0
M106 S255
G1 X8.028 Y28.665 F380
M106 S0
M106 S255
G1 X8.049 Y28.553 F380
M106 S0
M106 S255
G1 X8.07 Y28.44 F380
M106 S0
M106 S255
G1 X8.089 Y28.327 F380
M106 S0
M106 S255
G1 X8.109 Y28.214 F380
M106 S0
M106 S255
G1 X8.129 Y28.101 F380
M106 S0
M106 S255
G1 X8.149 Y27.989 F380
M106 S0
M106 S255
G1 X8.171 Y27.876 F380
M106 S0
M106 S255
G1 X8.194 Y27.764 F380
M106 S0
M106 S255
G1 X8.219 Y27.653 F380
M106 S0
M106 S255
G1 X8.246 Y27.542 F380
M106 S0
M106 S255
G1 X8.275 Y27.431 F380
M106 S0
M106 S255
G1 X8.307 Y27.321 F380
M106 S0
G0 X7.486 Y26.948 F6000
M106 S255
G1 X7.486 Y26.948 F380
M106 S0
M106 S255
G1 X7.41 Y26.93 F380
M106 S0
M106 S255
G1 X7.286 Y26.902 F380
M106 S0
M106 S255
G1 X7.162 Y26.875 F380
M106 S0
M106 S255
G1 X7.037 Y26.851 F380
M106 S0
M106 S255
G1 X6.913 Y26.829 F380
M106 S0
M106 S255
G1 X6.788 Y26.811 F380
M106 S0
M106 S255
G1 X6.663 Y26.797 F380
M106 S0
M106 S255
G1 X6.589 Y26.792 F380
M106 S0
M106 S255
G1 X6.412 Y26.787 F380
M106 S0
M106 S255
G1 X6.286 Y26.79 F380
M106 S0
M106 S255
G1 X6.16 Y26.798 F380
M106 S0
M106 S255
G1 X6.034 Y26.812 F380
M106 S0
M106 S255
G1 X5.908 Y26.83 F380
M106 S0
M106 S255
G1 X5.783 Y26.853 F380
M106 S0
M106 S255
G1 X5.658 Y26.88 F380
M106 S0
M106 S255
G1 X5.534 Y26.911 F380
M106 S0
M106 S255
G1 X5.421 Y26.943 F380
M106 S0
M106 S255
G1 X5.289 Y26.984 F380
M106 S0
M106 S255
G1 X5.168 Y27.027 F380
M106 S0
M106 S255
G1 X5.048 Y27.072 F380
M106 S0
M106 S255
G1 X4.93 Y27.122 F380
M106 S0
M106 S255
G1 X4.813 Y27.175 F380
M106 S0
M106 S255
G1 X4.699 Y27.231 F380
M106 S0
M106 S255
G1 X4.586 Y27.291 F380
M106 S0
M106 S255
G1 X4.475 Y27.354 F380
M106 S0
M106 S255
G1 X4.367 Y27.421 F380
M106 S0
M106 S255
G1 X4.26 Y27.491 F380
M106 S0
M106 S255
G1 X4.156 Y27.565 F380
M106 S0
M106 S255
G1 X4.055 Y27.642 F380
M106 S0
M106 S255
G1 X3.957 Y27.723 F380
M106 S0
M106 S255
G1 X3.861 Y27.807 F380
M106 S0
M106 S255
G1 X3.768 Y27.894 F380
M106 S0
M106 S255
G1 X3.717 Y27.946 F380
M106 S0
M106 S255
G1 X3.593 Y28.079 F380
M106 S0
M106 S255
G1 X3.51 Y28.176 F380
M106 S0
M106 S255
G1 X3.431 Y28.276 F380
M106 S0
M106 S255
G1 X3.355 Y28.379 F380
M106 S0
M106 S255
G1 X3.283 Y28.485 F380
M106 S0
M106 S255
G1 X3.215 Y28.593 F380
M106 S0
M106 S255
G1 X3.152 Y28.703 F380
M106 S0
M106 S255
G1 X3.092 Y28.816 F380
M106 S0
M106 S255
G1 X3.037 Y28.93 F380
M106 S0
M106 S255
G1 X2.986 Y29.047 F380
M106 S0
M106 S255
G1 X2.939 Y29.165 F380
M106 S0
M106 S255
G1 X2.899 Y29.277 F380
M106 S0
M106 S255
G1 X2.86 Y29.405 F380
M106 S0
M106 S255
G1 X2.828 Y29.528 F380
M106 S0
M106 S255
G1 X2.8 Y29.651 F380
M106 S0
M106 S255
G1 X2.776 Y29.775 F380
M106 S0
M106 S255
G1 X2.762 Y29.87 F380
M106 S0
M106 S255
G1 X2.743 Y30.026 F380
M106 S0
M106 S255
G1 X2.733 Y30.152 F380
M106 S0
M106 S255
G1 X2.729 Y30.279 F380
M106 S0
M106 S255
G1 X2.73 Y30.406 F380
M106 S0
M106 S255
G1 X2.736 Y30.532 F380
M106 S0
M106 S255
G1 X2.749 Y30.659 F380
M106 S0
M106 S255
G1 X2.762 Y30.748 F380
M106 S0
M106 S255
G1 X2.793 Y30.909 F380
M106 S0
M106 S255
G1 X2.826 Y31.033 F380
M106 S0
M106 S255
G1 X2.866 Y31.154 F380
M106 S0
M106 S255
G1 X2.914 Y31.271 F380
M106 S0
M106 S255
G1 X2.97 Y31.386 F380
M106 S0
M106 S255
G1 X3.057 Y31.531 F380
M106 S0
M106 S255
G1 X3.106 Y31.6 F380
M106 S0
M106 S255
G1 X3.187 Y31.698 F380
M106 S0
M106 S255
G1 X3.276 Y31.79 F380
M106 S0
M106 S255
G1 X3.372 Y31.874 F380
M106 S0
M106 S255
G1 X3.474 Y31.949 F380
M106 S0
M106 S255
G1 X3.566 Y32.006 F380
M106 S0
M106 S255
G1 X3.696 Y32.072 F380
M106 S0
M106 S255
G1 X3.814 Y32.12 F380
M106 S0
M106 S255
G1 X3.936 Y32.157 F380
M106 S0
M106 S255
G1 X4.06 Y32.186 F380
M106 S0
M106 S255
G1 X4.177 Y32.205 F380
M106 S0
M106 S255
G1 X4.311 Y32.218 F380
M106 S0
M106 S255
G1 X4.438 Y32.221 F380
M106 S0
M106 S255
G1 X4.564 Y32.217 F380
M106 S0
M106 S255
G1 X4.699 Y32.205 F380
M106 S0
M106 S255
G1 X4.816 Y32.189 F380
M106 S0
M106 S255
G1 X4.941 Y32.164 F380
M106 S0
M106 S255
G1 X5.063 Y32.132 F380
M106 S0
M106 S255
G1 X5.186 Y32.088 F380
M106 S0
M106 S255
G1 X5.297 Y32.039 F380
M106 S0
M106 S255
G1 X5.408 Y31.979 F380
M106 S0
M106 S255
G1 X5.515 Y31.911 F380
M106 S0
M106 S255
G1 X5.618 Y31.835 F380
M106 S0
M106 S255
G1 X5.717 Y31.754 F380
M106 S0
M106 S255
G1 X5.812 Y31.668 F380
M106 S0
M106 S255
G1 X5.928 Y31.553 F380
M106 S0
M106 S255
G1 X5.991 Y31.486 F380
M106 S0
M106 S255
G1 X6.076 Y31.391 F380
M106 S0
M106 S255
G1 X6.157 Y31.293 F380
M106 S0
M106 S255
G1 X6.234 Y31.193 F380
M106 S0
M106 S255
G1 X6.309 Y31.092 F380
M106 S0
M106 S255
G1 X6.381 Y30.988 F380
M106 S0
M106 S255
G1 X6.45 Y30.882 F380
M106 S0
M106 S255
G1 X6.498 Y30.805 F380
M106 S0
M106 S255
G1 X6.58 Y30.667 F380
M106 S0
M106 S255
G1 X6.641 Y30.557 F380
M106 S0
M106 S255
G1 X6.7 Y30.445 F380
M106 S0
M106 S255
G1 X6.758 Y30.332 F380
M106 S0
M106 S255
G1 X6.813 Y30.218 F380
M106 S0
M106 S255
G1 X6.89 Y30.05 F380
M106 S0
M106 S255
G1 X6.917 Y29.987 F380
M106 S0
M106 S255
G1 X6.967 Y29.869 F380
M106 S0
M106 S255
G1 X7.015 Y29.751 F380
M106 S0
M106 S255
G1 X7.061 Y29.633 F380
M106 S0
M106 S255
G1 X7.104 Y29.514 F380
M106 S0
M106 S255
G1 X7.145 Y29.395 F380
M106 S0
M106 S255
G1 X7.192 Y29.245 F380
M106 S0
M106 S255
G1 X7.218 Y29.158 F380
M106 S0
M106 S255
G1 X7.249 Y29.04 F380
M106 S0
M106 S255
G1 X7.279 Y28.921 F380
M106 S0
M106 S255
G1 X7.306 Y28.801 F380
M106 S0
M106 S255
G1 X7.331 Y28.678 F380
M106 S0
M106 S255
G1 X7.355 Y28.553 F380
M106 S0
M106 S255
G1 X7.377 Y28.425 F380
M106 S0
M106 S255
G1 X7.405 Y28.25 F380
M106 S0
M106 S255
G1 X7.419 Y28.157 F380
M106 S0
M106 S255
G1 X7.439 Y28.018 F380
M106 S0
M106 S255
G1 X7.458 Y27.879 F380
M106 S0
M106 S255
G1 X7.476 Y27.742 F380
M106 S0
M106 S255
G1 X7.492 Y27.61 F380
M106 S0
M106 S255
G1 X7.506 Y27.486 F380
M106 S0
M106 S255
G1 X7.517 Y27.373 F380
M106 S0
M106 S255
G1 X7.529 Y27.234 F380
M106 S0
M106 S255
G1 X7.532 Y27.187 F380
M106 S0
M106 S255
G1 X7.535 Y27.117 F380
M106 S0
M106 S255
G1 X7.535 Y27.058 F380
M106 S0
M106 S255
G1 X7.535 Y27.007 F380
M106 S0
M106 S255
G1 X7.486 Y26.948 F380
M106 S0
G0 X4.536 Y9.304 F6000
M106 S255
G1 X4.536 Y9.304 F380
M106 S0
M106 S255
G1 X3.433 Y9.101 F380
M106 S0
M106 S255
G1 X3.683 Y8.592 F380
M106 S0
M106 S255
G1 X4.536 Y9.129 F380
M106 S0
M106 S255
G1 X4.536 Y9.304 F380
M106 S0
G0 X7.767 Y49.294 F6000
M106 S255
G1 X7.767 Y49.294 F380
M106 S0
M106 S255
G1 X7.408 Y49.294 F380
M106 S0
M106 S255
G1 X7.408 Y47.641 F380
M106 S0
M106 S255
G1 X5.825 Y47.641 F380
M106 S0
M106 S255
G1 X5.825 Y46.901 F380
M106 S0
M106 S255
G1 X7.424 Y46.901 F380
M106 S0
M106 S255
G1 X7.424 Y43.275 F380
M106 S0
M106 S255
G1 X7.767 Y43.275 F380
M106 S0
M106 S255
G1 X8.11 Y43.275 F380
M106 S0
M106 S255
G1 X8.11 Y46.901 F380
M106 S0
M106 S255
G1 X9.709 Y46.901 F380
M106 S0
M106 S255
G1 X9.709 Y47.641 F380
M106 S0
M106 S255
G1 X8.126 Y47.641 F380
M106 S0
M106 S255
G1 X8.126 Y49.294 F380
M106 S0
M106 S255
G1 X7.767 Y49.294 F380
M106 S0
G0 X10.524 Y42.011 F6000
M106 S255
G1 X10.524 Y42.011 F380
M106 S0
M106 S255
G1 X7.767 Y42.011 F380
M106 S0
M106 S255
G1 X5.009 Y42.011 F380
M106 S0
G0 X7.767 Y51.809 F6000
M106 S255
G1 X7.767 Y51.809 F380
M106 S0
M106 S255
G1 X7.814 Y51.81 F380
M106 S0
M106 S255
G1 X7.861 Y51.809 F380
M106 S0
M106 S255
G1 X7.908 Y51.805 F380
M106 S0
M106 S255
G1 X7.954 Y51.797 F380
M106 S0
M106 S255
G1 X8.0 Y51.786 F380
M106 S0
M106 S255
G1 X8.046 Y51.771 F380
M106 S0
M106 S255
G1 X8.09 Y51.754 F380
M106 S0
M106 S255
G1 X8.133 Y51.734 F380
M106 S0
M106 S255
G1 X8.175 Y51.711 F380
M106 S0
M106 S255
G1 X8.215 Y51.686 F380
M106 S0
M106 S255
G1 X8.254 Y51.659 F380
M106 S0
M106 S255
G1 X8.291 Y51.629 F380
M106 S0
M106 S255
G1 X8.326 Y51.597 F380
M106 S0
M106 S255
G1 X8.359 Y51.563 F380
M106 S0
M106 S255
G1 X8.39 Y51.527 F380
M106 S0
M106 S255
G1 X8.419 Y51.49 F380
M106 S0
M106 S255
G1 X8.446 Y51.451 F380
M106 S0
M106 S255
G1 X8.47 Y51.41 F380
M106 S0
M106 S255
G1 X8.492 Y51.368 F380
M106 S0
M106 S255
G1 X8.511 Y51.325 F380
M106 S0
M106 S255
G1 X8.528 Y51.28 F380
M106 S0
M106 S255
G1 X8.542 Y51.234 F380
M106 S0
M106 S255
G1 X8.554 Y51.188 F380
M106 S0
M106 S255
G1 X8.563 Y51.141 F380
M106 S0
M106 S255
G1 X8.569 Y51.094 F380
M106 S0
M106 S255
G1 X8.572 Y51.046 F380
M106 S0
M106 S255
G1 X8.573 Y50.999 F380
M106 S0
M106 S255
G1 X8.57 Y50.951 F380
M106 S0
M106 S255
G1 X8.565 Y50.904 F380
M106 S0
M106 S255
G1 X8.557 Y50.858 F380
M106 S0
M106 S255
G1 X8.546 Y50.812 F380
M106 S0
M106 S255
G1 X8.532 Y50.767 F380
M106 S0
M106 S255
G1 X8.515 Y50.722 F380
M106 S0
M106 S255
G1 X8.496 Y50.679 F380
M106 S0
M106 S255
G1 X8.474 Y50.636 F380
M106 S0
M106 S255
G1 X8.45 Y50.595 F380
M106 S0
M106 S255
G1 X8.423 Y50.555 F380
M106 S0
M106 S255
G1 X8.394 Y50.517 F380
M106 S0
M106 S255
G1 X8.363 Y50.48 F380
M106 S0
M106 S255
G1 X8.329 Y50.446 F380
M106 S0
M106 S255
G1 X8.294 Y50.414 F380
M106 S0
M106 S255
G1 X8.257 Y50.385 F380
M106 S0
M106 S255
G1 X8.218 Y50.359 F380
M106 S0
M106 S255
G1 X8.178 Y50.336 F380
M106 S0
M106 S255
G1 X8.136 Y50.317 F380
M106 S0
M106 S255
G1 X8.092 Y50.299 F380
M106 S0
M106 S255
G1 X8.048 Y50.285 F380
M106 S0
M106 S255
G1 X8.003 Y50.272 F380
M106 S0
M106 S255
G1 X7.956 Y50.262 F380
M106 S0
M106 S255
G1 X7.91 Y50.253 F380
M106 S0
M106 S255
G1 X7.862 Y50.246 F380
M106 S0
M106 S255
G1 X7.815 Y50.24 F380
M106 S0
M106 S255
G1 X7.767 Y50.235 F380
M106 S0
M106 S255
G1 X7.719 Y50.24 F380
M106 S0
M106 S255
G1 X7.671 Y50.246 F380
M106 S0
M106 S255
G1 X7.624 Y50.253 F380
M106 S0
M106 S255
G1 X7.577 Y50.262 F380
M106 S0
M106 S255
G1 X7.531 Y50.272 F380
M106 S0
M106 S255
G1 X7.486 Y50.285 F380
M106 S0
M106 S255
G1 X7.441 Y50.299 F380
M106 S0
M106 S255
G1 X7.398 Y50.317 F380
M106 S0
M106 S255
G1 X7.356 Y50.336 F380
M106 S0
M106 S255
G1 X7.315 Y50.359 F380
M106 S0
M106 S255
G1 X7.277 Y50.385 F380
M106 S0
M106 S255
G1 X7.239 Y50.414 F380
M106 S0
M106 S255
G1 X7.204 Y50.446 F380
M106 S0
M106 S255
G1 X7.171 Y50.48 F380
M106 S0
M106 S255
G1 X7.14 Y50.517 F380
M106 S0
M106 S255
G1 X7.111 Y50.555 F380
M106 S0
M106 S255
G1 X7.084 Y50.595 F380
M106 S0
M106 S255
G1 X7.06 Y50.636 F380
M106 S0
M106 S255
G1 X7.038 Y50.679 F380
M106 S0
M106 S255
G1 X7.018 Y50.722 F380
M106 S0
M106 S255
G1 X7.002 Y50.767 F380
M106 S0
M106 S255
G1 X6.988 Y50.812 F380
M106 S0
M106 S255
G1 X6.977 Y50.858 F380
M106 S0
M106 S255
G1 X6.969 Y50.904 F380
M106 S0
M106 S255
G1 X6.963 Y50.951 F380
M106 S0
M106 S255
G1 X6.961 Y50.999 F380
M106 S0
M106 S255
G1 X6.961 Y51.046 F380
M106 S0
M106 S255
G1 X6.965 Y51.094 F380
M106 S0
M106 S255
G1 X6.971 Y51.141 F380
M106 S0
M106 S255
G1 X6.98 Y51.188 F380
M106 S0
M106 S255
G1 X6.991 Y51.234 F380
M106 S0
M106 S255
G1 X7.005 Y51.28 F380
M106 S0
M106 S255
G1 X7.022 Y51.325 F380
M106 S0
M106 S255
G1 X7.042 Y51.368 F380
M106 S0
M106 S255
G1 X7.064 Y51.41 F380
M106 S0
M106 S255
G1 X7.088 Y51.451 F380
M106 S0
M106 S255
G1 X7.114 Y51.49 F380
M106 S0
M106 S255
G1 X7.143 Y51.527 F380
M106 S0
M106 S255
G1 X7.174 Y51.563 F380
M106 S0
M106 S255
G1 X7.208 Y51.597 F380
M106 S0
M106 S255
G1 X7.243 Y51.629 F380
M106 S0
M106 S255
G1 X7.28 Y51.659 F380
M106 S0
M106 S255
G1 X7.319 Y51.686 F380
M106 S0
M106 S255
G1 X7.359 Y51.711 F380
M106 S0
M106 S255
G1 X7.401 Y51.734 F380
M106 S0
M106 S255
G1 X7.444 Y51.754 F380
M106 S0
M106 S255
G1 X7.488 Y51.771 F380
M106 S0
M106 S255
G1 X7.533 Y51.786 F380
M106 S0
M106 S255
G1 X7.579 Y51.797 F380
M106 S0
M106 S255
G1 X7.626 Y51.805 F380
M106 S0
M106 S255
G1 X7.673 Y51.809 F380
M106 S0
M106 S255
G1 X7.72 Y51.81 F380
M106 S0
M106 S255
G1 X7.767 Y51.809 F380
M106 S0
G0 X4.267 Y39.528 F6000
M106 S255
G1 X4.267 Y39.528 F380
M106 S0
M106 S255
G1 X4.385 Y39.562 F380
M106 S0
M106 S255
G1 X4.503 Y39.595 F380
M106 S0
M106 S255
G1 X4.621 Y39.628 F380
M106 S0
M106 S255
G1 X4.739 Y39.661 F380
M106 S0
M106 S255
G1 X4.857 Y39.693 F380
M106 S0
M106 S255
G1 X4.976 Y39.725 F380
M106 S0
M106 S255
G1 X5.095 Y39.756 F380
M106 S0
M106 S255
G1 X5.214 Y39.786 F380
M106 S0
M106 S255
G1 X5.333 Y39.814 F380
M106 S0
M106 S255
G1 X5.452 Y39.842 F380
M106 S0
M106 S255
G1 X5.572 Y39.869 F380
M106 S0
M106 S255
G1 X5.693 Y39.894 F380
M106 S0
M106 S255
G1 X5.813 Y39.917 F380
M106 S0
M106 S255
G1 X5.934 Y39.939 F380
M106 S0
M106 S255
G1 X6.055 Y39.959 F380
M106 S0
M106 S255
G1 X6.176 Y39.978 F380
M106 S0
M106 S255
G1 X6.298 Y39.994 F380
M106 S0
M106 S255
G1 X6.419 Y40.009 F380
M106 S0
M106 S255
G1 X6.541 Y40.021 F380
M106 S0
M106 S255
G1 X6.664 Y40.031 F380
M106 S0
M106 S255
G1 X6.786 Y40.039 F380
M106 S0
M106 S255
G1 X6.908 Y40.045 F380
M106 S0
M106 S255
G1 X7.031 Y40.049 F380
M106 S0
M106 S255
G1 X7.153 Y40.052 F380
M106 S0
M106 S255
G1 X7.276 Y40.054 F380
M106 S0
M106 S255
G1 X7.399 Y40.056 F380
M106 S0
M106 S255
G1 X7.521 Y40.056 F380
M106 S0
M106 S255
G1 X7.644 Y40.057 F380
M106 S0
M106 S255
G1 X7.767 Y40.057 F380
M106 S0
M106 S255
G1 X7.889 Y40.057 F380
M106 S0
M106 S255
G1 X8.012 Y40.056 F380
M106 S0
M106 S255
G1 X8.135 Y40.056 F380
M106 S0
M106 S255
G1 X8.257 Y40.054 F380
M106 S0
M106 S255
G1 X8.38 Y40.052 F380
M106 S0
M106 S255
G1 X8.503 Y40.049 F380
M106 S0
M106 S255
G1 X8.625 Y40.045 F380
M106 S0
M106 S255
G1 X8.748 Y40.039 F380
M106 S0
M106 S255
G1 X8.87 Y40.031 F380
M106 S0
M106 S255
G1 X8.992 Y40.021 F380
M106 S0
M106 S255
G1 X9.114 Y40.009 F380
M106 S0
M106 S255
G1 X9.236 Y39.994 F380
M106 S0
M106 S255
G1 X9.357 Y39.978 F380
M106 S0
M106 S255
G1 X9.479 Y39.959 F380
M106 S0
M106 S255
G1 X9.6 Y39.939 F380
M106 S0
M106 S255
G1 X9.72 Y39.917 F380
M106 S0
M106 S255
G1 X9.841 Y39.894 F380
M106 S0
M106 S255
G1 X9.961 Y39.869 F380
M106 S0
M106 S255
G1 X10.081 Y39.842 F380
M106 S0
M106 S255
G1 X10.201 Y39.814 F380
M106 S0
M106 S255
G1 X10.32 Y39.786 F380
M106 S0
M106 S255
G1 X10.439 Y39.756 F380
M106 S0
M106 S255
G1 X10.558 Y39.725 F380
M106 S0
M106 S255
G1 X10.676 Y39.693 F380
M106 S0
M106 S255
G1 X10.794 Y39.661 F380
M106 S0
M106 S255
G1 X10.913 Y39.628 F380
M106 S0
M106 S255
G1 X11.031 Y39.595 F380
M106 S0
M106 S255
G1 X11.149 Y39.562 F380
M106 S0
M106 S255
G1 X11.266 Y39.528 F380
M106 S0
G0 X12.623 Y3.401 F6000
M106 S255
G1 X12.623 Y3.401 F380
M106 S0
M106 S255
G1 X12.653 Y3.567 F380
M106 S0
M106 S255
G1 X12.683 Y3.732 F380
M106 S0
M106 S255
G1 X12.712 Y3.898 F380
M106 S0
M106 S255
G1 X12.738 Y4.064 F380
M106 S0
M106 S255
G1 X12.763 Y4.23 F380
M106 S0
M106 S255
G1 X12.785 Y4.396 F380
M106 S0
M106 S255
G1 X12.804 Y4.563 F380
M106 S0
M106 S255
G1 X12.812 Y4.659 F380
M106 S0
M106 S255
G1 X12.829 Y4.898 F380
M106 S0
M106 S255
G1 X12.835 Y5.065 F380
M106 S0
M106 S255
G1 X12.839 Y5.233 F380
M106 S0
M106 S255
G1 X12.839 Y5.401 F380
M106 S0
M106 S255
G1 X12.836 Y5.57 F380
M106 S0
M106 S255
G1 X12.83 Y5.738 F380
M106 S0
M106 S255
G1 X12.823 Y5.906 F380
M106 S0
M106 S255
G1 X12.812 Y6.079 F380
M106 S0
M106 S255
G1 X12.801 Y6.242 F380
M106 S0
M106 S255
G1 X12.788 Y6.409 F380
M106 S0
M106 S255
G1 X12.772 Y6.576 F380
M106 S0
M106 S255
G1 X12.755 Y6.743 F380
M106 S0
M106 S255
G1 X12.735 Y6.91 F380
M106 S0
M106 S255
G1 X12.708 Y7.105 F380
M106 S0
M106 S255
G1 X12.687 Y7.243 F380
M106 S0
M106 S255
G1 X12.659 Y7.409 F380
M106 S0
M106 S255
G1 X12.627 Y7.574 F380
M106 S0
M106 S255
G1 X12.592 Y7.738 F380
M106 S0
M106 S255
G1 X12.553 Y7.902 F380
M106 S0
M106 S255
G1 X12.509 Y8.064 F380
M106 S0
M106 S255
G1 X12.48 Y8.163 F380
M106 S0
M106 S255
G1 X12.408 Y8.384 F380
M106 S0
M106 S255
G1 X12.352 Y8.542 F380
M106 S0
M106 S255
G1 X12.292 Y8.699 F380
M106 S0
M106 S255
G1 X12.229 Y8.855 F380
M106 S0
M106 S255
G1 X12.164 Y9.01 F380
M106 S0
M106 S255
G1 X12.067 Y9.237 F380
M106 S0
M106 S255
G1 X12.032 Y9.319 F380
M106 S0
M106 S255
G1 X11.965 Y9.473 F380
M106 S0
M106 S255
G1 X11.896 Y9.626 F380
M106 S0
M106 S255
G1 X11.826 Y9.779 F380
M106 S0
M106 S255
G1 X11.749 Y9.939 F380
M106 S0
M106 S255
G1 X11.678 Y10.081 F380
M106 S0
M106 S255
G1 X11.599 Y10.23 F380
M106 S0
M106 S255
G1 X11.517 Y10.377 F380
M106 S0
M106 S255
G1 X11.431 Y10.522 F380
M106 S0
M106 S255
G1 X11.342 Y10.665 F380
M106 S0
M106 S255
G1 X11.248 Y10.805 F380
M106 S0
M106 S255
G1 X11.151 Y10.941 F380
M106 S0
M106 S255
G1 X11.018 Y11.112 F380
M106 S0
M106 S255
G1 X10.942 Y11.204 F380
M106 S0
M106 S255
G1 X10.831 Y11.33 F380
M106 S0
M106 S255
G1 X10.717 Y11.454 F380
M106 S0
M106 S255
G1 X10.602 Y11.576 F380
M106 S0
M106 S255
G1 X10.485 Y11.697 F380
M106 S0
M106 S255
G1 X10.566 Y11.533 F380
M106 S0
M106 S255
G1 X10.647 Y11.368 F380
M106 S0
M106 S255
G1 X10.727 Y11.204 F380
M106 S0
M106 S255
G1 X10.807 Y11.039 F380
M106 S0
M106 S255
G1 X10.886 Y10.874 F380
M106 S0
M106 S255
G1 X10.965 Y10.709 F380
M106 S0
M106 S255
G1 X11.031 Y10.568 F380
M106 S0
M106 S255
G1 X11.119 Y10.376 F380
M106 S0
M106 S255
G1 X11.194 Y10.209 F380
M106 S0
M106 S255
G1 X11.267 Y10.041 F380
M106 S0
M106 S255
G1 X11.338 Y9.872 F380
M106 S0
M106 S255
G1 X11.407 Y9.703 F380
M106 S0
M106 S255
G1 X11.501 Y9.454 F380
M106 S0
M106 S255
G1 X11.535 Y9.359 F380
M106 S0
M106 S255
G1 X11.594 Y9.185 F380
M106 S0
M106 S255
G1 X11.648 Y9.01 F380
M106 S0
M106 S255
G1 X11.699 Y8.834 F380
M106 S0
M106 S255
G1 X11.746 Y8.656 F380
M106 S0
M106 S255
G1 X11.787 Y8.478 F380
M106 S0
M106 S255
G1 X11.824 Y8.298 F380
M106 S0
M106 S255
G1 X11.85 Y8.155 F380
M106 S0
M106 S255
G1 X11.882 Y7.937 F380
M106 S0
M106 S255
G1 X11.904 Y7.755 F380
M106 S0
M106 S255
G1 X11.921 Y7.572 F380
M106 S0
M106 S255
G1 X11.935 Y7.39 F380
M106 S0
M106 S255
G1 X11.945 Y7.207 F380
M106 S0
M106 S255
G1 X11.956 Y6.95 F380
M106 S0
M106 S255
G1 X11.959 Y6.84 F380
M106 S0
M106 S255
G1 X11.963 Y6.657 F380
M106 S0
M106 S255
G1 X11.965 Y6.474 F380
M106 S0
M106 S255
G1 X11.964 Y6.291 F380
M106 S0
M106 S255
G1 X11.961 Y6.108 F380
M106 S0
M106 S255
G1 X11.956 Y5.95 F380
M106 S0
M106 S255
G1 X11.946 Y5.742 F380
M106 S0
M106 S255
G1 X11.934 Y5.559 F380
M106 S0
M106 S255
G1 X11.919 Y5.376 F380
M106 S0
M106 S255
G1 X11.9 Y5.193 F380
M106 S0
M106 S255
G1 X11.878 Y5.011 F380
M106 S0
M106 S255
G1 X11.852 Y4.83 F380
M106 S0
M106 S255
G1 X11.823 Y4.649 F380
M106 S0
M106 S255
G1 X11.804 Y4.549 F380
M106 S0
M106 S255
G1 X11.752 Y4.29 F380
M106 S0
M106 S255
G1 X11.711 Y4.111 F380
M106 S0
M106 S255
G1 X11.669 Y3.933 F380
M106 S0
M106 S255
G1 X11.624 Y3.756 F380
M106 S0
M106 S255
G1 X11.578 Y3.578 F380
M106 S0
M106 S255
G1 X11.531 Y3.401 F380
M106 S0
M106 S255
G1 X12.623 Y3.401 F380
M106 S0
G0 X7.853 Y12.465 F6000
M106 S255
G1 X7.853 Y12.465 F380
M106 S0
M106 S255
G1 X7.817 Y12.423 F380
M106 S0
M106 S255
G1 X7.781 Y12.381 F380
M106 S0
M106 S255
G1 X7.744 Y12.341 F380
M106 S0
M106 S255
G1 X7.707 Y12.301 F380
M106 S0
M106 S255
G1 X7.668 Y12.262 F380
M106 S0
M106 S255
G1 X7.629 Y12.226 F380
M106 S0
M106 S255
G1 X7.587 Y12.191 F380
M106 S0
M106 S255
G1 X7.543 Y12.158 F380
M106 S0
M106 S255
G1 X7.499 Y12.13 F380
M106 S0
M106 S255
G1 X7.452 Y12.103 F380
M106 S0
M106 S255
G1 X7.404 Y12.079 F380
M106 S0
M106 S255
G1 X7.354 Y12.057 F380
M106 S0
M106 S255
G1 X7.303 Y12.037 F380
M106 S0
M106 S255
G1 X7.251 Y12.019 F380
M106 S0
M106 S255
G1 X7.199 Y12.002 F380
M106 S0
M106 S255
G1 X7.151 Y11.989 F380
M106 S0
M106 S255
G1 X7.093 Y11.973 F380
M106 S0
M106 S255
G1 X7.04 Y11.961 F380
M106 S0
M106 S255
G1 X6.987 Y11.95 F380
M106 S0
M106 S255
G1 X6.933 Y11.94 F380
M106 S0
M106 S255
G1 X6.88 Y11.932 F380
M106 S0
M106 S255
G1 X6.826 Y11.926 F380
M106 S0
M106 S255
G1 X6.777 Y11.922 F380
M106 S0
M106 S255
G1 X6.718 Y11.918 F380
M106 S0
M106 S255
G1 X6.664 Y11.917 F380
M106 S0
M106 S255
G1 X6.61 Y11.917 F380
M106 S0
M106 S255
G1 X6.555 Y11.918 F380
M106 S0
M106 S255
G1 X6.501 Y11.92 F380
M106 S0
M106 S255
G1 X6.446 Y11.922 F380
M106 S0
M106 S255
G1 X6.432 Y11.991 F380
M106 S0
M106 S255
G1 X6.419 Y12.059 F380
M106 S0
M106 S255
G1 X6.412 Y12.126 F380
M106 S0
M106 S255
G1 X6.412 Y12.19 F380
M106 S0
M106 S255
G1 X6.422 Y12.25 F380
M106 S0
M106 S255
G1 X6.446 Y12.31 F380
M106 S0
M106 S255
G1 X6.481 Y12.357 F380
M106 S0
M106 S255
G1 X6.528 Y12.402 F380
M106 S0
M106 S255
G1 X6.587 Y12.442 F380
M106 S0
M106 S255
G1 X6.64 Y12.469 F380
M106 S0
M106 S255
G1 X6.701 Y12.491 F380
M106 S0
M106 S255
G1 X6.763 Y12.507 F380
M106 S0
M106 S255
G1 X6.826 Y12.518 F380
M106 S0
M106 S255
G1 X6.891 Y12.524 F380
M106 S0
M106 S255
G1 X6.956 Y12.527 F380
M106 S0
M106 S255
G1 X7.022 Y12.527 F380
M106 S0
M106 S255
G1 X7.072 Y12.526 F380
M106 S0
M106 S255
G1 X7.152 Y12.524 F380
M106 S0
M106 S255
G1 X7.217 Y12.521 F380
M106 S0
M106 S255
G1 X7.282 Y12.517 F380
M106 S0
M106 S255
G1 X7.346 Y12.513 F380
M106 S0
M106 S255
G1 X7.41 Y12.508 F380
M106 S0
M106 S255
G1 X7.473 Y12.503 F380
M106 S0
M106 S255
G1 X7.537 Y12.497 F380
M106 S0
M106 S255
G1 X7.6 Y12.491 F380
M106 S0
M106 S255
G1 X7.663 Y12.485 F380
M106 S0
M106 S255
G1 X7.727 Y12.478 F380
M106 S0
M106 S255
G1 X7.79 Y12.472 F380
M106 S0
M106 S255
G1 X7.853 Y12.465 F380
M106 S0
M106 S0
