;GCode generated by Numa's program v0.0
G0 X13.708 Y26.624 F6000
M106 S255
G1 X13.708 Y26.624 F100
M106 S0
M106 S255
G1 X13.708 Y21.816 F100
M106 S0
M106 S255
G1 X13.474 Y21.794 F100
M106 S0
M106 S255
G1 X13.239 Y21.772 F100
M106 S0
M106 S255
G1 X13.005 Y21.75 F100
M106 S0
M106 S255
G1 X12.77 Y21.727 F100
M106 S0
M106 S255
G1 X12.536 Y21.705 F100
M106 S0
M106 S255
G1 X12.301 Y21.682 F100
M106 S0
M106 S255
G1 X12.067 Y21.658 F100
M106 S0
M106 S255
G1 X11.832 Y21.635 F100
M106 S0
M106 S255
G1 X11.648 Y21.616 F100
M106 S0
M106 S255
G1 X11.363 Y21.585 F100
M106 S0
M106 S255
G1 X11.129 Y21.561 F100
M106 S0
M106 S255
G1 X10.894 Y21.537 F100
M106 S0
M106 S255
G1 X10.66 Y21.514 F100
M106 S0
M106 S255
G1 X10.425 Y21.493 F100
M106 S0
M106 S255
G1 X10.19 Y21.473 F100
M106 S0
M106 S255
G1 X9.955 Y21.457 F100
M106 S0
M106 S255
G1 X9.72 Y21.444 F100
M106 S0
M106 S255
G1 X9.5 Y21.436 F100
M106 S0
M106 S255
G1 X9.249 Y21.43 F100
M106 S0
M106 S255
G1 X9.014 Y21.428 F100
M106 S0
M106 S255
G1 X8.778 Y21.429 F100
M106 S0
M106 S255
G1 X8.542 Y21.432 F100
M106 S0
M106 S255
G1 X8.307 Y21.436 F100
M106 S0
M106 S255
G1 X8.071 Y21.432 F100
M106 S0
M106 S255
G1 X7.835 Y21.429 F100
M106 S0
M106 S255
G1 X7.6 Y21.428 F100
M106 S0
M106 S255
G1 X7.364 Y21.43 F100
M106 S0
M106 S255
G1 X7.113 Y21.436 F100
M106 S0
M106 S255
G1 X6.893 Y21.444 F100
M106 S0
M106 S255
G1 X6.658 Y21.457 F100
M106 S0
M106 S255
G1 X6.423 Y21.473 F100
M106 S0
M106 S255
G1 X6.189 Y21.493 F100
M106 S0
M106 S255
G1 X5.954 Y21.514 F100
M106 S0
M106 S255
G1 X5.719 Y21.537 F100
M106 S0
M106 S255
G1 X5.485 Y21.561 F100
M106 S0
M106 S255
G1 X5.25 Y21.585 F100
M106 S0
M106 S255
G1 X4.965 Y21.616 F100
M106 S0
M106 S255
G1 X4.781 Y21.635 F100
M106 S0
M106 S255
G1 X4.546 Y21.658 F100
M106 S0
M106 S255
G1 X4.312 Y21.682 F100
M106 S0
M106 S255
G1 X4.077 Y21.705 F100
M106 S0
M106 S255
G1 X3.843 Y21.727 F100
M106 S0
M106 S255
G1 X3.608 Y21.75 F100
M106 S0
M106 S255
G1 X3.374 Y21.772 F100
M106 S0
M106 S255
G1 X3.139 Y21.794 F100
M106 S0
M106 S255
G1 X2.905 Y21.816 F100
M106 S0
M106 S255
G1 X2.905 Y26.624 F100
M106 S0
M106 S255
G1 X2.994 Y26.63 F100
M106 S0
M106 S255
G1 X3.083 Y26.636 F100
M106 S0
M106 S255
G1 X3.172 Y26.642 F100
M106 S0
M106 S255
G1 X3.261 Y26.648 F100
M106 S0
M106 S255
G1 X3.35 Y26.654 F100
M106 S0
M106 S255
G1 X3.439 Y26.66 F100
M106 S0
M106 S255
G1 X3.528 Y26.666 F100
M106 S0
M106 S255
G1 X3.617 Y26.671 F100
M106 S0
M106 S255
G1 X3.706 Y26.677 F100
M106 S0
M106 S255
G1 X3.795 Y26.682 F100
M106 S0
M106 S255
G1 X3.884 Y26.686 F100
M106 S0
M106 S255
G1 X3.974 Y26.691 F100
M106 S0
M106 S255
G1 X4.063 Y26.695 F100
M106 S0
M106 S255
G1 X4.152 Y26.699 F100
M106 S0
M106 S255
G1 X4.241 Y26.702 F100
M106 S0
M106 S255
G1 X4.33 Y26.705 F100
M106 S0
M106 S255
G1 X4.419 Y26.708 F100
M106 S0
M106 S255
G1 X4.255 Y26.781 F100
M106 S0
M106 S255
G1 X4.094 Y26.857 F100
M106 S0
M106 S255
G1 X3.935 Y26.937 F100
M106 S0
M106 S255
G1 X3.779 Y27.023 F100
M106 S0
M106 S255
G1 X3.628 Y27.117 F100
M106 S0
M106 S255
G1 X3.481 Y27.218 F100
M106 S0
M106 S255
G1 X3.339 Y27.328 F100
M106 S0
M106 S255
G1 X3.203 Y27.446 F100
M106 S0
M106 S255
G1 X3.074 Y27.572 F100
M106 S0
M106 S255
G1 X2.95 Y27.705 F100
M106 S0
M106 S255
G1 X2.834 Y27.844 F100
M106 S0
M106 S255
G1 X2.724 Y27.989 F100
M106 S0
M106 S255
G1 X2.622 Y28.14 F100
M106 S0
M106 S255
G1 X2.528 Y28.295 F100
M106 S0
M106 S255
G1 X2.442 Y28.455 F100
M106 S0
M106 S255
G1 X2.364 Y28.618 F100
M106 S0
M106 S255
G1 X2.295 Y28.785 F100
M106 S0
M106 S255
G1 X2.236 Y28.954 F100
M106 S0
M106 S255
G1 X2.185 Y29.126 F100
M106 S0
M106 S255
G1 X2.143 Y29.299 F100
M106 S0
M106 S255
G1 X2.108 Y29.474 F100
M106 S0
M106 S255
G1 X2.081 Y29.651 F100
M106 S0
M106 S255
G1 X2.059 Y29.829 F100
M106 S0
M106 S255
G1 X2.044 Y30.007 F100
M106 S0
M106 S255
G1 X2.034 Y30.187 F100
M106 S0
M106 S255
G1 X2.03 Y30.366 F100
M106 S0
M106 S255
G1 X2.034 Y30.545 F100
M106 S0
M106 S255
G1 X2.046 Y30.723 F100
M106 S0
M106 S255
G1 X2.07 Y30.9 F100
M106 S0
M106 S255
G1 X2.107 Y31.075 F100
M106 S0
M106 S255
G1 X2.157 Y31.247 F100
M106 S0
M106 S255
G1 X2.222 Y31.415 F100
M106 S0
M106 S255
G1 X2.299 Y31.577 F100
M106 S0
M106 S255
G1 X2.39 Y31.733 F100
M106 S0
M106 S255
G1 X2.493 Y31.88 F100
M106 S0
M106 S255
G1 X2.608 Y32.018 F100
M106 S0
M106 S255
G1 X2.734 Y32.145 F100
M106 S0
M106 S255
G1 X2.869 Y32.262 F100
M106 S0
M106 S255
G1 X3.014 Y32.369 F100
M106 S0
M106 S255
G1 X3.165 Y32.465 F100
M106 S0
M106 S255
G1 X3.324 Y32.551 F100
M106 S0
M106 S255
G1 X3.488 Y32.627 F100
M106 S0
M106 S255
G1 X3.656 Y32.692 F100
M106 S0
M106 S255
G1 X3.828 Y32.746 F100
M106 S0
M106 S255
G1 X4.002 Y32.788 F100
M106 S0
M106 S255
G1 X4.179 Y32.818 F100
M106 S0
M106 S255
G1 X4.357 Y32.835 F100
M106 S0
M106 S255
G1 X4.536 Y32.839 F100
M106 S0
M106 S255
G1 X4.715 Y32.828 F100
M106 S0
M106 S255
G1 X4.893 Y32.805 F100
M106 S0
M106 S255
G1 X5.069 Y32.768 F100
M106 S0
M106 S255
G1 X5.243 Y32.72 F100
M106 S0
M106 S255
G1 X5.414 Y32.661 F100
M106 S0
M106 S255
G1 X5.581 Y32.591 F100
M106 S0
M106 S255
G1 X5.744 Y32.51 F100
M106 S0
M106 S255
G1 X5.901 Y32.421 F100
M106 S0
M106 S255
G1 X6.053 Y32.322 F100
M106 S0
M106 S255
G1 X6.198 Y32.215 F100
M106 S0
M106 S255
G1 X6.337 Y32.1 F100
M106 S0
M106 S255
G1 X6.468 Y31.977 F100
M106 S0
M106 S255
G1 X6.591 Y31.847 F100
M106 S0
M106 S255
G1 X6.705 Y31.71 F100
M106 S0
M106 S255
G1 X6.811 Y31.567 F100
M106 S0
M106 S255
G1 X6.908 Y31.417 F100
M106 S0
M106 S255
G1 X6.999 Y31.264 F100
M106 S0
M106 S255
G1 X7.002 Y31.364 F100
M106 S0
M106 S255
G1 X7.006 Y31.464 F100
M106 S0
M106 S255
G1 X7.011 Y31.565 F100
M106 S0
M106 S255
G1 X7.017 Y31.665 F100
M106 S0
M106 S255
G1 X7.024 Y31.765 F100
M106 S0
M106 S255
G1 X7.032 Y31.865 F100
M106 S0
M106 S255
G1 X7.043 Y31.964 F100
M106 S0
M106 S255
G1 X7.055 Y32.064 F100
M106 S0
M106 S255
G1 X7.07 Y32.163 F100
M106 S0
M106 S255
G1 X7.086 Y32.262 F100
M106 S0
M106 S255
G1 X7.105 Y32.361 F100
M106 S0
M106 S255
G1 X7.126 Y32.459 F100
M106 S0
M106 S255
G1 X7.149 Y32.557 F100
M106 S0
M106 S255
G1 X7.174 Y32.655 F100
M106 S0
M106 S255
G1 X7.202 Y32.752 F100
M106 S0
M106 S255
G1 X7.231 Y32.848 F100
M106 S0
M106 S255
G1 X7.262 Y32.943 F100
M106 S0
M106 S255
G1 X7.296 Y33.038 F100
M106 S0
M106 S255
G1 X7.331 Y33.132 F100
M106 S0
M106 S255
G1 X7.369 Y33.225 F100
M106 S0
M106 S255
G1 X7.408 Y33.317 F100
M106 S0
M106 S255
G1 X7.449 Y33.408 F100
M106 S0
M106 S255
G1 X7.491 Y33.499 F100
M106 S0
M106 S255
G1 X7.535 Y33.589 F100
M106 S0
M106 S255
G1 X7.58 Y33.679 F100
M106 S0
M106 S255
G1 X7.626 Y33.768 F100
M106 S0
M106 S255
G1 X7.673 Y33.857 F100
M106 S0
M106 S255
G1 X7.72 Y33.946 F100
M106 S0
M106 S255
G1 X7.768 Y34.034 F100
M106 S0
M106 S255
G1 X7.816 Y34.123 F100
M106 S0
M106 S255
G1 X7.865 Y34.21 F100
M106 S0
M106 S255
G1 X7.916 Y34.297 F100
M106 S0
M106 S255
G1 X7.969 Y34.383 F100
M106 S0
M106 S255
G1 X8.024 Y34.466 F100
M106 S0
M106 S255
G1 X8.081 Y34.548 F100
M106 S0
M106 S255
G1 X8.143 Y34.627 F100
M106 S0
M106 S255
G1 X8.207 Y34.704 F100
M106 S0
M106 S255
G1 X8.273 Y34.779 F100
M106 S0
M106 S255
G1 X8.34 Y34.779 F100
M106 S0
M106 S255
G1 X8.407 Y34.704 F100
M106 S0
M106 S255
G1 X8.471 Y34.627 F100
M106 S0
M106 S255
G1 X8.532 Y34.548 F100
M106 S0
M106 S255
G1 X8.59 Y34.466 F100
M106 S0
M106 S255
G1 X8.645 Y34.383 F100
M106 S0
M106 S255
G1 X8.697 Y34.297 F100
M106 S0
M106 S255
G1 X8.748 Y34.21 F100
M106 S0
M106 S255
G1 X8.797 Y34.123 F100
M106 S0
M106 S255
G1 X8.846 Y34.034 F100
M106 S0
M106 S255
G1 X8.893 Y33.946 F100
M106 S0
M106 S255
G1 X8.941 Y33.857 F100
M106 S0
M106 S255
G1 X8.987 Y33.768 F100
M106 S0
M106 S255
G1 X9.033 Y33.679 F100
M106 S0
M106 S255
G1 X9.078 Y33.589 F100
M106 S0
M106 S255
G1 X9.122 Y33.499 F100
M106 S0
M106 S255
G1 X9.164 Y33.408 F100
M106 S0
M106 S255
G1 X9.205 Y33.317 F100
M106 S0
M106 S255
G1 X9.245 Y33.225 F100
M106 S0
M106 S255
G1 X9.282 Y33.132 F100
M106 S0
M106 S255
G1 X9.318 Y33.038 F100
M106 S0
M106 S255
G1 X9.351 Y32.943 F100
M106 S0
M106 S255
G1 X9.382 Y32.848 F100
M106 S0
M106 S255
G1 X9.412 Y32.752 F100
M106 S0
M106 S255
G1 X9.439 Y32.655 F100
M106 S0
M106 S255
G1 X9.464 Y32.557 F100
M106 S0
M106 S255
G1 X9.487 Y32.459 F100
M106 S0
M106 S255
G1 X9.508 Y32.361 F100
M106 S0
M106 S255
G1 X9.527 Y32.262 F100
M106 S0
M106 S255
G1 X9.544 Y32.163 F100
M106 S0
M106 S255
G1 X9.558 Y32.064 F100
M106 S0
M106 S255
G1 X9.571 Y31.964 F100
M106 S0
M106 S255
G1 X9.581 Y31.865 F100
M106 S0
M106 S255
G1 X9.59 Y31.765 F100
M106 S0
M106 S255
G1 X9.597 Y31.665 F100
M106 S0
M106 S255
G1 X9.603 Y31.565 F100
M106 S0
M106 S255
G1 X9.607 Y31.464 F100
M106 S0
M106 S255
G1 X9.611 Y31.364 F100
M106 S0
M106 S255
G1 X9.614 Y31.264 F100
M106 S0
M106 S255
G1 X9.705 Y31.417 F100
M106 S0
M106 S255
G1 X9.802 Y31.567 F100
M106 S0
M106 S255
G1 X9.908 Y31.71 F100
M106 S0
M106 S255
G1 X10.023 Y31.847 F100
M106 S0
M106 S255
G1 X10.146 Y31.977 F100
M106 S0
M106 S255
G1 X10.277 Y32.1 F100
M106 S0
M106 S255
G1 X10.415 Y32.215 F100
M106 S0
M106 S255
G1 X10.561 Y32.322 F100
M106 S0
M106 S255
G1 X10.712 Y32.421 F100
M106 S0
M106 S255
G1 X10.87 Y32.51 F100
M106 S0
M106 S255
G1 X11.033 Y32.591 F100
M106 S0
M106 S255
G1 X11.2 Y32.661 F100
M106 S0
M106 S255
G1 X11.371 Y32.72 F100
M106 S0
M106 S255
G1 X11.545 Y32.768 F100
M106 S0
M106 S255
G1 X11.721 Y32.805 F100
M106 S0
M106 S255
G1 X11.898 Y32.828 F100
M106 S0
M106 S255
G1 X12.077 Y32.839 F100
M106 S0
M106 S255
G1 X12.256 Y32.835 F100
M106 S0
M106 S255
G1 X12.434 Y32.818 F100
M106 S0
M106 S255
G1 X12.611 Y32.788 F100
M106 S0
M106 S255
G1 X12.786 Y32.746 F100
M106 S0
M106 S255
G1 X12.958 Y32.692 F100
M106 S0
M106 S255
G1 X13.126 Y32.627 F100
M106 S0
M106 S255
G1 X13.29 Y32.551 F100
M106 S0
M106 S255
G1 X13.448 Y32.465 F100
M106 S0
M106 S255
G1 X13.6 Y32.369 F100
M106 S0
M106 S255
G1 X13.744 Y32.262 F100
M106 S0
M106 S255
G1 X13.88 Y32.145 F100
M106 S0
M106 S255
G1 X14.006 Y32.018 F100
M106 S0
M106 S255
G1 X14.12 Y31.88 F100
M106 S0
M106 S255
G1 X14.223 Y31.733 F100
M106 S0
M106 S255
G1 X14.314 Y31.577 F100
M106 S0
M106 S255
G1 X14.392 Y31.415 F100
M106 S0
M106 S255
G1 X14.456 Y31.247 F100
M106 S0
M106 S255
G1 X14.507 Y31.075 F100
M106 S0
M106 S255
G1 X14.543 Y30.9 F100
M106 S0
M106 S255
G1 X14.567 Y30.723 F100
M106 S0
M106 S255
G1 X14.58 Y30.545 F100
M106 S0
M106 S255
G1 X14.583 Y30.366 F100
M106 S0
M106 S255
G1 X14.579 Y30.187 F100
M106 S0
M106 S255
G1 X14.569 Y30.007 F100
M106 S0
M106 S255
G1 X14.554 Y29.829 F100
M106 S0
M106 S255
G1 X14.533 Y29.651 F100
M106 S0
M106 S255
G1 X14.505 Y29.474 F100
M106 S0
M106 S255
G1 X14.471 Y29.299 F100
M106 S0
M106 S255
G1 X14.428 Y29.126 F100
M106 S0
M106 S255
G1 X14.377 Y28.954 F100
M106 S0
M106 S255
G1 X14.318 Y28.785 F100
M106 S0
M106 S255
G1 X14.249 Y28.618 F100
M106 S0
M106 S255
G1 X14.172 Y28.455 F100
M106 S0
M106 S255
G1 X14.086 Y28.295 F100
M106 S0
M106 S255
G1 X13.992 Y28.14 F100
M106 S0
M106 S255
G1 X13.889 Y27.989 F100
M106 S0
M106 S255
G1 X13.78 Y27.844 F100
M106 S0
M106 S255
G1 X13.663 Y27.705 F100
M106 S0
M106 S255
G1 X13.54 Y27.572 F100
M106 S0
M106 S255
G1 X13.41 Y27.446 F100
M106 S0
M106 S255
G1 X13.274 Y27.328 F100
M106 S0
M106 S255
G1 X13.133 Y27.218 F100
M106 S0
M106 S255
G1 X12.986 Y27.117 F100
M106 S0
M106 S255
G1 X12.834 Y27.023 F100
M106 S0
M106 S255
G1 X12.679 Y26.937 F100
M106 S0
M106 S255
G1 X12.52 Y26.857 F100
M106 S0
M106 S255
G1 X12.358 Y26.781 F100
M106 S0
M106 S255
G1 X12.194 Y26.708 F100
M106 S0
M106 S255
G1 X12.283 Y26.705 F100
M106 S0
M106 S255
G1 X12.373 Y26.702 F100
M106 S0
M106 S255
G1 X12.462 Y26.699 F100
M106 S0
M106 S255
G1 X12.551 Y26.695 F100
M106 S0
M106 S255
G1 X12.64 Y26.691 F100
M106 S0
M106 S255
G1 X12.729 Y26.686 F100
M106 S0
M106 S255
G1 X12.818 Y26.682 F100
M106 S0
M106 S255
G1 X12.907 Y26.677 F100
M106 S0
M106 S255
G1 X12.996 Y26.671 F100
M106 S0
M106 S255
G1 X13.085 Y26.666 F100
M106 S0
M106 S255
G1 X13.174 Y26.66 F100
M106 S0
M106 S255
G1 X13.263 Y26.654 F100
M106 S0
M106 S255
G1 X13.352 Y26.648 F100
M106 S0
M106 S255
G1 X13.441 Y26.642 F100
M106 S0
M106 S255
G1 X13.53 Y26.636 F100
M106 S0
M106 S255
G1 X13.619 Y26.63 F100
M106 S0
M106 S255
G1 X13.708 Y26.624 F100
M106 S0
G0 X6.44 Y50.302 F6000
M106 S255
G1 X6.44 Y50.302 F100
M106 S0
M106 S255
G1 X6.294 Y50.192 F100
M106 S0
M106 S255
G1 X6.147 Y50.081 F100
M106 S0
M106 S255
G1 X6.001 Y49.97 F100
M106 S0
M106 S255
G1 X5.856 Y49.857 F100
M106 S0
M106 S255
G1 X5.712 Y49.743 F100
M106 S0
M106 S255
G1 X5.573 Y49.632 F100
M106 S0
M106 S255
G1 X5.427 Y49.51 F100
M106 S0
M106 S255
G1 X5.287 Y49.39 F100
M106 S0
M106 S255
G1 X5.151 Y49.266 F100
M106 S0
M106 S255
G1 X5.018 Y49.139 F100
M106 S0
M106 S255
G1 X4.89 Y49.007 F100
M106 S0
M106 S255
G1 X4.826 Y48.938 F100
M106 S0
M106 S255
G1 X4.652 Y48.73 F100
M106 S0
M106 S255
G1 X4.541 Y48.584 F100
M106 S0
M106 S255
G1 X4.435 Y48.434 F100
M106 S0
M106 S255
G1 X4.334 Y48.28 F100
M106 S0
M106 S255
G1 X4.237 Y48.123 F100
M106 S0
M106 S255
G1 X4.143 Y47.963 F100
M106 S0
M106 S255
G1 X4.076 Y47.842 F100
M106 S0
M106 S255
G1 X3.967 Y47.636 F100
M106 S0
M106 S255
G1 X3.885 Y47.469 F100
M106 S0
M106 S255
G1 X3.808 Y47.3 F100
M106 S0
M106 S255
G1 X3.739 Y47.128 F100
M106 S0
M106 S255
G1 X3.678 Y46.955 F100
M106 S0
M106 S255
G1 X3.626 Y46.779 F100
M106 S0
M106 S255
G1 X3.584 Y46.601 F100
M106 S0
M106 S255
G1 X3.565 Y46.49 F100
M106 S0
M106 S255
G1 X3.537 Y46.238 F100
M106 S0
M106 S255
G1 X3.528 Y46.054 F100
M106 S0
M106 S255
G1 X3.528 Y45.869 F100
M106 S0
M106 S255
G1 X3.532 Y45.705 F100
M106 S0
M106 S255
G1 X3.542 Y45.501 F100
M106 S0
M106 S255
G1 X3.555 Y45.318 F100
M106 S0
M106 S255
G1 X3.573 Y45.135 F100
M106 S0
M106 S255
G1 X3.596 Y44.953 F100
M106 S0
M106 S255
G1 X3.619 Y44.803 F100
M106 S0
M106 S255
G1 X3.658 Y44.59 F100
M106 S0
M106 S255
G1 X3.697 Y44.409 F100
M106 S0
M106 S255
G1 X3.743 Y44.23 F100
M106 S0
M106 S255
G1 X3.794 Y44.052 F100
M106 S0
M106 S255
G1 X3.852 Y43.877 F100
M106 S0
M106 S255
G1 X3.916 Y43.704 F100
M106 S0
M106 S255
G1 X3.988 Y43.535 F100
M106 S0
M106 S255
G1 X4.078 Y43.346 F100
M106 S0
M106 S255
G1 X4.152 Y43.207 F100
M106 S0
M106 S255
G1 X4.245 Y43.05 F100
M106 S0
M106 S255
G1 X4.343 Y42.895 F100
M106 S0
M106 S255
G1 X4.446 Y42.743 F100
M106 S0
M106 S255
G1 X4.554 Y42.594 F100
M106 S0
M106 S255
G1 X4.665 Y42.447 F100
M106 S0
M106 S255
G1 X4.778 Y42.301 F100
M106 S0
M106 S255
G1 X4.893 Y42.156 F100
M106 S0
M106 S255
G1 X5.009 Y42.011 F100
M106 S0
M106 S255
G1 X4.267 Y39.528 F100
M106 S0
M106 S255
G1 X4.378 Y39.469 F100
M106 S0
M106 S255
G1 X4.489 Y39.409 F100
M106 S0
M106 S255
G1 X4.6 Y39.351 F100
M106 S0
M106 S255
G1 X4.712 Y39.294 F100
M106 S0
M106 S255
G1 X4.825 Y39.24 F100
M106 S0
M106 S255
G1 X4.939 Y39.188 F100
M106 S0
M106 S255
G1 X5.054 Y39.139 F100
M106 S0
M106 S255
G1 X5.171 Y39.093 F100
M106 S0
M106 S255
G1 X5.289 Y39.051 F100
M106 S0
M106 S255
G1 X5.408 Y39.011 F100
M106 S0
M106 S255
G1 X5.529 Y38.975 F100
M106 S0
M106 S255
G1 X5.65 Y38.942 F100
M106 S0
M106 S255
G1 X5.772 Y38.911 F100
M106 S0
M106 S255
G1 X5.895 Y38.882 F100
M106 S0
M106 S255
G1 X6.018 Y38.856 F100
M106 S0
M106 S255
G1 X6.141 Y38.832 F100
M106 S0
M106 S255
G1 X6.265 Y38.81 F100
M106 S0
M106 S255
G1 X6.389 Y38.79 F100
M106 S0
M106 S255
G1 X6.514 Y38.773 F100
M106 S0
M106 S255
G1 X6.638 Y38.758 F100
M106 S0
M106 S255
G1 X6.763 Y38.746 F100
M106 S0
M106 S255
G1 X6.888 Y38.737 F100
M106 S0
M106 S255
G1 X7.013 Y38.732 F100
M106 S0
M106 S255
G1 X7.139 Y38.728 F100
M106 S0
M106 S255
G1 X7.264 Y38.727 F100
M106 S0
M106 S255
G1 X7.39 Y38.728 F100
M106 S0
M106 S255
G1 X7.515 Y38.731 F100
M106 S0
M106 S255
G1 X7.641 Y38.734 F100
M106 S0
M106 S255
G1 X7.767 Y38.737 F100
M106 S0
M106 S255
G1 X7.892 Y38.734 F100
M106 S0
M106 S255
G1 X8.018 Y38.731 F100
M106 S0
M106 S255
G1 X8.144 Y38.728 F100
M106 S0
M106 S255
G1 X8.269 Y38.727 F100
M106 S0
M106 S255
G1 X8.395 Y38.728 F100
M106 S0
M106 S255
G1 X8.52 Y38.732 F100
M106 S0
M106 S255
G1 X8.645 Y38.737 F100
M106 S0
M106 S255
G1 X8.77 Y38.746 F100
M106 S0
M106 S255
G1 X8.895 Y38.758 F100
M106 S0
M106 S255
G1 X9.02 Y38.773 F100
M106 S0
M106 S255
G1 X9.144 Y38.79 F100
M106 S0
M106 S255
G1 X9.268 Y38.81 F100
M106 S0
M106 S255
G1 X9.392 Y38.832 F100
M106 S0
M106 S255
G1 X9.516 Y38.856 F100
M106 S0
M106 S255
G1 X9.639 Y38.882 F100
M106 S0
M106 S255
G1 X9.761 Y38.911 F100
M106 S0
M106 S255
G1 X9.883 Y38.942 F100
M106 S0
M106 S255
G1 X10.005 Y38.975 F100
M106 S0
M106 S255
G1 X10.125 Y39.011 F100
M106 S0
M106 S255
G1 X10.244 Y39.051 F100
M106 S0
M106 S255
G1 X10.362 Y39.093 F100
M106 S0
M106 S255
G1 X10.479 Y39.139 F100
M106 S0
M106 S255
G1 X10.594 Y39.188 F100
M106 S0
M106 S255
G1 X10.708 Y39.24 F100
M106 S0
M106 S255
G1 X10.821 Y39.294 F100
M106 S0
M106 S255
G1 X10.933 Y39.351 F100
M106 S0
M106 S255
G1 X11.045 Y39.409 F100
M106 S0
M106 S255
G1 X11.156 Y39.469 F100
M106 S0
M106 S255
G1 X11.266 Y39.528 F100
M106 S0
M106 S255
G1 X10.524 Y42.011 F100
M106 S0
M106 S255
G1 X10.64 Y42.156 F100
M106 S0
M106 S255
G1 X10.755 Y42.301 F100
M106 S0
M106 S255
G1 X10.869 Y42.447 F100
M106 S0
M106 S255
G1 X10.98 Y42.594 F100
M106 S0
M106 S255
G1 X11.087 Y42.743 F100
M106 S0
M106 S255
G1 X11.19 Y42.895 F100
M106 S0
M106 S255
G1 X11.289 Y43.05 F100
M106 S0
M106 S255
G1 X11.381 Y43.207 F100
M106 S0
M106 S255
G1 X11.456 Y43.346 F100
M106 S0
M106 S255
G1 X11.546 Y43.535 F100
M106 S0
M106 S255
G1 X11.617 Y43.704 F100
M106 S0
M106 S255
G1 X11.682 Y43.877 F100
M106 S0
M106 S255
G1 X11.74 Y44.052 F100
M106 S0
M106 S255
G1 X11.791 Y44.23 F100
M106 S0
M106 S255
G1 X11.836 Y44.409 F100
M106 S0
M106 S255
G1 X11.876 Y44.59 F100
M106 S0
M106 S255
G1 X11.914 Y44.803 F100
M106 S0
M106 S255
G1 X11.937 Y44.953 F100
M106 S0
M106 S255
G1 X11.96 Y45.135 F100
M106 S0
M106 S255
G1 X11.978 Y45.318 F100
M106 S0
M106 S255
G1 X11.992 Y45.501 F100
M106 S0
M106 S255
G1 X12.002 Y45.705 F100
M106 S0
M106 S255
G1 X12.006 Y45.869 F100
M106 S0
M106 S255
G1 X12.005 Y46.054 F100
M106 S0
M106 S255
G1 X11.997 Y46.238 F100
M106 S0
M106 S255
G1 X11.969 Y46.49 F100
M106 S0
M106 S255
G1 X11.949 Y46.601 F100
M106 S0
M106 S255
G1 X11.908 Y46.779 F100
M106 S0
M106 S255
G1 X11.856 Y46.955 F100
M106 S0
M106 S255
G1 X11.795 Y47.128 F100
M106 S0
M106 S255
G1 X11.725 Y47.3 F100
M106 S0
M106 S255
G1 X11.649 Y47.469 F100
M106 S0
M106 S255
G1 X11.567 Y47.636 F100
M106 S0
M106 S255
G1 X11.458 Y47.842 F100
M106 S0
M106 S255
G1 X11.39 Y47.963 F100
M106 S0
M106 S255
G1 X11.297 Y48.123 F100
M106 S0
M106 S255
G1 X11.2 Y48.28 F100
M106 S0
M106 S255
G1 X11.098 Y48.434 F100
M106 S0
M106 S255
G1 X10.993 Y48.584 F100
M106 S0
M106 S255
G1 X10.882 Y48.73 F100
M106 S0
M106 S255
G1 X10.707 Y48.938 F100
M106 S0
M106 S255
G1 X10.643 Y49.007 F100
M106 S0
M106 S255
G1 X10.516 Y49.139 F100
M106 S0
M106 S255
G1 X10.383 Y49.266 F100
M106 S0
M106 S255
G1 X10.247 Y49.39 F100
M106 S0
M106 S255
G1 X10.107 Y49.51 F100
M106 S0
M106 S255
G1 X9.961 Y49.632 F100
M106 S0
M106 S255
G1 X9.822 Y49.743 F100
M106 S0
M106 S255
G1 X9.678 Y49.857 F100
M106 S0
M106 S255
G1 X9.532 Y49.97 F100
M106 S0
M106 S255
G1 X9.386 Y50.081 F100
M106 S0
M106 S255
G1 X9.24 Y50.192 F100
M106 S0
M106 S255
G1 X9.093 Y50.302 F100
M106 S0
M106 S255
G1 X9.119 Y50.357 F100
M106 S0
M106 S255
G1 X9.144 Y50.412 F100
M106 S0
M106 S255
G1 X9.168 Y50.467 F100
M106 S0
M106 S255
G1 X9.192 Y50.523 F100
M106 S0
M106 S255
G1 X9.214 Y50.579 F100
M106 S0
M106 S255
G1 X9.235 Y50.636 F100
M106 S0
M106 S255
G1 X9.26 Y50.716 F100
M106 S0
M106 S255
G1 X9.27 Y50.751 F100
M106 S0
M106 S255
G1 X9.284 Y50.81 F100
M106 S0
M106 S255
G1 X9.296 Y50.87 F100
M106 S0
M106 S255
G1 X9.305 Y50.93 F100
M106 S0
M106 S255
G1 X9.311 Y50.99 F100
M106 S0
M106 S255
G1 X9.315 Y51.051 F100
M106 S0
M106 S255
G1 X9.315 Y51.119 F100
M106 S0
M106 S255
G1 X9.312 Y51.172 F100
M106 S0
M106 S255
G1 X9.306 Y51.232 F100
M106 S0
M106 S255
G1 X9.298 Y51.292 F100
M106 S0
M106 S255
G1 X9.286 Y51.352 F100
M106 S0
M106 S255
G1 X9.272 Y51.411 F100
M106 S0
M106 S255
G1 X9.256 Y51.469 F100
M106 S0
M106 S255
G1 X9.237 Y51.527 F100
M106 S0
M106 S255
G1 X9.215 Y51.585 F100
M106 S0
M106 S255
G1 X9.192 Y51.641 F100
M106 S0
M106 S255
G1 X9.166 Y51.697 F100
M106 S0
M106 S255
G1 X9.149 Y51.732 F100
M106 S0
M106 S255
G1 X9.11 Y51.805 F100
M106 S0
M106 S255
G1 X9.079 Y51.857 F100
M106 S0
M106 S255
G1 X9.046 Y51.908 F100
M106 S0
M106 S255
G1 X9.011 Y51.957 F100
M106 S0
M106 S255
G1 X8.975 Y52.006 F100
M106 S0
M106 S255
G1 X8.936 Y52.052 F100
M106 S0
M106 S255
G1 X8.879 Y52.115 F100
M106 S0
M106 S255
G1 X8.854 Y52.141 F100
M106 S0
M106 S255
G1 X8.81 Y52.182 F100
M106 S0
M106 S255
G1 X8.765 Y52.222 F100
M106 S0
M106 S255
G1 X8.718 Y52.26 F100
M106 S0
M106 S255
G1 X8.669 Y52.297 F100
M106 S0
M106 S255
G1 X8.62 Y52.332 F100
M106 S0
M106 S255
G1 X8.576 Y52.361 F100
M106 S0
M106 S255
G1 X8.518 Y52.397 F100
M106 S0
M106 S255
G1 X8.465 Y52.427 F100
M106 S0
M106 S255
G1 X8.412 Y52.455 F100
M106 S0
M106 S255
G1 X8.357 Y52.481 F100
M106 S0
M106 S255
G1 X8.301 Y52.504 F100
M106 S0
M106 S255
G1 X8.254 Y52.522 F100
M106 S0
M106 S255
G1 X8.186 Y52.543 F100
M106 S0
M106 S255
G1 X8.128 Y52.558 F100
M106 S0
M106 S255
G1 X8.068 Y52.569 F100
M106 S0
M106 S255
G1 X8.008 Y52.578 F100
M106 S0
M106 S255
G1 X7.955 Y52.582 F100
M106 S0
M106 S255
G1 X7.888 Y52.584 F100
M106 S0
M106 S255
G1 X7.827 Y52.584 F100
M106 S0
M106 S255
G1 X7.767 Y52.582 F100
M106 S0
M106 S255
G1 X7.706 Y52.584 F100
M106 S0
M106 S255
G1 X7.646 Y52.584 F100
M106 S0
M106 S255
G1 X7.579 Y52.582 F100
M106 S0
M106 S255
G1 X7.525 Y52.578 F100
M106 S0
M106 S255
G1 X7.465 Y52.569 F100
M106 S0
M106 S255
G1 X7.406 Y52.558 F100
M106 S0
M106 S255
G1 X7.347 Y52.543 F100
M106 S0
M106 S255
G1 X7.28 Y52.522 F100
M106 S0
M106 S255
G1 X7.232 Y52.504 F100
M106 S0
M106 S255
G1 X7.177 Y52.481 F100
M106 S0
M106 S255
G1 X7.122 Y52.455 F100
M106 S0
M106 S255
G1 X7.068 Y52.427 F100
M106 S0
M106 S255
G1 X7.016 Y52.397 F100
M106 S0
M106 S255
G1 X6.957 Y52.361 F100
M106 S0
M106 S255
G1 X6.914 Y52.332 F100
M106 S0
M106 S255
G1 X6.864 Y52.297 F100
M106 S0
M106 S255
G1 X6.816 Y52.26 F100
M106 S0
M106 S255
G1 X6.769 Y52.222 F100
M106 S0
M106 S255
G1 X6.723 Y52.182 F100
M106 S0
M106 S255
G1 X6.68 Y52.141 F100
M106 S0
M106 S255
G1 X6.655 Y52.115 F100
M106 S0
M106 S255
G1 X6.597 Y52.052 F100
M106 S0
M106 S255
G1 X6.559 Y52.006 F100
M106 S0
M106 S255
G1 X6.522 Y51.957 F100
M106 S0
M106 S255
G1 X6.488 Y51.908 F100
M106 S0
M106 S255
G1 X6.455 Y51.857 F100
M106 S0
M106 S255
G1 X6.424 Y51.805 F100
M106 S0
M106 S255
G1 X6.385 Y51.732 F100
M106 S0
M106 S255
G1 X6.367 Y51.697 F100
M106 S0
M106 S255
G1 X6.342 Y51.641 F100
M106 S0
M106 S255
G1 X6.318 Y51.585 F100
M106 S0
M106 S255
G1 X6.297 Y51.527 F100
M106 S0
M106 S255
G1 X6.278 Y51.469 F100
M106 S0
M106 S255
G1 X6.261 Y51.411 F100
M106 S0
M106 S255
G1 X6.247 Y51.352 F100
M106 S0
M106 S255
G1 X6.236 Y51.292 F100
M106 S0
M106 S255
G1 X6.227 Y51.232 F100
M106 S0
M106 S255
G1 X6.221 Y51.172 F100
M106 S0
M106 S255
G1 X6.219 Y51.119 F100
M106 S0
M106 S255
G1 X6.219 Y51.051 F100
M106 S0
M106 S255
G1 X6.222 Y50.99 F100
M106 S0
M106 S255
G1 X6.229 Y50.93 F100
M106 S0
M106 S255
G1 X6.238 Y50.87 F100
M106 S0
M106 S255
G1 X6.249 Y50.81 F100
M106 S0
M106 S255
G1 X6.264 Y50.751 F100
M106 S0
M106 S255
G1 X6.273 Y50.716 F100
M106 S0
M106 S255
G1 X6.299 Y50.636 F100
M106 S0
M106 S255
G1 X6.32 Y50.579 F100
M106 S0
M106 S255
G1 X6.342 Y50.523 F100
M106 S0
M106 S255
G1 X6.365 Y50.467 F100
M106 S0
M106 S255
G1 X6.39 Y50.412 F100
M106 S0
M106 S255
G1 X6.415 Y50.357 F100
M106 S0
M106 S255
G1 X6.44 Y50.302 F100
M106 S0
G0 X8.014 Y14.138 F6000
M106 S255
G1 X8.014 Y14.138 F100
M106 S0
M106 S255
G1 X8.134 Y14.138 F100
M106 S0
M106 S255
G1 X8.141 Y14.206 F100
M106 S0
M106 S255
G1 X8.148 Y14.274 F100
M106 S0
M106 S255
G1 X8.155 Y14.341 F100
M106 S0
M106 S255
G1 X8.163 Y14.409 F100
M106 S0
M106 S255
G1 X8.171 Y14.476 F100
M106 S0
M106 S255
G1 X8.183 Y14.569 F100
M106 S0
M106 S255
G1 X8.189 Y14.611 F100
M106 S0
M106 S255
G1 X8.199 Y14.679 F100
M106 S0
M106 S255
G1 X8.209 Y14.746 F100
M106 S0
M106 S255
G1 X8.219 Y14.813 F100
M106 S0
M106 S255
G1 X8.229 Y14.881 F100
M106 S0
M106 S255
G1 X8.238 Y14.948 F100
M106 S0
M106 S255
G1 X8.246 Y15.016 F100
M106 S0
M106 S255
G1 X8.253 Y15.083 F100
M106 S0
M106 S255
G1 X8.258 Y15.138 F100
M106 S0
M106 S255
G1 X8.262 Y15.219 F100
M106 S0
M106 S255
G1 X8.264 Y15.287 F100
M106 S0
M106 S255
G1 X8.265 Y15.355 F100
M106 S0
M106 S255
G1 X8.265 Y15.423 F100
M106 S0
M106 S255
G1 X8.264 Y15.491 F100
M106 S0
M106 S255
G1 X8.262 Y15.559 F100
M106 S0
M106 S255
G1 X8.26 Y15.627 F100
M106 S0
M106 S255
G1 X8.258 Y15.695 F100
M106 S0
M106 S255
G1 X8.431 Y15.734 F100
M106 S0
M106 S255
G1 X8.522 Y15.737 F100
M106 S0
M106 S255
G1 X8.759 Y15.647 F100
M106 S0
M106 S255
G1 X8.862 Y15.572 F100
M106 S0
M106 S255
G1 X9.032 Y15.416 F100
M106 S0
M106 S255
G1 X9.147 Y15.286 F100
M106 S0
M106 S255
G1 X9.292 Y15.092 F100
M106 S0
M106 S255
G1 X9.351 Y15.005 F100
M106 S0
M106 S255
G1 X9.445 Y14.858 F100
M106 S0
M106 S255
G1 X9.534 Y14.708 F100
M106 S0
M106 S255
G1 X9.62 Y14.556 F100
M106 S0
M106 S255
G1 X9.666 Y14.469 F100
M106 S0
M106 S255
G1 X9.778 Y14.245 F100
M106 S0
M106 S255
G1 X9.831 Y14.125 F100
M106 S0
M106 S255
G1 X9.91 Y13.92 F100
M106 S0
M106 S255
G1 X9.972 Y13.757 F100
M106 S0
M106 S255
G1 X10.04 Y13.596 F100
M106 S0
M106 S255
G1 X10.093 Y13.489 F100
M106 S0
M106 S255
G1 X10.212 Y13.299 F100
M106 S0
M106 S255
G1 X10.318 Y13.162 F100
M106 S0
M106 S255
G1 X10.434 Y13.031 F100
M106 S0
M106 S255
G1 X10.556 Y12.905 F100
M106 S0
M106 S255
G1 X10.682 Y12.78 F100
M106 S0
M106 S255
G1 X10.81 Y12.657 F100
M106 S0
M106 S255
G1 X10.897 Y12.571 F100
M106 S0
M106 S255
G1 X11.059 Y12.406 F100
M106 S0
M106 S255
G1 X11.178 Y12.277 F100
M106 S0
M106 S255
G1 X11.295 Y12.147 F100
M106 S0
M106 S255
G1 X11.408 Y12.014 F100
M106 S0
M106 S255
G1 X11.519 Y11.88 F100
M106 S0
M106 S255
G1 X11.628 Y11.744 F100
M106 S0
M106 S255
G1 X11.735 Y11.607 F100
M106 S0
M106 S255
G1 X11.84 Y11.468 F100
M106 S0
M106 S255
G1 X11.943 Y11.328 F100
M106 S0
M106 S255
G1 X12.078 Y11.139 F100
M106 S0
M106 S255
G1 X12.145 Y11.044 F100
M106 S0
M106 S255
G1 X12.244 Y10.9 F100
M106 S0
M106 S255
G1 X12.341 Y10.755 F100
M106 S0
M106 S255
G1 X12.436 Y10.608 F100
M106 S0
M106 S255
G1 X12.528 Y10.46 F100
M106 S0
M106 S255
G1 X12.617 Y10.31 F100
M106 S0
M106 S255
G1 X12.727 Y10.114 F100
M106 S0
M106 S255
G1 X12.785 Y10.005 F100
M106 S0
M106 S255
G1 X12.863 Y9.849 F100
M106 S0
M106 S255
G1 X12.938 Y9.692 F100
M106 S0
M106 S255
G1 X13.01 Y9.533 F100
M106 S0
M106 S255
G1 X13.079 Y9.373 F100
M106 S0
M106 S255
G1 X13.145 Y9.212 F100
M106 S0
M106 S255
G1 X13.209 Y9.049 F100
M106 S0
M106 S255
G1 X13.27 Y8.886 F100
M106 S0
M106 S255
G1 X13.331 Y8.721 F100
M106 S0
M106 S255
G1 X13.389 Y8.556 F100
M106 S0
M106 S255
G1 X13.443 Y8.4 F100
M106 S0
M106 S255
G1 X13.503 Y8.223 F100
M106 S0
M106 S255
G1 X13.558 Y8.057 F100
M106 S0
M106 S255
G1 X13.611 Y7.889 F100
M106 S0
M106 S255
G1 X13.661 Y7.721 F100
M106 S0
M106 S255
G1 X13.707 Y7.552 F100
M106 S0
M106 S255
G1 X13.749 Y7.383 F100
M106 S0
M106 S255
G1 X13.787 Y7.213 F100
M106 S0
M106 S255
G1 X13.818 Y7.042 F100
M106 S0
M106 S255
G1 X13.849 Y6.83 F100
M106 S0
M106 S255
G1 X13.863 Y6.698 F100
M106 S0
M106 S255
G1 X13.875 Y6.525 F100
M106 S0
M106 S255
G1 X13.882 Y6.352 F100
M106 S0
M106 S255
G1 X13.885 Y6.178 F100
M106 S0
M106 S255
G1 X13.883 Y6.003 F100
M106 S0
M106 S255
G1 X13.879 Y5.828 F100
M106 S0
M106 S255
G1 X13.873 Y5.653 F100
M106 S0
M106 S255
G1 X13.866 Y5.478 F100
M106 S0
M106 S255
G1 X13.858 Y5.303 F100
M106 S0
M106 S255
G1 X13.849 Y5.057 F100
M106 S0
M106 S255
G1 X13.846 Y4.952 F100
M106 S0
M106 S255
G1 X13.842 Y4.777 F100
M106 S0
M106 S255
G1 X13.839 Y4.603 F100
M106 S0
M106 S255
G1 X13.835 Y4.428 F100
M106 S0
M106 S255
G1 X13.831 Y4.254 F100
M106 S0
M106 S255
G1 X13.826 Y4.08 F100
M106 S0
M106 S255
G1 X13.819 Y3.906 F100
M106 S0
M106 S255
G1 X13.803 Y3.649 F100
M106 S0
M106 S255
G1 X13.795 Y3.559 F100
M106 S0
M106 S255
G1 X13.779 Y3.385 F100
M106 S0
M106 S255
G1 X13.758 Y3.212 F100
M106 S0
M106 S255
G1 X13.736 Y3.04 F100
M106 S0
M106 S255
G1 X13.711 Y2.867 F100
M106 S0
M106 S255
G1 X13.684 Y2.694 F100
M106 S0
M106 S255
G1 X13.656 Y2.522 F100
M106 S0
M106 S255
G1 X13.627 Y2.349 F100
M106 S0
M106 S255
G1 X13.598 Y2.177 F100
M106 S0
M106 S255
G1 X5.301 Y2.177 F100
M106 S0
M106 S255
G1 X5.245 Y2.318 F100
M106 S0
M106 S255
G1 X5.191 Y2.459 F100
M106 S0
M106 S255
G1 X5.141 Y2.602 F100
M106 S0
M106 S255
G1 X5.097 Y2.745 F100
M106 S0
M106 S255
G1 X5.066 Y2.868 F100
M106 S0
M106 S255
G1 X5.034 Y3.038 F100
M106 S0
M106 S255
G1 X5.016 Y3.187 F100
M106 S0
M106 S255
G1 X5.005 Y3.338 F100
M106 S0
M106 S255
G1 X5.001 Y3.49 F100
M106 S0
M106 S255
G1 X5.003 Y3.661 F100
M106 S0
M106 S255
G1 X5.008 Y3.795 F100
M106 S0
M106 S255
G1 X5.019 Y3.947 F100
M106 S0
M106 S255
G1 X5.035 Y4.099 F100
M106 S0
M106 S255
G1 X5.056 Y4.25 F100
M106 S0
M106 S255
G1 X5.083 Y4.4 F100
M106 S0
M106 S255
G1 X5.116 Y4.547 F100
M106 S0
M106 S255
G1 X5.156 Y4.693 F100
M106 S0
M106 S255
G1 X5.202 Y4.835 F100
M106 S0
M106 S255
G1 X5.265 Y4.996 F100
M106 S0
M106 S255
G1 X5.317 Y5.11 F100
M106 S0
M106 S255
G1 X5.386 Y5.242 F100
M106 S0
M106 S255
G1 X5.461 Y5.371 F100
M106 S0
M106 S255
G1 X5.543 Y5.497 F100
M106 S0
M106 S255
G1 X5.63 Y5.619 F100
M106 S0
M106 S255
G1 X5.722 Y5.739 F100
M106 S0
M106 S255
G1 X5.819 Y5.856 F100
M106 S0
M106 S255
G1 X5.92 Y5.97 F100
M106 S0
M106 S255
G1 X6.024 Y6.082 F100
M106 S0
M106 S255
G1 X6.132 Y6.192 F100
M106 S0
M106 S255
G1 X6.242 Y6.3 F100
M106 S0
M106 S255
G1 X6.353 Y6.406 F100
M106 S0
M106 S255
G1 X6.466 Y6.511 F100
M106 S0
M106 S255
G1 X6.593 Y6.626 F100
M106 S0
M106 S255
G1 X6.695 Y6.716 F100
M106 S0
M106 S255
G1 X6.809 Y6.817 F100
M106 S0
M106 S255
G1 X6.923 Y6.918 F100
M106 S0
M106 S255
G1 X7.036 Y7.018 F100
M106 S0
M106 S255
G1 X7.148 Y7.119 F100
M106 S0
M106 S255
G1 X7.259 Y7.221 F100
M106 S0
M106 S255
G1 X7.368 Y7.323 F100
M106 S0
M106 S255
G1 X7.475 Y7.428 F100
M106 S0
M106 S255
G1 X7.58 Y7.534 F100
M106 S0
M106 S255
G1 X7.677 Y7.637 F100
M106 S0
M106 S255
G1 X7.781 Y7.754 F100
M106 S0
M106 S255
G1 X7.877 Y7.868 F100
M106 S0
M106 S255
G1 X7.971 Y7.985 F100
M106 S0
M106 S255
G1 X8.062 Y8.105 F100
M106 S0
M106 S255
G1 X8.15 Y8.229 F100
M106 S0
M106 S255
G1 X8.229 Y8.346 F100
M106 S0
M106 S255
G1 X8.315 Y8.489 F100
M106 S0
M106 S255
G1 X8.38 Y8.662 F100
M106 S0
M106 S255
G1 X8.389 Y8.775 F100
M106 S0
M106 S255
G1 X8.38 Y8.927 F100
M106 S0
M106 S255
G1 X8.304 Y8.879 F100
M106 S0
M106 S255
G1 X8.227 Y8.831 F100
M106 S0
M106 S255
G1 X8.151 Y8.783 F100
M106 S0
M106 S255
G1 X8.074 Y8.737 F100
M106 S0
M106 S255
G1 X7.996 Y8.693 F100
M106 S0
M106 S255
G1 X7.917 Y8.651 F100
M106 S0
M106 S255
G1 X7.819 Y8.602 F100
M106 S0
M106 S255
G1 X7.756 Y8.573 F100
M106 S0
M106 S255
G1 X7.673 Y8.538 F100
M106 S0
M106 S255
G1 X7.59 Y8.506 F100
M106 S0
M106 S255
G1 X7.506 Y8.474 F100
M106 S0
M106 S255
G1 X7.421 Y8.443 F100
M106 S0
M106 S255
G1 X7.324 Y8.409 F100
M106 S0
M106 S255
G1 X7.251 Y8.383 F100
M106 S0
M106 S255
G1 X7.165 Y8.357 F100
M106 S0
M106 S255
G1 X7.053 Y8.337 F100
M106 S0
M106 S255
G1 X6.986 Y8.334 F100
M106 S0
M106 S255
G1 X6.894 Y8.339 F100
M106 S0
M106 S255
G1 X6.801 Y8.348 F100
M106 S0
M106 S255
G1 X6.711 Y8.353 F100
M106 S0
M106 S255
G1 X6.624 Y8.349 F100
M106 S0
M106 S255
G1 X6.567 Y8.337 F100
M106 S0
M106 S255
G1 X6.466 Y8.289 F100
M106 S0
M106 S255
G1 X6.394 Y8.237 F100
M106 S0
M106 S255
G1 X6.324 Y8.177 F100
M106 S0
M106 S255
G1 X6.253 Y8.116 F100
M106 S0
M106 S255
G1 X6.18 Y8.058 F100
M106 S0
M106 S255
G1 X6.139 Y8.03 F100
M106 S0
M106 S255
G1 X6.022 Y7.973 F100
M106 S0
M106 S255
G1 X5.937 Y7.944 F100
M106 S0
M106 S255
G1 X5.85 Y7.919 F100
M106 S0
M106 S255
G1 X5.762 Y7.896 F100
M106 S0
M106 S255
G1 X5.676 Y7.872 F100
M106 S0
M106 S255
G1 X5.625 Y7.855 F100
M106 S0
M106 S255
G1 X5.511 Y7.806 F100
M106 S0
M106 S255
G1 X5.434 Y7.764 F100
M106 S0
M106 S255
G1 X5.358 Y7.716 F100
M106 S0
M106 S255
G1 X5.285 Y7.665 F100
M106 S0
M106 S255
G1 X5.214 Y7.609 F100
M106 S0
M106 S255
G1 X5.144 Y7.55 F100
M106 S0
M106 S255
G1 X5.075 Y7.489 F100
M106 S0
M106 S255
G1 X5.007 Y7.427 F100
M106 S0
M106 S255
G1 X4.948 Y7.371 F100
M106 S0
M106 S255
G1 X4.871 Y7.3 F100
M106 S0
M106 S255
G1 X4.802 Y7.238 F100
M106 S0
M106 S255
G1 X4.731 Y7.181 F100
M106 S0
M106 S255
G1 X4.658 Y7.13 F100
M106 S0
M106 S255
G1 X4.581 Y7.086 F100
M106 S0
M106 S255
G1 X4.511 Y7.056 F100
M106 S0
M106 S255
G1 X4.416 Y7.03 F100
M106 S0
M106 S255
G1 X4.327 Y7.018 F100
M106 S0
M106 S255
G1 X4.236 Y7.016 F100
M106 S0
M106 S255
G1 X4.144 Y7.022 F100
M106 S0
M106 S255
G1 X4.052 Y7.035 F100
M106 S0
M106 S255
G1 X3.957 Y7.056 F100
M106 S0
M106 S255
G1 X3.872 Y7.08 F100
M106 S0
M106 S255
G1 X3.785 Y7.111 F100
M106 S0
M106 S255
G1 X3.701 Y7.146 F100
M106 S0
M106 S255
G1 X3.62 Y7.187 F100
M106 S0
M106 S255
G1 X3.541 Y7.232 F100
M106 S0
M106 S255
G1 X3.465 Y7.281 F100
M106 S0
M106 S255
G1 X3.393 Y7.335 F100
M106 S0
M106 S255
G1 X3.324 Y7.393 F100
M106 S0
M106 S255
G1 X3.243 Y7.471 F100
M106 S0
M106 S255
G1 X3.197 Y7.521 F100
M106 S0
M106 S255
G1 X3.139 Y7.59 F100
M106 S0
M106 S255
G1 X3.086 Y7.662 F100
M106 S0
M106 S255
G1 X3.036 Y7.738 F100
M106 S0
M106 S255
G1 X2.981 Y7.835 F100
M106 S0
M106 S255
G1 X2.95 Y7.895 F100
M106 S0
M106 S255
G1 X2.913 Y7.976 F100
M106 S0
M106 S255
G1 X2.879 Y8.059 F100
M106 S0
M106 S255
G1 X2.846 Y8.142 F100
M106 S0
M106 S255
G1 X2.814 Y8.227 F100
M106 S0
M106 S255
G1 X2.796 Y8.273 F100
M106 S0
M106 S255
G1 X2.748 Y8.397 F100
M106 S0
M106 S255
G1 X2.715 Y8.482 F100
M106 S0
M106 S255
G1 X2.685 Y8.568 F100
M106 S0
M106 S255
G1 X2.658 Y8.655 F100
M106 S0
M106 S255
G1 X2.636 Y8.742 F100
M106 S0
M106 S255
G1 X2.62 Y8.829 F100
M106 S0
M106 S255
G1 X2.611 Y8.953 F100
M106 S0
M106 S255
G1 X2.613 Y9.007 F100
M106 S0
M106 S255
G1 X2.623 Y9.096 F100
M106 S0
M106 S255
G1 X2.641 Y9.185 F100
M106 S0
M106 S255
G1 X2.667 Y9.273 F100
M106 S0
M106 S255
G1 X2.701 Y9.358 F100
M106 S0
M106 S255
G1 X2.741 Y9.441 F100
M106 S0
M106 S255
G1 X2.808 Y9.552 F100
M106 S0
M106 S255
G1 X2.838 Y9.595 F100
M106 S0
M106 S255
G1 X2.894 Y9.665 F100
M106 S0
M106 S255
G1 X2.954 Y9.732 F100
M106 S0
M106 S255
G1 X3.018 Y9.795 F100
M106 S0
M106 S255
G1 X3.085 Y9.855 F100
M106 S0
M106 S255
G1 X3.155 Y9.912 F100
M106 S0
M106 S255
G1 X3.226 Y9.968 F100
M106 S0
M106 S255
G1 X3.299 Y10.022 F100
M106 S0
M106 S255
G1 X3.35 Y10.059 F100
M106 S0
M106 S255
G1 X3.445 Y10.129 F100
M106 S0
M106 S255
G1 X3.516 Y10.185 F100
M106 S0
M106 S255
G1 X3.592 Y10.255 F100
M106 S0
M106 S255
G1 X3.641 Y10.311 F100
M106 S0
M106 S255
G1 X3.694 Y10.382 F100
M106 S0
M106 S255
G1 X3.744 Y10.457 F100
M106 S0
M106 S255
G1 X3.793 Y10.533 F100
M106 S0
M106 S255
G1 X3.838 Y10.602 F100
M106 S0
M106 S255
G1 X3.896 Y10.683 F100
M106 S0
M106 S255
G1 X3.951 Y10.754 F100
M106 S0
M106 S255
G1 X4.008 Y10.824 F100
M106 S0
M106 S255
G1 X4.067 Y10.892 F100
M106 S0
M106 S255
G1 X4.128 Y10.959 F100
M106 S0
M106 S255
G1 X4.189 Y11.025 F100
M106 S0
M106 S255
G1 X4.251 Y11.09 F100
M106 S0
M106 S255
G1 X4.313 Y11.155 F100
M106 S0
M106 S255
G1 X4.375 Y11.22 F100
M106 S0
M106 S255
G1 X4.436 Y11.285 F100
M106 S0
M106 S255
G1 X4.496 Y11.351 F100
M106 S0
M106 S255
G1 X4.53 Y11.389 F100
M106 S0
M106 S255
G1 X4.612 Y11.484 F100
M106 S0
M106 S255
G1 X4.669 Y11.55 F100
M106 S0
M106 S255
G1 X4.726 Y11.617 F100
M106 S0
M106 S255
G1 X4.786 Y11.683 F100
M106 S0
M106 S255
G1 X4.849 Y11.747 F100
M106 S0
M106 S255
G1 X4.916 Y11.81 F100
M106 S0
M106 S255
G1 X5.014 Y11.891 F100
M106 S0
M106 S255
G1 X5.065 Y11.928 F100
M106 S0
M106 S255
G1 X5.147 Y11.984 F100
M106 S0
M106 S255
G1 X5.227 Y12.04 F100
M106 S0
M106 S255
G1 X5.301 Y12.098 F100
M106 S0
M106 S255
G1 X5.365 Y12.16 F100
M106 S0
M106 S255
G1 X5.415 Y12.228 F100
M106 S0
M106 S255
G1 X5.444 Y12.303 F100
M106 S0
M106 S255
G1 X5.452 Y12.389 F100
M106 S0
M106 S255
G1 X5.448 Y12.479 F100
M106 S0
M106 S255
G1 X5.442 Y12.572 F100
M106 S0
M106 S255
G1 X5.444 Y12.64 F100
M106 S0
M106 S255
G1 X5.468 Y12.75 F100
M106 S0
M106 S255
G1 X5.503 Y12.833 F100
M106 S0
M106 S255
G1 X5.547 Y12.913 F100
M106 S0
M106 S255
G1 X5.581 Y12.968 F100
M106 S0
M106 S255
G1 X5.647 Y13.066 F100
M106 S0
M106 S255
G1 X5.701 Y13.139 F100
M106 S0
M106 S255
G1 X5.757 Y13.209 F100
M106 S0
M106 S255
G1 X5.816 Y13.277 F100
M106 S0
M106 S255
G1 X5.877 Y13.343 F100
M106 S0
M106 S255
G1 X5.941 Y13.406 F100
M106 S0
M106 S255
G1 X6.008 Y13.465 F100
M106 S0
M106 S255
G1 X6.076 Y13.521 F100
M106 S0
M106 S255
G1 X6.151 Y13.576 F100
M106 S0
M106 S255
G1 X6.226 Y13.626 F100
M106 S0
M106 S255
G1 X6.305 Y13.669 F100
M106 S0
M106 S255
G1 X6.417 Y13.716 F100
M106 S0
M106 S255
G1 X6.472 Y13.733 F100
M106 S0
M106 S255
G1 X6.56 Y13.754 F100
M106 S0
M106 S255
G1 X6.648 Y13.771 F100
M106 S0
M106 S255
G1 X6.644 Y13.833 F100
M106 S0
M106 S255
G1 X6.64 Y13.896 F100
M106 S0
M106 S255
G1 X6.636 Y13.959 F100
M106 S0
M106 S255
G1 X6.631 Y14.022 F100
M106 S0
M106 S255
G1 X6.627 Y14.085 F100
M106 S0
M106 S255
G1 X6.623 Y14.148 F100
M106 S0
M106 S255
G1 X6.619 Y14.211 F100
M106 S0
M106 S255
G1 X6.615 Y14.281 F100
M106 S0
M106 S255
G1 X6.611 Y14.337 F100
M106 S0
M106 S255
G1 X6.607 Y14.4 F100
M106 S0
M106 S255
G1 X6.602 Y14.464 F100
M106 S0
M106 S255
G1 X6.596 Y14.527 F100
M106 S0
M106 S255
G1 X6.59 Y14.59 F100
M106 S0
M106 S255
G1 X6.583 Y14.653 F100
M106 S0
M106 S255
G1 X6.574 Y14.715 F100
M106 S0
M106 S255
G1 X6.563 Y14.777 F100
M106 S0
M106 S255
G1 X6.551 Y14.839 F100
M106 S0
M106 S255
G1 X6.536 Y14.9 F100
M106 S0
M106 S255
G1 X6.514 Y14.976 F100
M106 S0
M106 S255
G1 X6.5 Y15.02 F100
M106 S0
M106 S255
G1 X6.478 Y15.079 F100
M106 S0
M106 S255
G1 X6.455 Y15.138 F100
M106 S0
M106 S255
G1 X6.431 Y15.197 F100
M106 S0
M106 S255
G1 X6.487 Y15.215 F100
M106 S0
M106 S255
G1 X6.544 Y15.234 F100
M106 S0
M106 S255
G1 X6.594 Y15.251 F100
M106 S0
M106 S255
G1 X6.659 Y15.272 F100
M106 S0
M106 S255
G1 X6.717 Y15.286 F100
M106 S0
M106 S255
G1 X6.786 Y15.294 F100
M106 S0
M106 S255
G1 X6.833 Y15.29 F100
M106 S0
M106 S255
G1 X6.889 Y15.277 F100
M106 S0
M106 S255
G1 X6.945 Y15.255 F100
M106 S0
M106 S255
G1 X6.999 Y15.226 F100
M106 S0
M106 S255
G1 X7.051 Y15.192 F100
M106 S0
M106 S255
G1 X7.124 Y15.14 F100
M106 S0
M106 S255
G1 X7.152 Y15.118 F100
M106 S0
M106 S255
G1 X7.2 Y15.079 F100
M106 S0
M106 S255
G1 X7.246 Y15.04 F100
M106 S0
M106 S255
G1 X7.291 Y15.0 F100
M106 S0
M106 S255
G1 X7.335 Y14.96 F100
M106 S0
M106 S255
G1 X7.378 Y14.919 F100
M106 S0
M106 S255
G1 X7.419 Y14.878 F100
M106 S0
M106 S255
G1 X7.46 Y14.836 F100
M106 S0
M106 S255
G1 X7.5 Y14.793 F100
M106 S0
M106 S255
G1 X7.528 Y14.762 F100
M106 S0
M106 S255
G1 X7.578 Y14.705 F100
M106 S0
M106 S255
G1 X7.616 Y14.66 F100
M106 S0
M106 S255
G1 X7.653 Y14.615 F100
M106 S0
M106 S255
G1 X7.691 Y14.569 F100
M106 S0
M106 S255
G1 X7.728 Y14.522 F100
M106 S0
M106 S255
G1 X7.764 Y14.475 F100
M106 S0
M106 S255
G1 X7.8 Y14.428 F100
M106 S0
M106 S255
G1 X7.837 Y14.38 F100
M106 S0
M106 S255
G1 X7.872 Y14.332 F100
M106 S0
M106 S255
G1 X7.908 Y14.284 F100
M106 S0
M106 S255
G1 X7.944 Y14.235 F100
M106 S0
M106 S255
G1 X7.979 Y14.187 F100
M106 S0
M106 S255
G1 X8.014 Y14.138 F100
M106 S0
M106 S0
